(VECTRIC POST REVISION)
(AE8C5706166A14C0DE23454C54EBD95B)
%
G21
G40
G94
G97
G64
G90
T1 M6
M8
M3 S10000
G0 X3.000 Y-2.000
G0 Z5.080
G1 X3.000 Y-2.000 Z0.000 F635.0
G1 X2.822 Y-1.997 Z-0.002
G1 X2.642 Y-1.987 Z-0.004
G1 X2.459 Y-1.971 Z-0.006
G1 X2.275 Y-1.947 Z-0.008
G1 X2.090 Y-1.917 Z-0.010
G1 X1.904 Y-1.878 Z-0.012
G1 X1.718 Y-1.833 Z-0.014
G1 X1.531 Y-1.779 Z-0.016
G1 X1.345 Y-1.718 Z-0.018
G1 X1.160 Y-1.649 Z-0.020
G1 X0.976 Y-1.572 Z-0.022
G1 X0.794 Y-1.487 Z-0.024
G1 X0.614 Y-1.394 Z-0.026
G1 X0.437 Y-1.293 Z-0.027
G1 X0.264 Y-1.185 Z-0.029
G1 X0.094 Y-1.069 Z-0.031
G1 X-0.071 Y-0.946 Z-0.033
G1 X-0.231 Y-0.816 Z-0.035
G1 X-0.386 Y-0.679 Z-0.037
G1 X-0.536 Y-0.536 Z-0.039
G1 X-0.679 Y-0.386 Z-0.041
G1 X-0.816 Y-0.231 Z-0.043
G1 X-0.946 Y-0.071 Z-0.045
G1 X-1.069 Y0.094 Z-0.047
G1 X-1.185 Y0.264 Z-0.049
G1 X-1.293 Y0.437 Z-0.051
G1 X-1.394 Y0.614 Z-0.053
G1 X-1.487 Y0.794 Z-0.055
G1 X-1.572 Y0.976 Z-0.057
G1 X-1.649 Y1.160 Z-0.059
G1 X-1.718 Y1.345 Z-0.061
G1 X-1.779 Y1.531 Z-0.063
G1 X-1.833 Y1.718 Z-0.065
G1 X-1.878 Y1.904 Z-0.067
G1 X-1.917 Y2.090 Z-0.069
G1 X-1.947 Y2.275 Z-0.071
G1 X-1.971 Y2.459 Z-0.073
G1 X-1.987 Y2.642 Z-0.075
G1 X-1.997 Y2.822 Z-0.077
G1 X-2.000 Y3.000 Z-0.079
G1 X-2.000 Y8.066 Z-0.129
G1 X-2.000 Y17.730 Z-0.226
G1 X-2.000 Y30.650 Z-0.355
G1 X-2.000 Y32.000 Z-0.369
G1 X-1.997 Y32.178 Z-0.371
G1 X-1.987 Y32.358 Z-0.372
G1 X-1.971 Y32.541 Z-0.374
G1 X-1.947 Y32.725 Z-0.376
G1 X-1.917 Y32.910 Z-0.378
G1 X-1.878 Y33.096 Z-0.380
G1 X-1.833 Y33.282 Z-0.382
G1 X-1.779 Y33.469 Z-0.384
G1 X-1.718 Y33.655 Z-0.386
G1 X-1.649 Y33.840 Z-0.388
G1 X-1.572 Y34.024 Z-0.390
G1 X-1.487 Y34.206 Z-0.392
G1 X-1.394 Y34.386 Z-0.394
G1 X-1.293 Y34.563 Z-0.396
G1 X-1.185 Y34.736 Z-0.398
G1 X-1.069 Y34.906 Z-0.400
G1 X-0.946 Y35.071 Z-0.402
G1 X-0.816 Y35.231 Z-0.404
G1 X-0.679 Y35.386 Z-0.406
G1 X-0.536 Y35.536 Z-0.408
G1 X-0.386 Y35.679 Z-0.410
G1 X-0.231 Y35.816 Z-0.412
G1 X-0.071 Y35.946 Z-0.414
G1 X0.094 Y36.069 Z-0.416
G1 X0.264 Y36.185 Z-0.418
G1 X0.437 Y36.293 Z-0.420
G1 X0.614 Y36.394 Z-0.422
G1 X0.794 Y36.487 Z-0.424
G1 X0.976 Y36.572 Z-0.425
G1 X1.160 Y36.649 Z-0.427
G1 X1.345 Y36.718 Z-0.429
G1 X1.531 Y36.779 Z-0.431
G1 X1.718 Y36.833 Z-0.433
G1 X1.904 Y36.878 Z-0.435
G1 X2.090 Y36.917 Z-0.437
G1 X2.275 Y36.947 Z-0.439
G1 X2.459 Y36.971 Z-0.441
G1 X2.642 Y36.987 Z-0.443
G1 X2.822 Y36.997 Z-0.445
G1 X3.000 Y37.000 Z-0.447
G1 X3.460 Y37.000 Z-0.452
G1 X26.044 Y37.000 Z-0.678
G1 X40.742 Y37.000 Z-0.825
G1 X48.628 Y37.000 Z-0.903
G1 X56.742 Y37.000 Z-0.985
G1 X58.292 Y37.000 Z-1.000
G1 X71.212 Y37.000 Z-1.000 F2000.0
G1 X80.876 Y37.000 Z-1.000
G1 X93.796 Y37.000 Z-1.000
G1 X97.000 Y37.000 Z-1.000
G1 X97.183 Y36.997 Z-1.000
G1 X97.369 Y36.986 Z-1.000
G1 X97.556 Y36.969 Z-1.000
G1 X97.744 Y36.944 Z-1.000
G1 X97.933 Y36.912 Z-1.000
G1 X98.122 Y36.873 Z-1.000
G1 X98.311 Y36.825 Z-1.000
G1 X98.499 Y36.770 Z-1.000
G1 X98.686 Y36.707 Z-1.000
G1 X98.872 Y36.636 Z-1.000
G1 X99.056 Y36.558 Z-1.000
G1 X99.237 Y36.471 Z-1.000
G1 X99.416 Y36.378 Z-1.000
G1 X99.591 Y36.276 Z-1.000
G1 X99.762 Y36.168 Z-1.000
G1 X99.928 Y36.053 Z-1.000
G1 X100.090 Y35.931 Z-1.000
G1 X100.247 Y35.802 Z-1.000
G1 X100.399 Y35.667 Z-1.000
G1 X100.544 Y35.527 Z-1.000
G1 X100.683 Y35.381 Z-1.000
G1 X100.816 Y35.231 Z-1.000
G1 X100.942 Y35.076 Z-1.000
G1 X101.061 Y34.917 Z-1.000
G1 X101.173 Y34.754 Z-1.000
G1 X101.278 Y34.588 Z-1.000
G1 X101.376 Y34.419 Z-1.000
G1 X101.466 Y34.248 Z-1.000
G1 X101.549 Y34.076 Z-1.000
G1 X101.624 Y33.902 Z-1.000
G1 X101.692 Y33.727 Z-1.000
G1 X101.753 Y33.551 Z-1.000
G1 X101.807 Y33.376 Z-1.000
G1 X101.858 Y33.184 Z-1.000
G1 X101.901 Y32.989 Z-1.000
G1 X101.937 Y32.793 Z-1.000
G1 X101.964 Y32.596 Z-1.000
G1 X101.984 Y32.397 Z-1.000
G1 X101.996 Y32.199 Z-1.000
G1 X102.000 Y32.000 Z-1.000
G1 X102.000 Y10.810 Z-1.000
G1 X102.000 Y3.000 Z-1.000
G1 X101.997 Y2.822 Z-1.000
G1 X101.987 Y2.642 Z-1.000
G1 X101.971 Y2.459 Z-1.000
G1 X101.947 Y2.275 Z-1.000
G1 X101.917 Y2.090 Z-1.000
G1 X101.878 Y1.904 Z-1.000
G1 X101.833 Y1.718 Z-1.000
G1 X101.779 Y1.531 Z-1.000
G1 X101.718 Y1.345 Z-1.000
G1 X101.649 Y1.160 Z-1.000
G1 X101.572 Y0.976 Z-1.000
G1 X101.487 Y0.794 Z-1.000
G1 X101.394 Y0.614 Z-1.000
G1 X101.293 Y0.437 Z-1.000
G1 X101.185 Y0.264 Z-1.000
G1 X101.069 Y0.094 Z-1.000
G1 X100.946 Y-0.071 Z-1.000
G1 X100.816 Y-0.231 Z-1.000
G1 X100.679 Y-0.386 Z-1.000
G1 X100.536 Y-0.536 Z-1.000
G1 X100.386 Y-0.679 Z-1.000
G1 X100.231 Y-0.816 Z-1.000
G1 X100.071 Y-0.946 Z-1.000
G1 X99.906 Y-1.069 Z-1.000
G1 X99.736 Y-1.185 Z-1.000
G1 X99.563 Y-1.293 Z-1.000
G1 X99.386 Y-1.394 Z-1.000
G1 X99.206 Y-1.487 Z-1.000
G1 X99.024 Y-1.572 Z-1.000
G1 X98.840 Y-1.649 Z-1.000
G1 X98.655 Y-1.718 Z-1.000
G1 X98.469 Y-1.779 Z-1.000
G1 X98.282 Y-1.833 Z-1.000
G1 X98.096 Y-1.878 Z-1.000
G1 X97.910 Y-1.917 Z-1.000
G1 X97.725 Y-1.947 Z-1.000
G1 X97.541 Y-1.971 Z-1.000
G1 X97.358 Y-1.987 Z-1.000
G1 X97.178 Y-1.997 Z-1.000
G1 X97.000 Y-2.000 Z-1.000
G1 X90.080 Y-2.000 Z-1.000
G1 X80.416 Y-2.000 Z-1.000
G1 X67.496 Y-2.000 Z-1.000
G1 X59.258 Y-2.000 Z-1.000
G1 X57.832 Y-2.000 Z-1.000
G1 X44.912 Y-2.000 Z-1.000
G1 X43.258 Y-2.000 Z-1.000
G1 X35.248 Y-2.000 Z-1.000
G1 X12.664 Y-2.000 Z-1.000
G1 X3.000 Y-2.000 Z-1.000
G1 X2.822 Y-1.997 Z-1.000
G1 X2.642 Y-1.987 Z-1.000
G1 X2.459 Y-1.971 Z-1.000
G1 X2.275 Y-1.947 Z-1.000
G1 X2.090 Y-1.917 Z-1.000
G1 X1.904 Y-1.878 Z-1.000
G1 X1.718 Y-1.833 Z-1.000
G1 X1.531 Y-1.779 Z-1.000
G1 X1.345 Y-1.718 Z-1.000
G1 X1.160 Y-1.649 Z-1.000
G1 X0.976 Y-1.572 Z-1.000
G1 X0.794 Y-1.487 Z-1.000
G1 X0.614 Y-1.394 Z-1.000
G1 X0.437 Y-1.293 Z-1.000
G1 X0.264 Y-1.185 Z-1.000
G1 X0.094 Y-1.069 Z-1.000
G1 X-0.071 Y-0.946 Z-1.000
G1 X-0.231 Y-0.816 Z-1.000
G1 X-0.386 Y-0.679 Z-1.000
G1 X-0.536 Y-0.536 Z-1.000
G1 X-0.679 Y-0.386 Z-1.000
G1 X-0.816 Y-0.231 Z-1.000
G1 X-0.946 Y-0.071 Z-1.000
G1 X-1.069 Y0.094 Z-1.000
G1 X-1.185 Y0.264 Z-1.000
G1 X-1.293 Y0.437 Z-1.000
G1 X-1.394 Y0.614 Z-1.000
G1 X-1.487 Y0.794 Z-1.000
G1 X-1.572 Y0.976 Z-1.000
G1 X-1.649 Y1.160 Z-1.000
G1 X-1.718 Y1.345 Z-1.000
G1 X-1.779 Y1.531 Z-1.000
G1 X-1.833 Y1.718 Z-1.000
G1 X-1.878 Y1.904 Z-1.000
G1 X-1.917 Y2.090 Z-1.000
G1 X-1.947 Y2.275 Z-1.000
G1 X-1.971 Y2.459 Z-1.000
G1 X-1.987 Y2.642 Z-1.000
G1 X-1.997 Y2.822 Z-1.000
G1 X-2.000 Y3.000 Z-1.000
G1 X-2.000 Y8.066 Z-1.000
G1 X-2.000 Y17.730 Z-1.000
G1 X-2.000 Y30.650 Z-1.000
G1 X-2.000 Y32.000 Z-1.000
G1 X-1.997 Y32.178 Z-1.000
G1 X-1.987 Y32.358 Z-1.000
G1 X-1.971 Y32.541 Z-1.000
G1 X-1.947 Y32.725 Z-1.000
G1 X-1.917 Y32.910 Z-1.000
G1 X-1.878 Y33.096 Z-1.000
G1 X-1.833 Y33.282 Z-1.000
G1 X-1.779 Y33.469 Z-1.000
G1 X-1.718 Y33.655 Z-1.000
G1 X-1.649 Y33.840 Z-1.000
G1 X-1.572 Y34.024 Z-1.000
G1 X-1.487 Y34.206 Z-1.000
G1 X-1.394 Y34.386 Z-1.000
G1 X-1.293 Y34.563 Z-1.000
G1 X-1.185 Y34.736 Z-1.000
G1 X-1.069 Y34.906 Z-1.000
G1 X-0.946 Y35.071 Z-1.000
G1 X-0.816 Y35.231 Z-1.000
G1 X-0.679 Y35.386 Z-1.000
G1 X-0.536 Y35.536 Z-1.000
G1 X-0.386 Y35.679 Z-1.000
G1 X-0.231 Y35.816 Z-1.000
G1 X-0.071 Y35.946 Z-1.000
G1 X0.094 Y36.069 Z-1.000
G1 X0.264 Y36.185 Z-1.000
G1 X0.437 Y36.293 Z-1.000
G1 X0.614 Y36.394 Z-1.000
G1 X0.794 Y36.487 Z-1.000
G1 X0.976 Y36.572 Z-1.000
G1 X1.160 Y36.649 Z-1.000
G1 X1.345 Y36.718 Z-1.000
G1 X1.531 Y36.779 Z-1.000
G1 X1.718 Y36.833 Z-1.000
G1 X1.904 Y36.878 Z-1.000
G1 X2.090 Y36.917 Z-1.000
G1 X2.275 Y36.947 Z-1.000
G1 X2.459 Y36.971 Z-1.000
G1 X2.642 Y36.987 Z-1.000
G1 X2.822 Y36.997 Z-1.000
G1 X3.000 Y37.000 Z-1.000
G1 X3.460 Y37.000 Z-1.000
G1 X26.044 Y37.000 Z-1.000
G1 X40.742 Y37.000 Z-1.000
G1 X48.628 Y37.000 Z-1.000
G1 X56.742 Y37.000 Z-1.000
G1 X58.292 Y37.000 Z-1.000
G1 X71.212 Y37.000 Z-1.129 F635.0
G1 X80.876 Y37.000 Z-1.226
G1 X93.796 Y37.000 Z-1.355
G1 X97.000 Y37.000 Z-1.387
G1 X97.183 Y36.997 Z-1.389
G1 X97.369 Y36.986 Z-1.391
G1 X97.556 Y36.969 Z-1.393
G1 X97.744 Y36.944 Z-1.395
G1 X97.933 Y36.912 Z-1.397
G1 X98.122 Y36.873 Z-1.399
G1 X98.311 Y36.825 Z-1.401
G1 X98.499 Y36.770 Z-1.403
G1 X98.686 Y36.707 Z-1.405
G1 X98.872 Y36.636 Z-1.407
G1 X99.056 Y36.558 Z-1.409
G1 X99.237 Y36.471 Z-1.411
G1 X99.416 Y36.378 Z-1.413
G1 X99.591 Y36.276 Z-1.414
G1 X99.762 Y36.168 Z-1.416
G1 X99.928 Y36.053 Z-1.418
G1 X100.090 Y35.931 Z-1.420
G1 X100.247 Y35.802 Z-1.422
G1 X100.399 Y35.667 Z-1.424
G1 X100.544 Y35.527 Z-1.426
G1 X100.683 Y35.381 Z-1.428
G1 X100.816 Y35.231 Z-1.430
G1 X100.942 Y35.076 Z-1.432
G1 X101.061 Y34.917 Z-1.434
G1 X101.173 Y34.754 Z-1.436
G1 X101.278 Y34.588 Z-1.438
G1 X101.376 Y34.419 Z-1.440
G1 X101.466 Y34.248 Z-1.442
G1 X101.549 Y34.076 Z-1.444
G1 X101.624 Y33.902 Z-1.446
G1 X101.692 Y33.727 Z-1.448
G1 X101.753 Y33.551 Z-1.450
G1 X101.807 Y33.376 Z-1.452
G1 X101.858 Y33.184 Z-1.454
G1 X101.901 Y32.989 Z-1.456
G1 X101.937 Y32.793 Z-1.458
G1 X101.964 Y32.596 Z-1.460
G1 X101.984 Y32.397 Z-1.462
G1 X101.996 Y32.199 Z-1.464
G1 X102.000 Y32.000 Z-1.466
G1 X102.000 Y10.810 Z-1.678
G1 X102.000 Y3.000 Z-1.756
G1 X101.997 Y2.822 Z-1.758
G1 X101.987 Y2.642 Z-1.760
G1 X101.971 Y2.459 Z-1.762
G1 X101.947 Y2.275 Z-1.763
G1 X101.917 Y2.090 Z-1.765
G1 X101.878 Y1.904 Z-1.767
G1 X101.833 Y1.718 Z-1.769
G1 X101.779 Y1.531 Z-1.771
G1 X101.718 Y1.345 Z-1.773
G1 X101.649 Y1.160 Z-1.775
G1 X101.572 Y0.976 Z-1.777
G1 X101.487 Y0.794 Z-1.779
G1 X101.394 Y0.614 Z-1.781
G1 X101.293 Y0.437 Z-1.783
G1 X101.185 Y0.264 Z-1.785
G1 X101.069 Y0.094 Z-1.787
G1 X100.946 Y-0.071 Z-1.789
G1 X100.816 Y-0.231 Z-1.791
G1 X100.679 Y-0.386 Z-1.793
G1 X100.536 Y-0.536 Z-1.795
G1 X100.386 Y-0.679 Z-1.797
G1 X100.231 Y-0.816 Z-1.799
G1 X100.071 Y-0.946 Z-1.801
G1 X99.906 Y-1.069 Z-1.803
G1 X99.736 Y-1.185 Z-1.805
G1 X99.563 Y-1.293 Z-1.807
G1 X99.386 Y-1.394 Z-1.809
G1 X99.206 Y-1.487 Z-1.811
G1 X99.024 Y-1.572 Z-1.813
G1 X98.840 Y-1.649 Z-1.815
G1 X98.655 Y-1.718 Z-1.816
G1 X98.469 Y-1.779 Z-1.818
G1 X98.282 Y-1.833 Z-1.820
G1 X98.096 Y-1.878 Z-1.822
G1 X97.910 Y-1.917 Z-1.824
G1 X97.725 Y-1.947 Z-1.826
G1 X97.541 Y-1.971 Z-1.828
G1 X97.358 Y-1.987 Z-1.830
G1 X97.178 Y-1.997 Z-1.832
G1 X97.000 Y-2.000 Z-1.834
G1 X90.080 Y-2.000 Z-1.903
G1 X80.416 Y-2.000 Z-2.000
G1 X67.496 Y-2.000 Z-2.000 F2000.0
G1 X59.258 Y-2.000 Z-2.000
G1 X57.832 Y-2.000 Z-2.000
G1 X44.912 Y-2.000 Z-2.000
G1 X43.258 Y-2.000 Z-2.000
G1 X35.248 Y-2.000 Z-2.000
G1 X12.664 Y-2.000 Z-2.000
G1 X3.000 Y-2.000 Z-2.000
G1 X2.822 Y-1.997 Z-2.000
G1 X2.642 Y-1.987 Z-2.000
G1 X2.459 Y-1.971 Z-2.000
G1 X2.275 Y-1.947 Z-2.000
G1 X2.090 Y-1.917 Z-2.000
G1 X1.904 Y-1.878 Z-2.000
G1 X1.718 Y-1.833 Z-2.000
G1 X1.531 Y-1.779 Z-2.000
G1 X1.345 Y-1.718 Z-2.000
G1 X1.160 Y-1.649 Z-2.000
G1 X0.976 Y-1.572 Z-2.000
G1 X0.794 Y-1.487 Z-2.000
G1 X0.614 Y-1.394 Z-2.000
G1 X0.437 Y-1.293 Z-2.000
G1 X0.264 Y-1.185 Z-2.000
G1 X0.094 Y-1.069 Z-2.000
G1 X-0.071 Y-0.946 Z-2.000
G1 X-0.231 Y-0.816 Z-2.000
G1 X-0.386 Y-0.679 Z-2.000
G1 X-0.536 Y-0.536 Z-2.000
G1 X-0.679 Y-0.386 Z-2.000
G1 X-0.816 Y-0.231 Z-2.000
G1 X-0.946 Y-0.071 Z-2.000
G1 X-1.069 Y0.094 Z-2.000
G1 X-1.185 Y0.264 Z-2.000
G1 X-1.293 Y0.437 Z-2.000
G1 X-1.394 Y0.614 Z-2.000
G1 X-1.487 Y0.794 Z-2.000
G1 X-1.572 Y0.976 Z-2.000
G1 X-1.649 Y1.160 Z-2.000
G1 X-1.718 Y1.345 Z-2.000
G1 X-1.779 Y1.531 Z-2.000
G1 X-1.833 Y1.718 Z-2.000
G1 X-1.878 Y1.904 Z-2.000
G1 X-1.917 Y2.090 Z-2.000
G1 X-1.947 Y2.275 Z-2.000
G1 X-1.971 Y2.459 Z-2.000
G1 X-1.987 Y2.642 Z-2.000
G1 X-1.997 Y2.822 Z-2.000
G1 X-2.000 Y3.000 Z-2.000
G1 X-2.000 Y8.066 Z-2.000
G1 X-2.000 Y17.730 Z-2.000
G1 X-2.000 Y30.650 Z-2.000
G1 X-2.000 Y32.000 Z-2.000
G1 X-1.997 Y32.178 Z-2.000
G1 X-1.987 Y32.358 Z-2.000
G1 X-1.971 Y32.541 Z-2.000
G1 X-1.947 Y32.725 Z-2.000
G1 X-1.917 Y32.910 Z-2.000
G1 X-1.878 Y33.096 Z-2.000
G1 X-1.833 Y33.282 Z-2.000
G1 X-1.779 Y33.469 Z-2.000
G1 X-1.718 Y33.655 Z-2.000
G1 X-1.649 Y33.840 Z-2.000
G1 X-1.572 Y34.024 Z-2.000
G1 X-1.487 Y34.206 Z-2.000
G1 X-1.394 Y34.386 Z-2.000
G1 X-1.293 Y34.563 Z-2.000
G1 X-1.185 Y34.736 Z-2.000
G1 X-1.069 Y34.906 Z-2.000
G1 X-0.946 Y35.071 Z-2.000
G1 X-0.816 Y35.231 Z-2.000
G1 X-0.679 Y35.386 Z-2.000
G1 X-0.536 Y35.536 Z-2.000
G1 X-0.386 Y35.679 Z-2.000
G1 X-0.231 Y35.816 Z-2.000
G1 X-0.071 Y35.946 Z-2.000
G1 X0.094 Y36.069 Z-2.000
G1 X0.264 Y36.185 Z-2.000
G1 X0.437 Y36.293 Z-2.000
G1 X0.614 Y36.394 Z-2.000
G1 X0.794 Y36.487 Z-2.000
G1 X0.976 Y36.572 Z-2.000
G1 X1.160 Y36.649 Z-2.000
G1 X1.345 Y36.718 Z-2.000
G1 X1.531 Y36.779 Z-2.000
G1 X1.718 Y36.833 Z-2.000
G1 X1.904 Y36.878 Z-2.000
G1 X2.090 Y36.917 Z-2.000
G1 X2.275 Y36.947 Z-2.000
G1 X2.459 Y36.971 Z-2.000
G1 X2.642 Y36.987 Z-2.000
G1 X2.822 Y36.997 Z-2.000
G1 X3.000 Y37.000 Z-2.000
G1 X3.460 Y37.000 Z-2.000
G1 X26.044 Y37.000 Z-2.000
G1 X40.742 Y37.000 Z-2.000
G1 X48.628 Y37.000 Z-2.000
G1 X56.742 Y37.000 Z-2.000
G1 X58.292 Y37.000 Z-2.000
G1 X71.212 Y37.000 Z-2.000
G1 X80.876 Y37.000 Z-2.000
G1 X93.796 Y37.000 Z-2.000
G1 X97.000 Y37.000 Z-2.000
G1 X97.183 Y36.997 Z-2.000
G1 X97.369 Y36.986 Z-2.000
G1 X97.556 Y36.969 Z-2.000
G1 X97.744 Y36.944 Z-2.000
G1 X97.933 Y36.912 Z-2.000
G1 X98.122 Y36.873 Z-2.000
G1 X98.311 Y36.825 Z-2.000
G1 X98.499 Y36.770 Z-2.000
G1 X98.686 Y36.707 Z-2.000
G1 X98.872 Y36.636 Z-2.000
G1 X99.056 Y36.558 Z-2.000
G1 X99.237 Y36.471 Z-2.000
G1 X99.416 Y36.378 Z-2.000
G1 X99.591 Y36.276 Z-2.000
G1 X99.762 Y36.168 Z-2.000
G1 X99.928 Y36.053 Z-2.000
G1 X100.090 Y35.931 Z-2.000
G1 X100.247 Y35.802 Z-2.000
G1 X100.399 Y35.667 Z-2.000
G1 X100.544 Y35.527 Z-2.000
G1 X100.683 Y35.381 Z-2.000
G1 X100.816 Y35.231 Z-2.000
G1 X100.942 Y35.076 Z-2.000
G1 X101.061 Y34.917 Z-2.000
G1 X101.173 Y34.754 Z-2.000
G1 X101.278 Y34.588 Z-2.000
G1 X101.376 Y34.419 Z-2.000
G1 X101.466 Y34.248 Z-2.000
G1 X101.549 Y34.076 Z-2.000
G1 X101.624 Y33.902 Z-2.000
G1 X101.692 Y33.727 Z-2.000
G1 X101.753 Y33.551 Z-2.000
G1 X101.807 Y33.376 Z-2.000
G1 X101.858 Y33.184 Z-2.000
G1 X101.901 Y32.989 Z-2.000
G1 X101.937 Y32.793 Z-2.000
G1 X101.964 Y32.596 Z-2.000
G1 X101.984 Y32.397 Z-2.000
G1 X101.996 Y32.199 Z-2.000
G1 X102.000 Y32.000 Z-2.000
G1 X102.000 Y10.810 Z-2.000
G1 X102.000 Y3.000 Z-2.000
G1 X101.997 Y2.822 Z-2.000
G1 X101.987 Y2.642 Z-2.000
G1 X101.971 Y2.459 Z-2.000
G1 X101.947 Y2.275 Z-2.000
G1 X101.917 Y2.090 Z-2.000
G1 X101.878 Y1.904 Z-2.000
G1 X101.833 Y1.718 Z-2.000
G1 X101.779 Y1.531 Z-2.000
G1 X101.718 Y1.345 Z-2.000
G1 X101.649 Y1.160 Z-2.000
G1 X101.572 Y0.976 Z-2.000
G1 X101.487 Y0.794 Z-2.000
G1 X101.394 Y0.614 Z-2.000
G1 X101.293 Y0.437 Z-2.000
G1 X101.185 Y0.264 Z-2.000
G1 X101.069 Y0.094 Z-2.000
G1 X100.946 Y-0.071 Z-2.000
G1 X100.816 Y-0.231 Z-2.000
G1 X100.679 Y-0.386 Z-2.000
G1 X100.536 Y-0.536 Z-2.000
G1 X100.386 Y-0.679 Z-2.000
G1 X100.231 Y-0.816 Z-2.000
G1 X100.071 Y-0.946 Z-2.000
G1 X99.906 Y-1.069 Z-2.000
G1 X99.736 Y-1.185 Z-2.000
G1 X99.563 Y-1.293 Z-2.000
G1 X99.386 Y-1.394 Z-2.000
G1 X99.206 Y-1.487 Z-2.000
G1 X99.024 Y-1.572 Z-2.000
G1 X98.840 Y-1.649 Z-2.000
G1 X98.655 Y-1.718 Z-2.000
G1 X98.469 Y-1.779 Z-2.000
G1 X98.282 Y-1.833 Z-2.000
G1 X98.096 Y-1.878 Z-2.000
G1 X97.910 Y-1.917 Z-2.000
G1 X97.725 Y-1.947 Z-2.000
G1 X97.541 Y-1.971 Z-2.000
G1 X97.358 Y-1.987 Z-2.000
G1 X97.178 Y-1.997 Z-2.000
G1 X97.000 Y-2.000 Z-2.000
G1 X90.080 Y-2.000 Z-2.000
G1 X80.416 Y-2.000 Z-2.000
G1 X67.496 Y-2.000 Z-2.129 F635.0
G1 X59.258 Y-2.000 Z-2.212
G1 X57.832 Y-2.000 Z-2.226
G1 X44.912 Y-2.000 Z-2.355
G1 X43.258 Y-2.000 Z-2.372
G1 X35.248 Y-2.000 Z-2.452
G1 X12.664 Y-2.000 Z-2.678
G1 X3.000 Y-2.000 Z-2.774
G1 X2.822 Y-1.997 Z-2.776
G1 X2.642 Y-1.987 Z-2.778
G1 X2.459 Y-1.971 Z-2.780
G1 X2.275 Y-1.947 Z-2.782
G1 X2.090 Y-1.917 Z-2.784
G1 X1.904 Y-1.878 Z-2.786
G1 X1.718 Y-1.833 Z-2.788
G1 X1.531 Y-1.779 Z-2.790
G1 X1.345 Y-1.718 Z-2.792
G1 X1.160 Y-1.649 Z-2.794
G1 X0.976 Y-1.572 Z-2.796
G1 X0.794 Y-1.487 Z-2.798
G1 X0.614 Y-1.394 Z-2.800
G1 X0.437 Y-1.293 Z-2.802
G1 X0.264 Y-1.185 Z-2.804
G1 X0.094 Y-1.069 Z-2.806
G1 X-0.071 Y-0.946 Z-2.808
G1 X-0.231 Y-0.816 Z-2.810
G1 X-0.386 Y-0.679 Z-2.811
G1 X-0.536 Y-0.536 Z-2.813
G1 X-0.679 Y-0.386 Z-2.815
G1 X-0.816 Y-0.231 Z-2.817
G1 X-0.946 Y-0.071 Z-2.819
G1 X-1.069 Y0.094 Z-2.821
G1 X-1.185 Y0.264 Z-2.823
G1 X-1.293 Y0.437 Z-2.825
G1 X-1.394 Y0.614 Z-2.827
G1 X-1.487 Y0.794 Z-2.829
G1 X-1.572 Y0.976 Z-2.831
G1 X-1.649 Y1.160 Z-2.833
G1 X-1.718 Y1.345 Z-2.835
G1 X-1.779 Y1.531 Z-2.837
G1 X-1.833 Y1.718 Z-2.839
G1 X-1.878 Y1.904 Z-2.841
G1 X-1.917 Y2.090 Z-2.843
G1 X-1.947 Y2.275 Z-2.845
G1 X-1.971 Y2.459 Z-2.847
G1 X-1.987 Y2.642 Z-2.849
G1 X-1.997 Y2.822 Z-2.851
G1 X-2.000 Y3.000 Z-2.853
G1 X-2.000 Y8.066 Z-2.903
G1 X-2.000 Y17.730 Z-3.000
G1 X-2.000 Y30.650 Z-3.000 F2000.0
G1 X-2.000 Y32.000 Z-3.000
G1 X-1.997 Y32.178 Z-3.000
G1 X-1.987 Y32.358 Z-3.000
G1 X-1.971 Y32.541 Z-3.000
G1 X-1.947 Y32.725 Z-3.000
G1 X-1.917 Y32.910 Z-3.000
G1 X-1.878 Y33.096 Z-3.000
G1 X-1.833 Y33.282 Z-3.000
G1 X-1.779 Y33.469 Z-3.000
G1 X-1.718 Y33.655 Z-3.000
G1 X-1.649 Y33.840 Z-3.000
G1 X-1.572 Y34.024 Z-3.000
G1 X-1.487 Y34.206 Z-3.000
G1 X-1.394 Y34.386 Z-3.000
G1 X-1.293 Y34.563 Z-3.000
G1 X-1.185 Y34.736 Z-3.000
G1 X-1.069 Y34.906 Z-3.000
G1 X-0.946 Y35.071 Z-3.000
G1 X-0.816 Y35.231 Z-3.000
G1 X-0.679 Y35.386 Z-3.000
G1 X-0.536 Y35.536 Z-3.000
G1 X-0.386 Y35.679 Z-3.000
G1 X-0.231 Y35.816 Z-3.000
G1 X-0.071 Y35.946 Z-3.000
G1 X0.094 Y36.069 Z-3.000
G1 X0.264 Y36.185 Z-3.000
G1 X0.437 Y36.293 Z-3.000
G1 X0.614 Y36.394 Z-3.000
G1 X0.794 Y36.487 Z-3.000
G1 X0.976 Y36.572 Z-3.000
G1 X1.160 Y36.649 Z-3.000
G1 X1.345 Y36.718 Z-3.000
G1 X1.531 Y36.779 Z-3.000
G1 X1.718 Y36.833 Z-3.000
G1 X1.904 Y36.878 Z-3.000
G1 X2.090 Y36.917 Z-3.000
G1 X2.275 Y36.947 Z-3.000
G1 X2.459 Y36.971 Z-3.000
G1 X2.642 Y36.987 Z-3.000
G1 X2.822 Y36.997 Z-3.000
G1 X3.000 Y37.000 Z-3.000
G1 X3.460 Y37.000 Z-3.000
G1 X26.044 Y37.000 Z-3.000
G1 X40.742 Y37.000 Z-3.000
G1 X48.628 Y37.000 Z-3.000
G1 X56.742 Y37.000 Z-3.000
G1 X58.292 Y37.000 Z-3.000
G1 X71.212 Y37.000 Z-3.000
G1 X80.876 Y37.000 Z-3.000
G1 X93.796 Y37.000 Z-3.000
G1 X97.000 Y37.000 Z-3.000
G1 X97.183 Y36.997 Z-3.000
G1 X97.369 Y36.986 Z-3.000
G1 X97.556 Y36.969 Z-3.000
G1 X97.744 Y36.944 Z-3.000
G1 X97.933 Y36.912 Z-3.000
G1 X98.122 Y36.873 Z-3.000
G1 X98.311 Y36.825 Z-3.000
G1 X98.499 Y36.770 Z-3.000
G1 X98.686 Y36.707 Z-3.000
G1 X98.872 Y36.636 Z-3.000
G1 X99.056 Y36.558 Z-3.000
G1 X99.237 Y36.471 Z-3.000
G1 X99.416 Y36.378 Z-3.000
G1 X99.591 Y36.276 Z-3.000
G1 X99.762 Y36.168 Z-3.000
G1 X99.928 Y36.053 Z-3.000
G1 X100.090 Y35.931 Z-3.000
G1 X100.247 Y35.802 Z-3.000
G1 X100.399 Y35.667 Z-3.000
G1 X100.544 Y35.527 Z-3.000
G1 X100.683 Y35.381 Z-3.000
G1 X100.816 Y35.231 Z-3.000
G1 X100.942 Y35.076 Z-3.000
G1 X101.061 Y34.917 Z-3.000
G1 X101.173 Y34.754 Z-3.000
G1 X101.278 Y34.588 Z-3.000
G1 X101.376 Y34.419 Z-3.000
G1 X101.466 Y34.248 Z-3.000
G1 X101.549 Y34.076 Z-3.000
G1 X101.624 Y33.902 Z-3.000
G1 X101.692 Y33.727 Z-3.000
G1 X101.753 Y33.551 Z-3.000
G1 X101.807 Y33.376 Z-3.000
G1 X101.858 Y33.184 Z-3.000
G1 X101.901 Y32.989 Z-3.000
G1 X101.937 Y32.793 Z-3.000
G1 X101.964 Y32.596 Z-3.000
G1 X101.984 Y32.397 Z-3.000
G1 X101.996 Y32.199 Z-3.000
G1 X102.000 Y32.000 Z-3.000
G1 X102.000 Y10.810 Z-3.000
G1 X102.000 Y3.000 Z-3.000
G1 X101.997 Y2.822 Z-3.000
G1 X101.987 Y2.642 Z-3.000
G1 X101.971 Y2.459 Z-3.000
G1 X101.947 Y2.275 Z-3.000
G1 X101.917 Y2.090 Z-3.000
G1 X101.878 Y1.904 Z-3.000
G1 X101.833 Y1.718 Z-3.000
G1 X101.779 Y1.531 Z-3.000
G1 X101.718 Y1.345 Z-3.000
G1 X101.649 Y1.160 Z-3.000
G1 X101.572 Y0.976 Z-3.000
G1 X101.487 Y0.794 Z-3.000
G1 X101.394 Y0.614 Z-3.000
G1 X101.293 Y0.437 Z-3.000
G1 X101.185 Y0.264 Z-3.000
G1 X101.069 Y0.094 Z-3.000
G1 X100.946 Y-0.071 Z-3.000
G1 X100.816 Y-0.231 Z-3.000
G1 X100.679 Y-0.386 Z-3.000
G1 X100.536 Y-0.536 Z-3.000
G1 X100.386 Y-0.679 Z-3.000
G1 X100.231 Y-0.816 Z-3.000
G1 X100.071 Y-0.946 Z-3.000
G1 X99.906 Y-1.069 Z-3.000
G1 X99.736 Y-1.185 Z-3.000
G1 X99.563 Y-1.293 Z-3.000
G1 X99.386 Y-1.394 Z-3.000
G1 X99.206 Y-1.487 Z-3.000
G1 X99.024 Y-1.572 Z-3.000
G1 X98.840 Y-1.649 Z-3.000
G1 X98.655 Y-1.718 Z-3.000
G1 X98.469 Y-1.779 Z-3.000
G1 X98.282 Y-1.833 Z-3.000
G1 X98.096 Y-1.878 Z-3.000
G1 X97.910 Y-1.917 Z-3.000
G1 X97.725 Y-1.947 Z-3.000
G1 X97.541 Y-1.971 Z-3.000
G1 X97.358 Y-1.987 Z-3.000
G1 X97.178 Y-1.997 Z-3.000
G1 X97.000 Y-2.000 Z-3.000
G1 X90.080 Y-2.000 Z-3.000
G1 X80.416 Y-2.000 Z-3.000
G1 X67.496 Y-2.000 Z-3.000
G1 X59.258 Y-2.000 Z-3.000
G1 X57.832 Y-2.000 Z-3.000
G1 X44.912 Y-2.000 Z-3.000
G1 X43.258 Y-2.000 Z-3.000
G1 X35.248 Y-2.000 Z-3.000
G1 X12.664 Y-2.000 Z-3.000
G1 X3.000 Y-2.000 Z-3.000
G1 X2.822 Y-1.997 Z-3.000
G1 X2.642 Y-1.987 Z-3.000
G1 X2.459 Y-1.971 Z-3.000
G1 X2.275 Y-1.947 Z-3.000
G1 X2.090 Y-1.917 Z-3.000
G1 X1.904 Y-1.878 Z-3.000
G1 X1.718 Y-1.833 Z-3.000
G1 X1.531 Y-1.779 Z-3.000
G1 X1.345 Y-1.718 Z-3.000
G1 X1.160 Y-1.649 Z-3.000
G1 X0.976 Y-1.572 Z-3.000
G1 X0.794 Y-1.487 Z-3.000
G1 X0.614 Y-1.394 Z-3.000
G1 X0.437 Y-1.293 Z-3.000
G1 X0.264 Y-1.185 Z-3.000
G1 X0.094 Y-1.069 Z-3.000
G1 X-0.071 Y-0.946 Z-3.000
G1 X-0.231 Y-0.816 Z-3.000
G1 X-0.386 Y-0.679 Z-3.000
G1 X-0.536 Y-0.536 Z-3.000
G1 X-0.679 Y-0.386 Z-3.000
G1 X-0.816 Y-0.231 Z-3.000
G1 X-0.946 Y-0.071 Z-3.000
G1 X-1.069 Y0.094 Z-3.000
G1 X-1.185 Y0.264 Z-3.000
G1 X-1.293 Y0.437 Z-3.000
G1 X-1.394 Y0.614 Z-3.000
G1 X-1.487 Y0.794 Z-3.000
G1 X-1.572 Y0.976 Z-3.000
G1 X-1.649 Y1.160 Z-3.000
G1 X-1.718 Y1.345 Z-3.000
G1 X-1.779 Y1.531 Z-3.000
G1 X-1.833 Y1.718 Z-3.000
G1 X-1.878 Y1.904 Z-3.000
G1 X-1.917 Y2.090 Z-3.000
G1 X-1.947 Y2.275 Z-3.000
G1 X-1.971 Y2.459 Z-3.000
G1 X-1.987 Y2.642 Z-3.000
G1 X-1.997 Y2.822 Z-3.000
G1 X-2.000 Y3.000 Z-3.000
G1 X-2.000 Y8.066 Z-3.000
G1 X-2.000 Y17.730 Z-3.000
G1 X-2.000 Y30.650 Z-3.129 F635.0
G1 X-2.000 Y32.000 Z-3.143
G1 X-1.997 Y32.178 Z-3.145
G1 X-1.987 Y32.358 Z-3.147
G1 X-1.971 Y32.541 Z-3.149
G1 X-1.947 Y32.725 Z-3.151
G1 X-1.917 Y32.910 Z-3.153
G1 X-1.878 Y33.096 Z-3.154
G1 X-1.833 Y33.282 Z-3.156
G1 X-1.779 Y33.469 Z-3.158
G1 X-1.718 Y33.655 Z-3.160
G1 X-1.649 Y33.840 Z-3.162
G1 X-1.572 Y34.024 Z-3.164
G1 X-1.487 Y34.206 Z-3.166
G1 X-1.394 Y34.386 Z-3.168
G1 X-1.293 Y34.563 Z-3.170
G1 X-1.185 Y34.736 Z-3.172
G1 X-1.069 Y34.906 Z-3.174
G1 X-0.946 Y35.071 Z-3.176
G1 X-0.816 Y35.231 Z-3.178
G1 X-0.679 Y35.386 Z-3.180
G1 X-0.536 Y35.536 Z-3.182
G1 X-0.386 Y35.679 Z-3.184
G1 X-0.231 Y35.816 Z-3.186
G1 X-0.071 Y35.946 Z-3.188
G1 X0.094 Y36.069 Z-3.190
G1 X0.264 Y36.185 Z-3.192
G1 X0.437 Y36.293 Z-3.194
G1 X0.614 Y36.394 Z-3.196
G1 X0.794 Y36.487 Z-3.198
G1 X0.976 Y36.572 Z-3.200
G1 X1.160 Y36.649 Z-3.202
G1 X1.345 Y36.718 Z-3.204
G1 X1.531 Y36.779 Z-3.206
G1 X1.718 Y36.833 Z-3.207
G1 X1.904 Y36.878 Z-3.209
G1 X2.090 Y36.917 Z-3.211
G1 X2.275 Y36.947 Z-3.213
G1 X2.459 Y36.971 Z-3.215
G1 X2.642 Y36.987 Z-3.217
G1 X2.822 Y36.997 Z-3.219
G1 X3.000 Y37.000 Z-3.221
G1 X3.460 Y37.000 Z-3.226
G1 X26.044 Y37.000 Z-3.452
G1 X40.742 Y37.000 Z-3.599
G1 X48.628 Y37.000 Z-3.678
G1 X56.742 Y37.000 Z-3.759
G1 X58.292 Y37.000 Z-3.774
G1 X71.212 Y37.000 Z-3.903
G1 X80.876 Y37.000 Z-4.000
G1 X93.796 Y37.000 Z-4.000 F2000.0
G1 X97.000 Y37.000 Z-4.000
G1 X97.183 Y36.997 Z-4.000
G1 X97.369 Y36.986 Z-4.000
G1 X97.556 Y36.969 Z-4.000
G1 X97.744 Y36.944 Z-4.000
G1 X97.933 Y36.912 Z-4.000
G1 X98.122 Y36.873 Z-4.000
G1 X98.311 Y36.825 Z-4.000
G1 X98.499 Y36.770 Z-4.000
G1 X98.686 Y36.707 Z-4.000
G1 X98.872 Y36.636 Z-4.000
G1 X99.056 Y36.558 Z-4.000
G1 X99.237 Y36.471 Z-4.000
G1 X99.416 Y36.378 Z-4.000
G1 X99.591 Y36.276 Z-4.000
G1 X99.762 Y36.168 Z-4.000
G1 X99.928 Y36.053 Z-4.000
G1 X100.090 Y35.931 Z-4.000
G1 X100.247 Y35.802 Z-4.000
G1 X100.399 Y35.667 Z-4.000
G1 X100.544 Y35.527 Z-4.000
G1 X100.683 Y35.381 Z-4.000
G1 X100.816 Y35.231 Z-4.000
G1 X100.942 Y35.076 Z-4.000
G1 X101.061 Y34.917 Z-4.000
G1 X101.173 Y34.754 Z-4.000
G1 X101.278 Y34.588 Z-4.000
G1 X101.376 Y34.419 Z-4.000
G1 X101.466 Y34.248 Z-4.000
G1 X101.549 Y34.076 Z-4.000
G1 X101.624 Y33.902 Z-4.000
G1 X101.692 Y33.727 Z-4.000
G1 X101.753 Y33.551 Z-4.000
G1 X101.807 Y33.376 Z-4.000
G1 X101.858 Y33.184 Z-4.000
G1 X101.901 Y32.989 Z-4.000
G1 X101.937 Y32.793 Z-4.000
G1 X101.964 Y32.596 Z-4.000
G1 X101.984 Y32.397 Z-4.000
G1 X101.996 Y32.199 Z-4.000
G1 X102.000 Y32.000 Z-4.000
G1 X102.000 Y10.810 Z-4.000
G1 X102.000 Y3.000 Z-4.000
G1 X101.997 Y2.822 Z-4.000
G1 X101.987 Y2.642 Z-4.000
G1 X101.971 Y2.459 Z-4.000
G1 X101.947 Y2.275 Z-4.000
G1 X101.917 Y2.090 Z-4.000
G1 X101.878 Y1.904 Z-4.000
G1 X101.833 Y1.718 Z-4.000
G1 X101.779 Y1.531 Z-4.000
G1 X101.718 Y1.345 Z-4.000
G1 X101.649 Y1.160 Z-4.000
G1 X101.572 Y0.976 Z-4.000
G1 X101.487 Y0.794 Z-4.000
G1 X101.394 Y0.614 Z-4.000
G1 X101.293 Y0.437 Z-4.000
G1 X101.185 Y0.264 Z-4.000
G1 X101.069 Y0.094 Z-4.000
G1 X100.946 Y-0.071 Z-4.000
G1 X100.816 Y-0.231 Z-4.000
G1 X100.679 Y-0.386 Z-4.000
G1 X100.536 Y-0.536 Z-4.000
G1 X100.386 Y-0.679 Z-4.000
G1 X100.231 Y-0.816 Z-4.000
G1 X100.071 Y-0.946 Z-4.000
G1 X99.906 Y-1.069 Z-4.000
G1 X99.736 Y-1.185 Z-4.000
G1 X99.563 Y-1.293 Z-4.000
G1 X99.386 Y-1.394 Z-4.000
G1 X99.206 Y-1.487 Z-4.000
G1 X99.024 Y-1.572 Z-4.000
G1 X98.840 Y-1.649 Z-4.000
G1 X98.655 Y-1.718 Z-4.000
G1 X98.469 Y-1.779 Z-4.000
G1 X98.282 Y-1.833 Z-4.000
G1 X98.096 Y-1.878 Z-4.000
G1 X97.910 Y-1.917 Z-4.000
G1 X97.725 Y-1.947 Z-4.000
G1 X97.541 Y-1.971 Z-4.000
G1 X97.358 Y-1.987 Z-4.000
G1 X97.178 Y-1.997 Z-4.000
G1 X97.000 Y-2.000 Z-4.000
G1 X90.080 Y-2.000 Z-4.000
G1 X80.416 Y-2.000 Z-4.000
G1 X67.496 Y-2.000 Z-4.000
G1 X59.258 Y-2.000 Z-4.000
G1 X57.832 Y-2.000 Z-4.000
G1 X44.912 Y-2.000 Z-4.000
G1 X43.258 Y-2.000 Z-4.000
G1 X35.248 Y-2.000 Z-4.000
G1 X12.664 Y-2.000 Z-4.000
G1 X3.000 Y-2.000 Z-4.000
G1 X2.822 Y-1.997 Z-4.000
G1 X2.642 Y-1.987 Z-4.000
G1 X2.459 Y-1.971 Z-4.000
G1 X2.275 Y-1.947 Z-4.000
G1 X2.090 Y-1.917 Z-4.000
G1 X1.904 Y-1.878 Z-4.000
G1 X1.718 Y-1.833 Z-4.000
G1 X1.531 Y-1.779 Z-4.000
G1 X1.345 Y-1.718 Z-4.000
G1 X1.160 Y-1.649 Z-4.000
G1 X0.976 Y-1.572 Z-4.000
G1 X0.794 Y-1.487 Z-4.000
G1 X0.614 Y-1.394 Z-4.000
G1 X0.437 Y-1.293 Z-4.000
G1 X0.264 Y-1.185 Z-4.000
G1 X0.094 Y-1.069 Z-4.000
G1 X-0.071 Y-0.946 Z-4.000
G1 X-0.231 Y-0.816 Z-4.000
G1 X-0.386 Y-0.679 Z-4.000
G1 X-0.536 Y-0.536 Z-4.000
G1 X-0.679 Y-0.386 Z-4.000
G1 X-0.816 Y-0.231 Z-4.000
G1 X-0.946 Y-0.071 Z-4.000
G1 X-1.069 Y0.094 Z-4.000
G1 X-1.185 Y0.264 Z-4.000
G1 X-1.293 Y0.437 Z-4.000
G1 X-1.394 Y0.614 Z-4.000
G1 X-1.487 Y0.794 Z-4.000
G1 X-1.572 Y0.976 Z-4.000
G1 X-1.649 Y1.160 Z-4.000
G1 X-1.718 Y1.345 Z-4.000
G1 X-1.779 Y1.531 Z-4.000
G1 X-1.833 Y1.718 Z-4.000
G1 X-1.878 Y1.904 Z-4.000
G1 X-1.917 Y2.090 Z-4.000
G1 X-1.947 Y2.275 Z-4.000
G1 X-1.971 Y2.459 Z-4.000
G1 X-1.987 Y2.642 Z-4.000
G1 X-1.997 Y2.822 Z-4.000
G1 X-2.000 Y3.000 Z-4.000
G1 X-2.000 Y8.066 Z-4.000
G1 X-2.000 Y17.730 Z-4.000
G1 X-2.000 Y30.650 Z-4.000
G1 X-2.000 Y32.000 Z-4.000
G1 X-1.997 Y32.178 Z-4.000
G1 X-1.987 Y32.358 Z-4.000
G1 X-1.971 Y32.541 Z-4.000
G1 X-1.947 Y32.725 Z-4.000
G1 X-1.917 Y32.910 Z-4.000
G1 X-1.878 Y33.096 Z-4.000
G1 X-1.833 Y33.282 Z-4.000
G1 X-1.779 Y33.469 Z-4.000
G1 X-1.718 Y33.655 Z-4.000
G1 X-1.649 Y33.840 Z-4.000
G1 X-1.572 Y34.024 Z-4.000
G1 X-1.487 Y34.206 Z-4.000
G1 X-1.394 Y34.386 Z-4.000
G1 X-1.293 Y34.563 Z-4.000
G1 X-1.185 Y34.736 Z-4.000
G1 X-1.069 Y34.906 Z-4.000
G1 X-0.946 Y35.071 Z-4.000
G1 X-0.816 Y35.231 Z-4.000
G1 X-0.679 Y35.386 Z-4.000
G1 X-0.536 Y35.536 Z-4.000
G1 X-0.386 Y35.679 Z-4.000
G1 X-0.231 Y35.816 Z-4.000
G1 X-0.071 Y35.946 Z-4.000
G1 X0.094 Y36.069 Z-4.000
G1 X0.264 Y36.185 Z-4.000
G1 X0.437 Y36.293 Z-4.000
G1 X0.614 Y36.394 Z-4.000
G1 X0.794 Y36.487 Z-4.000
G1 X0.976 Y36.572 Z-4.000
G1 X1.160 Y36.649 Z-4.000
G1 X1.345 Y36.718 Z-4.000
G1 X1.531 Y36.779 Z-4.000
G1 X1.718 Y36.833 Z-4.000
G1 X1.904 Y36.878 Z-4.000
G1 X2.090 Y36.917 Z-4.000
G1 X2.275 Y36.947 Z-4.000
G1 X2.459 Y36.971 Z-4.000
G1 X2.642 Y36.987 Z-4.000
G1 X2.822 Y36.997 Z-4.000
G1 X3.000 Y37.000 Z-4.000
G1 X3.460 Y37.000 Z-4.000
G1 X26.044 Y37.000 Z-4.000
G1 X40.742 Y37.000 Z-4.000
G1 X48.628 Y37.000 Z-4.000
G1 X56.742 Y37.000 Z-4.000
G1 X58.292 Y37.000 Z-4.000
G1 X71.212 Y37.000 Z-4.000
G1 X80.876 Y37.000 Z-4.000
G1 X93.796 Y37.000 Z-4.129 F635.0
G1 X97.000 Y37.000 Z-4.161
G1 X97.183 Y36.997 Z-4.163
G1 X97.369 Y36.986 Z-4.165
G1 X97.556 Y36.969 Z-4.167
G1 X97.744 Y36.944 Z-4.169
G1 X97.933 Y36.912 Z-4.171
G1 X98.122 Y36.873 Z-4.173
G1 X98.311 Y36.825 Z-4.175
G1 X98.499 Y36.770 Z-4.177
G1 X98.686 Y36.707 Z-4.179
G1 X98.872 Y36.636 Z-4.181
G1 X99.056 Y36.558 Z-4.183
G1 X99.237 Y36.471 Z-4.185
G1 X99.416 Y36.378 Z-4.187
G1 X99.591 Y36.276 Z-4.189
G1 X99.762 Y36.168 Z-4.191
G1 X99.928 Y36.053 Z-4.193
G1 X100.090 Y35.931 Z-4.195
G1 X100.247 Y35.802 Z-4.196
G1 X100.399 Y35.667 Z-4.198
G1 X100.544 Y35.527 Z-4.200
G1 X100.683 Y35.381 Z-4.202
G1 X100.816 Y35.231 Z-4.204
G1 X100.942 Y35.076 Z-4.206
G1 X101.061 Y34.917 Z-4.208
G1 X101.173 Y34.754 Z-4.210
G1 X101.278 Y34.588 Z-4.212
G1 X101.376 Y34.419 Z-4.214
G1 X101.466 Y34.248 Z-4.216
G1 X101.549 Y34.076 Z-4.218
G1 X101.624 Y33.902 Z-4.220
G1 X101.692 Y33.727 Z-4.222
G1 X101.753 Y33.551 Z-4.224
G1 X101.807 Y33.376 Z-4.226
G1 X101.858 Y33.184 Z-4.228
G1 X101.901 Y32.989 Z-4.230
G1 X101.937 Y32.793 Z-4.232
G1 X101.964 Y32.596 Z-4.234
G1 X101.984 Y32.397 Z-4.236
G1 X101.996 Y32.199 Z-4.238
G1 X102.000 Y32.000 Z-4.240
G1 X102.000 Y10.810 Z-4.452
G1 X102.000 Y3.000 Z-4.530
G1 X101.997 Y2.822 Z-4.532
G1 X101.987 Y2.642 Z-4.534
G1 X101.971 Y2.459 Z-4.536
G1 X101.947 Y2.275 Z-4.538
G1 X101.917 Y2.090 Z-4.540
G1 X101.878 Y1.904 Z-4.542
G1 X101.833 Y1.718 Z-4.544
G1 X101.779 Y1.531 Z-4.545
G1 X101.718 Y1.345 Z-4.547
G1 X101.649 Y1.160 Z-4.549
G1 X101.572 Y0.976 Z-4.551
G1 X101.487 Y0.794 Z-4.553
G1 X101.394 Y0.614 Z-4.555
G1 X101.293 Y0.437 Z-4.557
G1 X101.185 Y0.264 Z-4.559
G1 X101.069 Y0.094 Z-4.561
G1 X100.946 Y-0.071 Z-4.563
G1 X100.816 Y-0.231 Z-4.565
G1 X100.679 Y-0.386 Z-4.567
G1 X100.536 Y-0.536 Z-4.569
G1 X100.386 Y-0.679 Z-4.571
G1 X100.231 Y-0.816 Z-4.573
G1 X100.071 Y-0.946 Z-4.575
G1 X99.906 Y-1.069 Z-4.577
G1 X99.736 Y-1.185 Z-4.579
G1 X99.563 Y-1.293 Z-4.581
G1 X99.386 Y-1.394 Z-4.583
G1 X99.206 Y-1.487 Z-4.585
G1 X99.024 Y-1.572 Z-4.587
G1 X98.840 Y-1.649 Z-4.589
G1 X98.655 Y-1.718 Z-4.591
G1 X98.469 Y-1.779 Z-4.593
G1 X98.282 Y-1.833 Z-4.595
G1 X98.096 Y-1.878 Z-4.597
G1 X97.910 Y-1.917 Z-4.599
G1 X97.725 Y-1.947 Z-4.600
G1 X97.541 Y-1.971 Z-4.602
G1 X97.358 Y-1.987 Z-4.604
G1 X97.178 Y-1.997 Z-4.606
G1 X97.000 Y-2.000 Z-4.608
G1 X90.080 Y-2.000 Z-4.678
G1 X80.416 Y-2.000 Z-4.774
G1 X67.496 Y-2.000 Z-4.903
G1 X59.258 Y-2.000 Z-4.986
G1 X57.832 Y-2.000 Z-5.000
G1 X44.912 Y-2.000 Z-5.000 F2000.0
G1 X43.258 Y-2.000 Z-5.000
G1 X35.248 Y-2.000 Z-5.000
G1 X12.664 Y-2.000 Z-5.000
G1 X3.000 Y-2.000 Z-5.000
G1 X2.822 Y-1.997 Z-5.000
G1 X2.642 Y-1.987 Z-5.000
G1 X2.459 Y-1.971 Z-5.000
G1 X2.275 Y-1.947 Z-5.000
G1 X2.090 Y-1.917 Z-5.000
G1 X1.904 Y-1.878 Z-5.000
G1 X1.718 Y-1.833 Z-5.000
G1 X1.531 Y-1.779 Z-5.000
G1 X1.345 Y-1.718 Z-5.000
G1 X1.160 Y-1.649 Z-5.000
G1 X0.976 Y-1.572 Z-5.000
G1 X0.794 Y-1.487 Z-5.000
G1 X0.614 Y-1.394 Z-5.000
G1 X0.437 Y-1.293 Z-5.000
G1 X0.264 Y-1.185 Z-5.000
G1 X0.094 Y-1.069 Z-5.000
G1 X-0.071 Y-0.946 Z-5.000
G1 X-0.231 Y-0.816 Z-5.000
G1 X-0.386 Y-0.679 Z-5.000
G1 X-0.536 Y-0.536 Z-5.000
G1 X-0.679 Y-0.386 Z-5.000
G1 X-0.816 Y-0.231 Z-5.000
G1 X-0.946 Y-0.071 Z-5.000
G1 X-1.069 Y0.094 Z-5.000
G1 X-1.185 Y0.264 Z-5.000
G1 X-1.293 Y0.437 Z-5.000
G1 X-1.394 Y0.614 Z-5.000
G1 X-1.487 Y0.794 Z-5.000
G1 X-1.572 Y0.976 Z-5.000
G1 X-1.649 Y1.160 Z-5.000
G1 X-1.718 Y1.345 Z-5.000
G1 X-1.779 Y1.531 Z-5.000
G1 X-1.833 Y1.718 Z-5.000
G1 X-1.878 Y1.904 Z-5.000
G1 X-1.917 Y2.090 Z-5.000
G1 X-1.947 Y2.275 Z-5.000
G1 X-1.971 Y2.459 Z-5.000
G1 X-1.987 Y2.642 Z-5.000
G1 X-1.997 Y2.822 Z-5.000
G1 X-2.000 Y3.000 Z-5.000
G1 X-2.000 Y8.066 Z-5.000
G1 X-2.000 Y17.730 Z-5.000
G1 X-2.000 Y30.650 Z-5.000
G1 X-2.000 Y32.000 Z-5.000
G1 X-1.997 Y32.178 Z-5.000
G1 X-1.987 Y32.358 Z-5.000
G1 X-1.971 Y32.541 Z-5.000
G1 X-1.947 Y32.725 Z-5.000
G1 X-1.917 Y32.910 Z-5.000
G1 X-1.878 Y33.096 Z-5.000
G1 X-1.833 Y33.282 Z-5.000
G1 X-1.779 Y33.469 Z-5.000
G1 X-1.718 Y33.655 Z-5.000
G1 X-1.649 Y33.840 Z-5.000
G1 X-1.572 Y34.024 Z-5.000
G1 X-1.487 Y34.206 Z-5.000
G1 X-1.394 Y34.386 Z-5.000
G1 X-1.293 Y34.563 Z-5.000
G1 X-1.185 Y34.736 Z-5.000
G1 X-1.069 Y34.906 Z-5.000
G1 X-0.946 Y35.071 Z-5.000
G1 X-0.816 Y35.231 Z-5.000
G1 X-0.679 Y35.386 Z-5.000
G1 X-0.536 Y35.536 Z-5.000
G1 X-0.386 Y35.679 Z-5.000
G1 X-0.231 Y35.816 Z-5.000
G1 X-0.071 Y35.946 Z-5.000
G1 X0.094 Y36.069 Z-5.000
G1 X0.264 Y36.185 Z-5.000
G1 X0.437 Y36.293 Z-5.000
G1 X0.614 Y36.394 Z-5.000
G1 X0.794 Y36.487 Z-5.000
G1 X0.976 Y36.572 Z-5.000
G1 X1.160 Y36.649 Z-5.000
G1 X1.345 Y36.718 Z-5.000
G1 X1.531 Y36.779 Z-5.000
G1 X1.718 Y36.833 Z-5.000
G1 X1.904 Y36.878 Z-5.000
G1 X2.090 Y36.917 Z-5.000
G1 X2.275 Y36.947 Z-5.000
G1 X2.459 Y36.971 Z-5.000
G1 X2.642 Y36.987 Z-5.000
G1 X2.822 Y36.997 Z-5.000
G1 X3.000 Y37.000 Z-5.000
G1 X3.460 Y37.000 Z-5.000
G1 X26.044 Y37.000 Z-5.000
G1 X40.742 Y37.000 Z-5.000
G1 X48.628 Y37.000 Z-5.000
G1 X56.742 Y37.000 Z-5.000
G1 X58.292 Y37.000 Z-5.000
G1 X71.212 Y37.000 Z-5.000
G1 X80.876 Y37.000 Z-5.000
G1 X93.796 Y37.000 Z-5.000
G1 X97.000 Y37.000 Z-5.000
G1 X97.183 Y36.997 Z-5.000
G1 X97.369 Y36.986 Z-5.000
G1 X97.556 Y36.969 Z-5.000
G1 X97.744 Y36.944 Z-5.000
G1 X97.933 Y36.912 Z-5.000
G1 X98.122 Y36.873 Z-5.000
G1 X98.311 Y36.825 Z-5.000
G1 X98.499 Y36.770 Z-5.000
G1 X98.686 Y36.707 Z-5.000
G1 X98.872 Y36.636 Z-5.000
G1 X99.056 Y36.558 Z-5.000
G1 X99.237 Y36.471 Z-5.000
G1 X99.416 Y36.378 Z-5.000
G1 X99.591 Y36.276 Z-5.000
G1 X99.762 Y36.168 Z-5.000
G1 X99.928 Y36.053 Z-5.000
G1 X100.090 Y35.931 Z-5.000
G1 X100.247 Y35.802 Z-5.000
G1 X100.399 Y35.667 Z-5.000
G1 X100.544 Y35.527 Z-5.000
G1 X100.683 Y35.381 Z-5.000
G1 X100.816 Y35.231 Z-5.000
G1 X100.942 Y35.076 Z-5.000
G1 X101.061 Y34.917 Z-5.000
G1 X101.173 Y34.754 Z-5.000
G1 X101.278 Y34.588 Z-5.000
G1 X101.376 Y34.419 Z-5.000
G1 X101.466 Y34.248 Z-5.000
G1 X101.549 Y34.076 Z-5.000
G1 X101.624 Y33.902 Z-5.000
G1 X101.692 Y33.727 Z-5.000
G1 X101.753 Y33.551 Z-5.000
G1 X101.807 Y33.376 Z-5.000
G1 X101.858 Y33.184 Z-5.000
G1 X101.901 Y32.989 Z-5.000
G1 X101.937 Y32.793 Z-5.000
G1 X101.964 Y32.596 Z-5.000
G1 X101.984 Y32.397 Z-5.000
G1 X101.996 Y32.199 Z-5.000
G1 X102.000 Y32.000 Z-5.000
G1 X102.000 Y10.810 Z-5.000
G1 X102.000 Y3.000 Z-5.000
G1 X101.997 Y2.822 Z-5.000
G1 X101.987 Y2.642 Z-5.000
G1 X101.971 Y2.459 Z-5.000
G1 X101.947 Y2.275 Z-5.000
G1 X101.917 Y2.090 Z-5.000
G1 X101.878 Y1.904 Z-5.000
G1 X101.833 Y1.718 Z-5.000
G1 X101.779 Y1.531 Z-5.000
G1 X101.718 Y1.345 Z-5.000
G1 X101.649 Y1.160 Z-5.000
G1 X101.572 Y0.976 Z-5.000
G1 X101.487 Y0.794 Z-5.000
G1 X101.394 Y0.614 Z-5.000
G1 X101.293 Y0.437 Z-5.000
G1 X101.185 Y0.264 Z-5.000
G1 X101.069 Y0.094 Z-5.000
G1 X100.946 Y-0.071 Z-5.000
G1 X100.816 Y-0.231 Z-5.000
G1 X100.679 Y-0.386 Z-5.000
G1 X100.536 Y-0.536 Z-5.000
G1 X100.386 Y-0.679 Z-5.000
G1 X100.231 Y-0.816 Z-5.000
G1 X100.071 Y-0.946 Z-5.000
G1 X99.906 Y-1.069 Z-5.000
G1 X99.736 Y-1.185 Z-5.000
G1 X99.563 Y-1.293 Z-5.000
G1 X99.386 Y-1.394 Z-5.000
G1 X99.206 Y-1.487 Z-5.000
G1 X99.024 Y-1.572 Z-5.000
G1 X98.840 Y-1.649 Z-5.000
G1 X98.655 Y-1.718 Z-5.000
G1 X98.469 Y-1.779 Z-5.000
G1 X98.282 Y-1.833 Z-5.000
G1 X98.096 Y-1.878 Z-5.000
G1 X97.910 Y-1.917 Z-5.000
G1 X97.725 Y-1.947 Z-5.000
G1 X97.541 Y-1.971 Z-5.000
G1 X97.358 Y-1.987 Z-5.000
G1 X97.178 Y-1.997 Z-5.000
G1 X97.000 Y-2.000 Z-5.000
G1 X90.080 Y-2.000 Z-5.000
G1 X80.416 Y-2.000 Z-5.000
G1 X67.496 Y-2.000 Z-5.000
G1 X59.258 Y-2.000 Z-5.000
G1 X57.832 Y-2.000 Z-5.000
G1 X44.912 Y-2.000 Z-5.129 F635.0
G1 X43.258 Y-2.000 Z-5.146
G1 X35.248 Y-2.000 Z-5.226
G1 X12.664 Y-2.000 Z-5.452
G1 X3.000 Y-2.000 Z-5.548
G1 X2.822 Y-1.997 Z-5.550
G1 X2.642 Y-1.987 Z-5.552
G1 X2.459 Y-1.971 Z-5.554
G1 X2.275 Y-1.947 Z-5.556
G1 X2.090 Y-1.917 Z-5.558
G1 X1.904 Y-1.878 Z-5.560
G1 X1.718 Y-1.833 Z-5.562
G1 X1.531 Y-1.779 Z-5.564
G1 X1.345 Y-1.718 Z-5.566
G1 X1.160 Y-1.649 Z-5.568
G1 X0.976 Y-1.572 Z-5.570
G1 X0.794 Y-1.487 Z-5.572
G1 X0.614 Y-1.394 Z-5.574
G1 X0.437 Y-1.293 Z-5.576
G1 X0.264 Y-1.185 Z-5.578
G1 X0.094 Y-1.069 Z-5.580
G1 X-0.071 Y-0.946 Z-5.582
G1 X-0.231 Y-0.816 Z-5.584
G1 X-0.386 Y-0.679 Z-5.586
G1 X-0.536 Y-0.536 Z-5.588
G1 X-0.679 Y-0.386 Z-5.590
G1 X-0.816 Y-0.231 Z-5.592
G1 X-0.946 Y-0.071 Z-5.593
G1 X-1.069 Y0.094 Z-5.595
G1 X-1.185 Y0.264 Z-5.597
G1 X-1.293 Y0.437 Z-5.599
G1 X-1.394 Y0.614 Z-5.601
G1 X-1.487 Y0.794 Z-5.603
G1 X-1.572 Y0.976 Z-5.605
G1 X-1.649 Y1.160 Z-5.607
G1 X-1.718 Y1.345 Z-5.609
G1 X-1.779 Y1.531 Z-5.611
G1 X-1.833 Y1.718 Z-5.613
G1 X-1.878 Y1.904 Z-5.615
G1 X-1.917 Y2.090 Z-5.617
G1 X-1.947 Y2.275 Z-5.619
G1 X-1.971 Y2.459 Z-5.621
G1 X-1.987 Y2.642 Z-5.623
G1 X-1.997 Y2.822 Z-5.625
G1 X-2.000 Y3.000 Z-5.627
G1 X-2.000 Y8.066 Z-5.678
G1 X-2.000 Y17.730 Z-5.774
G1 X-2.000 Y30.650 Z-5.903
G1 X-2.000 Y32.000 Z-5.917
G1 X-1.997 Y32.178 Z-5.919
G1 X-1.987 Y32.358 Z-5.921
G1 X-1.971 Y32.541 Z-5.923
G1 X-1.947 Y32.725 Z-5.925
G1 X-1.917 Y32.910 Z-5.927
G1 X-1.878 Y33.096 Z-5.929
G1 X-1.833 Y33.282 Z-5.931
G1 X-1.779 Y33.469 Z-5.933
G1 X-1.718 Y33.655 Z-5.935
G1 X-1.649 Y33.840 Z-5.936
G1 X-1.572 Y34.024 Z-5.938
G1 X-1.487 Y34.206 Z-5.940
G1 X-1.394 Y34.386 Z-5.942
G1 X-1.293 Y34.563 Z-5.944
G1 X-1.185 Y34.736 Z-5.946
G1 X-1.069 Y34.906 Z-5.948
G1 X-0.946 Y35.071 Z-5.950
G1 X-0.816 Y35.231 Z-5.952
G1 X-0.679 Y35.386 Z-5.954
G1 X-0.536 Y35.536 Z-5.956
G1 X-0.386 Y35.679 Z-5.958
G1 X-0.231 Y35.816 Z-5.960
G1 X-0.071 Y35.946 Z-5.962
G1 X0.094 Y36.069 Z-5.964
G1 X0.264 Y36.185 Z-5.966
G1 X0.437 Y36.293 Z-5.968
G1 X0.614 Y36.394 Z-5.970
G1 X0.794 Y36.487 Z-5.972
G1 X0.976 Y36.572 Z-5.974
G1 X1.160 Y36.649 Z-5.976
G1 X1.345 Y36.718 Z-5.978
G1 X1.531 Y36.779 Z-5.980
G1 X1.718 Y36.833 Z-5.982
G1 X1.904 Y36.878 Z-5.984
G1 X2.090 Y36.917 Z-5.986
G1 X2.275 Y36.947 Z-5.988
G1 X2.459 Y36.971 Z-5.990
G1 X2.642 Y36.987 Z-5.991
G1 X2.822 Y36.997 Z-5.993
G1 X3.000 Y37.000 Z-5.995
G1 X3.460 Y37.000 Z-6.000
G1 X26.044 Y37.000 Z-6.000 F2000.0
G1 X40.742 Y37.000 Z-6.000
G1 X48.628 Y37.000 Z-6.000
G1 X56.742 Y37.000 Z-6.000
G1 X58.292 Y37.000 Z-6.000
G1 X71.212 Y37.000 Z-6.000
G1 X80.876 Y37.000 Z-6.000
G1 X93.796 Y37.000 Z-6.000
G1 X97.000 Y37.000 Z-6.000
G1 X97.183 Y36.997 Z-6.000
G1 X97.369 Y36.986 Z-6.000
G1 X97.556 Y36.969 Z-6.000
G1 X97.744 Y36.944 Z-6.000
G1 X97.933 Y36.912 Z-6.000
G1 X98.122 Y36.873 Z-6.000
G1 X98.311 Y36.825 Z-6.000
G1 X98.499 Y36.770 Z-6.000
G1 X98.686 Y36.707 Z-6.000
G1 X98.872 Y36.636 Z-6.000
G1 X99.056 Y36.558 Z-6.000
G1 X99.237 Y36.471 Z-6.000
G1 X99.416 Y36.378 Z-6.000
G1 X99.591 Y36.276 Z-6.000
G1 X99.762 Y36.168 Z-6.000
G1 X99.928 Y36.053 Z-6.000
G1 X100.090 Y35.931 Z-6.000
G1 X100.247 Y35.802 Z-6.000
G1 X100.399 Y35.667 Z-6.000
G1 X100.544 Y35.527 Z-6.000
G1 X100.683 Y35.381 Z-6.000
G1 X100.816 Y35.231 Z-6.000
G1 X100.942 Y35.076 Z-6.000
G1 X101.061 Y34.917 Z-6.000
G1 X101.173 Y34.754 Z-6.000
G1 X101.278 Y34.588 Z-6.000
G1 X101.376 Y34.419 Z-6.000
G1 X101.466 Y34.248 Z-6.000
G1 X101.549 Y34.076 Z-6.000
G1 X101.624 Y33.902 Z-6.000
G1 X101.692 Y33.727 Z-6.000
G1 X101.753 Y33.551 Z-6.000
G1 X101.807 Y33.376 Z-6.000
G1 X101.858 Y33.184 Z-6.000
G1 X101.901 Y32.989 Z-6.000
G1 X101.937 Y32.793 Z-6.000
G1 X101.964 Y32.596 Z-6.000
G1 X101.984 Y32.397 Z-6.000
G1 X101.996 Y32.199 Z-6.000
G1 X102.000 Y32.000 Z-6.000
G1 X102.000 Y10.810 Z-6.000
G1 X102.000 Y3.000 Z-6.000
G1 X101.997 Y2.822 Z-6.000
G1 X101.987 Y2.642 Z-6.000
G1 X101.971 Y2.459 Z-6.000
G1 X101.947 Y2.275 Z-6.000
G1 X101.917 Y2.090 Z-6.000
G1 X101.878 Y1.904 Z-6.000
G1 X101.833 Y1.718 Z-6.000
G1 X101.779 Y1.531 Z-6.000
G1 X101.718 Y1.345 Z-6.000
G1 X101.649 Y1.160 Z-6.000
G1 X101.572 Y0.976 Z-6.000
G1 X101.487 Y0.794 Z-6.000
G1 X101.394 Y0.614 Z-6.000
G1 X101.293 Y0.437 Z-6.000
G1 X101.185 Y0.264 Z-6.000
G1 X101.069 Y0.094 Z-6.000
G1 X100.946 Y-0.071 Z-6.000
G1 X100.816 Y-0.231 Z-6.000
G1 X100.679 Y-0.386 Z-6.000
G1 X100.536 Y-0.536 Z-6.000
G1 X100.386 Y-0.679 Z-6.000
G1 X100.231 Y-0.816 Z-6.000
G1 X100.071 Y-0.946 Z-6.000
G1 X99.906 Y-1.069 Z-6.000
G1 X99.736 Y-1.185 Z-6.000
G1 X99.563 Y-1.293 Z-6.000
G1 X99.386 Y-1.394 Z-6.000
G1 X99.206 Y-1.487 Z-6.000
G1 X99.024 Y-1.572 Z-6.000
G1 X98.840 Y-1.649 Z-6.000
G1 X98.655 Y-1.718 Z-6.000
G1 X98.469 Y-1.779 Z-6.000
G1 X98.282 Y-1.833 Z-6.000
G1 X98.096 Y-1.878 Z-6.000
G1 X97.910 Y-1.917 Z-6.000
G1 X97.725 Y-1.947 Z-6.000
G1 X97.541 Y-1.971 Z-6.000
G1 X97.358 Y-1.987 Z-6.000
G1 X97.178 Y-1.997 Z-6.000
G1 X97.000 Y-2.000 Z-6.000
G1 X90.080 Y-2.000 Z-6.000
G1 X80.416 Y-2.000 Z-6.000
G1 X67.496 Y-2.000 Z-6.000
G1 X59.258 Y-2.000 Z-6.000
G1 X57.832 Y-2.000 Z-6.000
G1 X44.912 Y-2.000 Z-6.000
G1 X43.258 Y-2.000 Z-6.000
G1 X35.248 Y-2.000 Z-6.000
G1 X12.664 Y-2.000 Z-6.000
G1 X3.000 Y-2.000 Z-6.000
G1 X2.822 Y-1.997 Z-6.000
G1 X2.642 Y-1.987 Z-6.000
G1 X2.459 Y-1.971 Z-6.000
G1 X2.275 Y-1.947 Z-6.000
G1 X2.090 Y-1.917 Z-6.000
G1 X1.904 Y-1.878 Z-6.000
G1 X1.718 Y-1.833 Z-6.000
G1 X1.531 Y-1.779 Z-6.000
G1 X1.345 Y-1.718 Z-6.000
G1 X1.160 Y-1.649 Z-6.000
G1 X0.976 Y-1.572 Z-6.000
G1 X0.794 Y-1.487 Z-6.000
G1 X0.614 Y-1.394 Z-6.000
G1 X0.437 Y-1.293 Z-6.000
G1 X0.264 Y-1.185 Z-6.000
G1 X0.094 Y-1.069 Z-6.000
G1 X-0.071 Y-0.946 Z-6.000
G1 X-0.231 Y-0.816 Z-6.000
G1 X-0.386 Y-0.679 Z-6.000
G1 X-0.536 Y-0.536 Z-6.000
G1 X-0.679 Y-0.386 Z-6.000
G1 X-0.816 Y-0.231 Z-6.000
G1 X-0.946 Y-0.071 Z-6.000
G1 X-1.069 Y0.094 Z-6.000
G1 X-1.185 Y0.264 Z-6.000
G1 X-1.293 Y0.437 Z-6.000
G1 X-1.394 Y0.614 Z-6.000
G1 X-1.487 Y0.794 Z-6.000
G1 X-1.572 Y0.976 Z-6.000
G1 X-1.649 Y1.160 Z-6.000
G1 X-1.718 Y1.345 Z-6.000
G1 X-1.779 Y1.531 Z-6.000
G1 X-1.833 Y1.718 Z-6.000
G1 X-1.878 Y1.904 Z-6.000
G1 X-1.917 Y2.090 Z-6.000
G1 X-1.947 Y2.275 Z-6.000
G1 X-1.971 Y2.459 Z-6.000
G1 X-1.987 Y2.642 Z-6.000
G1 X-1.997 Y2.822 Z-6.000
G1 X-2.000 Y3.000 Z-6.000
G1 X-2.000 Y8.066 Z-6.000
G1 X-2.000 Y17.730 Z-6.000
G1 X-2.000 Y30.650 Z-6.000
G1 X-2.000 Y32.000 Z-6.000
G1 X-1.997 Y32.178 Z-6.000
G1 X-1.987 Y32.358 Z-6.000
G1 X-1.971 Y32.541 Z-6.000
G1 X-1.947 Y32.725 Z-6.000
G1 X-1.917 Y32.910 Z-6.000
G1 X-1.878 Y33.096 Z-6.000
G1 X-1.833 Y33.282 Z-6.000
G1 X-1.779 Y33.469 Z-6.000
G1 X-1.718 Y33.655 Z-6.000
G1 X-1.649 Y33.840 Z-6.000
G1 X-1.572 Y34.024 Z-6.000
G1 X-1.487 Y34.206 Z-6.000
G1 X-1.394 Y34.386 Z-6.000
G1 X-1.293 Y34.563 Z-6.000
G1 X-1.185 Y34.736 Z-6.000
G1 X-1.069 Y34.906 Z-6.000
G1 X-0.946 Y35.071 Z-6.000
G1 X-0.816 Y35.231 Z-6.000
G1 X-0.679 Y35.386 Z-6.000
G1 X-0.536 Y35.536 Z-6.000
G1 X-0.386 Y35.679 Z-6.000
G1 X-0.231 Y35.816 Z-6.000
G1 X-0.071 Y35.946 Z-6.000
G1 X0.094 Y36.069 Z-6.000
G1 X0.264 Y36.185 Z-6.000
G1 X0.437 Y36.293 Z-6.000
G1 X0.614 Y36.394 Z-6.000
G1 X0.794 Y36.487 Z-6.000
G1 X0.976 Y36.572 Z-6.000
G1 X1.160 Y36.649 Z-6.000
G1 X1.345 Y36.718 Z-6.000
G1 X1.531 Y36.779 Z-6.000
G1 X1.718 Y36.833 Z-6.000
G1 X1.904 Y36.878 Z-6.000
G1 X2.090 Y36.917 Z-6.000
G1 X2.275 Y36.947 Z-6.000
G1 X2.459 Y36.971 Z-6.000
G1 X2.642 Y36.987 Z-6.000
G1 X2.822 Y36.997 Z-6.000
G1 X3.000 Y37.000 Z-6.000
G1 X3.460 Y37.000 Z-6.000
G1 X26.044 Y37.000 Z-6.226 F635.0
G1 X40.742 Y37.000 Z-6.373
G1 X48.628 Y37.000 Z-6.452
G1 X56.742 Y37.000 Z-6.533
G1 X58.292 Y37.000 Z-6.548
G1 X71.212 Y37.000 Z-6.678
G1 X80.876 Y37.000 Z-6.774
G1 X93.796 Y37.000 Z-6.903
G1 X97.000 Y37.000 Z-6.935
G1 X97.183 Y36.997 Z-6.937
G1 X97.369 Y36.986 Z-6.939
G1 X97.556 Y36.969 Z-6.941
G1 X97.744 Y36.944 Z-6.943
G1 X97.933 Y36.912 Z-6.945
G1 X98.122 Y36.873 Z-6.947
G1 X98.311 Y36.825 Z-6.949
G1 X98.499 Y36.770 Z-6.951
G1 X98.686 Y36.707 Z-6.953
G1 X98.872 Y36.636 Z-6.955
G1 X99.056 Y36.558 Z-6.957
G1 X99.237 Y36.471 Z-6.959
G1 X99.416 Y36.378 Z-6.961
G1 X99.591 Y36.276 Z-6.963
G1 X99.762 Y36.168 Z-6.965
G1 X99.928 Y36.053 Z-6.967
G1 X100.090 Y35.931 Z-6.969
G1 X100.247 Y35.802 Z-6.971
G1 X100.399 Y35.667 Z-6.973
G1 X100.544 Y35.527 Z-6.975
G1 X100.683 Y35.381 Z-6.977
G1 X100.816 Y35.231 Z-6.978
G1 X100.942 Y35.076 Z-6.980
G1 X101.061 Y34.917 Z-6.982
G1 X101.173 Y34.754 Z-6.984
G1 X101.278 Y34.588 Z-6.986
G1 X101.376 Y34.419 Z-6.988
G1 X101.466 Y34.248 Z-6.990
G1 X101.549 Y34.076 Z-6.992
G1 X101.624 Y33.902 Z-6.994
G1 X101.692 Y33.727 Z-6.996
G1 X101.753 Y33.551 Z-6.998
G1 X101.807 Y33.376 Z-7.000
G1 X101.858 Y33.184 Z-7.000 F2000.0
G1 X101.901 Y32.989 Z-7.000
G1 X101.937 Y32.793 Z-7.000
G1 X101.964 Y32.596 Z-7.000
G1 X101.984 Y32.397 Z-7.000
G1 X101.996 Y32.199 Z-7.000
G1 X102.000 Y32.000 Z-7.000
G1 X102.000 Y10.810 Z-7.000
G1 X102.000 Y3.000 Z-7.000
G1 X101.997 Y2.822 Z-7.000
G1 X101.987 Y2.642 Z-7.000
G1 X101.971 Y2.459 Z-7.000
G1 X101.947 Y2.275 Z-7.000
G1 X101.917 Y2.090 Z-7.000
G1 X101.878 Y1.904 Z-7.000
G1 X101.833 Y1.718 Z-7.000
G1 X101.779 Y1.531 Z-7.000
G1 X101.718 Y1.345 Z-7.000
G1 X101.649 Y1.160 Z-7.000
G1 X101.572 Y0.976 Z-7.000
G1 X101.487 Y0.794 Z-7.000
G1 X101.394 Y0.614 Z-7.000
G1 X101.293 Y0.437 Z-7.000
G1 X101.185 Y0.264 Z-7.000
G1 X101.069 Y0.094 Z-7.000
G1 X100.946 Y-0.071 Z-7.000
G1 X100.816 Y-0.231 Z-7.000
G1 X100.679 Y-0.386 Z-7.000
G1 X100.536 Y-0.536 Z-7.000
G1 X100.386 Y-0.679 Z-7.000
G1 X100.231 Y-0.816 Z-7.000
G1 X100.071 Y-0.946 Z-7.000
G1 X99.906 Y-1.069 Z-7.000
G1 X99.736 Y-1.185 Z-7.000
G1 X99.563 Y-1.293 Z-7.000
G1 X99.386 Y-1.394 Z-7.000
G1 X99.206 Y-1.487 Z-7.000
G1 X99.024 Y-1.572 Z-7.000
G1 X98.840 Y-1.649 Z-7.000
G1 X98.655 Y-1.718 Z-7.000
G1 X98.469 Y-1.779 Z-7.000
G1 X98.282 Y-1.833 Z-7.000
G1 X98.096 Y-1.878 Z-7.000
G1 X97.910 Y-1.917 Z-7.000
G1 X97.725 Y-1.947 Z-7.000
G1 X97.541 Y-1.971 Z-7.000
G1 X97.358 Y-1.987 Z-7.000
G1 X97.178 Y-1.997 Z-7.000
G1 X97.000 Y-2.000 Z-7.000
G1 X90.080 Y-2.000 Z-7.000
G1 X80.416 Y-2.000 Z-7.000
G1 X67.496 Y-2.000 Z-7.000
G1 X59.258 Y-2.000 Z-7.000
G1 X57.832 Y-2.000 Z-7.000
G1 X44.912 Y-2.000 Z-7.000
G1 X43.258 Y-2.000 Z-7.000
G1 X35.248 Y-2.000 Z-7.000
G1 X12.664 Y-2.000 Z-7.000
G1 X3.000 Y-2.000 Z-7.000
G1 X2.822 Y-1.997 Z-7.000
G1 X2.642 Y-1.987 Z-7.000
G1 X2.459 Y-1.971 Z-7.000
G1 X2.275 Y-1.947 Z-7.000
G1 X2.090 Y-1.917 Z-7.000
G1 X1.904 Y-1.878 Z-7.000
G1 X1.718 Y-1.833 Z-7.000
G1 X1.531 Y-1.779 Z-7.000
G1 X1.345 Y-1.718 Z-7.000
G1 X1.160 Y-1.649 Z-7.000
G1 X0.976 Y-1.572 Z-7.000
G1 X0.794 Y-1.487 Z-7.000
G1 X0.614 Y-1.394 Z-7.000
G1 X0.437 Y-1.293 Z-7.000
G1 X0.264 Y-1.185 Z-7.000
G1 X0.094 Y-1.069 Z-7.000
G1 X-0.071 Y-0.946 Z-7.000
G1 X-0.231 Y-0.816 Z-7.000
G1 X-0.386 Y-0.679 Z-7.000
G1 X-0.536 Y-0.536 Z-7.000
G1 X-0.679 Y-0.386 Z-7.000
G1 X-0.816 Y-0.231 Z-7.000
G1 X-0.946 Y-0.071 Z-7.000
G1 X-1.069 Y0.094 Z-7.000
G1 X-1.185 Y0.264 Z-7.000
G1 X-1.293 Y0.437 Z-7.000
G1 X-1.394 Y0.614 Z-7.000
G1 X-1.487 Y0.794 Z-7.000
G1 X-1.572 Y0.976 Z-7.000
G1 X-1.649 Y1.160 Z-7.000
G1 X-1.718 Y1.345 Z-7.000
G1 X-1.779 Y1.531 Z-7.000
G1 X-1.833 Y1.718 Z-7.000
G1 X-1.878 Y1.904 Z-7.000
G1 X-1.917 Y2.090 Z-7.000
G1 X-1.947 Y2.275 Z-7.000
G1 X-1.971 Y2.459 Z-7.000
G1 X-1.987 Y2.642 Z-7.000
G1 X-1.997 Y2.822 Z-7.000
G1 X-2.000 Y3.000 Z-7.000
G1 X-2.000 Y8.066 Z-7.000
G1 X-2.000 Y17.730 Z-7.000
G1 X-2.000 Y30.650 Z-7.000
G1 X-2.000 Y32.000 Z-7.000
G1 X-1.997 Y32.178 Z-7.000
G1 X-1.987 Y32.358 Z-7.000
G1 X-1.971 Y32.541 Z-7.000
G1 X-1.947 Y32.725 Z-7.000
G1 X-1.917 Y32.910 Z-7.000
G1 X-1.878 Y33.096 Z-7.000
G1 X-1.833 Y33.282 Z-7.000
G1 X-1.779 Y33.469 Z-7.000
G1 X-1.718 Y33.655 Z-7.000
G1 X-1.649 Y33.840 Z-7.000
G1 X-1.572 Y34.024 Z-7.000
G1 X-1.487 Y34.206 Z-7.000
G1 X-1.394 Y34.386 Z-7.000
G1 X-1.293 Y34.563 Z-7.000
G1 X-1.185 Y34.736 Z-7.000
G1 X-1.069 Y34.906 Z-7.000
G1 X-0.946 Y35.071 Z-7.000
G1 X-0.816 Y35.231 Z-7.000
G1 X-0.679 Y35.386 Z-7.000
G1 X-0.536 Y35.536 Z-7.000
G1 X-0.386 Y35.679 Z-7.000
G1 X-0.231 Y35.816 Z-7.000
G1 X-0.071 Y35.946 Z-7.000
G1 X0.094 Y36.069 Z-7.000
G1 X0.264 Y36.185 Z-7.000
G1 X0.437 Y36.293 Z-7.000
G1 X0.614 Y36.394 Z-7.000
G1 X0.794 Y36.487 Z-7.000
G1 X0.976 Y36.572 Z-7.000
G1 X1.160 Y36.649 Z-7.000
G1 X1.345 Y36.718 Z-7.000
G1 X1.531 Y36.779 Z-7.000
G1 X1.718 Y36.833 Z-7.000
G1 X1.904 Y36.878 Z-7.000
G1 X2.090 Y36.917 Z-7.000
G1 X2.275 Y36.947 Z-7.000
G1 X2.459 Y36.971 Z-7.000
G1 X2.642 Y36.987 Z-7.000
G1 X2.822 Y36.997 Z-7.000
G1 X3.000 Y37.000 Z-7.000
G1 X3.460 Y37.000 Z-7.000
G1 X26.044 Y37.000 Z-7.000
G1 X40.742 Y37.000 Z-7.000
G1 X48.628 Y37.000 Z-7.000
G1 X56.742 Y37.000 Z-7.000
G1 X58.292 Y37.000 Z-7.000
G1 X71.212 Y37.000 Z-7.000
G1 X80.876 Y37.000 Z-7.000
G1 X93.796 Y37.000 Z-7.000
G1 X97.000 Y37.000 Z-7.000
G1 X97.183 Y36.997 Z-7.000
G1 X97.369 Y36.986 Z-7.000
G1 X97.556 Y36.969 Z-7.000
G1 X97.744 Y36.944 Z-7.000
G1 X97.933 Y36.912 Z-7.000
G1 X98.122 Y36.873 Z-7.000
G1 X98.311 Y36.825 Z-7.000
G1 X98.499 Y36.770 Z-7.000
G1 X98.686 Y36.707 Z-7.000
G1 X98.872 Y36.636 Z-7.000
G1 X99.056 Y36.558 Z-7.000
G1 X99.237 Y36.471 Z-7.000
G1 X99.416 Y36.378 Z-7.000
G1 X99.591 Y36.276 Z-7.000
G1 X99.762 Y36.168 Z-7.000
G1 X99.928 Y36.053 Z-7.000
G1 X100.090 Y35.931 Z-7.000
G1 X100.247 Y35.802 Z-7.000
G1 X100.399 Y35.667 Z-7.000
G1 X100.544 Y35.527 Z-7.000
G1 X100.683 Y35.381 Z-7.000
G1 X100.816 Y35.231 Z-7.000
G1 X100.942 Y35.076 Z-7.000
G1 X101.061 Y34.917 Z-7.000
G1 X101.173 Y34.754 Z-7.000
G1 X101.278 Y34.588 Z-7.000
G1 X101.376 Y34.419 Z-7.000
G1 X101.466 Y34.248 Z-7.000
G1 X101.549 Y34.076 Z-7.000
G1 X101.624 Y33.902 Z-7.000
G1 X101.692 Y33.727 Z-7.000
G1 X101.753 Y33.551 Z-7.000
G1 X101.807 Y33.376 Z-7.000
G1 X101.858 Y33.184 Z-7.002 F635.0
G1 X101.901 Y32.989 Z-7.004
G1 X101.937 Y32.793 Z-7.006
G1 X101.964 Y32.596 Z-7.008
G1 X101.984 Y32.397 Z-7.010
G1 X101.996 Y32.199 Z-7.012
G1 X102.000 Y32.000 Z-7.014
G1 X102.000 Y10.810 Z-7.226
G1 X102.000 Y3.000 Z-7.304
G1 X101.997 Y2.822 Z-7.306
G1 X101.987 Y2.642 Z-7.308
G1 X101.971 Y2.459 Z-7.310
G1 X101.947 Y2.275 Z-7.312
G1 X101.917 Y2.090 Z-7.314
G1 X101.878 Y1.904 Z-7.316
G1 X101.833 Y1.718 Z-7.318
G1 X101.779 Y1.531 Z-7.320
G1 X101.718 Y1.345 Z-7.322
G1 X101.649 Y1.160 Z-7.324
G1 X101.572 Y0.976 Z-7.326
G1 X101.487 Y0.794 Z-7.328
G1 X101.394 Y0.614 Z-7.329
G1 X101.293 Y0.437 Z-7.331
G1 X101.185 Y0.264 Z-7.333
G1 X101.069 Y0.094 Z-7.335
G1 X100.946 Y-0.071 Z-7.337
G1 X100.816 Y-0.231 Z-7.339
G1 X100.679 Y-0.386 Z-7.341
G1 X100.536 Y-0.536 Z-7.343
G1 X100.386 Y-0.679 Z-7.345
G1 X100.231 Y-0.816 Z-7.347
G1 X100.071 Y-0.946 Z-7.349
G1 X99.906 Y-1.069 Z-7.351
G1 X99.736 Y-1.185 Z-7.353
G1 X99.563 Y-1.293 Z-7.355
G1 X99.386 Y-1.394 Z-7.357
G1 X99.206 Y-1.487 Z-7.359
G1 X99.024 Y-1.572 Z-7.361
G1 X98.840 Y-1.649 Z-7.363
G1 X98.655 Y-1.718 Z-7.365
G1 X98.469 Y-1.779 Z-7.367
G1 X98.282 Y-1.833 Z-7.369
G1 X98.096 Y-1.878 Z-7.371
G1 X97.910 Y-1.917 Z-7.373
G1 X97.725 Y-1.947 Z-7.375
G1 X97.541 Y-1.971 Z-7.377
G1 X97.358 Y-1.987 Z-7.379
G1 X97.178 Y-1.997 Z-7.381
G1 X97.000 Y-2.000 Z-7.382
G1 X90.080 Y-2.000 Z-7.452
G1 X80.416 Y-2.000 Z-7.548
G1 X67.496 Y-2.000 Z-7.678
G1 X59.258 Y-2.000 Z-7.760
G1 X57.832 Y-2.000 Z-7.774
G1 X44.912 Y-2.000 Z-7.903
G1 X43.258 Y-2.000 Z-7.920
G1 X35.248 Y-2.000 Z-8.000
G1 X12.664 Y-2.000 Z-8.000 F2000.0
G1 X3.000 Y-2.000 Z-8.000
G1 X2.822 Y-1.997 Z-8.000
G1 X2.642 Y-1.987 Z-8.000
G1 X2.459 Y-1.971 Z-8.000
G1 X2.275 Y-1.947 Z-8.000
G1 X2.090 Y-1.917 Z-8.000
G1 X1.904 Y-1.878 Z-8.000
G1 X1.718 Y-1.833 Z-8.000
G1 X1.531 Y-1.779 Z-8.000
G1 X1.345 Y-1.718 Z-8.000
G1 X1.160 Y-1.649 Z-8.000
G1 X0.976 Y-1.572 Z-8.000
G1 X0.794 Y-1.487 Z-8.000
G1 X0.614 Y-1.394 Z-8.000
G1 X0.437 Y-1.293 Z-8.000
G1 X0.264 Y-1.185 Z-8.000
G1 X0.094 Y-1.069 Z-8.000
G1 X-0.071 Y-0.946 Z-8.000
G1 X-0.231 Y-0.816 Z-8.000
G1 X-0.386 Y-0.679 Z-8.000
G1 X-0.536 Y-0.536 Z-8.000
G1 X-0.679 Y-0.386 Z-8.000
G1 X-0.816 Y-0.231 Z-8.000
G1 X-0.946 Y-0.071 Z-8.000
G1 X-1.069 Y0.094 Z-8.000
G1 X-1.185 Y0.264 Z-8.000
G1 X-1.293 Y0.437 Z-8.000
G1 X-1.394 Y0.614 Z-8.000
G1 X-1.487 Y0.794 Z-8.000
G1 X-1.572 Y0.976 Z-8.000
G1 X-1.649 Y1.160 Z-8.000
G1 X-1.718 Y1.345 Z-8.000
G1 X-1.779 Y1.531 Z-8.000
G1 X-1.833 Y1.718 Z-8.000
G1 X-1.878 Y1.904 Z-8.000
G1 X-1.917 Y2.090 Z-8.000
G1 X-1.947 Y2.275 Z-8.000
G1 X-1.971 Y2.459 Z-8.000
G1 X-1.987 Y2.642 Z-8.000
G1 X-1.997 Y2.822 Z-8.000
G1 X-2.000 Y3.000 Z-8.000
G1 X-2.000 Y8.066 Z-8.000
G1 X-2.000 Y17.730 Z-8.000
G1 X-2.000 Y30.650 Z-8.000
G1 X-2.000 Y32.000 Z-8.000
G1 X-1.997 Y32.178 Z-8.000
G1 X-1.987 Y32.358 Z-8.000
G1 X-1.971 Y32.541 Z-8.000
G1 X-1.947 Y32.725 Z-8.000
G1 X-1.917 Y32.910 Z-8.000
G1 X-1.878 Y33.096 Z-8.000
G1 X-1.833 Y33.282 Z-8.000
G1 X-1.779 Y33.469 Z-8.000
G1 X-1.718 Y33.655 Z-8.000
G1 X-1.649 Y33.840 Z-8.000
G1 X-1.572 Y34.024 Z-8.000
G1 X-1.487 Y34.206 Z-8.000
G1 X-1.394 Y34.386 Z-8.000
G1 X-1.293 Y34.563 Z-8.000
G1 X-1.185 Y34.736 Z-8.000
G1 X-1.069 Y34.906 Z-8.000
G1 X-0.946 Y35.071 Z-8.000
G1 X-0.816 Y35.231 Z-8.000
G1 X-0.679 Y35.386 Z-8.000
G1 X-0.536 Y35.536 Z-8.000
G1 X-0.386 Y35.679 Z-8.000
G1 X-0.231 Y35.816 Z-8.000
G1 X-0.071 Y35.946 Z-8.000
G1 X0.094 Y36.069 Z-8.000
G1 X0.264 Y36.185 Z-8.000
G1 X0.437 Y36.293 Z-8.000
G1 X0.614 Y36.394 Z-8.000
G1 X0.794 Y36.487 Z-8.000
G1 X0.976 Y36.572 Z-8.000
G1 X1.160 Y36.649 Z-8.000
G1 X1.345 Y36.718 Z-8.000
G1 X1.531 Y36.779 Z-8.000
G1 X1.718 Y36.833 Z-8.000
G1 X1.904 Y36.878 Z-8.000
G1 X2.090 Y36.917 Z-8.000
G1 X2.275 Y36.947 Z-8.000
G1 X2.459 Y36.971 Z-8.000
G1 X2.642 Y36.987 Z-8.000
G1 X2.822 Y36.997 Z-8.000
G1 X3.000 Y37.000 Z-8.000
G1 X3.460 Y37.000 Z-8.000
G1 X26.044 Y37.000 Z-8.000
G1 X40.742 Y37.000 Z-8.000
G1 X48.628 Y37.000 Z-8.000
G1 X56.742 Y37.000 Z-8.000
G1 X58.292 Y37.000 Z-8.000
G1 X71.212 Y37.000 Z-8.000
G1 X80.876 Y37.000 Z-8.000
G1 X93.796 Y37.000 Z-8.000
G1 X97.000 Y37.000 Z-8.000
G1 X97.183 Y36.997 Z-8.000
G1 X97.369 Y36.986 Z-8.000
G1 X97.556 Y36.969 Z-8.000
G1 X97.744 Y36.944 Z-8.000
G1 X97.933 Y36.912 Z-8.000
G1 X98.122 Y36.873 Z-8.000
G1 X98.311 Y36.825 Z-8.000
G1 X98.499 Y36.770 Z-8.000
G1 X98.686 Y36.707 Z-8.000
G1 X98.872 Y36.636 Z-8.000
G1 X99.056 Y36.558 Z-8.000
G1 X99.237 Y36.471 Z-8.000
G1 X99.416 Y36.378 Z-8.000
G1 X99.591 Y36.276 Z-8.000
G1 X99.762 Y36.168 Z-8.000
G1 X99.928 Y36.053 Z-8.000
G1 X100.090 Y35.931 Z-8.000
G1 X100.247 Y35.802 Z-8.000
G1 X100.399 Y35.667 Z-8.000
G1 X100.544 Y35.527 Z-8.000
G1 X100.683 Y35.381 Z-8.000
G1 X100.816 Y35.231 Z-8.000
G1 X100.942 Y35.076 Z-8.000
G1 X101.061 Y34.917 Z-8.000
G1 X101.173 Y34.754 Z-8.000
G1 X101.278 Y34.588 Z-8.000
G1 X101.376 Y34.419 Z-8.000
G1 X101.466 Y34.248 Z-8.000
G1 X101.549 Y34.076 Z-8.000
G1 X101.624 Y33.902 Z-8.000
G1 X101.692 Y33.727 Z-8.000
G1 X101.753 Y33.551 Z-8.000
G1 X101.807 Y33.376 Z-8.000
G1 X101.858 Y33.184 Z-8.000
G1 X101.901 Y32.989 Z-8.000
G1 X101.937 Y32.793 Z-8.000
G1 X101.964 Y32.596 Z-8.000
G1 X101.984 Y32.397 Z-8.000
G1 X101.996 Y32.199 Z-8.000
G1 X102.000 Y32.000 Z-8.000
G1 X102.000 Y10.810 Z-8.000
G1 X102.000 Y3.000 Z-8.000
G1 X101.997 Y2.822 Z-8.000
G1 X101.987 Y2.642 Z-8.000
G1 X101.971 Y2.459 Z-8.000
G1 X101.947 Y2.275 Z-8.000
G1 X101.917 Y2.090 Z-8.000
G1 X101.878 Y1.904 Z-8.000
G1 X101.833 Y1.718 Z-8.000
G1 X101.779 Y1.531 Z-8.000
G1 X101.718 Y1.345 Z-8.000
G1 X101.649 Y1.160 Z-8.000
G1 X101.572 Y0.976 Z-8.000
G1 X101.487 Y0.794 Z-8.000
G1 X101.394 Y0.614 Z-8.000
G1 X101.293 Y0.437 Z-8.000
G1 X101.185 Y0.264 Z-8.000
G1 X101.069 Y0.094 Z-8.000
G1 X100.946 Y-0.071 Z-8.000
G1 X100.816 Y-0.231 Z-8.000
G1 X100.679 Y-0.386 Z-8.000
G1 X100.536 Y-0.536 Z-8.000
G1 X100.386 Y-0.679 Z-8.000
G1 X100.231 Y-0.816 Z-8.000
G1 X100.071 Y-0.946 Z-8.000
G1 X99.906 Y-1.069 Z-8.000
G1 X99.736 Y-1.185 Z-8.000
G1 X99.563 Y-1.293 Z-8.000
G1 X99.386 Y-1.394 Z-8.000
G1 X99.206 Y-1.487 Z-8.000
G1 X99.024 Y-1.572 Z-8.000
G1 X98.840 Y-1.649 Z-8.000
G1 X98.655 Y-1.718 Z-8.000
G1 X98.469 Y-1.779 Z-8.000
G1 X98.282 Y-1.833 Z-8.000
G1 X98.096 Y-1.878 Z-8.000
G1 X97.910 Y-1.917 Z-8.000
G1 X97.725 Y-1.947 Z-8.000
G1 X97.541 Y-1.971 Z-8.000
G1 X97.358 Y-1.987 Z-8.000
G1 X97.178 Y-1.997 Z-8.000
G1 X97.000 Y-2.000 Z-8.000
G1 X90.080 Y-2.000 Z-8.000
G1 X80.416 Y-2.000 Z-8.000
G1 X67.496 Y-2.000 Z-8.000
G1 X59.258 Y-2.000 Z-8.000
G1 X57.832 Y-2.000 Z-8.000
G1 X44.912 Y-2.000 Z-8.000
G1 X43.258 Y-2.000 Z-8.000
G1 X35.248 Y-2.000 Z-8.000
G1 X12.664 Y-2.000 Z-8.226 F635.0
G1 X3.000 Y-2.000 Z-8.322
G1 X2.822 Y-1.997 Z-8.324
G1 X2.642 Y-1.987 Z-8.326
G1 X2.459 Y-1.971 Z-8.328
G1 X2.275 Y-1.947 Z-8.330
G1 X2.090 Y-1.917 Z-8.332
G1 X1.904 Y-1.878 Z-8.334
G1 X1.718 Y-1.833 Z-8.336
G1 X1.531 Y-1.779 Z-8.338
G1 X1.345 Y-1.718 Z-8.340
G1 X1.160 Y-1.649 Z-8.342
G1 X0.976 Y-1.572 Z-8.344
G1 X0.794 Y-1.487 Z-8.346
G1 X0.614 Y-1.394 Z-8.348
G1 X0.437 Y-1.293 Z-8.350
G1 X0.264 Y-1.185 Z-8.352
G1 X0.094 Y-1.069 Z-8.354
G1 X-0.071 Y-0.946 Z-8.356
G1 X-0.231 Y-0.816 Z-8.358
G1 X-0.386 Y-0.679 Z-8.360
G1 X-0.536 Y-0.536 Z-8.362
G1 X-0.679 Y-0.386 Z-8.364
G1 X-0.816 Y-0.231 Z-8.366
G1 X-0.946 Y-0.071 Z-8.368
G1 X-1.069 Y0.094 Z-8.370
G1 X-1.185 Y0.264 Z-8.372
G1 X-1.293 Y0.437 Z-8.374
G1 X-1.394 Y0.614 Z-8.375
G1 X-1.487 Y0.794 Z-8.377
G1 X-1.572 Y0.976 Z-8.379
G1 X-1.649 Y1.160 Z-8.381
G1 X-1.718 Y1.345 Z-8.383
G1 X-1.779 Y1.531 Z-8.385
G1 X-1.833 Y1.718 Z-8.387
G1 X-1.878 Y1.904 Z-8.389
G1 X-1.917 Y2.090 Z-8.391
G1 X-1.947 Y2.275 Z-8.393
G1 X-1.971 Y2.459 Z-8.395
G1 X-1.987 Y2.642 Z-8.397
G1 X-1.997 Y2.822 Z-8.399
G1 X-2.000 Y3.000 Z-8.401
G1 X-2.000 Y8.066 Z-8.452
G1 X-2.000 Y17.730 Z-8.548
G1 X-2.000 Y30.650 Z-8.678
G1 X-2.000 Y32.000 Z-8.691
G1 X-1.997 Y32.178 Z-8.693
G1 X-1.987 Y32.358 Z-8.695
G1 X-1.971 Y32.541 Z-8.697
G1 X-1.947 Y32.725 Z-8.699
G1 X-1.917 Y32.910 Z-8.701
G1 X-1.878 Y33.096 Z-8.703
G1 X-1.833 Y33.282 Z-8.705
G1 X-1.779 Y33.469 Z-8.707
G1 X-1.718 Y33.655 Z-8.709
G1 X-1.649 Y33.840 Z-8.711
G1 X-1.572 Y34.024 Z-8.713
G1 X-1.487 Y34.206 Z-8.715
G1 X-1.394 Y34.386 Z-8.717
G1 X-1.293 Y34.563 Z-8.719
G1 X-1.185 Y34.736 Z-8.720
G1 X-1.069 Y34.906 Z-8.722
G1 X-0.946 Y35.071 Z-8.724
G1 X-0.816 Y35.231 Z-8.726
G1 X-0.679 Y35.386 Z-8.728
G1 X-0.536 Y35.536 Z-8.730
G1 X-0.386 Y35.679 Z-8.732
G1 X-0.231 Y35.816 Z-8.734
G1 X-0.071 Y35.946 Z-8.736
G1 X0.094 Y36.069 Z-8.738
G1 X0.264 Y36.185 Z-8.740
G1 X0.437 Y36.293 Z-8.742
G1 X0.614 Y36.394 Z-8.744
G1 X0.794 Y36.487 Z-8.746
G1 X0.976 Y36.572 Z-8.748
G1 X1.160 Y36.649 Z-8.750
G1 X1.345 Y36.718 Z-8.752
G1 X1.531 Y36.779 Z-8.754
G1 X1.718 Y36.833 Z-8.756
G1 X1.904 Y36.878 Z-8.758
G1 X2.090 Y36.917 Z-8.760
G1 X2.275 Y36.947 Z-8.762
G1 X2.459 Y36.971 Z-8.764
G1 X2.642 Y36.987 Z-8.766
G1 X2.822 Y36.997 Z-8.768
G1 X3.000 Y37.000 Z-8.770
G1 X3.460 Y37.000 Z-8.774
G1 X26.044 Y37.000 Z-9.000
G1 X40.742 Y37.000 Z-9.000 F2000.0
G1 X48.628 Y37.000 Z-9.000
G1 X56.742 Y37.000 Z-9.000
G1 X58.292 Y37.000 Z-9.000
G1 X71.212 Y37.000 Z-9.000
G1 X80.876 Y37.000 Z-9.000
G1 X93.796 Y37.000 Z-9.000
G1 X97.000 Y37.000 Z-9.000
G1 X97.183 Y36.997 Z-9.000
G1 X97.369 Y36.986 Z-9.000
G1 X97.556 Y36.969 Z-9.000
G1 X97.744 Y36.944 Z-9.000
G1 X97.933 Y36.912 Z-9.000
G1 X98.122 Y36.873 Z-9.000
G1 X98.311 Y36.825 Z-9.000
G1 X98.499 Y36.770 Z-9.000
G1 X98.686 Y36.707 Z-9.000
G1 X98.872 Y36.636 Z-9.000
G1 X99.056 Y36.558 Z-9.000
G1 X99.237 Y36.471 Z-9.000
G1 X99.416 Y36.378 Z-9.000
G1 X99.591 Y36.276 Z-9.000
G1 X99.762 Y36.168 Z-9.000
G1 X99.928 Y36.053 Z-9.000
G1 X100.090 Y35.931 Z-9.000
G1 X100.247 Y35.802 Z-9.000
G1 X100.399 Y35.667 Z-9.000
G1 X100.544 Y35.527 Z-9.000
G1 X100.683 Y35.381 Z-9.000
G1 X100.816 Y35.231 Z-9.000
G1 X100.942 Y35.076 Z-9.000
G1 X101.061 Y34.917 Z-9.000
G1 X101.173 Y34.754 Z-9.000
G1 X101.278 Y34.588 Z-9.000
G1 X101.376 Y34.419 Z-9.000
G1 X101.466 Y34.248 Z-9.000
G1 X101.549 Y34.076 Z-9.000
G1 X101.624 Y33.902 Z-9.000
G1 X101.692 Y33.727 Z-9.000
G1 X101.753 Y33.551 Z-9.000
G1 X101.807 Y33.376 Z-9.000
G1 X101.858 Y33.184 Z-9.000
G1 X101.901 Y32.989 Z-9.000
G1 X101.937 Y32.793 Z-9.000
G1 X101.964 Y32.596 Z-9.000
G1 X101.984 Y32.397 Z-9.000
G1 X101.996 Y32.199 Z-9.000
G1 X102.000 Y32.000 Z-9.000
G1 X102.000 Y10.810 Z-9.000
G1 X102.000 Y3.000 Z-9.000
G1 X101.997 Y2.822 Z-9.000
G1 X101.987 Y2.642 Z-9.000
G1 X101.971 Y2.459 Z-9.000
G1 X101.947 Y2.275 Z-9.000
G1 X101.917 Y2.090 Z-9.000
G1 X101.878 Y1.904 Z-9.000
G1 X101.833 Y1.718 Z-9.000
G1 X101.779 Y1.531 Z-9.000
G1 X101.718 Y1.345 Z-9.000
G1 X101.649 Y1.160 Z-9.000
G1 X101.572 Y0.976 Z-9.000
G1 X101.487 Y0.794 Z-9.000
G1 X101.394 Y0.614 Z-9.000
G1 X101.293 Y0.437 Z-9.000
G1 X101.185 Y0.264 Z-9.000
G1 X101.069 Y0.094 Z-9.000
G1 X100.946 Y-0.071 Z-9.000
G1 X100.816 Y-0.231 Z-9.000
G1 X100.679 Y-0.386 Z-9.000
G1 X100.536 Y-0.536 Z-9.000
G1 X100.386 Y-0.679 Z-9.000
G1 X100.231 Y-0.816 Z-9.000
G1 X100.071 Y-0.946 Z-9.000
G1 X99.906 Y-1.069 Z-9.000
G1 X99.736 Y-1.185 Z-9.000
G1 X99.563 Y-1.293 Z-9.000
G1 X99.386 Y-1.394 Z-9.000
G1 X99.206 Y-1.487 Z-9.000
G1 X99.024 Y-1.572 Z-9.000
G1 X98.840 Y-1.649 Z-9.000
G1 X98.655 Y-1.718 Z-9.000
G1 X98.469 Y-1.779 Z-9.000
G1 X98.282 Y-1.833 Z-9.000
G1 X98.096 Y-1.878 Z-9.000
G1 X97.910 Y-1.917 Z-9.000
G1 X97.725 Y-1.947 Z-9.000
G1 X97.541 Y-1.971 Z-9.000
G1 X97.358 Y-1.987 Z-9.000
G1 X97.178 Y-1.997 Z-9.000
G1 X97.000 Y-2.000 Z-9.000
G1 X90.080 Y-2.000 Z-9.000
G1 X80.416 Y-2.000 Z-9.000
G1 X67.496 Y-2.000 Z-9.000
G1 X59.258 Y-2.000 Z-9.000
G1 X57.832 Y-2.000 Z-9.000
G1 X44.912 Y-2.000 Z-9.000
G1 X43.258 Y-2.000 Z-9.000
G1 X35.248 Y-2.000 Z-9.000
G1 X12.664 Y-2.000 Z-9.000
G1 X3.000 Y-2.000 Z-9.000
G1 X2.822 Y-1.997 Z-9.000
G1 X2.642 Y-1.987 Z-9.000
G1 X2.459 Y-1.971 Z-9.000
G1 X2.275 Y-1.947 Z-9.000
G1 X2.090 Y-1.917 Z-9.000
G1 X1.904 Y-1.878 Z-9.000
G1 X1.718 Y-1.833 Z-9.000
G1 X1.531 Y-1.779 Z-9.000
G1 X1.345 Y-1.718 Z-9.000
G1 X1.160 Y-1.649 Z-9.000
G1 X0.976 Y-1.572 Z-9.000
G1 X0.794 Y-1.487 Z-9.000
G1 X0.614 Y-1.394 Z-9.000
G1 X0.437 Y-1.293 Z-9.000
G1 X0.264 Y-1.185 Z-9.000
G1 X0.094 Y-1.069 Z-9.000
G1 X-0.071 Y-0.946 Z-9.000
G1 X-0.231 Y-0.816 Z-9.000
G1 X-0.386 Y-0.679 Z-9.000
G1 X-0.536 Y-0.536 Z-9.000
G1 X-0.679 Y-0.386 Z-9.000
G1 X-0.816 Y-0.231 Z-9.000
G1 X-0.946 Y-0.071 Z-9.000
G1 X-1.069 Y0.094 Z-9.000
G1 X-1.185 Y0.264 Z-9.000
G1 X-1.293 Y0.437 Z-9.000
G1 X-1.394 Y0.614 Z-9.000
G1 X-1.487 Y0.794 Z-9.000
G1 X-1.572 Y0.976 Z-9.000
G1 X-1.649 Y1.160 Z-9.000
G1 X-1.718 Y1.345 Z-9.000
G1 X-1.779 Y1.531 Z-9.000
G1 X-1.833 Y1.718 Z-9.000
G1 X-1.878 Y1.904 Z-9.000
G1 X-1.917 Y2.090 Z-9.000
G1 X-1.947 Y2.275 Z-9.000
G1 X-1.971 Y2.459 Z-9.000
G1 X-1.987 Y2.642 Z-9.000
G1 X-1.997 Y2.822 Z-9.000
G1 X-2.000 Y3.000 Z-9.000
G1 X-2.000 Y8.066 Z-9.000
G1 X-2.000 Y17.730 Z-9.000
G1 X-2.000 Y30.650 Z-9.000
G1 X-2.000 Y32.000 Z-9.000
G1 X-1.997 Y32.178 Z-9.000
G1 X-1.987 Y32.358 Z-9.000
G1 X-1.971 Y32.541 Z-9.000
G1 X-1.947 Y32.725 Z-9.000
G1 X-1.917 Y32.910 Z-9.000
G1 X-1.878 Y33.096 Z-9.000
G1 X-1.833 Y33.282 Z-9.000
G1 X-1.779 Y33.469 Z-9.000
G1 X-1.718 Y33.655 Z-9.000
G1 X-1.649 Y33.840 Z-9.000
G1 X-1.572 Y34.024 Z-9.000
G1 X-1.487 Y34.206 Z-9.000
G1 X-1.394 Y34.386 Z-9.000
G1 X-1.293 Y34.563 Z-9.000
G1 X-1.185 Y34.736 Z-9.000
G1 X-1.069 Y34.906 Z-9.000
G1 X-0.946 Y35.071 Z-9.000
G1 X-0.816 Y35.231 Z-9.000
G1 X-0.679 Y35.386 Z-9.000
G1 X-0.536 Y35.536 Z-9.000
G1 X-0.386 Y35.679 Z-9.000
G1 X-0.231 Y35.816 Z-9.000
G1 X-0.071 Y35.946 Z-9.000
G1 X0.094 Y36.069 Z-9.000
G1 X0.264 Y36.185 Z-9.000
G1 X0.437 Y36.293 Z-9.000
G1 X0.614 Y36.394 Z-9.000
G1 X0.794 Y36.487 Z-9.000
G1 X0.976 Y36.572 Z-9.000
G1 X1.160 Y36.649 Z-9.000
G1 X1.345 Y36.718 Z-9.000
G1 X1.531 Y36.779 Z-9.000
G1 X1.718 Y36.833 Z-9.000
G1 X1.904 Y36.878 Z-9.000
G1 X2.090 Y36.917 Z-9.000
G1 X2.275 Y36.947 Z-9.000
G1 X2.459 Y36.971 Z-9.000
G1 X2.642 Y36.987 Z-9.000
G1 X2.822 Y36.997 Z-9.000
G1 X3.000 Y37.000 Z-9.000
G1 X3.460 Y37.000 Z-9.000
G1 X26.044 Y37.000 Z-9.000
G1 X40.742 Y37.000 Z-9.147 F635.0
G1 X48.628 Y37.000 Z-9.226
G1 X56.742 Y37.000 Z-9.307
G1 X58.292 Y37.000 Z-9.322
G1 X71.212 Y37.000 Z-9.452
G1 X80.876 Y37.000 Z-9.548
G1 X93.796 Y37.000 Z-9.678
G1 X97.000 Y37.000 Z-9.710
G1 X97.183 Y36.997 Z-9.712
G1 X97.369 Y36.986 Z-9.713
G1 X97.556 Y36.969 Z-9.715
G1 X97.744 Y36.944 Z-9.717
G1 X97.933 Y36.912 Z-9.719
G1 X98.122 Y36.873 Z-9.721
G1 X98.311 Y36.825 Z-9.723
G1 X98.499 Y36.770 Z-9.725
G1 X98.686 Y36.707 Z-9.727
G1 X98.872 Y36.636 Z-9.729
G1 X99.056 Y36.558 Z-9.731
G1 X99.237 Y36.471 Z-9.733
G1 X99.416 Y36.378 Z-9.735
G1 X99.591 Y36.276 Z-9.737
G1 X99.762 Y36.168 Z-9.739
G1 X99.928 Y36.053 Z-9.741
G1 X100.090 Y35.931 Z-9.743
G1 X100.247 Y35.802 Z-9.745
G1 X100.399 Y35.667 Z-9.747
G1 X100.544 Y35.527 Z-9.749
G1 X100.683 Y35.381 Z-9.751
G1 X100.816 Y35.231 Z-9.753
G1 X100.942 Y35.076 Z-9.755
G1 X101.061 Y34.917 Z-9.757
G1 X101.173 Y34.754 Z-9.758
G1 X101.278 Y34.588 Z-9.760
G1 X101.376 Y34.419 Z-9.762
G1 X101.466 Y34.248 Z-9.764
G1 X101.549 Y34.076 Z-9.766
G1 X101.624 Y33.902 Z-9.768
G1 X101.692 Y33.727 Z-9.770
G1 X101.753 Y33.551 Z-9.772
G1 X101.807 Y33.376 Z-9.774
G1 X101.858 Y33.184 Z-9.776
G1 X101.901 Y32.989 Z-9.778
G1 X101.937 Y32.793 Z-9.780
G1 X101.964 Y32.596 Z-9.782
G1 X101.984 Y32.397 Z-9.784
G1 X101.996 Y32.199 Z-9.786
G1 X102.000 Y32.000 Z-9.788
G1 X102.000 Y10.810 Z-10.000
G1 X102.000 Y3.000 Z-10.000 F2000.0
G1 X101.997 Y2.822 Z-10.000
G1 X101.987 Y2.642 Z-10.000
G1 X101.971 Y2.459 Z-10.000
G1 X101.947 Y2.275 Z-10.000
G1 X101.917 Y2.090 Z-10.000
G1 X101.878 Y1.904 Z-10.000
G1 X101.833 Y1.718 Z-10.000
G1 X101.779 Y1.531 Z-10.000
G1 X101.718 Y1.345 Z-10.000
G1 X101.649 Y1.160 Z-10.000
G1 X101.572 Y0.976 Z-10.000
G1 X101.487 Y0.794 Z-10.000
G1 X101.394 Y0.614 Z-10.000
G1 X101.293 Y0.437 Z-10.000
G1 X101.185 Y0.264 Z-10.000
G1 X101.069 Y0.094 Z-10.000
G1 X100.946 Y-0.071 Z-10.000
G1 X100.816 Y-0.231 Z-10.000
G1 X100.679 Y-0.386 Z-10.000
G1 X100.536 Y-0.536 Z-10.000
G1 X100.386 Y-0.679 Z-10.000
G1 X100.231 Y-0.816 Z-10.000
G1 X100.071 Y-0.946 Z-10.000
G1 X99.906 Y-1.069 Z-10.000
G1 X99.736 Y-1.185 Z-10.000
G1 X99.563 Y-1.293 Z-10.000
G1 X99.386 Y-1.394 Z-10.000
G1 X99.206 Y-1.487 Z-10.000
G1 X99.024 Y-1.572 Z-10.000
G1 X98.840 Y-1.649 Z-10.000
G1 X98.655 Y-1.718 Z-10.000
G1 X98.469 Y-1.779 Z-10.000
G1 X98.282 Y-1.833 Z-10.000
G1 X98.096 Y-1.878 Z-10.000
G1 X97.910 Y-1.917 Z-10.000
G1 X97.725 Y-1.947 Z-10.000
G1 X97.541 Y-1.971 Z-10.000
G1 X97.358 Y-1.987 Z-10.000
G1 X97.178 Y-1.997 Z-10.000
G1 X97.000 Y-2.000 Z-10.000
G1 X90.080 Y-2.000 Z-10.000
G1 X80.416 Y-2.000 Z-10.000
G1 X67.496 Y-2.000 Z-10.000
G1 X59.258 Y-2.000 Z-10.000
G1 X57.832 Y-2.000 Z-10.000
G1 X44.912 Y-2.000 Z-10.000
G1 X43.258 Y-2.000 Z-10.000
G1 X35.248 Y-2.000 Z-10.000
G1 X12.664 Y-2.000 Z-10.000
G1 X3.000 Y-2.000 Z-10.000
G1 X2.822 Y-1.997 Z-10.000
G1 X2.642 Y-1.987 Z-10.000
G1 X2.459 Y-1.971 Z-10.000
G1 X2.275 Y-1.947 Z-10.000
G1 X2.090 Y-1.917 Z-10.000
G1 X1.904 Y-1.878 Z-10.000
G1 X1.718 Y-1.833 Z-10.000
G1 X1.531 Y-1.779 Z-10.000
G1 X1.345 Y-1.718 Z-10.000
G1 X1.160 Y-1.649 Z-10.000
G1 X0.976 Y-1.572 Z-10.000
G1 X0.794 Y-1.487 Z-10.000
G1 X0.614 Y-1.394 Z-10.000
G1 X0.437 Y-1.293 Z-10.000
G1 X0.264 Y-1.185 Z-10.000
G1 X0.094 Y-1.069 Z-10.000
G1 X-0.071 Y-0.946 Z-10.000
G1 X-0.231 Y-0.816 Z-10.000
G1 X-0.386 Y-0.679 Z-10.000
G1 X-0.536 Y-0.536 Z-10.000
G1 X-0.679 Y-0.386 Z-10.000
G1 X-0.816 Y-0.231 Z-10.000
G1 X-0.946 Y-0.071 Z-10.000
G1 X-1.069 Y0.094 Z-10.000
G1 X-1.185 Y0.264 Z-10.000
G1 X-1.293 Y0.437 Z-10.000
G1 X-1.394 Y0.614 Z-10.000
G1 X-1.487 Y0.794 Z-10.000
G1 X-1.572 Y0.976 Z-10.000
G1 X-1.649 Y1.160 Z-10.000
G1 X-1.718 Y1.345 Z-10.000
G1 X-1.779 Y1.531 Z-10.000
G1 X-1.833 Y1.718 Z-10.000
G1 X-1.878 Y1.904 Z-10.000
G1 X-1.917 Y2.090 Z-10.000
G1 X-1.947 Y2.275 Z-10.000
G1 X-1.971 Y2.459 Z-10.000
G1 X-1.987 Y2.642 Z-10.000
G1 X-1.997 Y2.822 Z-10.000
G1 X-2.000 Y3.000 Z-10.000
G1 X-2.000 Y8.066 Z-10.000
G1 X-2.000 Y17.730 Z-10.000
G1 X-2.000 Y30.650 Z-10.000
G1 X-2.000 Y32.000 Z-10.000
G1 X-1.997 Y32.178 Z-10.000
G1 X-1.987 Y32.358 Z-10.000
G1 X-1.971 Y32.541 Z-10.000
G1 X-1.947 Y32.725 Z-10.000
G1 X-1.917 Y32.910 Z-10.000
G1 X-1.878 Y33.096 Z-10.000
G1 X-1.833 Y33.282 Z-10.000
G1 X-1.779 Y33.469 Z-10.000
G1 X-1.718 Y33.655 Z-10.000
G1 X-1.649 Y33.840 Z-10.000
G1 X-1.572 Y34.024 Z-10.000
G1 X-1.487 Y34.206 Z-10.000
G1 X-1.394 Y34.386 Z-10.000
G1 X-1.293 Y34.563 Z-10.000
G1 X-1.185 Y34.736 Z-10.000
G1 X-1.069 Y34.906 Z-10.000
G1 X-0.946 Y35.071 Z-10.000
G1 X-0.816 Y35.231 Z-10.000
G1 X-0.679 Y35.386 Z-10.000
G1 X-0.536 Y35.536 Z-10.000
G1 X-0.386 Y35.679 Z-10.000
G1 X-0.231 Y35.816 Z-10.000
G1 X-0.071 Y35.946 Z-10.000
G1 X0.094 Y36.069 Z-10.000
G1 X0.264 Y36.185 Z-10.000
G1 X0.437 Y36.293 Z-10.000
G1 X0.614 Y36.394 Z-10.000
G1 X0.794 Y36.487 Z-10.000
G1 X0.976 Y36.572 Z-10.000
G1 X1.160 Y36.649 Z-10.000
G1 X1.345 Y36.718 Z-10.000
G1 X1.531 Y36.779 Z-10.000
G1 X1.718 Y36.833 Z-10.000
G1 X1.904 Y36.878 Z-10.000
G1 X2.090 Y36.917 Z-10.000
G1 X2.275 Y36.947 Z-10.000
G1 X2.459 Y36.971 Z-10.000
G1 X2.642 Y36.987 Z-10.000
G1 X2.822 Y36.997 Z-10.000
G1 X3.000 Y37.000 Z-10.000
G1 X3.460 Y37.000 Z-10.000
G1 X26.044 Y37.000 Z-10.000
G1 X40.742 Y37.000 Z-10.000
G1 X48.628 Y37.000 Z-10.000
G1 X56.742 Y37.000 Z-10.000
G1 X58.292 Y37.000 Z-10.000
G1 X71.212 Y37.000 Z-10.000
G1 X80.876 Y37.000 Z-10.000
G1 X93.796 Y37.000 Z-10.000
G1 X97.000 Y37.000 Z-10.000
G1 X97.183 Y36.997 Z-10.000
G1 X97.369 Y36.986 Z-10.000
G1 X97.556 Y36.969 Z-10.000
G1 X97.744 Y36.944 Z-10.000
G1 X97.933 Y36.912 Z-10.000
G1 X98.122 Y36.873 Z-10.000
G1 X98.311 Y36.825 Z-10.000
G1 X98.499 Y36.770 Z-10.000
G1 X98.686 Y36.707 Z-10.000
G1 X98.872 Y36.636 Z-10.000
G1 X99.056 Y36.558 Z-10.000
G1 X99.237 Y36.471 Z-10.000
G1 X99.416 Y36.378 Z-10.000
G1 X99.591 Y36.276 Z-10.000
G1 X99.762 Y36.168 Z-10.000
G1 X99.928 Y36.053 Z-10.000
G1 X100.090 Y35.931 Z-10.000
G1 X100.247 Y35.802 Z-10.000
G1 X100.399 Y35.667 Z-10.000
G1 X100.544 Y35.527 Z-10.000
G1 X100.683 Y35.381 Z-10.000
G1 X100.816 Y35.231 Z-10.000
G1 X100.942 Y35.076 Z-10.000
G1 X101.061 Y34.917 Z-10.000
G1 X101.173 Y34.754 Z-10.000
G1 X101.278 Y34.588 Z-10.000
G1 X101.376 Y34.419 Z-10.000
G1 X101.466 Y34.248 Z-10.000
G1 X101.549 Y34.076 Z-10.000
G1 X101.624 Y33.902 Z-10.000
G1 X101.692 Y33.727 Z-10.000
G1 X101.753 Y33.551 Z-10.000
G1 X101.807 Y33.376 Z-10.000
G1 X101.858 Y33.184 Z-10.000
G1 X101.901 Y32.989 Z-10.000
G1 X101.937 Y32.793 Z-10.000
G1 X101.964 Y32.596 Z-10.000
G1 X101.984 Y32.397 Z-10.000
G1 X101.996 Y32.199 Z-10.000
G1 X102.000 Y32.000 Z-10.000
G1 X102.000 Y10.810 Z-10.000
G1 X102.000 Y3.000 Z-10.078 F635.0
G1 X101.997 Y2.822 Z-10.080
G1 X101.987 Y2.642 Z-10.082
G1 X101.971 Y2.459 Z-10.084
G1 X101.947 Y2.275 Z-10.086
G1 X101.917 Y2.090 Z-10.088
G1 X101.878 Y1.904 Z-10.090
G1 X101.833 Y1.718 Z-10.092
G1 X101.779 Y1.531 Z-10.094
G1 X101.718 Y1.345 Z-10.096
G1 X101.649 Y1.160 Z-10.098
G1 X101.572 Y0.976 Z-10.100
G1 X101.487 Y0.794 Z-10.102
G1 X101.394 Y0.614 Z-10.104
G1 X101.293 Y0.437 Z-10.106
G1 X101.185 Y0.264 Z-10.108
G1 X101.069 Y0.094 Z-10.110
G1 X100.946 Y-0.071 Z-10.111
G1 X100.816 Y-0.231 Z-10.113
G1 X100.679 Y-0.386 Z-10.115
G1 X100.536 Y-0.536 Z-10.117
G1 X100.386 Y-0.679 Z-10.119
G1 X100.231 Y-0.816 Z-10.121
G1 X100.071 Y-0.946 Z-10.123
G1 X99.906 Y-1.069 Z-10.125
G1 X99.736 Y-1.185 Z-10.127
G1 X99.563 Y-1.293 Z-10.129
G1 X99.386 Y-1.394 Z-10.131
G1 X99.206 Y-1.487 Z-10.133
G1 X99.024 Y-1.572 Z-10.135
G1 X98.840 Y-1.649 Z-10.137
G1 X98.655 Y-1.718 Z-10.139
G1 X98.469 Y-1.779 Z-10.141
G1 X98.282 Y-1.833 Z-10.143
G1 X98.096 Y-1.878 Z-10.145
G1 X97.910 Y-1.917 Z-10.147
G1 X97.725 Y-1.947 Z-10.149
G1 X97.541 Y-1.971 Z-10.151
G1 X97.358 Y-1.987 Z-10.153
G1 X97.178 Y-1.997 Z-10.155
G1 X97.000 Y-2.000 Z-10.157
G1 X90.080 Y-2.000 Z-10.226
G1 X80.416 Y-2.000 Z-10.322
G1 X67.496 Y-2.000 Z-10.452
G1 X59.258 Y-2.000 Z-10.534
G1 X57.832 Y-2.000 Z-10.548
G1 X44.912 Y-2.000 Z-10.678
G1 X43.258 Y-2.000 Z-10.694
G1 X35.248 Y-2.000 Z-10.774
G1 X12.664 Y-2.000 Z-11.000
G1 X3.000 Y-2.000 Z-11.000 F2000.0
G1 X2.822 Y-1.997 Z-11.000
G1 X2.642 Y-1.987 Z-11.000
G1 X2.459 Y-1.971 Z-11.000
G1 X2.275 Y-1.947 Z-11.000
G1 X2.090 Y-1.917 Z-11.000
G1 X1.904 Y-1.878 Z-11.000
G1 X1.718 Y-1.833 Z-11.000
G1 X1.531 Y-1.779 Z-11.000
G1 X1.345 Y-1.718 Z-11.000
G1 X1.160 Y-1.649 Z-11.000
G1 X0.976 Y-1.572 Z-11.000
G1 X0.794 Y-1.487 Z-11.000
G1 X0.614 Y-1.394 Z-11.000
G1 X0.437 Y-1.293 Z-11.000
G1 X0.264 Y-1.185 Z-11.000
G1 X0.094 Y-1.069 Z-11.000
G1 X-0.071 Y-0.946 Z-11.000
G1 X-0.231 Y-0.816 Z-11.000
G1 X-0.386 Y-0.679 Z-11.000
G1 X-0.536 Y-0.536 Z-11.000
G1 X-0.679 Y-0.386 Z-11.000
G1 X-0.816 Y-0.231 Z-11.000
G1 X-0.946 Y-0.071 Z-11.000
G1 X-1.069 Y0.094 Z-11.000
G1 X-1.185 Y0.264 Z-11.000
G1 X-1.293 Y0.437 Z-11.000
G1 X-1.394 Y0.614 Z-11.000
G1 X-1.487 Y0.794 Z-11.000
G1 X-1.572 Y0.976 Z-11.000
G1 X-1.649 Y1.160 Z-11.000
G1 X-1.718 Y1.345 Z-11.000
G1 X-1.779 Y1.531 Z-11.000
G1 X-1.833 Y1.718 Z-11.000
G1 X-1.878 Y1.904 Z-11.000
G1 X-1.917 Y2.090 Z-11.000
G1 X-1.947 Y2.275 Z-11.000
G1 X-1.971 Y2.459 Z-11.000
G1 X-1.987 Y2.642 Z-11.000
G1 X-1.997 Y2.822 Z-11.000
G1 X-2.000 Y3.000 Z-11.000
G1 X-2.000 Y8.066 Z-11.000
G1 X-2.000 Y17.730 Z-11.000
G1 X-2.000 Y30.650 Z-11.000
G1 X-2.000 Y32.000 Z-11.000
G1 X-1.997 Y32.178 Z-11.000
G1 X-1.987 Y32.358 Z-11.000
G1 X-1.971 Y32.541 Z-11.000
G1 X-1.947 Y32.725 Z-11.000
G1 X-1.917 Y32.910 Z-11.000
G1 X-1.878 Y33.096 Z-11.000
G1 X-1.833 Y33.282 Z-11.000
G1 X-1.779 Y33.469 Z-11.000
G1 X-1.718 Y33.655 Z-11.000
G1 X-1.649 Y33.840 Z-11.000
G1 X-1.572 Y34.024 Z-11.000
G1 X-1.487 Y34.206 Z-11.000
G1 X-1.394 Y34.386 Z-11.000
G1 X-1.293 Y34.563 Z-11.000
G1 X-1.185 Y34.736 Z-11.000
G1 X-1.069 Y34.906 Z-11.000
G1 X-0.946 Y35.071 Z-11.000
G1 X-0.816 Y35.231 Z-11.000
G1 X-0.679 Y35.386 Z-11.000
G1 X-0.536 Y35.536 Z-11.000
G1 X-0.386 Y35.679 Z-11.000
G1 X-0.231 Y35.816 Z-11.000
G1 X-0.071 Y35.946 Z-11.000
G1 X0.094 Y36.069 Z-11.000
G1 X0.264 Y36.185 Z-11.000
G1 X0.437 Y36.293 Z-11.000
G1 X0.614 Y36.394 Z-11.000
G1 X0.794 Y36.487 Z-11.000
G1 X0.976 Y36.572 Z-11.000
G1 X1.160 Y36.649 Z-11.000
G1 X1.345 Y36.718 Z-11.000
G1 X1.531 Y36.779 Z-11.000
G1 X1.718 Y36.833 Z-11.000
G1 X1.904 Y36.878 Z-11.000
G1 X2.090 Y36.917 Z-11.000
G1 X2.275 Y36.947 Z-11.000
G1 X2.459 Y36.971 Z-11.000
G1 X2.642 Y36.987 Z-11.000
G1 X2.822 Y36.997 Z-11.000
G1 X3.000 Y37.000 Z-11.000
G1 X3.460 Y37.000 Z-11.000
G1 X26.044 Y37.000 Z-11.000
G1 X40.742 Y37.000 Z-11.000
G1 X48.628 Y37.000 Z-11.000
G1 X56.742 Y37.000 Z-11.000
G1 X58.292 Y37.000 Z-11.000
G1 X71.212 Y37.000 Z-11.000
G1 X80.876 Y37.000 Z-11.000
G1 X93.796 Y37.000 Z-11.000
G1 X97.000 Y37.000 Z-11.000
G1 X97.183 Y36.997 Z-11.000
G1 X97.369 Y36.986 Z-11.000
G1 X97.556 Y36.969 Z-11.000
G1 X97.744 Y36.944 Z-11.000
G1 X97.933 Y36.912 Z-11.000
G1 X98.122 Y36.873 Z-11.000
G1 X98.311 Y36.825 Z-11.000
G1 X98.499 Y36.770 Z-11.000
G1 X98.686 Y36.707 Z-11.000
G1 X98.872 Y36.636 Z-11.000
G1 X99.056 Y36.558 Z-11.000
G1 X99.237 Y36.471 Z-11.000
G1 X99.416 Y36.378 Z-11.000
G1 X99.591 Y36.276 Z-11.000
G1 X99.762 Y36.168 Z-11.000
G1 X99.928 Y36.053 Z-11.000
G1 X100.090 Y35.931 Z-11.000
G1 X100.247 Y35.802 Z-11.000
G1 X100.399 Y35.667 Z-11.000
G1 X100.544 Y35.527 Z-11.000
G1 X100.683 Y35.381 Z-11.000
G1 X100.816 Y35.231 Z-11.000
G1 X100.942 Y35.076 Z-11.000
G1 X101.061 Y34.917 Z-11.000
G1 X101.173 Y34.754 Z-11.000
G1 X101.278 Y34.588 Z-11.000
G1 X101.376 Y34.419 Z-11.000
G1 X101.466 Y34.248 Z-11.000
G1 X101.549 Y34.076 Z-11.000
G1 X101.624 Y33.902 Z-11.000
G1 X101.692 Y33.727 Z-11.000
G1 X101.753 Y33.551 Z-11.000
G1 X101.807 Y33.376 Z-11.000
G1 X101.858 Y33.184 Z-11.000
G1 X101.901 Y32.989 Z-11.000
G1 X101.937 Y32.793 Z-11.000
G1 X101.964 Y32.596 Z-11.000
G1 X101.984 Y32.397 Z-11.000
G1 X101.996 Y32.199 Z-11.000
G1 X102.000 Y32.000 Z-11.000
G1 X102.000 Y10.810 Z-11.000
G1 X102.000 Y3.000 Z-11.000
G1 X101.997 Y2.822 Z-11.000
G1 X101.987 Y2.642 Z-11.000
G1 X101.971 Y2.459 Z-11.000
G1 X101.947 Y2.275 Z-11.000
G1 X101.917 Y2.090 Z-11.000
G1 X101.878 Y1.904 Z-11.000
G1 X101.833 Y1.718 Z-11.000
G1 X101.779 Y1.531 Z-11.000
G1 X101.718 Y1.345 Z-11.000
G1 X101.649 Y1.160 Z-11.000
G1 X101.572 Y0.976 Z-11.000
G1 X101.487 Y0.794 Z-11.000
G1 X101.394 Y0.614 Z-11.000
G1 X101.293 Y0.437 Z-11.000
G1 X101.185 Y0.264 Z-11.000
G1 X101.069 Y0.094 Z-11.000
G1 X100.946 Y-0.071 Z-11.000
G1 X100.816 Y-0.231 Z-11.000
G1 X100.679 Y-0.386 Z-11.000
G1 X100.536 Y-0.536 Z-11.000
G1 X100.386 Y-0.679 Z-11.000
G1 X100.231 Y-0.816 Z-11.000
G1 X100.071 Y-0.946 Z-11.000
G1 X99.906 Y-1.069 Z-11.000
G1 X99.736 Y-1.185 Z-11.000
G1 X99.563 Y-1.293 Z-11.000
G1 X99.386 Y-1.394 Z-11.000
G1 X99.206 Y-1.487 Z-11.000
G1 X99.024 Y-1.572 Z-11.000
G1 X98.840 Y-1.649 Z-11.000
G1 X98.655 Y-1.718 Z-11.000
G1 X98.469 Y-1.779 Z-11.000
G1 X98.282 Y-1.833 Z-11.000
G1 X98.096 Y-1.878 Z-11.000
G1 X97.910 Y-1.917 Z-11.000
G1 X97.725 Y-1.947 Z-11.000
G1 X97.541 Y-1.971 Z-11.000
G1 X97.358 Y-1.987 Z-11.000
G1 X97.178 Y-1.997 Z-11.000
G1 X97.000 Y-2.000 Z-11.000
G1 X90.080 Y-2.000 Z-11.000
G1 X80.416 Y-2.000 Z-11.000
G1 X67.496 Y-2.000 Z-11.000
G1 X59.258 Y-2.000 Z-11.000
G1 X57.832 Y-2.000 Z-11.000
G1 X44.912 Y-2.000 Z-11.000
G1 X43.258 Y-2.000 Z-11.000
G1 X35.248 Y-2.000 Z-11.000
G1 X12.664 Y-2.000 Z-11.000
G1 X3.000 Y-2.000 Z-11.097 F635.0
G1 X2.822 Y-1.997 Z-11.099
G1 X2.642 Y-1.987 Z-11.101
G1 X2.459 Y-1.971 Z-11.103
G1 X2.275 Y-1.947 Z-11.104
G1 X2.090 Y-1.917 Z-11.106
G1 X1.904 Y-1.878 Z-11.108
G1 X1.718 Y-1.833 Z-11.110
G1 X1.531 Y-1.779 Z-11.112
G1 X1.345 Y-1.718 Z-11.114
G1 X1.160 Y-1.649 Z-11.116
G1 X0.976 Y-1.572 Z-11.118
G1 X0.794 Y-1.487 Z-11.120
G1 X0.614 Y-1.394 Z-11.122
G1 X0.437 Y-1.293 Z-11.124
G1 X0.264 Y-1.185 Z-11.126
G1 X0.094 Y-1.069 Z-11.128
G1 X-0.071 Y-0.946 Z-11.130
G1 X-0.231 Y-0.816 Z-11.132
G1 X-0.386 Y-0.679 Z-11.134
G1 X-0.536 Y-0.536 Z-11.136
G1 X-0.679 Y-0.386 Z-11.138
G1 X-0.816 Y-0.231 Z-11.140
G1 X-0.946 Y-0.071 Z-11.142
G1 X-1.069 Y0.094 Z-11.144
G1 X-1.185 Y0.264 Z-11.146
G1 X-1.293 Y0.437 Z-11.148
G1 X-1.394 Y0.614 Z-11.150
G1 X-1.487 Y0.794 Z-11.152
G1 X-1.572 Y0.976 Z-11.154
G1 X-1.649 Y1.160 Z-11.156
G1 X-1.718 Y1.345 Z-11.158
G1 X-1.779 Y1.531 Z-11.159
G1 X-1.833 Y1.718 Z-11.161
G1 X-1.878 Y1.904 Z-11.163
G1 X-1.917 Y2.090 Z-11.165
G1 X-1.947 Y2.275 Z-11.167
G1 X-1.971 Y2.459 Z-11.169
G1 X-1.987 Y2.642 Z-11.171
G1 X-1.997 Y2.822 Z-11.173
G1 X-2.000 Y3.000 Z-11.175
G1 X-2.000 Y8.066 Z-11.226
G1 X-2.000 Y17.730 Z-11.322
G1 X-2.000 Y30.650 Z-11.452
G1 X-2.000 Y32.000 Z-11.465
G1 X-1.997 Y32.178 Z-11.467
G1 X-1.987 Y32.358 Z-11.469
G1 X-1.971 Y32.541 Z-11.471
G1 X-1.947 Y32.725 Z-11.473
G1 X-1.917 Y32.910 Z-11.475
G1 X-1.878 Y33.096 Z-11.477
G1 X-1.833 Y33.282 Z-11.479
G1 X-1.779 Y33.469 Z-11.481
G1 X-1.718 Y33.655 Z-11.483
G1 X-1.649 Y33.840 Z-11.485
G1 X-1.572 Y34.024 Z-11.487
G1 X-1.487 Y34.206 Z-11.489
G1 X-1.394 Y34.386 Z-11.491
G1 X-1.293 Y34.563 Z-11.493
G1 X-1.185 Y34.736 Z-11.495
G1 X-1.069 Y34.906 Z-11.497
G1 X-0.946 Y35.071 Z-11.499
G1 X-0.816 Y35.231 Z-11.501
G1 X-0.679 Y35.386 Z-11.502
G1 X-0.536 Y35.536 Z-11.504
G1 X-0.386 Y35.679 Z-11.506
G1 X-0.231 Y35.816 Z-11.508
G1 X-0.071 Y35.946 Z-11.510
G1 X0.094 Y36.069 Z-11.512
G1 X0.264 Y36.185 Z-11.514
G1 X0.437 Y36.293 Z-11.516
G1 X0.614 Y36.394 Z-11.518
G1 X0.794 Y36.487 Z-11.520
G1 X0.976 Y36.572 Z-11.522
G1 X1.160 Y36.649 Z-11.524
G1 X1.345 Y36.718 Z-11.526
G1 X1.531 Y36.779 Z-11.528
G1 X1.718 Y36.833 Z-11.530
G1 X1.904 Y36.878 Z-11.532
G1 X2.090 Y36.917 Z-11.534
G1 X2.275 Y36.947 Z-11.536
G1 X2.459 Y36.971 Z-11.538
G1 X2.642 Y36.987 Z-11.540
G1 X2.822 Y36.997 Z-11.542
G1 X3.000 Y37.000 Z-11.544
G1 X3.460 Y37.000 Z-11.548
G1 X26.044 Y37.000 Z-11.774
G1 X40.742 Y37.000 Z-11.921
G1 X48.628 Y37.000 Z-12.000
G1 X56.742 Y37.000 Z-12.000 F2000.0
G1 X58.292 Y37.000 Z-12.000
G1 X71.212 Y37.000 Z-12.000
G1 X80.876 Y37.000 Z-12.000
G1 X93.796 Y37.000 Z-12.000
G1 X97.000 Y37.000 Z-12.000
G1 X97.183 Y36.997 Z-12.000
G1 X97.369 Y36.986 Z-12.000
G1 X97.556 Y36.969 Z-12.000
G1 X97.744 Y36.944 Z-12.000
G1 X97.933 Y36.912 Z-12.000
G1 X98.122 Y36.873 Z-12.000
G1 X98.311 Y36.825 Z-12.000
G1 X98.499 Y36.770 Z-12.000
G1 X98.686 Y36.707 Z-12.000
G1 X98.872 Y36.636 Z-12.000
G1 X99.056 Y36.558 Z-12.000
G1 X99.237 Y36.471 Z-12.000
G1 X99.416 Y36.378 Z-12.000
G1 X99.591 Y36.276 Z-12.000
G1 X99.762 Y36.168 Z-12.000
G1 X99.928 Y36.053 Z-12.000
G1 X100.090 Y35.931 Z-12.000
G1 X100.247 Y35.802 Z-12.000
G1 X100.399 Y35.667 Z-12.000
G1 X100.544 Y35.527 Z-12.000
G1 X100.683 Y35.381 Z-12.000
G1 X100.816 Y35.231 Z-12.000
G1 X100.942 Y35.076 Z-12.000
G1 X101.061 Y34.917 Z-12.000
G1 X101.173 Y34.754 Z-12.000
G1 X101.278 Y34.588 Z-12.000
G1 X101.376 Y34.419 Z-12.000
G1 X101.466 Y34.248 Z-12.000
G1 X101.549 Y34.076 Z-12.000
G1 X101.624 Y33.902 Z-12.000
G1 X101.692 Y33.727 Z-12.000
G1 X101.753 Y33.551 Z-12.000
G1 X101.807 Y33.376 Z-12.000
G1 X101.858 Y33.184 Z-12.000
G1 X101.901 Y32.989 Z-12.000
G1 X101.937 Y32.793 Z-12.000
G1 X101.964 Y32.596 Z-12.000
G1 X101.984 Y32.397 Z-12.000
G1 X101.996 Y32.199 Z-12.000
G1 X102.000 Y32.000 Z-12.000
G1 X102.000 Y10.810 Z-12.000
G1 X102.000 Y3.000 Z-12.000
G1 X101.997 Y2.822 Z-12.000
G1 X101.987 Y2.642 Z-12.000
G1 X101.971 Y2.459 Z-12.000
G1 X101.947 Y2.275 Z-12.000
G1 X101.917 Y2.090 Z-12.000
G1 X101.878 Y1.904 Z-12.000
G1 X101.833 Y1.718 Z-12.000
G1 X101.779 Y1.531 Z-12.000
G1 X101.718 Y1.345 Z-12.000
G1 X101.649 Y1.160 Z-12.000
G1 X101.572 Y0.976 Z-12.000
G1 X101.487 Y0.794 Z-12.000
G1 X101.394 Y0.614 Z-12.000
G1 X101.293 Y0.437 Z-12.000
G1 X101.185 Y0.264 Z-12.000
G1 X101.069 Y0.094 Z-12.000
G1 X100.946 Y-0.071 Z-12.000
G1 X100.816 Y-0.231 Z-12.000
G1 X100.679 Y-0.386 Z-12.000
G1 X100.536 Y-0.536 Z-12.000
G1 X100.386 Y-0.679 Z-12.000
G1 X100.231 Y-0.816 Z-12.000
G1 X100.071 Y-0.946 Z-12.000
G1 X99.906 Y-1.069 Z-12.000
G1 X99.736 Y-1.185 Z-12.000
G1 X99.563 Y-1.293 Z-12.000
G1 X99.386 Y-1.394 Z-12.000
G1 X99.206 Y-1.487 Z-12.000
G1 X99.024 Y-1.572 Z-12.000
G1 X98.840 Y-1.649 Z-12.000
G1 X98.655 Y-1.718 Z-12.000
G1 X98.469 Y-1.779 Z-12.000
G1 X98.282 Y-1.833 Z-12.000
G1 X98.096 Y-1.878 Z-12.000
G1 X97.910 Y-1.917 Z-12.000
G1 X97.725 Y-1.947 Z-12.000
G1 X97.541 Y-1.971 Z-12.000
G1 X97.358 Y-1.987 Z-12.000
G1 X97.178 Y-1.997 Z-12.000
G1 X97.000 Y-2.000 Z-12.000
G1 X90.080 Y-2.000 Z-12.000
G1 X80.416 Y-2.000 Z-12.000
G1 X67.496 Y-2.000 Z-12.000
G1 X59.258 Y-2.000 Z-12.000
G1 X57.832 Y-2.000 Z-12.000
G1 X44.912 Y-2.000 Z-12.000
G1 X43.258 Y-2.000 Z-12.000
G1 X35.248 Y-2.000 Z-12.000
G1 X12.664 Y-2.000 Z-12.000
G1 X3.000 Y-2.000 Z-12.000
G1 X2.822 Y-1.997 Z-12.000
G1 X2.642 Y-1.987 Z-12.000
G1 X2.459 Y-1.971 Z-12.000
G1 X2.275 Y-1.947 Z-12.000
G1 X2.090 Y-1.917 Z-12.000
G1 X1.904 Y-1.878 Z-12.000
G1 X1.718 Y-1.833 Z-12.000
G1 X1.531 Y-1.779 Z-12.000
G1 X1.345 Y-1.718 Z-12.000
G1 X1.160 Y-1.649 Z-12.000
G1 X0.976 Y-1.572 Z-12.000
G1 X0.794 Y-1.487 Z-12.000
G1 X0.614 Y-1.394 Z-12.000
G1 X0.437 Y-1.293 Z-12.000
G1 X0.264 Y-1.185 Z-12.000
G1 X0.094 Y-1.069 Z-12.000
G1 X-0.071 Y-0.946 Z-12.000
G1 X-0.231 Y-0.816 Z-12.000
G1 X-0.386 Y-0.679 Z-12.000
G1 X-0.536 Y-0.536 Z-12.000
G1 X-0.679 Y-0.386 Z-12.000
G1 X-0.816 Y-0.231 Z-12.000
G1 X-0.946 Y-0.071 Z-12.000
G1 X-1.069 Y0.094 Z-12.000
G1 X-1.185 Y0.264 Z-12.000
G1 X-1.293 Y0.437 Z-12.000
G1 X-1.394 Y0.614 Z-12.000
G1 X-1.487 Y0.794 Z-12.000
G1 X-1.572 Y0.976 Z-12.000
G1 X-1.649 Y1.160 Z-12.000
G1 X-1.718 Y1.345 Z-12.000
G1 X-1.779 Y1.531 Z-12.000
G1 X-1.833 Y1.718 Z-12.000
G1 X-1.878 Y1.904 Z-12.000
G1 X-1.917 Y2.090 Z-12.000
G1 X-1.947 Y2.275 Z-12.000
G1 X-1.971 Y2.459 Z-12.000
G1 X-1.987 Y2.642 Z-12.000
G1 X-1.997 Y2.822 Z-12.000
G1 X-2.000 Y3.000 Z-12.000
G1 X-2.000 Y8.066 Z-12.000
G1 X-2.000 Y17.730 Z-12.000
G1 X-2.000 Y30.650 Z-12.000
G1 X-2.000 Y32.000 Z-12.000
G1 X-1.997 Y32.178 Z-12.000
G1 X-1.987 Y32.358 Z-12.000
G1 X-1.971 Y32.541 Z-12.000
G1 X-1.947 Y32.725 Z-12.000
G1 X-1.917 Y32.910 Z-12.000
G1 X-1.878 Y33.096 Z-12.000
G1 X-1.833 Y33.282 Z-12.000
G1 X-1.779 Y33.469 Z-12.000
G1 X-1.718 Y33.655 Z-12.000
G1 X-1.649 Y33.840 Z-12.000
G1 X-1.572 Y34.024 Z-12.000
G1 X-1.487 Y34.206 Z-12.000
G1 X-1.394 Y34.386 Z-12.000
G1 X-1.293 Y34.563 Z-12.000
G1 X-1.185 Y34.736 Z-12.000
G1 X-1.069 Y34.906 Z-12.000
G1 X-0.946 Y35.071 Z-12.000
G1 X-0.816 Y35.231 Z-12.000
G1 X-0.679 Y35.386 Z-12.000
G1 X-0.536 Y35.536 Z-12.000
G1 X-0.386 Y35.679 Z-12.000
G1 X-0.231 Y35.816 Z-12.000
G1 X-0.071 Y35.946 Z-12.000
G1 X0.094 Y36.069 Z-12.000
G1 X0.264 Y36.185 Z-12.000
G1 X0.437 Y36.293 Z-12.000
G1 X0.614 Y36.394 Z-12.000
G1 X0.794 Y36.487 Z-12.000
G1 X0.976 Y36.572 Z-12.000
G1 X1.160 Y36.649 Z-12.000
G1 X1.345 Y36.718 Z-12.000
G1 X1.531 Y36.779 Z-12.000
G1 X1.718 Y36.833 Z-12.000
G1 X1.904 Y36.878 Z-12.000
G1 X2.090 Y36.917 Z-12.000
G1 X2.275 Y36.947 Z-12.000
G1 X2.459 Y36.971 Z-12.000
G1 X2.642 Y36.987 Z-12.000
G1 X2.822 Y36.997 Z-12.000
G1 X3.000 Y37.000 Z-12.000
G1 X3.460 Y37.000 Z-12.000
G1 X26.044 Y37.000 Z-12.000
G1 X40.742 Y37.000 Z-12.000
G1 X48.628 Y37.000 Z-12.000
G1 X56.742 Y37.000 Z-12.081 F635.0
G1 X58.292 Y37.000 Z-12.097
G1 X71.212 Y37.000 Z-12.226
G1 X80.876 Y37.000 Z-12.322
G1 X93.796 Y37.000 Z-12.452
G1 X97.000 Y37.000 Z-12.484
G1 X97.183 Y36.997 Z-12.486
G1 X97.369 Y36.986 Z-12.488
G1 X97.556 Y36.969 Z-12.490
G1 X97.744 Y36.944 Z-12.492
G1 X97.933 Y36.912 Z-12.494
G1 X98.122 Y36.873 Z-12.495
G1 X98.311 Y36.825 Z-12.497
G1 X98.499 Y36.770 Z-12.499
G1 X98.686 Y36.707 Z-12.501
G1 X98.872 Y36.636 Z-12.503
G1 X99.056 Y36.558 Z-12.505
G1 X99.237 Y36.471 Z-12.507
G1 X99.416 Y36.378 Z-12.509
G1 X99.591 Y36.276 Z-12.511
G1 X99.762 Y36.168 Z-12.513
G1 X99.928 Y36.053 Z-12.515
G1 X100.090 Y35.931 Z-12.517
G1 X100.247 Y35.802 Z-12.519
G1 X100.399 Y35.667 Z-12.521
G1 X100.544 Y35.527 Z-12.523
G1 X100.683 Y35.381 Z-12.525
G1 X100.816 Y35.231 Z-12.527
G1 X100.942 Y35.076 Z-12.529
G1 X101.061 Y34.917 Z-12.531
G1 X101.173 Y34.754 Z-12.533
G1 X101.278 Y34.588 Z-12.535
G1 X101.376 Y34.419 Z-12.537
G1 X101.466 Y34.248 Z-12.539
G1 X101.549 Y34.076 Z-12.540
G1 X101.624 Y33.902 Z-12.542
G1 X101.692 Y33.727 Z-12.544
G1 X101.753 Y33.551 Z-12.546
G1 X101.807 Y33.376 Z-12.548
G1 X101.858 Y33.184 Z-12.550
G1 X101.901 Y32.989 Z-12.552
G1 X101.937 Y32.793 Z-12.554
G1 X101.964 Y32.596 Z-12.556
G1 X101.984 Y32.397 Z-12.558
G1 X101.996 Y32.199 Z-12.560
G1 X102.000 Y32.000 Z-12.562
G1 X102.000 Y10.810 Z-12.774
G1 X102.000 Y3.000 Z-12.852
G1 X101.997 Y2.822 Z-12.854
G1 X101.987 Y2.642 Z-12.856
G1 X101.971 Y2.459 Z-12.858
G1 X101.947 Y2.275 Z-12.860
G1 X101.917 Y2.090 Z-12.862
G1 X101.878 Y1.904 Z-12.864
G1 X101.833 Y1.718 Z-12.866
G1 X101.779 Y1.531 Z-12.868
G1 X101.718 Y1.345 Z-12.870
G1 X101.649 Y1.160 Z-12.872
G1 X101.572 Y0.976 Z-12.874
G1 X101.487 Y0.794 Z-12.876
G1 X101.394 Y0.614 Z-12.878
G1 X101.293 Y0.437 Z-12.880
G1 X101.185 Y0.264 Z-12.882
G1 X101.069 Y0.094 Z-12.884
G1 X100.946 Y-0.071 Z-12.886
G1 X100.816 Y-0.231 Z-12.888
G1 X100.679 Y-0.386 Z-12.890
G1 X100.536 Y-0.536 Z-12.892
G1 X100.386 Y-0.679 Z-12.893
G1 X100.231 Y-0.816 Z-12.895
G1 X100.071 Y-0.946 Z-12.897
G1 X99.906 Y-1.069 Z-12.899
G1 X99.736 Y-1.185 Z-12.901
G1 X99.563 Y-1.293 Z-12.903
G1 X99.386 Y-1.394 Z-12.905
G1 X99.206 Y-1.487 Z-12.907
G1 X99.024 Y-1.572 Z-12.909
G1 X98.840 Y-1.649 Z-12.911
G1 X98.655 Y-1.718 Z-12.913
G1 X98.469 Y-1.779 Z-12.915
G1 X98.282 Y-1.833 Z-12.917
G1 X98.096 Y-1.878 Z-12.919
G1 X97.910 Y-1.917 Z-12.921
G1 X97.725 Y-1.947 Z-12.923
G1 X97.541 Y-1.971 Z-12.925
G1 X97.358 Y-1.987 Z-12.927
G1 X97.178 Y-1.997 Z-12.929
G1 X97.000 Y-2.000 Z-12.931
G1 X90.080 Y-2.000 Z-13.000
G1 X80.416 Y-2.000 Z-13.000 F2000.0
G1 X67.496 Y-2.000 Z-13.000
G1 X59.258 Y-2.000 Z-13.000
G1 X57.832 Y-2.000 Z-13.000
G1 X44.912 Y-2.000 Z-13.000
G1 X43.258 Y-2.000 Z-13.000
G1 X35.248 Y-2.000 Z-13.000
G1 X12.664 Y-2.000 Z-13.000
G1 X3.000 Y-2.000 Z-13.000
G1 X2.822 Y-1.997 Z-13.000
G1 X2.642 Y-1.987 Z-13.000
G1 X2.459 Y-1.971 Z-13.000
G1 X2.275 Y-1.947 Z-13.000
G1 X2.090 Y-1.917 Z-13.000
G1 X1.904 Y-1.878 Z-13.000
G1 X1.718 Y-1.833 Z-13.000
G1 X1.531 Y-1.779 Z-13.000
G1 X1.345 Y-1.718 Z-13.000
G1 X1.160 Y-1.649 Z-13.000
G1 X0.976 Y-1.572 Z-13.000
G1 X0.794 Y-1.487 Z-13.000
G1 X0.614 Y-1.394 Z-13.000
G1 X0.437 Y-1.293 Z-13.000
G1 X0.264 Y-1.185 Z-13.000
G1 X0.094 Y-1.069 Z-13.000
G1 X-0.071 Y-0.946 Z-13.000
G1 X-0.231 Y-0.816 Z-13.000
G1 X-0.386 Y-0.679 Z-13.000
G1 X-0.536 Y-0.536 Z-13.000
G1 X-0.679 Y-0.386 Z-13.000
G1 X-0.816 Y-0.231 Z-13.000
G1 X-0.946 Y-0.071 Z-13.000
G1 X-1.069 Y0.094 Z-13.000
G1 X-1.185 Y0.264 Z-13.000
G1 X-1.293 Y0.437 Z-13.000
G1 X-1.394 Y0.614 Z-13.000
G1 X-1.487 Y0.794 Z-13.000
G1 X-1.572 Y0.976 Z-13.000
G1 X-1.649 Y1.160 Z-13.000
G1 X-1.718 Y1.345 Z-13.000
G1 X-1.779 Y1.531 Z-13.000
G1 X-1.833 Y1.718 Z-13.000
G1 X-1.878 Y1.904 Z-13.000
G1 X-1.917 Y2.090 Z-13.000
G1 X-1.947 Y2.275 Z-13.000
G1 X-1.971 Y2.459 Z-13.000
G1 X-1.987 Y2.642 Z-13.000
G1 X-1.997 Y2.822 Z-13.000
G1 X-2.000 Y3.000 Z-13.000
G1 X-2.000 Y8.066 Z-13.000
G1 X-2.000 Y17.730 Z-13.000
G1 X-2.000 Y30.650 Z-13.000
G1 X-2.000 Y32.000 Z-13.000
G1 X-1.997 Y32.178 Z-13.000
G1 X-1.987 Y32.358 Z-13.000
G1 X-1.971 Y32.541 Z-13.000
G1 X-1.947 Y32.725 Z-13.000
G1 X-1.917 Y32.910 Z-13.000
G1 X-1.878 Y33.096 Z-13.000
G1 X-1.833 Y33.282 Z-13.000
G1 X-1.779 Y33.469 Z-13.000
G1 X-1.718 Y33.655 Z-13.000
G1 X-1.649 Y33.840 Z-13.000
G1 X-1.572 Y34.024 Z-13.000
G1 X-1.487 Y34.206 Z-13.000
G1 X-1.394 Y34.386 Z-13.000
G1 X-1.293 Y34.563 Z-13.000
G1 X-1.185 Y34.736 Z-13.000
G1 X-1.069 Y34.906 Z-13.000
G1 X-0.946 Y35.071 Z-13.000
G1 X-0.816 Y35.231 Z-13.000
G1 X-0.679 Y35.386 Z-13.000
G1 X-0.536 Y35.536 Z-13.000
G1 X-0.386 Y35.679 Z-13.000
G1 X-0.231 Y35.816 Z-13.000
G1 X-0.071 Y35.946 Z-13.000
G1 X0.094 Y36.069 Z-13.000
G1 X0.264 Y36.185 Z-13.000
G1 X0.437 Y36.293 Z-13.000
G1 X0.614 Y36.394 Z-13.000
G1 X0.794 Y36.487 Z-13.000
G1 X0.976 Y36.572 Z-13.000
G1 X1.160 Y36.649 Z-13.000
G1 X1.345 Y36.718 Z-13.000
G1 X1.531 Y36.779 Z-13.000
G1 X1.718 Y36.833 Z-13.000
G1 X1.904 Y36.878 Z-13.000
G1 X2.090 Y36.917 Z-13.000
G1 X2.275 Y36.947 Z-13.000
G1 X2.459 Y36.971 Z-13.000
G1 X2.642 Y36.987 Z-13.000
G1 X2.822 Y36.997 Z-13.000
G1 X3.000 Y37.000 Z-13.000
G1 X3.460 Y37.000 Z-13.000
G1 X26.044 Y37.000 Z-13.000
G1 X40.742 Y37.000 Z-13.000
G1 X48.628 Y37.000 Z-13.000
G1 X56.742 Y37.000 Z-13.000
G1 X58.292 Y37.000 Z-13.000
G1 X71.212 Y37.000 Z-13.000
G1 X80.876 Y37.000 Z-13.000
G1 X93.796 Y37.000 Z-13.000
G1 X97.000 Y37.000 Z-13.000
G1 X97.183 Y36.997 Z-13.000
G1 X97.369 Y36.986 Z-13.000
G1 X97.556 Y36.969 Z-13.000
G1 X97.744 Y36.944 Z-13.000
G1 X97.933 Y36.912 Z-13.000
G1 X98.122 Y36.873 Z-13.000
G1 X98.311 Y36.825 Z-13.000
G1 X98.499 Y36.770 Z-13.000
G1 X98.686 Y36.707 Z-13.000
G1 X98.872 Y36.636 Z-13.000
G1 X99.056 Y36.558 Z-13.000
G1 X99.237 Y36.471 Z-13.000
G1 X99.416 Y36.378 Z-13.000
G1 X99.591 Y36.276 Z-13.000
G1 X99.762 Y36.168 Z-13.000
G1 X99.928 Y36.053 Z-13.000
G1 X100.090 Y35.931 Z-13.000
G1 X100.247 Y35.802 Z-13.000
G1 X100.399 Y35.667 Z-13.000
G1 X100.544 Y35.527 Z-13.000
G1 X100.683 Y35.381 Z-13.000
G1 X100.816 Y35.231 Z-13.000
G1 X100.942 Y35.076 Z-13.000
G1 X101.061 Y34.917 Z-13.000
G1 X101.173 Y34.754 Z-13.000
G1 X101.278 Y34.588 Z-13.000
G1 X101.376 Y34.419 Z-13.000
G1 X101.466 Y34.248 Z-13.000
G1 X101.549 Y34.076 Z-13.000
G1 X101.624 Y33.902 Z-13.000
G1 X101.692 Y33.727 Z-13.000
G1 X101.753 Y33.551 Z-13.000
G1 X101.807 Y33.376 Z-13.000
G1 X101.858 Y33.184 Z-13.000
G1 X101.901 Y32.989 Z-13.000
G1 X101.937 Y32.793 Z-13.000
G1 X101.964 Y32.596 Z-13.000
G1 X101.984 Y32.397 Z-13.000
G1 X101.996 Y32.199 Z-13.000
G1 X102.000 Y32.000 Z-13.000
G1 X102.000 Y10.810 Z-13.000
G1 X102.000 Y3.000 Z-13.000
G1 X101.997 Y2.822 Z-13.000
G1 X101.987 Y2.642 Z-13.000
G1 X101.971 Y2.459 Z-13.000
G1 X101.947 Y2.275 Z-13.000
G1 X101.917 Y2.090 Z-13.000
G1 X101.878 Y1.904 Z-13.000
G1 X101.833 Y1.718 Z-13.000
G1 X101.779 Y1.531 Z-13.000
G1 X101.718 Y1.345 Z-13.000
G1 X101.649 Y1.160 Z-13.000
G1 X101.572 Y0.976 Z-13.000
G1 X101.487 Y0.794 Z-13.000
G1 X101.394 Y0.614 Z-13.000
G1 X101.293 Y0.437 Z-13.000
G1 X101.185 Y0.264 Z-13.000
G1 X101.069 Y0.094 Z-13.000
G1 X100.946 Y-0.071 Z-13.000
G1 X100.816 Y-0.231 Z-13.000
G1 X100.679 Y-0.386 Z-13.000
G1 X100.536 Y-0.536 Z-13.000
G1 X100.386 Y-0.679 Z-13.000
G1 X100.231 Y-0.816 Z-13.000
G1 X100.071 Y-0.946 Z-13.000
G1 X99.906 Y-1.069 Z-13.000
G1 X99.736 Y-1.185 Z-13.000
G1 X99.563 Y-1.293 Z-13.000
G1 X99.386 Y-1.394 Z-13.000
G1 X99.206 Y-1.487 Z-13.000
G1 X99.024 Y-1.572 Z-13.000
G1 X98.840 Y-1.649 Z-13.000
G1 X98.655 Y-1.718 Z-13.000
G1 X98.469 Y-1.779 Z-13.000
G1 X98.282 Y-1.833 Z-13.000
G1 X98.096 Y-1.878 Z-13.000
G1 X97.910 Y-1.917 Z-13.000
G1 X97.725 Y-1.947 Z-13.000
G1 X97.541 Y-1.971 Z-13.000
G1 X97.358 Y-1.987 Z-13.000
G1 X97.178 Y-1.997 Z-13.000
G1 X97.000 Y-2.000 Z-13.000
G1 X90.080 Y-2.000 Z-13.000
G1 X80.416 Y-2.000 Z-13.097 F635.0
G1 X67.496 Y-2.000 Z-13.226
G1 X59.258 Y-2.000 Z-13.308
G1 X57.832 Y-2.000 Z-13.322
G1 X44.912 Y-2.000 Z-13.452
G1 X43.258 Y-2.000 Z-13.468
G1 X35.248 Y-2.000 Z-13.548
G1 X12.664 Y-2.000 Z-13.774
G1 X3.000 Y-2.000 Z-13.871
G1 X2.822 Y-1.997 Z-13.873
G1 X2.642 Y-1.987 Z-13.875
G1 X2.459 Y-1.971 Z-13.877
G1 X2.275 Y-1.947 Z-13.879
G1 X2.090 Y-1.917 Z-13.881
G1 X1.904 Y-1.878 Z-13.883
G1 X1.718 Y-1.833 Z-13.885
G1 X1.531 Y-1.779 Z-13.887
G1 X1.345 Y-1.718 Z-13.888
G1 X1.160 Y-1.649 Z-13.890
G1 X0.976 Y-1.572 Z-13.892
G1 X0.794 Y-1.487 Z-13.894
G1 X0.614 Y-1.394 Z-13.896
G1 X0.437 Y-1.293 Z-13.898
G1 X0.264 Y-1.185 Z-13.900
G1 X0.094 Y-1.069 Z-13.902
G1 X-0.071 Y-0.946 Z-13.904
G1 X-0.231 Y-0.816 Z-13.906
G1 X-0.386 Y-0.679 Z-13.908
G1 X-0.536 Y-0.536 Z-13.910
G1 X-0.679 Y-0.386 Z-13.912
G1 X-0.816 Y-0.231 Z-13.914
G1 X-0.946 Y-0.071 Z-13.916
G1 X-1.069 Y0.094 Z-13.918
G1 X-1.185 Y0.264 Z-13.920
G1 X-1.293 Y0.437 Z-13.922
G1 X-1.394 Y0.614 Z-13.924
G1 X-1.487 Y0.794 Z-13.926
G1 X-1.572 Y0.976 Z-13.928
G1 X-1.649 Y1.160 Z-13.930
G1 X-1.718 Y1.345 Z-13.932
G1 X-1.779 Y1.531 Z-13.934
G1 X-1.833 Y1.718 Z-13.936
G1 X-1.878 Y1.904 Z-13.938
G1 X-1.917 Y2.090 Z-13.940
G1 X-1.947 Y2.275 Z-13.941
G1 X-1.971 Y2.459 Z-13.943
G1 X-1.987 Y2.642 Z-13.945
G1 X-1.997 Y2.822 Z-13.947
G1 X-2.000 Y3.000 Z-13.949
G1 X-2.000 Y8.066 Z-14.000
G1 X-2.000 Y17.730 Z-14.000 F2000.0
G1 X-2.000 Y30.650 Z-14.000
G1 X-2.000 Y32.000 Z-14.000
G1 X-1.997 Y32.178 Z-14.000
G1 X-1.987 Y32.358 Z-14.000
G1 X-1.971 Y32.541 Z-14.000
G1 X-1.947 Y32.725 Z-14.000
G1 X-1.917 Y32.910 Z-14.000
G1 X-1.878 Y33.096 Z-14.000
G1 X-1.833 Y33.282 Z-14.000
G1 X-1.779 Y33.469 Z-14.000
G1 X-1.718 Y33.655 Z-14.000
G1 X-1.649 Y33.840 Z-14.000
G1 X-1.572 Y34.024 Z-14.000
G1 X-1.487 Y34.206 Z-14.000
G1 X-1.394 Y34.386 Z-14.000
G1 X-1.293 Y34.563 Z-14.000
G1 X-1.185 Y34.736 Z-14.000
G1 X-1.069 Y34.906 Z-14.000
G1 X-0.946 Y35.071 Z-14.000
G1 X-0.816 Y35.231 Z-14.000
G1 X-0.679 Y35.386 Z-14.000
G1 X-0.536 Y35.536 Z-14.000
G1 X-0.386 Y35.679 Z-14.000
G1 X-0.231 Y35.816 Z-14.000
G1 X-0.071 Y35.946 Z-14.000
G1 X0.094 Y36.069 Z-14.000
G1 X0.264 Y36.185 Z-14.000
G1 X0.437 Y36.293 Z-14.000
G1 X0.614 Y36.394 Z-14.000
G1 X0.794 Y36.487 Z-14.000
G1 X0.976 Y36.572 Z-14.000
G1 X1.160 Y36.649 Z-14.000
G1 X1.345 Y36.718 Z-14.000
G1 X1.531 Y36.779 Z-14.000
G1 X1.718 Y36.833 Z-14.000
G1 X1.904 Y36.878 Z-14.000
G1 X2.090 Y36.917 Z-14.000
G1 X2.275 Y36.947 Z-14.000
G1 X2.459 Y36.971 Z-14.000
G1 X2.642 Y36.987 Z-14.000
G1 X2.822 Y36.997 Z-14.000
G1 X3.000 Y37.000 Z-14.000
G1 X3.460 Y37.000 Z-14.000
G1 X26.044 Y37.000 Z-14.000
G1 X40.742 Y37.000 Z-14.000
G1 X48.628 Y37.000 Z-14.000
G1 X56.742 Y37.000 Z-14.000
G1 X58.292 Y37.000 Z-14.000
G1 X71.212 Y37.000 Z-14.000
G1 X80.876 Y37.000 Z-14.000
G1 X93.796 Y37.000 Z-14.000
G1 X97.000 Y37.000 Z-14.000
G1 X97.183 Y36.997 Z-14.000
G1 X97.369 Y36.986 Z-14.000
G1 X97.556 Y36.969 Z-14.000
G1 X97.744 Y36.944 Z-14.000
G1 X97.933 Y36.912 Z-14.000
G1 X98.122 Y36.873 Z-14.000
G1 X98.311 Y36.825 Z-14.000
G1 X98.499 Y36.770 Z-14.000
G1 X98.686 Y36.707 Z-14.000
G1 X98.872 Y36.636 Z-14.000
G1 X99.056 Y36.558 Z-14.000
G1 X99.237 Y36.471 Z-14.000
G1 X99.416 Y36.378 Z-14.000
G1 X99.591 Y36.276 Z-14.000
G1 X99.762 Y36.168 Z-14.000
G1 X99.928 Y36.053 Z-14.000
G1 X100.090 Y35.931 Z-14.000
G1 X100.247 Y35.802 Z-14.000
G1 X100.399 Y35.667 Z-14.000
G1 X100.544 Y35.527 Z-14.000
G1 X100.683 Y35.381 Z-14.000
G1 X100.816 Y35.231 Z-14.000
G1 X100.942 Y35.076 Z-14.000
G1 X101.061 Y34.917 Z-14.000
G1 X101.173 Y34.754 Z-14.000
G1 X101.278 Y34.588 Z-14.000
G1 X101.376 Y34.419 Z-14.000
G1 X101.466 Y34.248 Z-14.000
G1 X101.549 Y34.076 Z-14.000
G1 X101.624 Y33.902 Z-14.000
G1 X101.692 Y33.727 Z-14.000
G1 X101.753 Y33.551 Z-14.000
G1 X101.807 Y33.376 Z-14.000
G1 X101.858 Y33.184 Z-14.000
G1 X101.901 Y32.989 Z-14.000
G1 X101.937 Y32.793 Z-14.000
G1 X101.964 Y32.596 Z-14.000
G1 X101.984 Y32.397 Z-14.000
G1 X101.996 Y32.199 Z-14.000
G1 X102.000 Y32.000 Z-14.000
G1 X102.000 Y10.810 Z-14.000
G1 X102.000 Y3.000 Z-14.000
G1 X101.997 Y2.822 Z-14.000
G1 X101.987 Y2.642 Z-14.000
G1 X101.971 Y2.459 Z-14.000
G1 X101.947 Y2.275 Z-14.000
G1 X101.917 Y2.090 Z-14.000
G1 X101.878 Y1.904 Z-14.000
G1 X101.833 Y1.718 Z-14.000
G1 X101.779 Y1.531 Z-14.000
G1 X101.718 Y1.345 Z-14.000
G1 X101.649 Y1.160 Z-14.000
G1 X101.572 Y0.976 Z-14.000
G1 X101.487 Y0.794 Z-14.000
G1 X101.394 Y0.614 Z-14.000
G1 X101.293 Y0.437 Z-14.000
G1 X101.185 Y0.264 Z-14.000
G1 X101.069 Y0.094 Z-14.000
G1 X100.946 Y-0.071 Z-14.000
G1 X100.816 Y-0.231 Z-14.000
G1 X100.679 Y-0.386 Z-14.000
G1 X100.536 Y-0.536 Z-14.000
G1 X100.386 Y-0.679 Z-14.000
G1 X100.231 Y-0.816 Z-14.000
G1 X100.071 Y-0.946 Z-14.000
G1 X99.906 Y-1.069 Z-14.000
G1 X99.736 Y-1.185 Z-14.000
G1 X99.563 Y-1.293 Z-14.000
G1 X99.386 Y-1.394 Z-14.000
G1 X99.206 Y-1.487 Z-14.000
G1 X99.024 Y-1.572 Z-14.000
G1 X98.840 Y-1.649 Z-14.000
G1 X98.655 Y-1.718 Z-14.000
G1 X98.469 Y-1.779 Z-14.000
G1 X98.282 Y-1.833 Z-14.000
G1 X98.096 Y-1.878 Z-14.000
G1 X97.910 Y-1.917 Z-14.000
G1 X97.725 Y-1.947 Z-14.000
G1 X97.541 Y-1.971 Z-14.000
G1 X97.358 Y-1.987 Z-14.000
G1 X97.178 Y-1.997 Z-14.000
G1 X97.000 Y-2.000 Z-14.000
G1 X90.080 Y-2.000 Z-14.000
G1 X80.416 Y-2.000 Z-14.000
G1 X67.496 Y-2.000 Z-14.000
G1 X59.258 Y-2.000 Z-14.000
G1 X57.832 Y-2.000 Z-14.000
G1 X44.912 Y-2.000 Z-14.000
G1 X43.258 Y-2.000 Z-14.000
G1 X35.248 Y-2.000 Z-14.000
G1 X12.664 Y-2.000 Z-14.000
G1 X3.000 Y-2.000 Z-14.000
G1 X2.822 Y-1.997 Z-14.000
G1 X2.642 Y-1.987 Z-14.000
G1 X2.459 Y-1.971 Z-14.000
G1 X2.275 Y-1.947 Z-14.000
G1 X2.090 Y-1.917 Z-14.000
G1 X1.904 Y-1.878 Z-14.000
G1 X1.718 Y-1.833 Z-14.000
G1 X1.531 Y-1.779 Z-14.000
G1 X1.345 Y-1.718 Z-14.000
G1 X1.160 Y-1.649 Z-14.000
G1 X0.976 Y-1.572 Z-14.000
G1 X0.794 Y-1.487 Z-14.000
G1 X0.614 Y-1.394 Z-14.000
G1 X0.437 Y-1.293 Z-14.000
G1 X0.264 Y-1.185 Z-14.000
G1 X0.094 Y-1.069 Z-14.000
G1 X-0.071 Y-0.946 Z-14.000
G1 X-0.231 Y-0.816 Z-14.000
G1 X-0.386 Y-0.679 Z-14.000
G1 X-0.536 Y-0.536 Z-14.000
G1 X-0.679 Y-0.386 Z-14.000
G1 X-0.816 Y-0.231 Z-14.000
G1 X-0.946 Y-0.071 Z-14.000
G1 X-1.069 Y0.094 Z-14.000
G1 X-1.185 Y0.264 Z-14.000
G1 X-1.293 Y0.437 Z-14.000
G1 X-1.394 Y0.614 Z-14.000
G1 X-1.487 Y0.794 Z-14.000
G1 X-1.572 Y0.976 Z-14.000
G1 X-1.649 Y1.160 Z-14.000
G1 X-1.718 Y1.345 Z-14.000
G1 X-1.779 Y1.531 Z-14.000
G1 X-1.833 Y1.718 Z-14.000
G1 X-1.878 Y1.904 Z-14.000
G1 X-1.917 Y2.090 Z-14.000
G1 X-1.947 Y2.275 Z-14.000
G1 X-1.971 Y2.459 Z-14.000
G1 X-1.987 Y2.642 Z-14.000
G1 X-1.997 Y2.822 Z-14.000
G1 X-2.000 Y3.000 Z-14.000
G1 X-2.000 Y8.066 Z-14.000
G1 X-2.000 Y17.730 Z-14.097 F635.0
G1 X-2.000 Y30.650 Z-14.226
G1 X-2.000 Y32.000 Z-14.239
G1 X-1.997 Y32.178 Z-14.241
G1 X-1.987 Y32.358 Z-14.243
G1 X-1.971 Y32.541 Z-14.245
G1 X-1.947 Y32.725 Z-14.247
G1 X-1.917 Y32.910 Z-14.249
G1 X-1.878 Y33.096 Z-14.251
G1 X-1.833 Y33.282 Z-14.253
G1 X-1.779 Y33.469 Z-14.255
G1 X-1.718 Y33.655 Z-14.257
G1 X-1.649 Y33.840 Z-14.259
G1 X-1.572 Y34.024 Z-14.261
G1 X-1.487 Y34.206 Z-14.263
G1 X-1.394 Y34.386 Z-14.265
G1 X-1.293 Y34.563 Z-14.267
G1 X-1.185 Y34.736 Z-14.269
G1 X-1.069 Y34.906 Z-14.271
G1 X-0.946 Y35.071 Z-14.273
G1 X-0.816 Y35.231 Z-14.275
G1 X-0.679 Y35.386 Z-14.277
G1 X-0.536 Y35.536 Z-14.279
G1 X-0.386 Y35.679 Z-14.281
G1 X-0.231 Y35.816 Z-14.283
G1 X-0.071 Y35.946 Z-14.284
G1 X0.094 Y36.069 Z-14.286
G1 X0.264 Y36.185 Z-14.288
G1 X0.437 Y36.293 Z-14.290
G1 X0.614 Y36.394 Z-14.292
G1 X0.794 Y36.487 Z-14.294
G1 X0.976 Y36.572 Z-14.296
G1 X1.160 Y36.649 Z-14.298
G1 X1.345 Y36.718 Z-14.300
G1 X1.531 Y36.779 Z-14.302
G1 X1.718 Y36.833 Z-14.304
G1 X1.904 Y36.878 Z-14.306
G1 X2.090 Y36.917 Z-14.308
G1 X2.275 Y36.947 Z-14.310
G1 X2.459 Y36.971 Z-14.312
G1 X2.642 Y36.987 Z-14.314
G1 X2.822 Y36.997 Z-14.316
G1 X3.000 Y37.000 Z-14.318
G1 X3.460 Y37.000 Z-14.322
G1 X26.044 Y37.000 Z-14.548
G1 X40.742 Y37.000 Z-14.695
G1 X48.628 Y37.000 Z-14.774
G1 X56.742 Y37.000 Z-14.855
G1 X58.292 Y37.000 Z-14.871
G1 X71.212 Y37.000 Z-15.000
G1 X80.876 Y37.000 Z-15.000 F2000.0
G1 X93.796 Y37.000 Z-15.000
G1 X97.000 Y37.000 Z-15.000
G1 X97.183 Y36.997 Z-15.000
G1 X97.369 Y36.986 Z-15.000
G1 X97.556 Y36.969 Z-15.000
G1 X97.744 Y36.944 Z-15.000
G1 X97.933 Y36.912 Z-15.000
G1 X98.122 Y36.873 Z-15.000
G1 X98.311 Y36.825 Z-15.000
G1 X98.499 Y36.770 Z-15.000
G1 X98.686 Y36.707 Z-15.000
G1 X98.872 Y36.636 Z-15.000
G1 X99.056 Y36.558 Z-15.000
G1 X99.237 Y36.471 Z-15.000
G1 X99.416 Y36.378 Z-15.000
G1 X99.591 Y36.276 Z-15.000
G1 X99.762 Y36.168 Z-15.000
G1 X99.928 Y36.053 Z-15.000
G1 X100.090 Y35.931 Z-15.000
G1 X100.247 Y35.802 Z-15.000
G1 X100.399 Y35.667 Z-15.000
G1 X100.544 Y35.527 Z-15.000
G1 X100.683 Y35.381 Z-15.000
G1 X100.816 Y35.231 Z-15.000
G1 X100.942 Y35.076 Z-15.000
G1 X101.061 Y34.917 Z-15.000
G1 X101.173 Y34.754 Z-15.000
G1 X101.278 Y34.588 Z-15.000
G1 X101.376 Y34.419 Z-15.000
G1 X101.466 Y34.248 Z-15.000
G1 X101.549 Y34.076 Z-15.000
