(VECTRIC POST REVISION)
(AE8C5706166A14C0DE23454C54EBD95B)
%
G21
G40
G94
G97
G64
G90
T3 M6
M8
M3 S17000
G0 X25.461 Y215.990
G0 Z6.000
G1 X25.461 Y215.990 Z-0.750 F254.0
G1 X25.456 Y216.046 Z-0.750 F177.8
G1 X25.443 Y216.105 Z-0.750
G1 X25.420 Y216.163 Z-0.750
G1 X25.388 Y216.218 Z-0.750
G1 X25.346 Y216.267 Z-0.750
G1 X25.296 Y216.309 Z-0.750
G1 X25.241 Y216.342 Z-0.750
G1 X25.183 Y216.365 Z-0.750
G1 X25.125 Y216.378 Z-0.750
G1 X25.068 Y216.382 Z-0.750
G1 X25.011 Y216.378 Z-0.750
G1 X24.953 Y216.365 Z-0.750
G1 X24.895 Y216.342 Z-0.750
G1 X24.840 Y216.309 Z-0.750
G1 X24.791 Y216.267 Z-0.750
G1 X24.749 Y216.218 Z-0.750
G1 X24.716 Y216.163 Z-0.750
G1 X24.693 Y216.105 Z-0.750
G1 X24.680 Y216.046 Z-0.750
G1 X24.676 Y215.990 Z-0.750
G1 X24.680 Y215.933 Z-0.750
G1 X24.693 Y215.874 Z-0.750
G1 X24.716 Y215.816 Z-0.750
G1 X24.749 Y215.761 Z-0.750
G1 X24.791 Y215.712 Z-0.750
G1 X24.840 Y215.670 Z-0.750
G1 X24.895 Y215.637 Z-0.750
G1 X24.953 Y215.614 Z-0.750
G1 X25.011 Y215.601 Z-0.750
G1 X25.068 Y215.597 Z-0.750
G1 X25.125 Y215.601 Z-0.750
G1 X25.183 Y215.614 Z-0.750
G1 X25.241 Y215.637 Z-0.750
G1 X25.296 Y215.670 Z-0.750
G1 X25.346 Y215.712 Z-0.750
G1 X25.388 Y215.761 Z-0.750
G1 X25.420 Y215.816 Z-0.750
G1 X25.443 Y215.874 Z-0.750
G1 X25.456 Y215.933 Z-0.750
G1 X25.461 Y215.990 Z-0.750
G1 X26.731 Y215.990 Z-0.750
G1 X26.713 Y216.230 Z-0.750
G1 X26.657 Y216.478 Z-0.750
G1 X26.560 Y216.723 Z-0.750
G1 X26.421 Y216.956 Z-0.750
G1 X26.244 Y217.165 Z-0.750
G1 X26.034 Y217.343 Z-0.750
G1 X25.802 Y217.481 Z-0.750
G1 X25.557 Y217.579 Z-0.750
G1 X25.309 Y217.635 Z-0.750
G1 X25.068 Y217.652 Z-0.750
G1 X24.827 Y217.635 Z-0.750
G1 X24.580 Y217.579 Z-0.750
G1 X24.334 Y217.481 Z-0.750
G1 X24.102 Y217.343 Z-0.750
G1 X23.893 Y217.165 Z-0.750
G1 X23.715 Y216.956 Z-0.750
G1 X23.576 Y216.723 Z-0.750
G1 X23.479 Y216.478 Z-0.750
G1 X23.423 Y216.230 Z-0.750
G1 X23.406 Y215.990 Z-0.750
G1 X23.423 Y215.749 Z-0.750
G1 X23.479 Y215.501 Z-0.750
G1 X23.576 Y215.256 Z-0.750
G1 X23.715 Y215.023 Z-0.750
G1 X23.893 Y214.814 Z-0.750
G1 X24.102 Y214.637 Z-0.750
G1 X24.334 Y214.498 Z-0.750
G1 X24.580 Y214.400 Z-0.750
G1 X24.827 Y214.345 Z-0.750
G1 X25.068 Y214.327 Z-0.750
G1 X25.309 Y214.345 Z-0.750
G1 X25.557 Y214.400 Z-0.750
G1 X25.802 Y214.498 Z-0.750
G1 X26.034 Y214.637 Z-0.750
G1 X26.244 Y214.814 Z-0.750
G1 X26.421 Y215.023 Z-0.750
G1 X26.560 Y215.256 Z-0.750
G1 X26.657 Y215.501 Z-0.750
G1 X26.713 Y215.749 Z-0.750
G1 X26.731 Y215.990 Z-0.750
G0 X26.731 Y215.990
G0 Z6.000
G0 X25.461 Y215.990
G0 Z6.000
G1 X25.461 Y215.990 Z-1.500 F254.0
G1 X25.456 Y216.046 Z-1.500 F177.8
G1 X25.443 Y216.105 Z-1.500
G1 X25.420 Y216.163 Z-1.500
G1 X25.388 Y216.218 Z-1.500
G1 X25.346 Y216.267 Z-1.500
G1 X25.296 Y216.309 Z-1.500
G1 X25.241 Y216.342 Z-1.500
G1 X25.183 Y216.365 Z-1.500
G1 X25.125 Y216.378 Z-1.500
G1 X25.068 Y216.382 Z-1.500
G1 X25.011 Y216.378 Z-1.500
G1 X24.953 Y216.365 Z-1.500
G1 X24.895 Y216.342 Z-1.500
G1 X24.840 Y216.309 Z-1.500
G1 X24.791 Y216.267 Z-1.500
G1 X24.749 Y216.218 Z-1.500
G1 X24.716 Y216.163 Z-1.500
G1 X24.693 Y216.105 Z-1.500
G1 X24.680 Y216.046 Z-1.500
G1 X24.676 Y215.990 Z-1.500
G1 X24.680 Y215.933 Z-1.500
G1 X24.693 Y215.874 Z-1.500
G1 X24.716 Y215.816 Z-1.500
G1 X24.749 Y215.761 Z-1.500
G1 X24.791 Y215.712 Z-1.500
G1 X24.840 Y215.670 Z-1.500
G1 X24.895 Y215.637 Z-1.500
G1 X24.953 Y215.614 Z-1.500
G1 X25.011 Y215.601 Z-1.500
G1 X25.068 Y215.597 Z-1.500
G1 X25.125 Y215.601 Z-1.500
G1 X25.183 Y215.614 Z-1.500
G1 X25.241 Y215.637 Z-1.500
G1 X25.296 Y215.670 Z-1.500
G1 X25.346 Y215.712 Z-1.500
G1 X25.388 Y215.761 Z-1.500
G1 X25.420 Y215.816 Z-1.500
G1 X25.443 Y215.874 Z-1.500
G1 X25.456 Y215.933 Z-1.500
G1 X25.461 Y215.990 Z-1.500
G1 X26.731 Y215.990 Z-1.500
G1 X26.713 Y216.230 Z-1.500
G1 X26.657 Y216.478 Z-1.500
G1 X26.560 Y216.723 Z-1.500
G1 X26.421 Y216.956 Z-1.500
G1 X26.244 Y217.165 Z-1.500
G1 X26.034 Y217.343 Z-1.500
G1 X25.802 Y217.481 Z-1.500
G1 X25.557 Y217.579 Z-1.500
G1 X25.309 Y217.635 Z-1.500
G1 X25.068 Y217.652 Z-1.500
G1 X24.827 Y217.635 Z-1.500
G1 X24.580 Y217.579 Z-1.500
G1 X24.334 Y217.481 Z-1.500
G1 X24.102 Y217.343 Z-1.500
G1 X23.893 Y217.165 Z-1.500
G1 X23.715 Y216.956 Z-1.500
G1 X23.576 Y216.723 Z-1.500
G1 X23.479 Y216.478 Z-1.500
G1 X23.423 Y216.230 Z-1.500
G1 X23.406 Y215.990 Z-1.500
G1 X23.423 Y215.749 Z-1.500
G1 X23.479 Y215.501 Z-1.500
G1 X23.576 Y215.256 Z-1.500
G1 X23.715 Y215.023 Z-1.500
G1 X23.893 Y214.814 Z-1.500
G1 X24.102 Y214.637 Z-1.500
G1 X24.334 Y214.498 Z-1.500
G1 X24.580 Y214.400 Z-1.500
G1 X24.827 Y214.345 Z-1.500
G1 X25.068 Y214.327 Z-1.500
G1 X25.309 Y214.345 Z-1.500
G1 X25.557 Y214.400 Z-1.500
G1 X25.802 Y214.498 Z-1.500
G1 X26.034 Y214.637 Z-1.500
G1 X26.244 Y214.814 Z-1.500
G1 X26.421 Y215.023 Z-1.500
G1 X26.560 Y215.256 Z-1.500
G1 X26.657 Y215.501 Z-1.500
G1 X26.713 Y215.749 Z-1.500
G1 X26.731 Y215.990 Z-1.500
G0 X26.731 Y215.990
G0 Z6.000
G0 X25.461 Y215.990
G0 Z6.000
G1 X25.461 Y215.990 Z-2.250 F254.0
G1 X25.456 Y216.046 Z-2.250 F177.8
G1 X25.443 Y216.105 Z-2.250
G1 X25.420 Y216.163 Z-2.250
G1 X25.388 Y216.218 Z-2.250
G1 X25.346 Y216.267 Z-2.250
G1 X25.296 Y216.309 Z-2.250
G1 X25.241 Y216.342 Z-2.250
G1 X25.183 Y216.365 Z-2.250
G1 X25.125 Y216.378 Z-2.250
G1 X25.068 Y216.382 Z-2.250
G1 X25.011 Y216.378 Z-2.250
G1 X24.953 Y216.365 Z-2.250
G1 X24.895 Y216.342 Z-2.250
G1 X24.840 Y216.309 Z-2.250
G1 X24.791 Y216.267 Z-2.250
G1 X24.749 Y216.218 Z-2.250
G1 X24.716 Y216.163 Z-2.250
G1 X24.693 Y216.105 Z-2.250
G1 X24.680 Y216.046 Z-2.250
G1 X24.676 Y215.990 Z-2.250
G1 X24.680 Y215.933 Z-2.250
G1 X24.693 Y215.874 Z-2.250
G1 X24.716 Y215.816 Z-2.250
G1 X24.749 Y215.761 Z-2.250
G1 X24.791 Y215.712 Z-2.250
G1 X24.840 Y215.670 Z-2.250
G1 X24.895 Y215.637 Z-2.250
G1 X24.953 Y215.614 Z-2.250
G1 X25.011 Y215.601 Z-2.250
G1 X25.068 Y215.597 Z-2.250
G1 X25.125 Y215.601 Z-2.250
G1 X25.183 Y215.614 Z-2.250
G1 X25.241 Y215.637 Z-2.250
G1 X25.296 Y215.670 Z-2.250
G1 X25.346 Y215.712 Z-2.250
G1 X25.388 Y215.761 Z-2.250
G1 X25.420 Y215.816 Z-2.250
G1 X25.443 Y215.874 Z-2.250
G1 X25.456 Y215.933 Z-2.250
G1 X25.461 Y215.990 Z-2.250
G1 X26.731 Y215.990 Z-2.250
G1 X26.713 Y216.230 Z-2.250
G1 X26.657 Y216.478 Z-2.250
G1 X26.560 Y216.723 Z-2.250
G1 X26.421 Y216.956 Z-2.250
G1 X26.244 Y217.165 Z-2.250
G1 X26.034 Y217.343 Z-2.250
G1 X25.802 Y217.481 Z-2.250
G1 X25.557 Y217.579 Z-2.250
G1 X25.309 Y217.635 Z-2.250
G1 X25.068 Y217.652 Z-2.250
G1 X24.827 Y217.635 Z-2.250
G1 X24.580 Y217.579 Z-2.250
G1 X24.334 Y217.481 Z-2.250
G1 X24.102 Y217.343 Z-2.250
G1 X23.893 Y217.165 Z-2.250
G1 X23.715 Y216.956 Z-2.250
G1 X23.576 Y216.723 Z-2.250
G1 X23.479 Y216.478 Z-2.250
G1 X23.423 Y216.230 Z-2.250
G1 X23.406 Y215.990 Z-2.250
G1 X23.423 Y215.749 Z-2.250
G1 X23.479 Y215.501 Z-2.250
G1 X23.576 Y215.256 Z-2.250
G1 X23.715 Y215.023 Z-2.250
G1 X23.893 Y214.814 Z-2.250
G1 X24.102 Y214.637 Z-2.250
G1 X24.334 Y214.498 Z-2.250
G1 X24.580 Y214.400 Z-2.250
G1 X24.827 Y214.345 Z-2.250
G1 X25.068 Y214.327 Z-2.250
G1 X25.309 Y214.345 Z-2.250
G1 X25.557 Y214.400 Z-2.250
G1 X25.802 Y214.498 Z-2.250
G1 X26.034 Y214.637 Z-2.250
G1 X26.244 Y214.814 Z-2.250
G1 X26.421 Y215.023 Z-2.250
G1 X26.560 Y215.256 Z-2.250
G1 X26.657 Y215.501 Z-2.250
G1 X26.713 Y215.749 Z-2.250
G1 X26.731 Y215.990 Z-2.250
G0 X26.731 Y215.990
G0 Z6.000
G0 X25.461 Y215.990
G0 Z6.000
G1 X25.461 Y215.990 Z-3.000 F254.0
G1 X25.456 Y216.046 Z-3.000 F177.8
G1 X25.443 Y216.105 Z-3.000
G1 X25.420 Y216.163 Z-3.000
G1 X25.388 Y216.218 Z-3.000
G1 X25.346 Y216.267 Z-3.000
G1 X25.296 Y216.309 Z-3.000
G1 X25.241 Y216.342 Z-3.000
G1 X25.183 Y216.365 Z-3.000
G1 X25.125 Y216.378 Z-3.000
G1 X25.068 Y216.382 Z-3.000
G1 X25.011 Y216.378 Z-3.000
G1 X24.953 Y216.365 Z-3.000
G1 X24.895 Y216.342 Z-3.000
G1 X24.840 Y216.309 Z-3.000
G1 X24.791 Y216.267 Z-3.000
G1 X24.749 Y216.218 Z-3.000
G1 X24.716 Y216.163 Z-3.000
G1 X24.693 Y216.105 Z-3.000
G1 X24.680 Y216.046 Z-3.000
G1 X24.676 Y215.990 Z-3.000
G1 X24.680 Y215.933 Z-3.000
G1 X24.693 Y215.874 Z-3.000
G1 X24.716 Y215.816 Z-3.000
G1 X24.749 Y215.761 Z-3.000
G1 X24.791 Y215.712 Z-3.000
G1 X24.840 Y215.670 Z-3.000
G1 X24.895 Y215.637 Z-3.000
G1 X24.953 Y215.614 Z-3.000
G1 X25.011 Y215.601 Z-3.000
G1 X25.068 Y215.597 Z-3.000
G1 X25.125 Y215.601 Z-3.000
G1 X25.183 Y215.614 Z-3.000
G1 X25.241 Y215.637 Z-3.000
G1 X25.296 Y215.670 Z-3.000
G1 X25.346 Y215.712 Z-3.000
G1 X25.388 Y215.761 Z-3.000
G1 X25.420 Y215.816 Z-3.000
G1 X25.443 Y215.874 Z-3.000
G1 X25.456 Y215.933 Z-3.000
G1 X25.461 Y215.990 Z-3.000
G1 X26.731 Y215.990 Z-3.000
G1 X26.713 Y216.230 Z-3.000
G1 X26.657 Y216.478 Z-3.000
G1 X26.560 Y216.723 Z-3.000
G1 X26.421 Y216.956 Z-3.000
G1 X26.244 Y217.165 Z-3.000
G1 X26.034 Y217.343 Z-3.000
G1 X25.802 Y217.481 Z-3.000
G1 X25.557 Y217.579 Z-3.000
G1 X25.309 Y217.635 Z-3.000
G1 X25.068 Y217.652 Z-3.000
G1 X24.827 Y217.635 Z-3.000
G1 X24.580 Y217.579 Z-3.000
G1 X24.334 Y217.481 Z-3.000
G1 X24.102 Y217.343 Z-3.000
G1 X23.893 Y217.165 Z-3.000
G1 X23.715 Y216.956 Z-3.000
G1 X23.576 Y216.723 Z-3.000
G1 X23.479 Y216.478 Z-3.000
G1 X23.423 Y216.230 Z-3.000
G1 X23.406 Y215.990 Z-3.000
G1 X23.423 Y215.749 Z-3.000
G1 X23.479 Y215.501 Z-3.000
G1 X23.576 Y215.256 Z-3.000
G1 X23.715 Y215.023 Z-3.000
G1 X23.893 Y214.814 Z-3.000
G1 X24.102 Y214.637 Z-3.000
G1 X24.334 Y214.498 Z-3.000
G1 X24.580 Y214.400 Z-3.000
G1 X24.827 Y214.345 Z-3.000
G1 X25.068 Y214.327 Z-3.000
G1 X25.309 Y214.345 Z-3.000
G1 X25.557 Y214.400 Z-3.000
G1 X25.802 Y214.498 Z-3.000
G1 X26.034 Y214.637 Z-3.000
G1 X26.244 Y214.814 Z-3.000
G1 X26.421 Y215.023 Z-3.000
G1 X26.560 Y215.256 Z-3.000
G1 X26.657 Y215.501 Z-3.000
G1 X26.713 Y215.749 Z-3.000
G1 X26.731 Y215.990 Z-3.000
G0 X26.731 Y215.990
G0 Z6.000
G0 X25.461 Y215.990
G0 Z6.000
G1 X25.461 Y215.990 Z-3.750 F254.0
G1 X25.456 Y216.046 Z-3.750 F177.8
G1 X25.443 Y216.105 Z-3.750
G1 X25.420 Y216.163 Z-3.750
G1 X25.388 Y216.218 Z-3.750
G1 X25.346 Y216.267 Z-3.750
G1 X25.296 Y216.309 Z-3.750
G1 X25.241 Y216.342 Z-3.750
G1 X25.183 Y216.365 Z-3.750
G1 X25.125 Y216.378 Z-3.750
G1 X25.068 Y216.382 Z-3.750
G1 X25.011 Y216.378 Z-3.750
G1 X24.953 Y216.365 Z-3.750
G1 X24.895 Y216.342 Z-3.750
G1 X24.840 Y216.309 Z-3.750
G1 X24.791 Y216.267 Z-3.750
G1 X24.749 Y216.218 Z-3.750
G1 X24.716 Y216.163 Z-3.750
G1 X24.693 Y216.105 Z-3.750
G1 X24.680 Y216.046 Z-3.750
G1 X24.676 Y215.990 Z-3.750
G1 X24.680 Y215.933 Z-3.750
G1 X24.693 Y215.874 Z-3.750
G1 X24.716 Y215.816 Z-3.750
G1 X24.749 Y215.761 Z-3.750
G1 X24.791 Y215.712 Z-3.750
G1 X24.840 Y215.670 Z-3.750
G1 X24.895 Y215.637 Z-3.750
G1 X24.953 Y215.614 Z-3.750
G1 X25.011 Y215.601 Z-3.750
G1 X25.068 Y215.597 Z-3.750
G1 X25.125 Y215.601 Z-3.750
G1 X25.183 Y215.614 Z-3.750
G1 X25.241 Y215.637 Z-3.750
G1 X25.296 Y215.670 Z-3.750
G1 X25.346 Y215.712 Z-3.750
G1 X25.388 Y215.761 Z-3.750
G1 X25.420 Y215.816 Z-3.750
G1 X25.443 Y215.874 Z-3.750
G1 X25.456 Y215.933 Z-3.750
G1 X25.461 Y215.990 Z-3.750
G1 X26.731 Y215.990 Z-3.750
G1 X26.713 Y216.230 Z-3.750
G1 X26.657 Y216.478 Z-3.750
G1 X26.560 Y216.723 Z-3.750
G1 X26.421 Y216.956 Z-3.750
G1 X26.244 Y217.165 Z-3.750
G1 X26.034 Y217.343 Z-3.750
G1 X25.802 Y217.481 Z-3.750
G1 X25.557 Y217.579 Z-3.750
G1 X25.309 Y217.635 Z-3.750
G1 X25.068 Y217.652 Z-3.750
G1 X24.827 Y217.635 Z-3.750
G1 X24.580 Y217.579 Z-3.750
G1 X24.334 Y217.481 Z-3.750
G1 X24.102 Y217.343 Z-3.750
G1 X23.893 Y217.165 Z-3.750
G1 X23.715 Y216.956 Z-3.750
G1 X23.576 Y216.723 Z-3.750
G1 X23.479 Y216.478 Z-3.750
G1 X23.423 Y216.230 Z-3.750
G1 X23.406 Y215.990 Z-3.750
G1 X23.423 Y215.749 Z-3.750
G1 X23.479 Y215.501 Z-3.750
G1 X23.576 Y215.256 Z-3.750
G1 X23.715 Y215.023 Z-3.750
G1 X23.893 Y214.814 Z-3.750
G1 X24.102 Y214.637 Z-3.750
G1 X24.334 Y214.498 Z-3.750
G1 X24.580 Y214.400 Z-3.750
G1 X24.827 Y214.345 Z-3.750
G1 X25.068 Y214.327 Z-3.750
G1 X25.309 Y214.345 Z-3.750
G1 X25.557 Y214.400 Z-3.750
G1 X25.802 Y214.498 Z-3.750
G1 X26.034 Y214.637 Z-3.750
G1 X26.244 Y214.814 Z-3.750
G1 X26.421 Y215.023 Z-3.750
G1 X26.560 Y215.256 Z-3.750
G1 X26.657 Y215.501 Z-3.750
G1 X26.713 Y215.749 Z-3.750
G1 X26.731 Y215.990 Z-3.750
G0 X26.731 Y215.990
G0 Z6.000
G0 X25.461 Y215.990
G0 Z6.000
G1 X25.461 Y215.990 Z-4.500 F254.0
G1 X25.456 Y216.046 Z-4.500 F177.8
G1 X25.443 Y216.105 Z-4.500
G1 X25.420 Y216.163 Z-4.500
G1 X25.388 Y216.218 Z-4.500
G1 X25.346 Y216.267 Z-4.500
G1 X25.296 Y216.309 Z-4.500
G1 X25.241 Y216.342 Z-4.500
G1 X25.183 Y216.365 Z-4.500
G1 X25.125 Y216.378 Z-4.500
G1 X25.068 Y216.382 Z-4.500
G1 X25.011 Y216.378 Z-4.500
G1 X24.953 Y216.365 Z-4.500
G1 X24.895 Y216.342 Z-4.500
G1 X24.840 Y216.309 Z-4.500
G1 X24.791 Y216.267 Z-4.500
G1 X24.749 Y216.218 Z-4.500
G1 X24.716 Y216.163 Z-4.500
G1 X24.693 Y216.105 Z-4.500
G1 X24.680 Y216.046 Z-4.500
G1 X24.676 Y215.990 Z-4.500
G1 X24.680 Y215.933 Z-4.500
G1 X24.693 Y215.874 Z-4.500
G1 X24.716 Y215.816 Z-4.500
G1 X24.749 Y215.761 Z-4.500
G1 X24.791 Y215.712 Z-4.500
G1 X24.840 Y215.670 Z-4.500
G1 X24.895 Y215.637 Z-4.500
G1 X24.953 Y215.614 Z-4.500
G1 X25.011 Y215.601 Z-4.500
G1 X25.068 Y215.597 Z-4.500
G1 X25.125 Y215.601 Z-4.500
G1 X25.183 Y215.614 Z-4.500
G1 X25.241 Y215.637 Z-4.500
G1 X25.296 Y215.670 Z-4.500
G1 X25.346 Y215.712 Z-4.500
G1 X25.388 Y215.761 Z-4.500
G1 X25.420 Y215.816 Z-4.500
G1 X25.443 Y215.874 Z-4.500
G1 X25.456 Y215.933 Z-4.500
G1 X25.461 Y215.990 Z-4.500
G1 X26.731 Y215.990 Z-4.500
G1 X26.713 Y216.230 Z-4.500
G1 X26.657 Y216.478 Z-4.500
G1 X26.560 Y216.723 Z-4.500
G1 X26.421 Y216.956 Z-4.500
G1 X26.244 Y217.165 Z-4.500
G1 X26.034 Y217.343 Z-4.500
G1 X25.802 Y217.481 Z-4.500
G1 X25.557 Y217.579 Z-4.500
G1 X25.309 Y217.635 Z-4.500
G1 X25.068 Y217.652 Z-4.500
G1 X24.827 Y217.635 Z-4.500
G1 X24.580 Y217.579 Z-4.500
G1 X24.334 Y217.481 Z-4.500
G1 X24.102 Y217.343 Z-4.500
G1 X23.893 Y217.165 Z-4.500
G1 X23.715 Y216.956 Z-4.500
G1 X23.576 Y216.723 Z-4.500
G1 X23.479 Y216.478 Z-4.500
G1 X23.423 Y216.230 Z-4.500
G1 X23.406 Y215.990 Z-4.500
G1 X23.423 Y215.749 Z-4.500
G1 X23.479 Y215.501 Z-4.500
G1 X23.576 Y215.256 Z-4.500
G1 X23.715 Y215.023 Z-4.500
G1 X23.893 Y214.814 Z-4.500
G1 X24.102 Y214.637 Z-4.500
G1 X24.334 Y214.498 Z-4.500
G1 X24.580 Y214.400 Z-4.500
G1 X24.827 Y214.345 Z-4.500
G1 X25.068 Y214.327 Z-4.500
G1 X25.309 Y214.345 Z-4.500
G1 X25.557 Y214.400 Z-4.500
G1 X25.802 Y214.498 Z-4.500
G1 X26.034 Y214.637 Z-4.500
G1 X26.244 Y214.814 Z-4.500
G1 X26.421 Y215.023 Z-4.500
G1 X26.560 Y215.256 Z-4.500
G1 X26.657 Y215.501 Z-4.500
G1 X26.713 Y215.749 Z-4.500
G1 X26.731 Y215.990 Z-4.500
G0 X26.731 Y215.990
G0 Z6.000
G0 X25.461 Y215.990
G0 Z6.000
G1 X25.461 Y215.990 Z-5.250 F254.0
G1 X25.456 Y216.046 Z-5.250 F177.8
G1 X25.443 Y216.105 Z-5.250
G1 X25.420 Y216.163 Z-5.250
G1 X25.388 Y216.218 Z-5.250
G1 X25.346 Y216.267 Z-5.250
G1 X25.296 Y216.309 Z-5.250
G1 X25.241 Y216.342 Z-5.250
G1 X25.183 Y216.365 Z-5.250
G1 X25.125 Y216.378 Z-5.250
G1 X25.068 Y216.382 Z-5.250
G1 X25.011 Y216.378 Z-5.250
G1 X24.953 Y216.365 Z-5.250
G1 X24.895 Y216.342 Z-5.250
G1 X24.840 Y216.309 Z-5.250
G1 X24.791 Y216.267 Z-5.250
G1 X24.749 Y216.218 Z-5.250
G1 X24.716 Y216.163 Z-5.250
G1 X24.693 Y216.105 Z-5.250
G1 X24.680 Y216.046 Z-5.250
G1 X24.676 Y215.990 Z-5.250
G1 X24.680 Y215.933 Z-5.250
G1 X24.693 Y215.874 Z-5.250
G1 X24.716 Y215.816 Z-5.250
G1 X24.749 Y215.761 Z-5.250
G1 X24.791 Y215.712 Z-5.250
G1 X24.840 Y215.670 Z-5.250
G1 X24.895 Y215.637 Z-5.250
G1 X24.953 Y215.614 Z-5.250
G1 X25.011 Y215.601 Z-5.250
G1 X25.068 Y215.597 Z-5.250
G1 X25.125 Y215.601 Z-5.250
G1 X25.183 Y215.614 Z-5.250
G1 X25.241 Y215.637 Z-5.250
G1 X25.296 Y215.670 Z-5.250
G1 X25.346 Y215.712 Z-5.250
G1 X25.388 Y215.761 Z-5.250
G1 X25.420 Y215.816 Z-5.250
G1 X25.443 Y215.874 Z-5.250
G1 X25.456 Y215.933 Z-5.250
G1 X25.461 Y215.990 Z-5.250
G1 X26.731 Y215.990 Z-5.250
G1 X26.713 Y216.230 Z-5.250
G1 X26.657 Y216.478 Z-5.250
G1 X26.560 Y216.723 Z-5.250
G1 X26.421 Y216.956 Z-5.250
G1 X26.244 Y217.165 Z-5.250
G1 X26.034 Y217.343 Z-5.250
G1 X25.802 Y217.481 Z-5.250
G1 X25.557 Y217.579 Z-5.250
G1 X25.309 Y217.635 Z-5.250
G1 X25.068 Y217.652 Z-5.250
G1 X24.827 Y217.635 Z-5.250
G1 X24.580 Y217.579 Z-5.250
G1 X24.334 Y217.481 Z-5.250
G1 X24.102 Y217.343 Z-5.250
G1 X23.893 Y217.165 Z-5.250
G1 X23.715 Y216.956 Z-5.250
G1 X23.576 Y216.723 Z-5.250
G1 X23.479 Y216.478 Z-5.250
G1 X23.423 Y216.230 Z-5.250
G1 X23.406 Y215.990 Z-5.250
G1 X23.423 Y215.749 Z-5.250
G1 X23.479 Y215.501 Z-5.250
G1 X23.576 Y215.256 Z-5.250
G1 X23.715 Y215.023 Z-5.250
G1 X23.893 Y214.814 Z-5.250
G1 X24.102 Y214.637 Z-5.250
G1 X24.334 Y214.498 Z-5.250
G1 X24.580 Y214.400 Z-5.250
G1 X24.827 Y214.345 Z-5.250
G1 X25.068 Y214.327 Z-5.250
G1 X25.309 Y214.345 Z-5.250
G1 X25.557 Y214.400 Z-5.250
G1 X25.802 Y214.498 Z-5.250
G1 X26.034 Y214.637 Z-5.250
G1 X26.244 Y214.814 Z-5.250
G1 X26.421 Y215.023 Z-5.250
G1 X26.560 Y215.256 Z-5.250
G1 X26.657 Y215.501 Z-5.250
G1 X26.713 Y215.749 Z-5.250
G1 X26.731 Y215.990 Z-5.250
G0 X26.731 Y215.990
G0 Z6.000
G0 X25.461 Y215.990
G0 Z6.000
G1 X25.461 Y215.990 Z-6.000 F254.0
G1 X25.456 Y216.046 Z-6.000 F177.8
G1 X25.443 Y216.105 Z-6.000
G1 X25.420 Y216.163 Z-6.000
G1 X25.388 Y216.218 Z-6.000
G1 X25.346 Y216.267 Z-6.000
G1 X25.296 Y216.309 Z-6.000
G1 X25.241 Y216.342 Z-6.000
G1 X25.183 Y216.365 Z-6.000
G1 X25.125 Y216.378 Z-6.000
G1 X25.068 Y216.382 Z-6.000
G1 X25.011 Y216.378 Z-6.000
G1 X24.953 Y216.365 Z-6.000
G1 X24.895 Y216.342 Z-6.000
G1 X24.840 Y216.309 Z-6.000
G1 X24.791 Y216.267 Z-6.000
G1 X24.749 Y216.218 Z-6.000
G1 X24.716 Y216.163 Z-6.000
G1 X24.693 Y216.105 Z-6.000
G1 X24.680 Y216.046 Z-6.000
G1 X24.676 Y215.990 Z-6.000
G1 X24.680 Y215.933 Z-6.000
G1 X24.693 Y215.874 Z-6.000
G1 X24.716 Y215.816 Z-6.000
G1 X24.749 Y215.761 Z-6.000
G1 X24.791 Y215.712 Z-6.000
G1 X24.840 Y215.670 Z-6.000
G1 X24.895 Y215.637 Z-6.000
G1 X24.953 Y215.614 Z-6.000
G1 X25.011 Y215.601 Z-6.000
G1 X25.068 Y215.597 Z-6.000
G1 X25.125 Y215.601 Z-6.000
G1 X25.183 Y215.614 Z-6.000
G1 X25.241 Y215.637 Z-6.000
G1 X25.296 Y215.670 Z-6.000
G1 X25.346 Y215.712 Z-6.000
G1 X25.388 Y215.761 Z-6.000
G1 X25.420 Y215.816 Z-6.000
G1 X25.443 Y215.874 Z-6.000
G1 X25.456 Y215.933 Z-6.000
G1 X25.461 Y215.990 Z-6.000
G1 X26.731 Y215.990 Z-6.000
G1 X26.713 Y216.230 Z-6.000
G1 X26.657 Y216.478 Z-6.000
G1 X26.560 Y216.723 Z-6.000
G1 X26.421 Y216.956 Z-6.000
G1 X26.244 Y217.165 Z-6.000
G1 X26.034 Y217.343 Z-6.000
G1 X25.802 Y217.481 Z-6.000
G1 X25.557 Y217.579 Z-6.000
G1 X25.309 Y217.635 Z-6.000
G1 X25.068 Y217.652 Z-6.000
G1 X24.827 Y217.635 Z-6.000
G1 X24.580 Y217.579 Z-6.000
G1 X24.334 Y217.481 Z-6.000
G1 X24.102 Y217.343 Z-6.000
G1 X23.893 Y217.165 Z-6.000
G1 X23.715 Y216.956 Z-6.000
G1 X23.576 Y216.723 Z-6.000
G1 X23.479 Y216.478 Z-6.000
G1 X23.423 Y216.230 Z-6.000
G1 X23.406 Y215.990 Z-6.000
G1 X23.423 Y215.749 Z-6.000
G1 X23.479 Y215.501 Z-6.000
G1 X23.576 Y215.256 Z-6.000
G1 X23.715 Y215.023 Z-6.000
G1 X23.893 Y214.814 Z-6.000
G1 X24.102 Y214.637 Z-6.000
G1 X24.334 Y214.498 Z-6.000
G1 X24.580 Y214.400 Z-6.000
G1 X24.827 Y214.345 Z-6.000
G1 X25.068 Y214.327 Z-6.000
G1 X25.309 Y214.345 Z-6.000
G1 X25.557 Y214.400 Z-6.000
G1 X25.802 Y214.498 Z-6.000
G1 X26.034 Y214.637 Z-6.000
G1 X26.244 Y214.814 Z-6.000
G1 X26.421 Y215.023 Z-6.000
G1 X26.560 Y215.256 Z-6.000
G1 X26.657 Y215.501 Z-6.000
G1 X26.713 Y215.749 Z-6.000
G1 X26.731 Y215.990 Z-6.000
G0 X26.731 Y215.990
G0 Z6.000
G0 X25.461 Y215.990
G0 Z6.000
G1 X25.461 Y215.990 Z-6.750 F254.0
G1 X25.456 Y216.046 Z-6.750 F177.8
G1 X25.443 Y216.105 Z-6.750
G1 X25.420 Y216.163 Z-6.750
G1 X25.388 Y216.218 Z-6.750
G1 X25.346 Y216.267 Z-6.750
G1 X25.296 Y216.309 Z-6.750
G1 X25.241 Y216.342 Z-6.750
G1 X25.183 Y216.365 Z-6.750
G1 X25.125 Y216.378 Z-6.750
G1 X25.068 Y216.382 Z-6.750
G1 X25.011 Y216.378 Z-6.750
G1 X24.953 Y216.365 Z-6.750
G1 X24.895 Y216.342 Z-6.750
G1 X24.840 Y216.309 Z-6.750
G1 X24.791 Y216.267 Z-6.750
G1 X24.749 Y216.218 Z-6.750
G1 X24.716 Y216.163 Z-6.750
G1 X24.693 Y216.105 Z-6.750
G1 X24.680 Y216.046 Z-6.750
G1 X24.676 Y215.990 Z-6.750
G1 X24.680 Y215.933 Z-6.750
G1 X24.693 Y215.874 Z-6.750
G1 X24.716 Y215.816 Z-6.750
G1 X24.749 Y215.761 Z-6.750
G1 X24.791 Y215.712 Z-6.750
G1 X24.840 Y215.670 Z-6.750
G1 X24.895 Y215.637 Z-6.750
G1 X24.953 Y215.614 Z-6.750
G1 X25.011 Y215.601 Z-6.750
G1 X25.068 Y215.597 Z-6.750
G1 X25.125 Y215.601 Z-6.750
G1 X25.183 Y215.614 Z-6.750
G1 X25.241 Y215.637 Z-6.750
G1 X25.296 Y215.670 Z-6.750
G1 X25.346 Y215.712 Z-6.750
G1 X25.388 Y215.761 Z-6.750
G1 X25.420 Y215.816 Z-6.750
G1 X25.443 Y215.874 Z-6.750
G1 X25.456 Y215.933 Z-6.750
G1 X25.461 Y215.990 Z-6.750
G1 X26.731 Y215.990 Z-6.750
G1 X26.713 Y216.230 Z-6.750
G1 X26.657 Y216.478 Z-6.750
G1 X26.560 Y216.723 Z-6.750
G1 X26.421 Y216.956 Z-6.750
G1 X26.244 Y217.165 Z-6.750
G1 X26.034 Y217.343 Z-6.750
G1 X25.802 Y217.481 Z-6.750
G1 X25.557 Y217.579 Z-6.750
G1 X25.309 Y217.635 Z-6.750
G1 X25.068 Y217.652 Z-6.750
G1 X24.827 Y217.635 Z-6.750
G1 X24.580 Y217.579 Z-6.750
G1 X24.334 Y217.481 Z-6.750
G1 X24.102 Y217.343 Z-6.750
G1 X23.893 Y217.165 Z-6.750
G1 X23.715 Y216.956 Z-6.750
G1 X23.576 Y216.723 Z-6.750
G1 X23.479 Y216.478 Z-6.750
G1 X23.423 Y216.230 Z-6.750
G1 X23.406 Y215.990 Z-6.750
G1 X23.423 Y215.749 Z-6.750
G1 X23.479 Y215.501 Z-6.750
G1 X23.576 Y215.256 Z-6.750
G1 X23.715 Y215.023 Z-6.750
G1 X23.893 Y214.814 Z-6.750
G1 X24.102 Y214.637 Z-6.750
G1 X24.334 Y214.498 Z-6.750
G1 X24.580 Y214.400 Z-6.750
G1 X24.827 Y214.345 Z-6.750
G1 X25.068 Y214.327 Z-6.750
G1 X25.309 Y214.345 Z-6.750
G1 X25.557 Y214.400 Z-6.750
G1 X25.802 Y214.498 Z-6.750
G1 X26.034 Y214.637 Z-6.750
G1 X26.244 Y214.814 Z-6.750
G1 X26.421 Y215.023 Z-6.750
G1 X26.560 Y215.256 Z-6.750
G1 X26.657 Y215.501 Z-6.750
G1 X26.713 Y215.749 Z-6.750
G1 X26.731 Y215.990 Z-6.750
G0 X26.731 Y215.990
G0 Z6.000
G0 X25.461 Y215.990
G0 Z6.000
G1 X25.461 Y215.990 Z-7.500 F254.0
G1 X25.456 Y216.046 Z-7.500 F177.8
G1 X25.443 Y216.105 Z-7.500
G1 X25.420 Y216.163 Z-7.500
G1 X25.388 Y216.218 Z-7.500
G1 X25.346 Y216.267 Z-7.500
G1 X25.296 Y216.309 Z-7.500
G1 X25.241 Y216.342 Z-7.500
G1 X25.183 Y216.365 Z-7.500
G1 X25.125 Y216.378 Z-7.500
G1 X25.068 Y216.382 Z-7.500
G1 X25.011 Y216.378 Z-7.500
G1 X24.953 Y216.365 Z-7.500
G1 X24.895 Y216.342 Z-7.500
G1 X24.840 Y216.309 Z-7.500
G1 X24.791 Y216.267 Z-7.500
G1 X24.749 Y216.218 Z-7.500
G1 X24.716 Y216.163 Z-7.500
G1 X24.693 Y216.105 Z-7.500
G1 X24.680 Y216.046 Z-7.500
G1 X24.676 Y215.990 Z-7.500
G1 X24.680 Y215.933 Z-7.500
G1 X24.693 Y215.874 Z-7.500
G1 X24.716 Y215.816 Z-7.500
G1 X24.749 Y215.761 Z-7.500
G1 X24.791 Y215.712 Z-7.500
G1 X24.840 Y215.670 Z-7.500
G1 X24.895 Y215.637 Z-7.500
G1 X24.953 Y215.614 Z-7.500
G1 X25.011 Y215.601 Z-7.500
G1 X25.068 Y215.597 Z-7.500
G1 X25.125 Y215.601 Z-7.500
G1 X25.183 Y215.614 Z-7.500
G1 X25.241 Y215.637 Z-7.500
G1 X25.296 Y215.670 Z-7.500
G1 X25.346 Y215.712 Z-7.500
G1 X25.388 Y215.761 Z-7.500
G1 X25.420 Y215.816 Z-7.500
G1 X25.443 Y215.874 Z-7.500
G1 X25.456 Y215.933 Z-7.500
G1 X25.461 Y215.990 Z-7.500
G1 X26.731 Y215.990 Z-7.500
G1 X26.713 Y216.230 Z-7.500
G1 X26.657 Y216.478 Z-7.500
G1 X26.560 Y216.723 Z-7.500
G1 X26.421 Y216.956 Z-7.500
G1 X26.244 Y217.165 Z-7.500
G1 X26.034 Y217.343 Z-7.500
G1 X25.802 Y217.481 Z-7.500
G1 X25.557 Y217.579 Z-7.500
G1 X25.309 Y217.635 Z-7.500
G1 X25.068 Y217.652 Z-7.500
G1 X24.827 Y217.635 Z-7.500
G1 X24.580 Y217.579 Z-7.500
G1 X24.334 Y217.481 Z-7.500
G1 X24.102 Y217.343 Z-7.500
G1 X23.893 Y217.165 Z-7.500
G1 X23.715 Y216.956 Z-7.500
G1 X23.576 Y216.723 Z-7.500
G1 X23.479 Y216.478 Z-7.500
G1 X23.423 Y216.230 Z-7.500
G1 X23.406 Y215.990 Z-7.500
G1 X23.423 Y215.749 Z-7.500
G1 X23.479 Y215.501 Z-7.500
G1 X23.576 Y215.256 Z-7.500
G1 X23.715 Y215.023 Z-7.500
G1 X23.893 Y214.814 Z-7.500
G1 X24.102 Y214.637 Z-7.500
G1 X24.334 Y214.498 Z-7.500
G1 X24.580 Y214.400 Z-7.500
G1 X24.827 Y214.345 Z-7.500
G1 X25.068 Y214.327 Z-7.500
G1 X25.309 Y214.345 Z-7.500
G1 X25.557 Y214.400 Z-7.500
G1 X25.802 Y214.498 Z-7.500
G1 X26.034 Y214.637 Z-7.500
G1 X26.244 Y214.814 Z-7.500
G1 X26.421 Y215.023 Z-7.500
G1 X26.560 Y215.256 Z-7.500
G1 X26.657 Y215.501 Z-7.500
G1 X26.713 Y215.749 Z-7.500
G1 X26.731 Y215.990 Z-7.500
G0 X26.731 Y215.990
G0 Z6.000
G0 X25.461 Y215.990
G0 Z6.000
G1 X25.461 Y215.990 Z-8.250 F254.0
G1 X25.456 Y216.046 Z-8.250 F177.8
G1 X25.443 Y216.105 Z-8.250
G1 X25.420 Y216.163 Z-8.250
G1 X25.388 Y216.218 Z-8.250
G1 X25.346 Y216.267 Z-8.250
G1 X25.296 Y216.309 Z-8.250
G1 X25.241 Y216.342 Z-8.250
G1 X25.183 Y216.365 Z-8.250
G1 X25.125 Y216.378 Z-8.250
G1 X25.068 Y216.382 Z-8.250
G1 X25.011 Y216.378 Z-8.250
G1 X24.953 Y216.365 Z-8.250
G1 X24.895 Y216.342 Z-8.250
G1 X24.840 Y216.309 Z-8.250
G1 X24.791 Y216.267 Z-8.250
G1 X24.749 Y216.218 Z-8.250
G1 X24.716 Y216.163 Z-8.250
G1 X24.693 Y216.105 Z-8.250
G1 X24.680 Y216.046 Z-8.250
G1 X24.676 Y215.990 Z-8.250
G1 X24.680 Y215.933 Z-8.250
G1 X24.693 Y215.874 Z-8.250
G1 X24.716 Y215.816 Z-8.250
G1 X24.749 Y215.761 Z-8.250
G1 X24.791 Y215.712 Z-8.250
G1 X24.840 Y215.670 Z-8.250
G1 X24.895 Y215.637 Z-8.250
G1 X24.953 Y215.614 Z-8.250
G1 X25.011 Y215.601 Z-8.250
G1 X25.068 Y215.597 Z-8.250
G1 X25.125 Y215.601 Z-8.250
G1 X25.183 Y215.614 Z-8.250
G1 X25.241 Y215.637 Z-8.250
G1 X25.296 Y215.670 Z-8.250
G1 X25.346 Y215.712 Z-8.250
G1 X25.388 Y215.761 Z-8.250
G1 X25.420 Y215.816 Z-8.250
G1 X25.443 Y215.874 Z-8.250
G1 X25.456 Y215.933 Z-8.250
G1 X25.461 Y215.990 Z-8.250
G1 X26.731 Y215.990 Z-8.250
G1 X26.713 Y216.230 Z-8.250
G1 X26.657 Y216.478 Z-8.250
G1 X26.560 Y216.723 Z-8.250
G1 X26.421 Y216.956 Z-8.250
G1 X26.244 Y217.165 Z-8.250
G1 X26.034 Y217.343 Z-8.250
G1 X25.802 Y217.481 Z-8.250
G1 X25.557 Y217.579 Z-8.250
G1 X25.309 Y217.635 Z-8.250
G1 X25.068 Y217.652 Z-8.250
G1 X24.827 Y217.635 Z-8.250
G1 X24.580 Y217.579 Z-8.250
G1 X24.334 Y217.481 Z-8.250
G1 X24.102 Y217.343 Z-8.250
G1 X23.893 Y217.165 Z-8.250
G1 X23.715 Y216.956 Z-8.250
G1 X23.576 Y216.723 Z-8.250
G1 X23.479 Y216.478 Z-8.250
G1 X23.423 Y216.230 Z-8.250
G1 X23.406 Y215.990 Z-8.250
G1 X23.423 Y215.749 Z-8.250
G1 X23.479 Y215.501 Z-8.250
G1 X23.576 Y215.256 Z-8.250
G1 X23.715 Y215.023 Z-8.250
G1 X23.893 Y214.814 Z-8.250
G1 X24.102 Y214.637 Z-8.250
G1 X24.334 Y214.498 Z-8.250
G1 X24.580 Y214.400 Z-8.250
G1 X24.827 Y214.345 Z-8.250
G1 X25.068 Y214.327 Z-8.250
G1 X25.309 Y214.345 Z-8.250
G1 X25.557 Y214.400 Z-8.250
G1 X25.802 Y214.498 Z-8.250
G1 X26.034 Y214.637 Z-8.250
G1 X26.244 Y214.814 Z-8.250
G1 X26.421 Y215.023 Z-8.250
G1 X26.560 Y215.256 Z-8.250
G1 X26.657 Y215.501 Z-8.250
G1 X26.713 Y215.749 Z-8.250
G1 X26.731 Y215.990 Z-8.250
G0 X26.731 Y215.990
G0 Z6.000
G0 X25.461 Y215.990
G0 Z6.000
G1 X25.461 Y215.990 Z-9.000 F254.0
G1 X25.456 Y216.046 Z-9.000 F177.8
G1 X25.443 Y216.105 Z-9.000
G1 X25.420 Y216.163 Z-9.000
G1 X25.388 Y216.218 Z-9.000
G1 X25.346 Y216.267 Z-9.000
G1 X25.296 Y216.309 Z-9.000
G1 X25.241 Y216.342 Z-9.000
G1 X25.183 Y216.365 Z-9.000
G1 X25.125 Y216.378 Z-9.000
G1 X25.068 Y216.382 Z-9.000
G1 X25.011 Y216.378 Z-9.000
G1 X24.953 Y216.365 Z-9.000
G1 X24.895 Y216.342 Z-9.000
G1 X24.840 Y216.309 Z-9.000
G1 X24.791 Y216.267 Z-9.000
G1 X24.749 Y216.218 Z-9.000
G1 X24.716 Y216.163 Z-9.000
G1 X24.693 Y216.105 Z-9.000
G1 X24.680 Y216.046 Z-9.000
G1 X24.676 Y215.990 Z-9.000
G1 X24.680 Y215.933 Z-9.000
G1 X24.693 Y215.874 Z-9.000
G1 X24.716 Y215.816 Z-9.000
G1 X24.749 Y215.761 Z-9.000
G1 X24.791 Y215.712 Z-9.000
G1 X24.840 Y215.670 Z-9.000
G1 X24.895 Y215.637 Z-9.000
G1 X24.953 Y215.614 Z-9.000
G1 X25.011 Y215.601 Z-9.000
G1 X25.068 Y215.597 Z-9.000
G1 X25.125 Y215.601 Z-9.000
G1 X25.183 Y215.614 Z-9.000
G1 X25.241 Y215.637 Z-9.000
G1 X25.296 Y215.670 Z-9.000
G1 X25.346 Y215.712 Z-9.000
G1 X25.388 Y215.761 Z-9.000
G1 X25.420 Y215.816 Z-9.000
G1 X25.443 Y215.874 Z-9.000
G1 X25.456 Y215.933 Z-9.000
G1 X25.461 Y215.990 Z-9.000
G1 X26.731 Y215.990 Z-9.000
G1 X26.713 Y216.230 Z-9.000
G1 X26.657 Y216.478 Z-9.000
G1 X26.560 Y216.723 Z-9.000
G1 X26.421 Y216.956 Z-9.000
G1 X26.244 Y217.165 Z-9.000
G1 X26.034 Y217.343 Z-9.000
G1 X25.802 Y217.481 Z-9.000
G1 X25.557 Y217.579 Z-9.000
G1 X25.309 Y217.635 Z-9.000
G1 X25.068 Y217.652 Z-9.000
G1 X24.827 Y217.635 Z-9.000
G1 X24.580 Y217.579 Z-9.000
G1 X24.334 Y217.481 Z-9.000
G1 X24.102 Y217.343 Z-9.000
G1 X23.893 Y217.165 Z-9.000
G1 X23.715 Y216.956 Z-9.000
G1 X23.576 Y216.723 Z-9.000
G1 X23.479 Y216.478 Z-9.000
G1 X23.423 Y216.230 Z-9.000
G1 X23.406 Y215.990 Z-9.000
G1 X23.423 Y215.749 Z-9.000
G1 X23.479 Y215.501 Z-9.000
G1 X23.576 Y215.256 Z-9.000
G1 X23.715 Y215.023 Z-9.000
G1 X23.893 Y214.814 Z-9.000
G1 X24.102 Y214.637 Z-9.000
G1 X24.334 Y214.498 Z-9.000
G1 X24.580 Y214.400 Z-9.000
G1 X24.827 Y214.345 Z-9.000
G1 X25.068 Y214.327 Z-9.000
G1 X25.309 Y214.345 Z-9.000
G1 X25.557 Y214.400 Z-9.000
G1 X25.802 Y214.498 Z-9.000
G1 X26.034 Y214.637 Z-9.000
G1 X26.244 Y214.814 Z-9.000
G1 X26.421 Y215.023 Z-9.000
G1 X26.560 Y215.256 Z-9.000
G1 X26.657 Y215.501 Z-9.000
G1 X26.713 Y215.749 Z-9.000
G1 X26.731 Y215.990 Z-9.000
G0 X26.731 Y215.990
G0 Z6.000
G0 X25.461 Y215.990
G0 Z6.000
G1 X25.461 Y215.990 Z-9.750 F254.0
G1 X25.456 Y216.046 Z-9.750 F177.8
G1 X25.443 Y216.105 Z-9.750
G1 X25.420 Y216.163 Z-9.750
G1 X25.388 Y216.218 Z-9.750
G1 X25.346 Y216.267 Z-9.750
G1 X25.296 Y216.309 Z-9.750
G1 X25.241 Y216.342 Z-9.750
G1 X25.183 Y216.365 Z-9.750
G1 X25.125 Y216.378 Z-9.750
G1 X25.068 Y216.382 Z-9.750
G1 X25.011 Y216.378 Z-9.750
G1 X24.953 Y216.365 Z-9.750
G1 X24.895 Y216.342 Z-9.750
G1 X24.840 Y216.309 Z-9.750
G1 X24.791 Y216.267 Z-9.750
G1 X24.749 Y216.218 Z-9.750
G1 X24.716 Y216.163 Z-9.750
G1 X24.693 Y216.105 Z-9.750
G1 X24.680 Y216.046 Z-9.750
G1 X24.676 Y215.990 Z-9.750
G1 X24.680 Y215.933 Z-9.750
G1 X24.693 Y215.874 Z-9.750
G1 X24.716 Y215.816 Z-9.750
G1 X24.749 Y215.761 Z-9.750
G1 X24.791 Y215.712 Z-9.750
G1 X24.840 Y215.670 Z-9.750
G1 X24.895 Y215.637 Z-9.750
G1 X24.953 Y215.614 Z-9.750
G1 X25.011 Y215.601 Z-9.750
G1 X25.068 Y215.597 Z-9.750
G1 X25.125 Y215.601 Z-9.750
G1 X25.183 Y215.614 Z-9.750
G1 X25.241 Y215.637 Z-9.750
G1 X25.296 Y215.670 Z-9.750
G1 X25.346 Y215.712 Z-9.750
G1 X25.388 Y215.761 Z-9.750
G1 X25.420 Y215.816 Z-9.750
G1 X25.443 Y215.874 Z-9.750
G1 X25.456 Y215.933 Z-9.750
G1 X25.461 Y215.990 Z-9.750
G1 X26.731 Y215.990 Z-9.750
G1 X26.713 Y216.230 Z-9.750
G1 X26.657 Y216.478 Z-9.750
G1 X26.560 Y216.723 Z-9.750
G1 X26.421 Y216.956 Z-9.750
G1 X26.244 Y217.165 Z-9.750
G1 X26.034 Y217.343 Z-9.750
G1 X25.802 Y217.481 Z-9.750
G1 X25.557 Y217.579 Z-9.750
G1 X25.309 Y217.635 Z-9.750
G1 X25.068 Y217.652 Z-9.750
G1 X24.827 Y217.635 Z-9.750
G1 X24.580 Y217.579 Z-9.750
G1 X24.334 Y217.481 Z-9.750
G1 X24.102 Y217.343 Z-9.750
G1 X23.893 Y217.165 Z-9.750
G1 X23.715 Y216.956 Z-9.750
G1 X23.576 Y216.723 Z-9.750
G1 X23.479 Y216.478 Z-9.750
G1 X23.423 Y216.230 Z-9.750
G1 X23.406 Y215.990 Z-9.750
G1 X23.423 Y215.749 Z-9.750
G1 X23.479 Y215.501 Z-9.750
G1 X23.576 Y215.256 Z-9.750
G1 X23.715 Y215.023 Z-9.750
G1 X23.893 Y214.814 Z-9.750
G1 X24.102 Y214.637 Z-9.750
G1 X24.334 Y214.498 Z-9.750
G1 X24.580 Y214.400 Z-9.750
G1 X24.827 Y214.345 Z-9.750
G1 X25.068 Y214.327 Z-9.750
G1 X25.309 Y214.345 Z-9.750
G1 X25.557 Y214.400 Z-9.750
G1 X25.802 Y214.498 Z-9.750
G1 X26.034 Y214.637 Z-9.750
G1 X26.244 Y214.814 Z-9.750
G1 X26.421 Y215.023 Z-9.750
G1 X26.560 Y215.256 Z-9.750
G1 X26.657 Y215.501 Z-9.750
G1 X26.713 Y215.749 Z-9.750
G1 X26.731 Y215.990 Z-9.750
G0 X26.731 Y215.990
G0 Z6.000
G0 X25.461 Y215.990
G0 Z6.000
G1 X25.461 Y215.990 Z-10.500 F254.0
G1 X25.456 Y216.046 Z-10.500 F177.8
G1 X25.443 Y216.105 Z-10.500
G1 X25.420 Y216.163 Z-10.500
G1 X25.388 Y216.218 Z-10.500
G1 X25.346 Y216.267 Z-10.500
G1 X25.296 Y216.309 Z-10.500
G1 X25.241 Y216.342 Z-10.500
G1 X25.183 Y216.365 Z-10.500
G1 X25.125 Y216.378 Z-10.500
G1 X25.068 Y216.382 Z-10.500
G1 X25.011 Y216.378 Z-10.500
G1 X24.953 Y216.365 Z-10.500
G1 X24.895 Y216.342 Z-10.500
G1 X24.840 Y216.309 Z-10.500
G1 X24.791 Y216.267 Z-10.500
G1 X24.749 Y216.218 Z-10.500
G1 X24.716 Y216.163 Z-10.500
G1 X24.693 Y216.105 Z-10.500
G1 X24.680 Y216.046 Z-10.500
G1 X24.676 Y215.990 Z-10.500
G1 X24.680 Y215.933 Z-10.500
G1 X24.693 Y215.874 Z-10.500
G1 X24.716 Y215.816 Z-10.500
G1 X24.749 Y215.761 Z-10.500
G1 X24.791 Y215.712 Z-10.500
G1 X24.840 Y215.670 Z-10.500
G1 X24.895 Y215.637 Z-10.500
G1 X24.953 Y215.614 Z-10.500
G1 X25.011 Y215.601 Z-10.500
G1 X25.068 Y215.597 Z-10.500
G1 X25.125 Y215.601 Z-10.500
G1 X25.183 Y215.614 Z-10.500
G1 X25.241 Y215.637 Z-10.500
G1 X25.296 Y215.670 Z-10.500
G1 X25.346 Y215.712 Z-10.500
G1 X25.388 Y215.761 Z-10.500
G1 X25.420 Y215.816 Z-10.500
G1 X25.443 Y215.874 Z-10.500
G1 X25.456 Y215.933 Z-10.500
G1 X25.461 Y215.990 Z-10.500
G1 X26.731 Y215.990 Z-10.500
G1 X26.713 Y216.230 Z-10.500
G1 X26.657 Y216.478 Z-10.500
G1 X26.560 Y216.723 Z-10.500
G1 X26.421 Y216.956 Z-10.500
G1 X26.244 Y217.165 Z-10.500
G1 X26.034 Y217.343 Z-10.500
G1 X25.802 Y217.481 Z-10.500
G1 X25.557 Y217.579 Z-10.500
G1 X25.309 Y217.635 Z-10.500
G1 X25.068 Y217.652 Z-10.500
G1 X24.827 Y217.635 Z-10.500
G1 X24.580 Y217.579 Z-10.500
G1 X24.334 Y217.481 Z-10.500
G1 X24.102 Y217.343 Z-10.500
G1 X23.893 Y217.165 Z-10.500
G1 X23.715 Y216.956 Z-10.500
G1 X23.576 Y216.723 Z-10.500
G1 X23.479 Y216.478 Z-10.500
G1 X23.423 Y216.230 Z-10.500
G1 X23.406 Y215.990 Z-10.500
G1 X23.423 Y215.749 Z-10.500
G1 X23.479 Y215.501 Z-10.500
G1 X23.576 Y215.256 Z-10.500
G1 X23.715 Y215.023 Z-10.500
G1 X23.893 Y214.814 Z-10.500
G1 X24.102 Y214.637 Z-10.500
G1 X24.334 Y214.498 Z-10.500
G1 X24.580 Y214.400 Z-10.500
G1 X24.827 Y214.345 Z-10.500
G1 X25.068 Y214.327 Z-10.500
G1 X25.309 Y214.345 Z-10.500
G1 X25.557 Y214.400 Z-10.500
G1 X25.802 Y214.498 Z-10.500
G1 X26.034 Y214.637 Z-10.500
G1 X26.244 Y214.814 Z-10.500
G1 X26.421 Y215.023 Z-10.500
G1 X26.560 Y215.256 Z-10.500
G1 X26.657 Y215.501 Z-10.500
G1 X26.713 Y215.749 Z-10.500
G1 X26.731 Y215.990 Z-10.500
G0 X26.731 Y215.990
G0 Z6.000
G0 X25.461 Y215.990
G0 Z6.000
G1 X25.461 Y215.990 Z-11.250 F254.0
G1 X25.456 Y216.046 Z-11.250 F177.8
G1 X25.443 Y216.105 Z-11.250
G1 X25.420 Y216.163 Z-11.250
G1 X25.388 Y216.218 Z-11.250
G1 X25.346 Y216.267 Z-11.250
G1 X25.296 Y216.309 Z-11.250
G1 X25.241 Y216.342 Z-11.250
G1 X25.183 Y216.365 Z-11.250
G1 X25.125 Y216.378 Z-11.250
G1 X25.068 Y216.382 Z-11.250
G1 X25.011 Y216.378 Z-11.250
G1 X24.953 Y216.365 Z-11.250
G1 X24.895 Y216.342 Z-11.250
G1 X24.840 Y216.309 Z-11.250
G1 X24.791 Y216.267 Z-11.250
G1 X24.749 Y216.218 Z-11.250
G1 X24.716 Y216.163 Z-11.250
G1 X24.693 Y216.105 Z-11.250
G1 X24.680 Y216.046 Z-11.250
G1 X24.676 Y215.990 Z-11.250
G1 X24.680 Y215.933 Z-11.250
G1 X24.693 Y215.874 Z-11.250
G1 X24.716 Y215.816 Z-11.250
G1 X24.749 Y215.761 Z-11.250
G1 X24.791 Y215.712 Z-11.250
G1 X24.840 Y215.670 Z-11.250
G1 X24.895 Y215.637 Z-11.250
G1 X24.953 Y215.614 Z-11.250
G1 X25.011 Y215.601 Z-11.250
G1 X25.068 Y215.597 Z-11.250
G1 X25.125 Y215.601 Z-11.250
G1 X25.183 Y215.614 Z-11.250
G1 X25.241 Y215.637 Z-11.250
G1 X25.296 Y215.670 Z-11.250
G1 X25.346 Y215.712 Z-11.250
G1 X25.388 Y215.761 Z-11.250
G1 X25.420 Y215.816 Z-11.250
G1 X25.443 Y215.874 Z-11.250
G1 X25.456 Y215.933 Z-11.250
G1 X25.461 Y215.990 Z-11.250
G1 X26.731 Y215.990 Z-11.250
G1 X26.713 Y216.230 Z-11.250
G1 X26.657 Y216.478 Z-11.250
G1 X26.560 Y216.723 Z-11.250
G1 X26.421 Y216.956 Z-11.250
G1 X26.244 Y217.165 Z-11.250
G1 X26.034 Y217.343 Z-11.250
G1 X25.802 Y217.481 Z-11.250
G1 X25.557 Y217.579 Z-11.250
G1 X25.309 Y217.635 Z-11.250
G1 X25.068 Y217.652 Z-11.250
G1 X24.827 Y217.635 Z-11.250
G1 X24.580 Y217.579 Z-11.250
G1 X24.334 Y217.481 Z-11.250
G1 X24.102 Y217.343 Z-11.250
G1 X23.893 Y217.165 Z-11.250
G1 X23.715 Y216.956 Z-11.250
G1 X23.576 Y216.723 Z-11.250
G1 X23.479 Y216.478 Z-11.250
G1 X23.423 Y216.230 Z-11.250
G1 X23.406 Y215.990 Z-11.250
G1 X23.423 Y215.749 Z-11.250
G1 X23.479 Y215.501 Z-11.250
G1 X23.576 Y215.256 Z-11.250
G1 X23.715 Y215.023 Z-11.250
G1 X23.893 Y214.814 Z-11.250
G1 X24.102 Y214.637 Z-11.250
G1 X24.334 Y214.498 Z-11.250
G1 X24.580 Y214.400 Z-11.250
G1 X24.827 Y214.345 Z-11.250
G1 X25.068 Y214.327 Z-11.250
G1 X25.309 Y214.345 Z-11.250
G1 X25.557 Y214.400 Z-11.250
G1 X25.802 Y214.498 Z-11.250
G1 X26.034 Y214.637 Z-11.250
G1 X26.244 Y214.814 Z-11.250
G1 X26.421 Y215.023 Z-11.250
G1 X26.560 Y215.256 Z-11.250
G1 X26.657 Y215.501 Z-11.250
G1 X26.713 Y215.749 Z-11.250
G1 X26.731 Y215.990 Z-11.250
G0 X26.731 Y215.990
G0 Z6.000
G0 X25.461 Y215.990
G0 Z6.000
G1 X25.461 Y215.990 Z-12.000 F254.0
G1 X25.456 Y216.046 Z-12.000 F177.8
G1 X25.443 Y216.105 Z-12.000
G1 X25.420 Y216.163 Z-12.000
G1 X25.388 Y216.218 Z-12.000
G1 X25.346 Y216.267 Z-12.000
G1 X25.296 Y216.309 Z-12.000
G1 X25.241 Y216.342 Z-12.000
G1 X25.183 Y216.365 Z-12.000
G1 X25.125 Y216.378 Z-12.000
G1 X25.068 Y216.382 Z-12.000
G1 X25.011 Y216.378 Z-12.000
G1 X24.953 Y216.365 Z-12.000
G1 X24.895 Y216.342 Z-12.000
G1 X24.840 Y216.309 Z-12.000
G1 X24.791 Y216.267 Z-12.000
G1 X24.749 Y216.218 Z-12.000
G1 X24.716 Y216.163 Z-12.000
G1 X24.693 Y216.105 Z-12.000
G1 X24.680 Y216.046 Z-12.000
G1 X24.676 Y215.990 Z-12.000
G1 X24.680 Y215.933 Z-12.000
G1 X24.693 Y215.874 Z-12.000
G1 X24.716 Y215.816 Z-12.000
G1 X24.749 Y215.761 Z-12.000
G1 X24.791 Y215.712 Z-12.000
G1 X24.840 Y215.670 Z-12.000
G1 X24.895 Y215.637 Z-12.000
G1 X24.953 Y215.614 Z-12.000
G1 X25.011 Y215.601 Z-12.000
G1 X25.068 Y215.597 Z-12.000
G1 X25.125 Y215.601 Z-12.000
G1 X25.183 Y215.614 Z-12.000
G1 X25.241 Y215.637 Z-12.000
G1 X25.296 Y215.670 Z-12.000
G1 X25.346 Y215.712 Z-12.000
G1 X25.388 Y215.761 Z-12.000
G1 X25.420 Y215.816 Z-12.000
G1 X25.443 Y215.874 Z-12.000
G1 X25.456 Y215.933 Z-12.000
G1 X25.461 Y215.990 Z-12.000
G1 X26.731 Y215.990 Z-12.000
G1 X26.713 Y216.230 Z-12.000
G1 X26.657 Y216.478 Z-12.000
G1 X26.560 Y216.723 Z-12.000
G1 X26.421 Y216.956 Z-12.000
G1 X26.244 Y217.165 Z-12.000
G1 X26.034 Y217.343 Z-12.000
G1 X25.802 Y217.481 Z-12.000
G1 X25.557 Y217.579 Z-12.000
G1 X25.309 Y217.635 Z-12.000
G1 X25.068 Y217.652 Z-12.000
G1 X24.827 Y217.635 Z-12.000
G1 X24.580 Y217.579 Z-12.000
G1 X24.334 Y217.481 Z-12.000
G1 X24.102 Y217.343 Z-12.000
G1 X23.893 Y217.165 Z-12.000
G1 X23.715 Y216.956 Z-12.000
G1 X23.576 Y216.723 Z-12.000
G1 X23.479 Y216.478 Z-12.000
G1 X23.423 Y216.230 Z-12.000
G1 X23.406 Y215.990 Z-12.000
G1 X23.423 Y215.749 Z-12.000
G1 X23.479 Y215.501 Z-12.000
G1 X23.576 Y215.256 Z-12.000
G1 X23.715 Y215.023 Z-12.000
G1 X23.893 Y214.814 Z-12.000
G1 X24.102 Y214.637 Z-12.000
G1 X24.334 Y214.498 Z-12.000
G1 X24.580 Y214.400 Z-12.000
G1 X24.827 Y214.345 Z-12.000
G1 X25.068 Y214.327 Z-12.000
G1 X25.309 Y214.345 Z-12.000
G1 X25.557 Y214.400 Z-12.000
G1 X25.802 Y214.498 Z-12.000
G1 X26.034 Y214.637 Z-12.000
G1 X26.244 Y214.814 Z-12.000
G1 X26.421 Y215.023 Z-12.000
G1 X26.560 Y215.256 Z-12.000
G1 X26.657 Y215.501 Z-12.000
G1 X26.713 Y215.749 Z-12.000
G1 X26.731 Y215.990 Z-12.000
G0 X26.731 Y215.990
G0 Z6.000
G0 X25.461 Y215.990
G0 Z6.000
G1 X25.461 Y215.990 Z-12.750 F254.0
G1 X25.456 Y216.046 Z-12.750 F177.8
G1 X25.443 Y216.105 Z-12.750
G1 X25.420 Y216.163 Z-12.750
G1 X25.388 Y216.218 Z-12.750
G1 X25.346 Y216.267 Z-12.750
G1 X25.296 Y216.309 Z-12.750
G1 X25.241 Y216.342 Z-12.750
G1 X25.183 Y216.365 Z-12.750
G1 X25.125 Y216.378 Z-12.750
G1 X25.068 Y216.382 Z-12.750
G1 X25.011 Y216.378 Z-12.750
G1 X24.953 Y216.365 Z-12.750
G1 X24.895 Y216.342 Z-12.750
G1 X24.840 Y216.309 Z-12.750
G1 X24.791 Y216.267 Z-12.750
G1 X24.749 Y216.218 Z-12.750
G1 X24.716 Y216.163 Z-12.750
G1 X24.693 Y216.105 Z-12.750
G1 X24.680 Y216.046 Z-12.750
G1 X24.676 Y215.990 Z-12.750
G1 X24.680 Y215.933 Z-12.750
G1 X24.693 Y215.874 Z-12.750
G1 X24.716 Y215.816 Z-12.750
G1 X24.749 Y215.761 Z-12.750
G1 X24.791 Y215.712 Z-12.750
G1 X24.840 Y215.670 Z-12.750
G1 X24.895 Y215.637 Z-12.750
G1 X24.953 Y215.614 Z-12.750
G1 X25.011 Y215.601 Z-12.750
G1 X25.068 Y215.597 Z-12.750
G1 X25.125 Y215.601 Z-12.750
G1 X25.183 Y215.614 Z-12.750
G1 X25.241 Y215.637 Z-12.750
G1 X25.296 Y215.670 Z-12.750
G1 X25.346 Y215.712 Z-12.750
G1 X25.388 Y215.761 Z-12.750
G1 X25.420 Y215.816 Z-12.750
G1 X25.443 Y215.874 Z-12.750
G1 X25.456 Y215.933 Z-12.750
G1 X25.461 Y215.990 Z-12.750
G1 X26.731 Y215.990 Z-12.750
G1 X26.713 Y216.230 Z-12.750
G1 X26.657 Y216.478 Z-12.750
G1 X26.560 Y216.723 Z-12.750
G1 X26.421 Y216.956 Z-12.750
G1 X26.244 Y217.165 Z-12.750
G1 X26.034 Y217.343 Z-12.750
G1 X25.802 Y217.481 Z-12.750
G1 X25.557 Y217.579 Z-12.750
G1 X25.309 Y217.635 Z-12.750
G1 X25.068 Y217.652 Z-12.750
G1 X24.827 Y217.635 Z-12.750
G1 X24.580 Y217.579 Z-12.750
G1 X24.334 Y217.481 Z-12.750
G1 X24.102 Y217.343 Z-12.750
G1 X23.893 Y217.165 Z-12.750
G1 X23.715 Y216.956 Z-12.750
G1 X23.576 Y216.723 Z-12.750
G1 X23.479 Y216.478 Z-12.750
G1 X23.423 Y216.230 Z-12.750
G1 X23.406 Y215.990 Z-12.750
G1 X23.423 Y215.749 Z-12.750
G1 X23.479 Y215.501 Z-12.750
G1 X23.576 Y215.256 Z-12.750
G1 X23.715 Y215.023 Z-12.750
G1 X23.893 Y214.814 Z-12.750
G1 X24.102 Y214.637 Z-12.750
G1 X24.334 Y214.498 Z-12.750
G1 X24.580 Y214.400 Z-12.750
G1 X24.827 Y214.345 Z-12.750
G1 X25.068 Y214.327 Z-12.750
G1 X25.309 Y214.345 Z-12.750
G1 X25.557 Y214.400 Z-12.750
G1 X25.802 Y214.498 Z-12.750
G1 X26.034 Y214.637 Z-12.750
G1 X26.244 Y214.814 Z-12.750
G1 X26.421 Y215.023 Z-12.750
G1 X26.560 Y215.256 Z-12.750
G1 X26.657 Y215.501 Z-12.750
G1 X26.713 Y215.749 Z-12.750
G1 X26.731 Y215.990 Z-12.750
G0 X26.731 Y215.990
G0 Z6.000
G0 X25.461 Y215.990
G0 Z6.000
G1 X25.461 Y215.990 Z-13.500 F254.0
G1 X25.456 Y216.046 Z-13.500 F177.8
G1 X25.443 Y216.105 Z-13.500
G1 X25.420 Y216.163 Z-13.500
G1 X25.388 Y216.218 Z-13.500
G1 X25.346 Y216.267 Z-13.500
G1 X25.296 Y216.309 Z-13.500
G1 X25.241 Y216.342 Z-13.500
G1 X25.183 Y216.365 Z-13.500
G1 X25.125 Y216.378 Z-13.500
G1 X25.068 Y216.382 Z-13.500
G1 X25.011 Y216.378 Z-13.500
G1 X24.953 Y216.365 Z-13.500
G1 X24.895 Y216.342 Z-13.500
G1 X24.840 Y216.309 Z-13.500
G1 X24.791 Y216.267 Z-13.500
G1 X24.749 Y216.218 Z-13.500
G1 X24.716 Y216.163 Z-13.500
G1 X24.693 Y216.105 Z-13.500
G1 X24.680 Y216.046 Z-13.500
G1 X24.676 Y215.990 Z-13.500
G1 X24.680 Y215.933 Z-13.500
G1 X24.693 Y215.874 Z-13.500
G1 X24.716 Y215.816 Z-13.500
G1 X24.749 Y215.761 Z-13.500
G1 X24.791 Y215.712 Z-13.500
G1 X24.840 Y215.670 Z-13.500
G1 X24.895 Y215.637 Z-13.500
G1 X24.953 Y215.614 Z-13.500
G1 X25.011 Y215.601 Z-13.500
G1 X25.068 Y215.597 Z-13.500
G1 X25.125 Y215.601 Z-13.500
G1 X25.183 Y215.614 Z-13.500
G1 X25.241 Y215.637 Z-13.500
G1 X25.296 Y215.670 Z-13.500
G1 X25.346 Y215.712 Z-13.500
G1 X25.388 Y215.761 Z-13.500
G1 X25.420 Y215.816 Z-13.500
G1 X25.443 Y215.874 Z-13.500
G1 X25.456 Y215.933 Z-13.500
G1 X25.461 Y215.990 Z-13.500
G1 X26.731 Y215.990 Z-13.500
G1 X26.713 Y216.230 Z-13.500
G1 X26.657 Y216.478 Z-13.500
G1 X26.560 Y216.723 Z-13.500
G1 X26.421 Y216.956 Z-13.500
G1 X26.244 Y217.165 Z-13.500
G1 X26.034 Y217.343 Z-13.500
G1 X25.802 Y217.481 Z-13.500
G1 X25.557 Y217.579 Z-13.500
G1 X25.309 Y217.635 Z-13.500
G1 X25.068 Y217.652 Z-13.500
G1 X24.827 Y217.635 Z-13.500
G1 X24.580 Y217.579 Z-13.500
G1 X24.334 Y217.481 Z-13.500
G1 X24.102 Y217.343 Z-13.500
G1 X23.893 Y217.165 Z-13.500
G1 X23.715 Y216.956 Z-13.500
G1 X23.576 Y216.723 Z-13.500
G1 X23.479 Y216.478 Z-13.500
G1 X23.423 Y216.230 Z-13.500
G1 X23.406 Y215.990 Z-13.500
G1 X23.423 Y215.749 Z-13.500
G1 X23.479 Y215.501 Z-13.500
G1 X23.576 Y215.256 Z-13.500
G1 X23.715 Y215.023 Z-13.500
G1 X23.893 Y214.814 Z-13.500
G1 X24.102 Y214.637 Z-13.500
G1 X24.334 Y214.498 Z-13.500
G1 X24.580 Y214.400 Z-13.500
G1 X24.827 Y214.345 Z-13.500
G1 X25.068 Y214.327 Z-13.500
G1 X25.309 Y214.345 Z-13.500
G1 X25.557 Y214.400 Z-13.500
G1 X25.802 Y214.498 Z-13.500
G1 X26.034 Y214.637 Z-13.500
G1 X26.244 Y214.814 Z-13.500
G1 X26.421 Y215.023 Z-13.500
G1 X26.560 Y215.256 Z-13.500
G1 X26.657 Y215.501 Z-13.500
G1 X26.713 Y215.749 Z-13.500
G1 X26.731 Y215.990 Z-13.500
G0 X26.731 Y215.990
G0 Z6.000
G0 X25.461 Y215.990
G0 Z6.000
G1 X25.461 Y215.990 Z-14.250 F254.0
G1 X25.456 Y216.046 Z-14.250 F177.8
G1 X25.443 Y216.105 Z-14.250
G1 X25.420 Y216.163 Z-14.250
G1 X25.388 Y216.218 Z-14.250
G1 X25.346 Y216.267 Z-14.250
G1 X25.296 Y216.309 Z-14.250
G1 X25.241 Y216.342 Z-14.250
G1 X25.183 Y216.365 Z-14.250
G1 X25.125 Y216.378 Z-14.250
G1 X25.068 Y216.382 Z-14.250
G1 X25.011 Y216.378 Z-14.250
G1 X24.953 Y216.365 Z-14.250
G1 X24.895 Y216.342 Z-14.250
G1 X24.840 Y216.309 Z-14.250
G1 X24.791 Y216.267 Z-14.250
G1 X24.749 Y216.218 Z-14.250
G1 X24.716 Y216.163 Z-14.250
G1 X24.693 Y216.105 Z-14.250
G1 X24.680 Y216.046 Z-14.250
G1 X24.676 Y215.990 Z-14.250
G1 X24.680 Y215.933 Z-14.250
G1 X24.693 Y215.874 Z-14.250
G1 X24.716 Y215.816 Z-14.250
G1 X24.749 Y215.761 Z-14.250
G1 X24.791 Y215.712 Z-14.250
G1 X24.840 Y215.670 Z-14.250
G1 X24.895 Y215.637 Z-14.250
G1 X24.953 Y215.614 Z-14.250
G1 X25.011 Y215.601 Z-14.250
G1 X25.068 Y215.597 Z-14.250
G1 X25.125 Y215.601 Z-14.250
G1 X25.183 Y215.614 Z-14.250
G1 X25.241 Y215.637 Z-14.250
G1 X25.296 Y215.670 Z-14.250
G1 X25.346 Y215.712 Z-14.250
G1 X25.388 Y215.761 Z-14.250
G1 X25.420 Y215.816 Z-14.250
G1 X25.443 Y215.874 Z-14.250
G1 X25.456 Y215.933 Z-14.250
G1 X25.461 Y215.990 Z-14.250
G1 X26.731 Y215.990 Z-14.250
G1 X26.713 Y216.230 Z-14.250
G1 X26.657 Y216.478 Z-14.250
G1 X26.560 Y216.723 Z-14.250
G1 X26.421 Y216.956 Z-14.250
G1 X26.244 Y217.165 Z-14.250
G1 X26.034 Y217.343 Z-14.250
G1 X25.802 Y217.481 Z-14.250
G1 X25.557 Y217.579 Z-14.250
G1 X25.309 Y217.635 Z-14.250
G1 X25.068 Y217.652 Z-14.250
G1 X24.827 Y217.635 Z-14.250
G1 X24.580 Y217.579 Z-14.250
G1 X24.334 Y217.481 Z-14.250
G1 X24.102 Y217.343 Z-14.250
G1 X23.893 Y217.165 Z-14.250
G1 X23.715 Y216.956 Z-14.250
G1 X23.576 Y216.723 Z-14.250
G1 X23.479 Y216.478 Z-14.250
G1 X23.423 Y216.230 Z-14.250
G1 X23.406 Y215.990 Z-14.250
G1 X23.423 Y215.749 Z-14.250
G1 X23.479 Y215.501 Z-14.250
G1 X23.576 Y215.256 Z-14.250
G1 X23.715 Y215.023 Z-14.250
G1 X23.893 Y214.814 Z-14.250
G1 X24.102 Y214.637 Z-14.250
G1 X24.334 Y214.498 Z-14.250
G1 X24.580 Y214.400 Z-14.250
G1 X24.827 Y214.345 Z-14.250
G1 X25.068 Y214.327 Z-14.250
G1 X25.309 Y214.345 Z-14.250
G1 X25.557 Y214.400 Z-14.250
G1 X25.802 Y214.498 Z-14.250
G1 X26.034 Y214.637 Z-14.250
G1 X26.244 Y214.814 Z-14.250
G1 X26.421 Y215.023 Z-14.250
G1 X26.560 Y215.256 Z-14.250
G1 X26.657 Y215.501 Z-14.250
G1 X26.713 Y215.749 Z-14.250
G1 X26.731 Y215.990 Z-14.250
G0 X26.731 Y215.990
G0 Z6.000
G0 X25.461 Y215.990
G0 Z6.000
G1 X25.461 Y215.990 Z-15.000 F254.0
G1 X25.456 Y216.046 Z-15.000 F177.8
G1 X25.443 Y216.105 Z-15.000
G1 X25.420 Y216.163 Z-15.000
G1 X25.388 Y216.218 Z-15.000
G1 X25.346 Y216.267 Z-15.000
G1 X25.296 Y216.309 Z-15.000
G1 X25.241 Y216.342 Z-15.000
G1 X25.183 Y216.365 Z-15.000
G1 X25.125 Y216.378 Z-15.000
G1 X25.068 Y216.382 Z-15.000
G1 X25.011 Y216.378 Z-15.000
G1 X24.953 Y216.365 Z-15.000
G1 X24.895 Y216.342 Z-15.000
G1 X24.840 Y216.309 Z-15.000
G1 X24.791 Y216.267 Z-15.000
G1 X24.749 Y216.218 Z-15.000
G1 X24.716 Y216.163 Z-15.000
G1 X24.693 Y216.105 Z-15.000
G1 X24.680 Y216.046 Z-15.000
G1 X24.676 Y215.990 Z-15.000
G1 X24.680 Y215.933 Z-15.000
G1 X24.693 Y215.874 Z-15.000
G1 X24.716 Y215.816 Z-15.000
G1 X24.749 Y215.761 Z-15.000
G1 X24.791 Y215.712 Z-15.000
G1 X24.840 Y215.670 Z-15.000
G1 X24.895 Y215.637 Z-15.000
G1 X24.953 Y215.614 Z-15.000
G1 X25.011 Y215.601 Z-15.000
G1 X25.068 Y215.597 Z-15.000
G1 X25.125 Y215.601 Z-15.000
G1 X25.183 Y215.614 Z-15.000
G1 X25.241 Y215.637 Z-15.000
G1 X25.296 Y215.670 Z-15.000
G1 X25.346 Y215.712 Z-15.000
G1 X25.388 Y215.761 Z-15.000
G1 X25.420 Y215.816 Z-15.000
G1 X25.443 Y215.874 Z-15.000
G1 X25.456 Y215.933 Z-15.000
G1 X25.461 Y215.990 Z-15.000
G1 X26.731 Y215.990 Z-15.000
G1 X26.713 Y216.230 Z-15.000
G1 X26.657 Y216.478 Z-15.000
G1 X26.560 Y216.723 Z-15.000
G1 X26.421 Y216.956 Z-15.000
G1 X26.244 Y217.165 Z-15.000
G1 X26.034 Y217.343 Z-15.000
G1 X25.802 Y217.481 Z-15.000
G1 X25.557 Y217.579 Z-15.000
G1 X25.309 Y217.635 Z-15.000
G1 X25.068 Y217.652 Z-15.000
G1 X24.827 Y217.635 Z-15.000
G1 X24.580 Y217.579 Z-15.000
G1 X24.334 Y217.481 Z-15.000
G1 X24.102 Y217.343 Z-15.000
G1 X23.893 Y217.165 Z-15.000
G1 X23.715 Y216.956 Z-15.000
G1 X23.576 Y216.723 Z-15.000
G1 X23.479 Y216.478 Z-15.000
G1 X23.423 Y216.230 Z-15.000
G1 X23.406 Y215.990 Z-15.000
G1 X23.423 Y215.749 Z-15.000
G1 X23.479 Y215.501 Z-15.000
G1 X23.576 Y215.256 Z-15.000
G1 X23.715 Y215.023 Z-15.000
G1 X23.893 Y214.814 Z-15.000
G1 X24.102 Y214.637 Z-15.000
G1 X24.334 Y214.498 Z-15.000
G1 X24.580 Y214.400 Z-15.000
G1 X24.827 Y214.345 Z-15.000
G1 X25.068 Y214.327 Z-15.000
G1 X25.309 Y214.345 Z-15.000
G1 X25.557 Y214.400 Z-15.000
G1 X25.802 Y214.498 Z-15.000
G1 X26.034 Y214.637 Z-15.000
G1 X26.244 Y214.814 Z-15.000
G1 X26.421 Y215.023 Z-15.000
G1 X26.560 Y215.256 Z-15.000
G1 X26.657 Y215.501 Z-15.000
G1 X26.713 Y215.749 Z-15.000
G1 X26.731 Y215.990 Z-15.000
G0 X26.731 Y215.990
G0 Z6.000
G0 X25.461 Y215.990
G0 Z6.000
G1 X25.461 Y215.990 Z-15.750 F254.0
G1 X25.456 Y216.046 Z-15.750 F177.8
G1 X25.443 Y216.105 Z-15.750
G1 X25.420 Y216.163 Z-15.750
G1 X25.388 Y216.218 Z-15.750
G1 X25.346 Y216.267 Z-15.750
G1 X25.296 Y216.309 Z-15.750
G1 X25.241 Y216.342 Z-15.750
G1 X25.183 Y216.365 Z-15.750
G1 X25.125 Y216.378 Z-15.750
G1 X25.068 Y216.382 Z-15.750
G1 X25.011 Y216.378 Z-15.750
G1 X24.953 Y216.365 Z-15.750
G1 X24.895 Y216.342 Z-15.750
G1 X24.840 Y216.309 Z-15.750
G1 X24.791 Y216.267 Z-15.750
G1 X24.749 Y216.218 Z-15.750
G1 X24.716 Y216.163 Z-15.750
G1 X24.693 Y216.105 Z-15.750
G1 X24.680 Y216.046 Z-15.750
G1 X24.676 Y215.990 Z-15.750
G1 X24.680 Y215.933 Z-15.750
G1 X24.693 Y215.874 Z-15.750
G1 X24.716 Y215.816 Z-15.750
G1 X24.749 Y215.761 Z-15.750
G1 X24.791 Y215.712 Z-15.750
G1 X24.840 Y215.670 Z-15.750
G1 X24.895 Y215.637 Z-15.750
G1 X24.953 Y215.614 Z-15.750
G1 X25.011 Y215.601 Z-15.750
G1 X25.068 Y215.597 Z-15.750
G1 X25.125 Y215.601 Z-15.750
G1 X25.183 Y215.614 Z-15.750
G1 X25.241 Y215.637 Z-15.750
G1 X25.296 Y215.670 Z-15.750
G1 X25.346 Y215.712 Z-15.750
G1 X25.388 Y215.761 Z-15.750
G1 X25.420 Y215.816 Z-15.750
G1 X25.443 Y215.874 Z-15.750
G1 X25.456 Y215.933 Z-15.750
G1 X25.461 Y215.990 Z-15.750
G1 X26.731 Y215.990 Z-15.750
G1 X26.713 Y216.230 Z-15.750
G1 X26.657 Y216.478 Z-15.750
G1 X26.560 Y216.723 Z-15.750
G1 X26.421 Y216.956 Z-15.750
G1 X26.244 Y217.165 Z-15.750
G1 X26.034 Y217.343 Z-15.750
G1 X25.802 Y217.481 Z-15.750
G1 X25.557 Y217.579 Z-15.750
G1 X25.309 Y217.635 Z-15.750
G1 X25.068 Y217.652 Z-15.750
G1 X24.827 Y217.635 Z-15.750
G1 X24.580 Y217.579 Z-15.750
G1 X24.334 Y217.481 Z-15.750
G1 X24.102 Y217.343 Z-15.750
G1 X23.893 Y217.165 Z-15.750
G1 X23.715 Y216.956 Z-15.750
G1 X23.576 Y216.723 Z-15.750
G1 X23.479 Y216.478 Z-15.750
G1 X23.423 Y216.230 Z-15.750
G1 X23.406 Y215.990 Z-15.750
G1 X23.423 Y215.749 Z-15.750
G1 X23.479 Y215.501 Z-15.750
G1 X23.576 Y215.256 Z-15.750
G1 X23.715 Y215.023 Z-15.750
G1 X23.893 Y214.814 Z-15.750
G1 X24.102 Y214.637 Z-15.750
G1 X24.334 Y214.498 Z-15.750
G1 X24.580 Y214.400 Z-15.750
G1 X24.827 Y214.345 Z-15.750
G1 X25.068 Y214.327 Z-15.750
G1 X25.309 Y214.345 Z-15.750
G1 X25.557 Y214.400 Z-15.750
G1 X25.802 Y214.498 Z-15.750
G1 X26.034 Y214.637 Z-15.750
G1 X26.244 Y214.814 Z-15.750
G1 X26.421 Y215.023 Z-15.750
G1 X26.560 Y215.256 Z-15.750
G1 X26.657 Y215.501 Z-15.750
G1 X26.713 Y215.749 Z-15.750
G1 X26.731 Y215.990 Z-15.750
G0 X26.731 Y215.990
G0 Z6.000
G0 X25.461 Y215.990
G0 Z6.000
G1 X25.461 Y215.990 Z-16.500 F254.0
G1 X25.456 Y216.046 Z-16.500 F177.8
G1 X25.443 Y216.105 Z-16.500
G1 X25.420 Y216.163 Z-16.500
G1 X25.388 Y216.218 Z-16.500
G1 X25.346 Y216.267 Z-16.500
G1 X25.296 Y216.309 Z-16.500
G1 X25.241 Y216.342 Z-16.500
G1 X25.183 Y216.365 Z-16.500
G1 X25.125 Y216.378 Z-16.500
G1 X25.068 Y216.382 Z-16.500
G1 X25.011 Y216.378 Z-16.500
G1 X24.953 Y216.365 Z-16.500
G1 X24.895 Y216.342 Z-16.500
G1 X24.840 Y216.309 Z-16.500
G1 X24.791 Y216.267 Z-16.500
G1 X24.749 Y216.218 Z-16.500
G1 X24.716 Y216.163 Z-16.500
G1 X24.693 Y216.105 Z-16.500
G1 X24.680 Y216.046 Z-16.500
G1 X24.676 Y215.990 Z-16.500
G1 X24.680 Y215.933 Z-16.500
G1 X24.693 Y215.874 Z-16.500
G1 X24.716 Y215.816 Z-16.500
G1 X24.749 Y215.761 Z-16.500
G1 X24.791 Y215.712 Z-16.500
G1 X24.840 Y215.670 Z-16.500
G1 X24.895 Y215.637 Z-16.500
G1 X24.953 Y215.614 Z-16.500
G1 X25.011 Y215.601 Z-16.500
G1 X25.068 Y215.597 Z-16.500
G1 X25.125 Y215.601 Z-16.500
G1 X25.183 Y215.614 Z-16.500
G1 X25.241 Y215.637 Z-16.500
G1 X25.296 Y215.670 Z-16.500
G1 X25.346 Y215.712 Z-16.500
G1 X25.388 Y215.761 Z-16.500
G1 X25.420 Y215.816 Z-16.500
G1 X25.443 Y215.874 Z-16.500
G1 X25.456 Y215.933 Z-16.500
G1 X25.461 Y215.990 Z-16.500
G1 X26.731 Y215.990 Z-16.500
G1 X26.713 Y216.230 Z-16.500
G1 X26.657 Y216.478 Z-16.500
G1 X26.560 Y216.723 Z-16.500
G1 X26.421 Y216.956 Z-16.500
G1 X26.244 Y217.165 Z-16.500
G1 X26.034 Y217.343 Z-16.500
G1 X25.802 Y217.481 Z-16.500
G1 X25.557 Y217.579 Z-16.500
G1 X25.309 Y217.635 Z-16.500
G1 X25.068 Y217.652 Z-16.500
G1 X24.827 Y217.635 Z-16.500
G1 X24.580 Y217.579 Z-16.500
G1 X24.334 Y217.481 Z-16.500
G1 X24.102 Y217.343 Z-16.500
G1 X23.893 Y217.165 Z-16.500
G1 X23.715 Y216.956 Z-16.500
G1 X23.576 Y216.723 Z-16.500
G1 X23.479 Y216.478 Z-16.500
G1 X23.423 Y216.230 Z-16.500
G1 X23.406 Y215.990 Z-16.500
G1 X23.423 Y215.749 Z-16.500
G1 X23.479 Y215.501 Z-16.500
G1 X23.576 Y215.256 Z-16.500
G1 X23.715 Y215.023 Z-16.500
G1 X23.893 Y214.814 Z-16.500
G1 X24.102 Y214.637 Z-16.500
G1 X24.334 Y214.498 Z-16.500
G1 X24.580 Y214.400 Z-16.500
G1 X24.827 Y214.345 Z-16.500
G1 X25.068 Y214.327 Z-16.500
G1 X25.309 Y214.345 Z-16.500
G1 X25.557 Y214.400 Z-16.500
G1 X25.802 Y214.498 Z-16.500
G1 X26.034 Y214.637 Z-16.500
G1 X26.244 Y214.814 Z-16.500
G1 X26.421 Y215.023 Z-16.500
G1 X26.560 Y215.256 Z-16.500
G1 X26.657 Y215.501 Z-16.500
G1 X26.713 Y215.749 Z-16.500
G1 X26.731 Y215.990 Z-16.500
G0 X26.731 Y215.990
G0 Z6.000
G0 X25.461 Y215.990
G0 Z6.000
G1 X25.461 Y215.990 Z-17.250 F254.0
G1 X25.456 Y216.046 Z-17.250 F177.8
G1 X25.443 Y216.105 Z-17.250
G1 X25.420 Y216.163 Z-17.250
G1 X25.388 Y216.218 Z-17.250
G1 X25.346 Y216.267 Z-17.250
G1 X25.296 Y216.309 Z-17.250
G1 X25.241 Y216.342 Z-17.250
G1 X25.183 Y216.365 Z-17.250
G1 X25.125 Y216.378 Z-17.250
G1 X25.068 Y216.382 Z-17.250
G1 X25.011 Y216.378 Z-17.250
G1 X24.953 Y216.365 Z-17.250
G1 X24.895 Y216.342 Z-17.250
G1 X24.840 Y216.309 Z-17.250
G1 X24.791 Y216.267 Z-17.250
G1 X24.749 Y216.218 Z-17.250
G1 X24.716 Y216.163 Z-17.250
G1 X24.693 Y216.105 Z-17.250
G1 X24.680 Y216.046 Z-17.250
G1 X24.676 Y215.990 Z-17.250
G1 X24.680 Y215.933 Z-17.250
G1 X24.693 Y215.874 Z-17.250
G1 X24.716 Y215.816 Z-17.250
G1 X24.749 Y215.761 Z-17.250
G1 X24.791 Y215.712 Z-17.250
G1 X24.840 Y215.670 Z-17.250
G1 X24.895 Y215.637 Z-17.250
G1 X24.953 Y215.614 Z-17.250
G1 X25.011 Y215.601 Z-17.250
G1 X25.068 Y215.597 Z-17.250
G1 X25.125 Y215.601 Z-17.250
G1 X25.183 Y215.614 Z-17.250
G1 X25.241 Y215.637 Z-17.250
G1 X25.296 Y215.670 Z-17.250
G1 X25.346 Y215.712 Z-17.250
G1 X25.388 Y215.761 Z-17.250
G1 X25.420 Y215.816 Z-17.250
G1 X25.443 Y215.874 Z-17.250
G1 X25.456 Y215.933 Z-17.250
G1 X25.461 Y215.990 Z-17.250
G1 X26.731 Y215.990 Z-17.250
G1 X26.713 Y216.230 Z-17.250
G1 X26.657 Y216.478 Z-17.250
G1 X26.560 Y216.723 Z-17.250
G1 X26.421 Y216.956 Z-17.250
G1 X26.244 Y217.165 Z-17.250
G1 X26.034 Y217.343 Z-17.250
G1 X25.802 Y217.481 Z-17.250
G1 X25.557 Y217.579 Z-17.250
G1 X25.309 Y217.635 Z-17.250
G1 X25.068 Y217.652 Z-17.250
G1 X24.827 Y217.635 Z-17.250
G1 X24.580 Y217.579 Z-17.250
G1 X24.334 Y217.481 Z-17.250
G1 X24.102 Y217.343 Z-17.250
G1 X23.893 Y217.165 Z-17.250
G1 X23.715 Y216.956 Z-17.250
G1 X23.576 Y216.723 Z-17.250
G1 X23.479 Y216.478 Z-17.250
G1 X23.423 Y216.230 Z-17.250
G1 X23.406 Y215.990 Z-17.250
G1 X23.423 Y215.749 Z-17.250
G1 X23.479 Y215.501 Z-17.250
G1 X23.576 Y215.256 Z-17.250
G1 X23.715 Y215.023 Z-17.250
G1 X23.893 Y214.814 Z-17.250
G1 X24.102 Y214.637 Z-17.250
G1 X24.334 Y214.498 Z-17.250
G1 X24.580 Y214.400 Z-17.250
G1 X24.827 Y214.345 Z-17.250
G1 X25.068 Y214.327 Z-17.250
G1 X25.309 Y214.345 Z-17.250
G1 X25.557 Y214.400 Z-17.250
G1 X25.802 Y214.498 Z-17.250
G1 X26.034 Y214.637 Z-17.250
G1 X26.244 Y214.814 Z-17.250
G1 X26.421 Y215.023 Z-17.250
G1 X26.560 Y215.256 Z-17.250
G1 X26.657 Y215.501 Z-17.250
G1 X26.713 Y215.749 Z-17.250
G1 X26.731 Y215.990 Z-17.250
G0 X26.731 Y215.990
G0 Z6.000
G0 X25.461 Y215.990
G0 Z6.000
G1 X25.461 Y215.990 Z-18.000 F254.0
G1 X25.456 Y216.046 Z-18.000 F177.8
G1 X25.443 Y216.105 Z-18.000
G1 X25.420 Y216.163 Z-18.000
G1 X25.388 Y216.218 Z-18.000
G1 X25.346 Y216.267 Z-18.000
G1 X25.296 Y216.309 Z-18.000
G1 X25.241 Y216.342 Z-18.000
G1 X25.183 Y216.365 Z-18.000
G1 X25.125 Y216.378 Z-18.000
G1 X25.068 Y216.382 Z-18.000
G1 X25.011 Y216.378 Z-18.000
G1 X24.953 Y216.365 Z-18.000
G1 X24.895 Y216.342 Z-18.000
G1 X24.840 Y216.309 Z-18.000
G1 X24.791 Y216.267 Z-18.000
G1 X24.749 Y216.218 Z-18.000
G1 X24.716 Y216.163 Z-18.000
G1 X24.693 Y216.105 Z-18.000
G1 X24.680 Y216.046 Z-18.000
G1 X24.676 Y215.990 Z-18.000
G1 X24.680 Y215.933 Z-18.000
G1 X24.693 Y215.874 Z-18.000
G1 X24.716 Y215.816 Z-18.000
G1 X24.749 Y215.761 Z-18.000
G1 X24.791 Y215.712 Z-18.000
G1 X24.840 Y215.670 Z-18.000
G1 X24.895 Y215.637 Z-18.000
G1 X24.953 Y215.614 Z-18.000
G1 X25.011 Y215.601 Z-18.000
G1 X25.068 Y215.597 Z-18.000
G1 X25.125 Y215.601 Z-18.000
G1 X25.183 Y215.614 Z-18.000
G1 X25.241 Y215.637 Z-18.000
G1 X25.296 Y215.670 Z-18.000
G1 X25.346 Y215.712 Z-18.000
G1 X25.388 Y215.761 Z-18.000
G1 X25.420 Y215.816 Z-18.000
G1 X25.443 Y215.874 Z-18.000
G1 X25.456 Y215.933 Z-18.000
G1 X25.461 Y215.990 Z-18.000
G1 X26.731 Y215.990 Z-18.000
G1 X26.713 Y216.230 Z-18.000
G1 X26.657 Y216.478 Z-18.000
G1 X26.560 Y216.723 Z-18.000
G1 X26.421 Y216.956 Z-18.000
G1 X26.244 Y217.165 Z-18.000
G1 X26.034 Y217.343 Z-18.000
G1 X25.802 Y217.481 Z-18.000
G1 X25.557 Y217.579 Z-18.000
G1 X25.309 Y217.635 Z-18.000
G1 X25.068 Y217.652 Z-18.000
G1 X24.827 Y217.635 Z-18.000
G1 X24.580 Y217.579 Z-18.000
G1 X24.334 Y217.481 Z-18.000
G1 X24.102 Y217.343 Z-18.000
G1 X23.893 Y217.165 Z-18.000
G1 X23.715 Y216.956 Z-18.000
G1 X23.576 Y216.723 Z-18.000
G1 X23.479 Y216.478 Z-18.000
G1 X23.423 Y216.230 Z-18.000
G1 X23.406 Y215.990 Z-18.000
G1 X23.423 Y215.749 Z-18.000
G1 X23.479 Y215.501 Z-18.000
G1 X23.576 Y215.256 Z-18.000
G1 X23.715 Y215.023 Z-18.000
G1 X23.893 Y214.814 Z-18.000
G1 X24.102 Y214.637 Z-18.000
G1 X24.334 Y214.498 Z-18.000
G1 X24.580 Y214.400 Z-18.000
G1 X24.827 Y214.345 Z-18.000
G1 X25.068 Y214.327 Z-18.000
G1 X25.309 Y214.345 Z-18.000
G1 X25.557 Y214.400 Z-18.000
G1 X25.802 Y214.498 Z-18.000
G1 X26.034 Y214.637 Z-18.000
G1 X26.244 Y214.814 Z-18.000
G1 X26.421 Y215.023 Z-18.000
G1 X26.560 Y215.256 Z-18.000
G1 X26.657 Y215.501 Z-18.000
G1 X26.713 Y215.749 Z-18.000
G1 X26.731 Y215.990 Z-18.000
G0 X26.731 Y215.990
G0 Z6.000
G0 X115.061 Y230.350
G0 Z6.000
G1 X115.061 Y230.350 Z-0.750 F254.0
G1 X115.056 Y230.406 Z-0.750 F177.8
G1 X115.043 Y230.465 Z-0.750
G1 X115.020 Y230.523 Z-0.750
G1 X114.988 Y230.578 Z-0.750
G1 X114.946 Y230.627 Z-0.750
G1 X114.896 Y230.669 Z-0.750
G1 X114.841 Y230.702 Z-0.750
G1 X114.783 Y230.725 Z-0.750
G1 X114.725 Y230.738 Z-0.750
G1 X114.668 Y230.742 Z-0.750
G1 X114.611 Y230.738 Z-0.750
G1 X114.553 Y230.725 Z-0.750
G1 X114.495 Y230.702 Z-0.750
G1 X114.440 Y230.669 Z-0.750
G1 X114.391 Y230.627 Z-0.750
G1 X114.349 Y230.578 Z-0.750
G1 X114.316 Y230.523 Z-0.750
G1 X114.293 Y230.465 Z-0.750
G1 X114.280 Y230.406 Z-0.750
G1 X114.276 Y230.350 Z-0.750
G1 X114.280 Y230.293 Z-0.750
G1 X114.293 Y230.234 Z-0.750
G1 X114.316 Y230.176 Z-0.750
G1 X114.349 Y230.121 Z-0.750
G1 X114.391 Y230.072 Z-0.750
G1 X114.440 Y230.030 Z-0.750
G1 X114.495 Y229.997 Z-0.750
G1 X114.553 Y229.974 Z-0.750
G1 X114.611 Y229.961 Z-0.750
G1 X114.668 Y229.957 Z-0.750
G1 X114.725 Y229.961 Z-0.750
G1 X114.783 Y229.974 Z-0.750
G1 X114.841 Y229.997 Z-0.750
G1 X114.896 Y230.030 Z-0.750
G1 X114.946 Y230.072 Z-0.750
G1 X114.988 Y230.121 Z-0.750
G1 X115.020 Y230.176 Z-0.750
G1 X115.043 Y230.234 Z-0.750
G1 X115.056 Y230.293 Z-0.750
G1 X115.061 Y230.350 Z-0.750
G1 X116.331 Y230.350 Z-0.750
G1 X116.313 Y230.590 Z-0.750
G1 X116.257 Y230.838 Z-0.750
G1 X116.160 Y231.083 Z-0.750
G1 X116.021 Y231.316 Z-0.750
G1 X115.844 Y231.525 Z-0.750
G1 X115.634 Y231.703 Z-0.750
G1 X115.402 Y231.841 Z-0.750
G1 X115.157 Y231.939 Z-0.750
G1 X114.909 Y231.995 Z-0.750
G1 X114.668 Y232.012 Z-0.750
G1 X114.427 Y231.995 Z-0.750
G1 X114.180 Y231.939 Z-0.750
G1 X113.934 Y231.841 Z-0.750
G1 X113.702 Y231.703 Z-0.750
G1 X113.493 Y231.525 Z-0.750
G1 X113.315 Y231.316 Z-0.750
G1 X113.176 Y231.083 Z-0.750
G1 X113.079 Y230.838 Z-0.750
G1 X113.023 Y230.590 Z-0.750
G1 X113.006 Y230.350 Z-0.750
G1 X113.023 Y230.109 Z-0.750
G1 X113.079 Y229.861 Z-0.750
G1 X113.176 Y229.616 Z-0.750
G1 X113.315 Y229.383 Z-0.750
G1 X113.493 Y229.174 Z-0.750
G1 X113.702 Y228.997 Z-0.750
G1 X113.934 Y228.858 Z-0.750
G1 X114.180 Y228.760 Z-0.750
G1 X114.427 Y228.705 Z-0.750
G1 X114.668 Y228.687 Z-0.750
G1 X114.909 Y228.705 Z-0.750
G1 X115.157 Y228.760 Z-0.750
G1 X115.402 Y228.858 Z-0.750
G1 X115.634 Y228.997 Z-0.750
G1 X115.844 Y229.174 Z-0.750
G1 X116.021 Y229.383 Z-0.750
G1 X116.160 Y229.616 Z-0.750
G1 X116.257 Y229.861 Z-0.750
G1 X116.313 Y230.109 Z-0.750
G1 X116.331 Y230.350 Z-0.750
G0 X116.331 Y230.350
G0 Z6.000
G0 X115.061 Y230.350
G0 Z6.000
G1 X115.061 Y230.350 Z-1.500 F254.0
G1 X115.056 Y230.406 Z-1.500 F177.8
G1 X115.043 Y230.465 Z-1.500
G1 X115.020 Y230.523 Z-1.500
G1 X114.988 Y230.578 Z-1.500
G1 X114.946 Y230.627 Z-1.500
G1 X114.896 Y230.669 Z-1.500
G1 X114.841 Y230.702 Z-1.500
G1 X114.783 Y230.725 Z-1.500
G1 X114.725 Y230.738 Z-1.500
G1 X114.668 Y230.742 Z-1.500
G1 X114.611 Y230.738 Z-1.500
G1 X114.553 Y230.725 Z-1.500
G1 X114.495 Y230.702 Z-1.500
G1 X114.440 Y230.669 Z-1.500
G1 X114.391 Y230.627 Z-1.500
G1 X114.349 Y230.578 Z-1.500
G1 X114.316 Y230.523 Z-1.500
G1 X114.293 Y230.465 Z-1.500
G1 X114.280 Y230.406 Z-1.500
G1 X114.276 Y230.350 Z-1.500
G1 X114.280 Y230.293 Z-1.500
G1 X114.293 Y230.234 Z-1.500
G1 X114.316 Y230.176 Z-1.500
G1 X114.349 Y230.121 Z-1.500
G1 X114.391 Y230.072 Z-1.500
G1 X114.440 Y230.030 Z-1.500
G1 X114.495 Y229.997 Z-1.500
G1 X114.553 Y229.974 Z-1.500
G1 X114.611 Y229.961 Z-1.500
G1 X114.668 Y229.957 Z-1.500
G1 X114.725 Y229.961 Z-1.500
G1 X114.783 Y229.974 Z-1.500
G1 X114.841 Y229.997 Z-1.500
G1 X114.896 Y230.030 Z-1.500
G1 X114.946 Y230.072 Z-1.500
G1 X114.988 Y230.121 Z-1.500
G1 X115.020 Y230.176 Z-1.500
G1 X115.043 Y230.234 Z-1.500
G1 X115.056 Y230.293 Z-1.500
G1 X115.061 Y230.350 Z-1.500
G1 X116.331 Y230.350 Z-1.500
G1 X116.313 Y230.590 Z-1.500
G1 X116.257 Y230.838 Z-1.500
G1 X116.160 Y231.083 Z-1.500
G1 X116.021 Y231.316 Z-1.500
G1 X115.844 Y231.525 Z-1.500
G1 X115.634 Y231.703 Z-1.500
G1 X115.402 Y231.841 Z-1.500
G1 X115.157 Y231.939 Z-1.500
G1 X114.909 Y231.995 Z-1.500
G1 X114.668 Y232.012 Z-1.500
G1 X114.427 Y231.995 Z-1.500
G1 X114.180 Y231.939 Z-1.500
G1 X113.934 Y231.841 Z-1.500
G1 X113.702 Y231.703 Z-1.500
G1 X113.493 Y231.525 Z-1.500
G1 X113.315 Y231.316 Z-1.500
G1 X113.176 Y231.083 Z-1.500
G1 X113.079 Y230.838 Z-1.500
G1 X113.023 Y230.590 Z-1.500
G1 X113.006 Y230.350 Z-1.500
G1 X113.023 Y230.109 Z-1.500
G1 X113.079 Y229.861 Z-1.500
G1 X113.176 Y229.616 Z-1.500
G1 X113.315 Y229.383 Z-1.500
G1 X113.493 Y229.174 Z-1.500
G1 X113.702 Y228.997 Z-1.500
G1 X113.934 Y228.858 Z-1.500
G1 X114.180 Y228.760 Z-1.500
G1 X114.427 Y228.705 Z-1.500
G1 X114.668 Y228.687 Z-1.500
G1 X114.909 Y228.705 Z-1.500
G1 X115.157 Y228.760 Z-1.500
G1 X115.402 Y228.858 Z-1.500
G1 X115.634 Y228.997 Z-1.500
G1 X115.844 Y229.174 Z-1.500
G1 X116.021 Y229.383 Z-1.500
G1 X116.160 Y229.616 Z-1.500
G1 X116.257 Y229.861 Z-1.500
G1 X116.313 Y230.109 Z-1.500
G1 X116.331 Y230.350 Z-1.500
G0 X116.331 Y230.350
G0 Z6.000
G0 X115.061 Y230.350
G0 Z6.000
G1 X115.061 Y230.350 Z-2.250 F254.0
G1 X115.056 Y230.406 Z-2.250 F177.8
G1 X115.043 Y230.465 Z-2.250
G1 X115.020 Y230.523 Z-2.250
G1 X114.988 Y230.578 Z-2.250
G1 X114.946 Y230.627 Z-2.250
G1 X114.896 Y230.669 Z-2.250
G1 X114.841 Y230.702 Z-2.250
G1 X114.783 Y230.725 Z-2.250
G1 X114.725 Y230.738 Z-2.250
G1 X114.668 Y230.742 Z-2.250
G1 X114.611 Y230.738 Z-2.250
G1 X114.553 Y230.725 Z-2.250
G1 X114.495 Y230.702 Z-2.250
G1 X114.440 Y230.669 Z-2.250
G1 X114.391 Y230.627 Z-2.250
G1 X114.349 Y230.578 Z-2.250
G1 X114.316 Y230.523 Z-2.250
G1 X114.293 Y230.465 Z-2.250
G1 X114.280 Y230.406 Z-2.250
G1 X114.276 Y230.350 Z-2.250
G1 X114.280 Y230.293 Z-2.250
G1 X114.293 Y230.234 Z-2.250
G1 X114.316 Y230.176 Z-2.250
G1 X114.349 Y230.121 Z-2.250
G1 X114.391 Y230.072 Z-2.250
G1 X114.440 Y230.030 Z-2.250
G1 X114.495 Y229.997 Z-2.250
G1 X114.553 Y229.974 Z-2.250
G1 X114.611 Y229.961 Z-2.250
G1 X114.668 Y229.957 Z-2.250
G1 X114.725 Y229.961 Z-2.250
G1 X114.783 Y229.974 Z-2.250
G1 X114.841 Y229.997 Z-2.250
G1 X114.896 Y230.030 Z-2.250
G1 X114.946 Y230.072 Z-2.250
G1 X114.988 Y230.121 Z-2.250
G1 X115.020 Y230.176 Z-2.250
G1 X115.043 Y230.234 Z-2.250
G1 X115.056 Y230.293 Z-2.250
G1 X115.061 Y230.350 Z-2.250
G1 X116.331 Y230.350 Z-2.250
G1 X116.313 Y230.590 Z-2.250
G1 X116.257 Y230.838 Z-2.250
G1 X116.160 Y231.083 Z-2.250
G1 X116.021 Y231.316 Z-2.250
G1 X115.844 Y231.525 Z-2.250
G1 X115.634 Y231.703 Z-2.250
G1 X115.402 Y231.841 Z-2.250
G1 X115.157 Y231.939 Z-2.250
G1 X114.909 Y231.995 Z-2.250
G1 X114.668 Y232.012 Z-2.250
G1 X114.427 Y231.995 Z-2.250
G1 X114.180 Y231.939 Z-2.250
G1 X113.934 Y231.841 Z-2.250
G1 X113.702 Y231.703 Z-2.250
G1 X113.493 Y231.525 Z-2.250
G1 X113.315 Y231.316 Z-2.250
G1 X113.176 Y231.083 Z-2.250
G1 X113.079 Y230.838 Z-2.250
G1 X113.023 Y230.590 Z-2.250
G1 X113.006 Y230.350 Z-2.250
G1 X113.023 Y230.109 Z-2.250
G1 X113.079 Y229.861 Z-2.250
G1 X113.176 Y229.616 Z-2.250
G1 X113.315 Y229.383 Z-2.250
G1 X113.493 Y229.174 Z-2.250
G1 X113.702 Y228.997 Z-2.250
G1 X113.934 Y228.858 Z-2.250
G1 X114.180 Y228.760 Z-2.250
G1 X114.427 Y228.705 Z-2.250
G1 X114.668 Y228.687 Z-2.250
G1 X114.909 Y228.705 Z-2.250
G1 X115.157 Y228.760 Z-2.250
G1 X115.402 Y228.858 Z-2.250
G1 X115.634 Y228.997 Z-2.250
G1 X115.844 Y229.174 Z-2.250
G1 X116.021 Y229.383 Z-2.250
G1 X116.160 Y229.616 Z-2.250
G1 X116.257 Y229.861 Z-2.250
G1 X116.313 Y230.109 Z-2.250
G1 X116.331 Y230.350 Z-2.250
G0 X116.331 Y230.350
G0 Z6.000
G0 X115.061 Y230.350
G0 Z6.000
G1 X115.061 Y230.350 Z-3.000 F254.0
G1 X115.056 Y230.406 Z-3.000 F177.8
G1 X115.043 Y230.465 Z-3.000
G1 X115.020 Y230.523 Z-3.000
G1 X114.988 Y230.578 Z-3.000
G1 X114.946 Y230.627 Z-3.000
G1 X114.896 Y230.669 Z-3.000
G1 X114.841 Y230.702 Z-3.000
G1 X114.783 Y230.725 Z-3.000
G1 X114.725 Y230.738 Z-3.000
G1 X114.668 Y230.742 Z-3.000
G1 X114.611 Y230.738 Z-3.000
G1 X114.553 Y230.725 Z-3.000
G1 X114.495 Y230.702 Z-3.000
G1 X114.440 Y230.669 Z-3.000
G1 X114.391 Y230.627 Z-3.000
G1 X114.349 Y230.578 Z-3.000
G1 X114.316 Y230.523 Z-3.000
G1 X114.293 Y230.465 Z-3.000
G1 X114.280 Y230.406 Z-3.000
G1 X114.276 Y230.350 Z-3.000
G1 X114.280 Y230.293 Z-3.000
G1 X114.293 Y230.234 Z-3.000
G1 X114.316 Y230.176 Z-3.000
G1 X114.349 Y230.121 Z-3.000
G1 X114.391 Y230.072 Z-3.000
G1 X114.440 Y230.030 Z-3.000
G1 X114.495 Y229.997 Z-3.000
G1 X114.553 Y229.974 Z-3.000
G1 X114.611 Y229.961 Z-3.000
G1 X114.668 Y229.957 Z-3.000
G1 X114.725 Y229.961 Z-3.000
G1 X114.783 Y229.974 Z-3.000
G1 X114.841 Y229.997 Z-3.000
G1 X114.896 Y230.030 Z-3.000
G1 X114.946 Y230.072 Z-3.000
G1 X114.988 Y230.121 Z-3.000
G1 X115.020 Y230.176 Z-3.000
G1 X115.043 Y230.234 Z-3.000
G1 X115.056 Y230.293 Z-3.000
G1 X115.061 Y230.350 Z-3.000
G1 X116.331 Y230.350 Z-3.000
G1 X116.313 Y230.590 Z-3.000
G1 X116.257 Y230.838 Z-3.000
G1 X116.160 Y231.083 Z-3.000
G1 X116.021 Y231.316 Z-3.000
G1 X115.844 Y231.525 Z-3.000
G1 X115.634 Y231.703 Z-3.000
G1 X115.402 Y231.841 Z-3.000
G1 X115.157 Y231.939 Z-3.000
G1 X114.909 Y231.995 Z-3.000
G1 X114.668 Y232.012 Z-3.000
G1 X114.427 Y231.995 Z-3.000
G1 X114.180 Y231.939 Z-3.000
G1 X113.934 Y231.841 Z-3.000
G1 X113.702 Y231.703 Z-3.000
G1 X113.493 Y231.525 Z-3.000
G1 X113.315 Y231.316 Z-3.000
G1 X113.176 Y231.083 Z-3.000
G1 X113.079 Y230.838 Z-3.000
G1 X113.023 Y230.590 Z-3.000
G1 X113.006 Y230.350 Z-3.000
G1 X113.023 Y230.109 Z-3.000
G1 X113.079 Y229.861 Z-3.000
G1 X113.176 Y229.616 Z-3.000
G1 X113.315 Y229.383 Z-3.000
G1 X113.493 Y229.174 Z-3.000
G1 X113.702 Y228.997 Z-3.000
G1 X113.934 Y228.858 Z-3.000
G1 X114.180 Y228.760 Z-3.000
G1 X114.427 Y228.705 Z-3.000
G1 X114.668 Y228.687 Z-3.000
G1 X114.909 Y228.705 Z-3.000
G1 X115.157 Y228.760 Z-3.000
G1 X115.402 Y228.858 Z-3.000
G1 X115.634 Y228.997 Z-3.000
G1 X115.844 Y229.174 Z-3.000
G1 X116.021 Y229.383 Z-3.000
G1 X116.160 Y229.616 Z-3.000
G1 X116.257 Y229.861 Z-3.000
G1 X116.313 Y230.109 Z-3.000
G1 X116.331 Y230.350 Z-3.000
G0 X116.331 Y230.350
G0 Z6.000
G0 X115.061 Y230.350
G0 Z6.000
G1 X115.061 Y230.350 Z-3.750 F254.0
G1 X115.056 Y230.406 Z-3.750 F177.8
G1 X115.043 Y230.465 Z-3.750
G1 X115.020 Y230.523 Z-3.750
G1 X114.988 Y230.578 Z-3.750
G1 X114.946 Y230.627 Z-3.750
G1 X114.896 Y230.669 Z-3.750
G1 X114.841 Y230.702 Z-3.750
G1 X114.783 Y230.725 Z-3.750
G1 X114.725 Y230.738 Z-3.750
G1 X114.668 Y230.742 Z-3.750
G1 X114.611 Y230.738 Z-3.750
G1 X114.553 Y230.725 Z-3.750
G1 X114.495 Y230.702 Z-3.750
G1 X114.440 Y230.669 Z-3.750
G1 X114.391 Y230.627 Z-3.750
G1 X114.349 Y230.578 Z-3.750
G1 X114.316 Y230.523 Z-3.750
G1 X114.293 Y230.465 Z-3.750
G1 X114.280 Y230.406 Z-3.750
G1 X114.276 Y230.350 Z-3.750
G1 X114.280 Y230.293 Z-3.750
G1 X114.293 Y230.234 Z-3.750
G1 X114.316 Y230.176 Z-3.750
G1 X114.349 Y230.121 Z-3.750
G1 X114.391 Y230.072 Z-3.750
G1 X114.440 Y230.030 Z-3.750
G1 X114.495 Y229.997 Z-3.750
G1 X114.553 Y229.974 Z-3.750
G1 X114.611 Y229.961 Z-3.750
G1 X114.668 Y229.957 Z-3.750
G1 X114.725 Y229.961 Z-3.750
G1 X114.783 Y229.974 Z-3.750
G1 X114.841 Y229.997 Z-3.750
G1 X114.896 Y230.030 Z-3.750
G1 X114.946 Y230.072 Z-3.750
G1 X114.988 Y230.121 Z-3.750
G1 X115.020 Y230.176 Z-3.750
G1 X115.043 Y230.234 Z-3.750
G1 X115.056 Y230.293 Z-3.750
G1 X115.061 Y230.350 Z-3.750
G1 X116.331 Y230.350 Z-3.750
G1 X116.313 Y230.590 Z-3.750
G1 X116.257 Y230.838 Z-3.750
G1 X116.160 Y231.083 Z-3.750
G1 X116.021 Y231.316 Z-3.750
G1 X115.844 Y231.525 Z-3.750
G1 X115.634 Y231.703 Z-3.750
G1 X115.402 Y231.841 Z-3.750
G1 X115.157 Y231.939 Z-3.750
G1 X114.909 Y231.995 Z-3.750
G1 X114.668 Y232.012 Z-3.750
G1 X114.427 Y231.995 Z-3.750
G1 X114.180 Y231.939 Z-3.750
G1 X113.934 Y231.841 Z-3.750
G1 X113.702 Y231.703 Z-3.750
G1 X113.493 Y231.525 Z-3.750
G1 X113.315 Y231.316 Z-3.750
G1 X113.176 Y231.083 Z-3.750
G1 X113.079 Y230.838 Z-3.750
G1 X113.023 Y230.590 Z-3.750
G1 X113.006 Y230.350 Z-3.750
G1 X113.023 Y230.109 Z-3.750
G1 X113.079 Y229.861 Z-3.750
G1 X113.176 Y229.616 Z-3.750
G1 X113.315 Y229.383 Z-3.750
G1 X113.493 Y229.174 Z-3.750
G1 X113.702 Y228.997 Z-3.750
G1 X113.934 Y228.858 Z-3.750
G1 X114.180 Y228.760 Z-3.750
G1 X114.427 Y228.705 Z-3.750
G1 X114.668 Y228.687 Z-3.750
G1 X114.909 Y228.705 Z-3.750
G1 X115.157 Y228.760 Z-3.750
G1 X115.402 Y228.858 Z-3.750
G1 X115.634 Y228.997 Z-3.750
G1 X115.844 Y229.174 Z-3.750
G1 X116.021 Y229.383 Z-3.750
G1 X116.160 Y229.616 Z-3.750
G1 X116.257 Y229.861 Z-3.750
G1 X116.313 Y230.109 Z-3.750
G1 X116.331 Y230.350 Z-3.750
G0 X116.331 Y230.350
G0 Z6.000
G0 X115.061 Y230.350
G0 Z6.000
G1 X115.061 Y230.350 Z-4.500 F254.0
G1 X115.056 Y230.406 Z-4.500 F177.8
G1 X115.043 Y230.465 Z-4.500
G1 X115.020 Y230.523 Z-4.500
G1 X114.988 Y230.578 Z-4.500
G1 X114.946 Y230.627 Z-4.500
G1 X114.896 Y230.669 Z-4.500
G1 X114.841 Y230.702 Z-4.500
G1 X114.783 Y230.725 Z-4.500
G1 X114.725 Y230.738 Z-4.500
G1 X114.668 Y230.742 Z-4.500
G1 X114.611 Y230.738 Z-4.500
G1 X114.553 Y230.725 Z-4.500
G1 X114.495 Y230.702 Z-4.500
G1 X114.440 Y230.669 Z-4.500
G1 X114.391 Y230.627 Z-4.500
G1 X114.349 Y230.578 Z-4.500
G1 X114.316 Y230.523 Z-4.500
G1 X114.293 Y230.465 Z-4.500
G1 X114.280 Y230.406 Z-4.500
G1 X114.276 Y230.350 Z-4.500
G1 X114.280 Y230.293 Z-4.500
G1 X114.293 Y230.234 Z-4.500
G1 X114.316 Y230.176 Z-4.500
G1 X114.349 Y230.121 Z-4.500
G1 X114.391 Y230.072 Z-4.500
G1 X114.440 Y230.030 Z-4.500
G1 X114.495 Y229.997 Z-4.500
G1 X114.553 Y229.974 Z-4.500
G1 X114.611 Y229.961 Z-4.500
G1 X114.668 Y229.957 Z-4.500
G1 X114.725 Y229.961 Z-4.500
G1 X114.783 Y229.974 Z-4.500
G1 X114.841 Y229.997 Z-4.500
G1 X114.896 Y230.030 Z-4.500
G1 X114.946 Y230.072 Z-4.500
G1 X114.988 Y230.121 Z-4.500
G1 X115.020 Y230.176 Z-4.500
G1 X115.043 Y230.234 Z-4.500
G1 X115.056 Y230.293 Z-4.500
G1 X115.061 Y230.350 Z-4.500
G1 X116.331 Y230.350 Z-4.500
G1 X116.313 Y230.590 Z-4.500
G1 X116.257 Y230.838 Z-4.500
G1 X116.160 Y231.083 Z-4.500
G1 X116.021 Y231.316 Z-4.500
G1 X115.844 Y231.525 Z-4.500
G1 X115.634 Y231.703 Z-4.500
G1 X115.402 Y231.841 Z-4.500
G1 X115.157 Y231.939 Z-4.500
G1 X114.909 Y231.995 Z-4.500
G1 X114.668 Y232.012 Z-4.500
G1 X114.427 Y231.995 Z-4.500
G1 X114.180 Y231.939 Z-4.500
G1 X113.934 Y231.841 Z-4.500
G1 X113.702 Y231.703 Z-4.500
G1 X113.493 Y231.525 Z-4.500
G1 X113.315 Y231.316 Z-4.500
G1 X113.176 Y231.083 Z-4.500
G1 X113.079 Y230.838 Z-4.500
G1 X113.023 Y230.590 Z-4.500
G1 X113.006 Y230.350 Z-4.500
G1 X113.023 Y230.109 Z-4.500
G1 X113.079 Y229.861 Z-4.500
G1 X113.176 Y229.616 Z-4.500
G1 X113.315 Y229.383 Z-4.500
G1 X113.493 Y229.174 Z-4.500
G1 X113.702 Y228.997 Z-4.500
G1 X113.934 Y228.858 Z-4.500
G1 X114.180 Y228.760 Z-4.500
G1 X114.427 Y228.705 Z-4.500
G1 X114.668 Y228.687 Z-4.500
G1 X114.909 Y228.705 Z-4.500
G1 X115.157 Y228.760 Z-4.500
G1 X115.402 Y228.858 Z-4.500
G1 X115.634 Y228.997 Z-4.500
G1 X115.844 Y229.174 Z-4.500
G1 X116.021 Y229.383 Z-4.500
G1 X116.160 Y229.616 Z-4.500
G1 X116.257 Y229.861 Z-4.500
G1 X116.313 Y230.109 Z-4.500
G1 X116.331 Y230.350 Z-4.500
G0 X116.331 Y230.350
G0 Z6.000
G0 X115.061 Y230.350
G0 Z6.000
G1 X115.061 Y230.350 Z-5.250 F254.0
G1 X115.056 Y230.406 Z-5.250 F177.8
G1 X115.043 Y230.465 Z-5.250
G1 X115.020 Y230.523 Z-5.250
G1 X114.988 Y230.578 Z-5.250
G1 X114.946 Y230.627 Z-5.250
G1 X114.896 Y230.669 Z-5.250
G1 X114.841 Y230.702 Z-5.250
G1 X114.783 Y230.725 Z-5.250
G1 X114.725 Y230.738 Z-5.250
G1 X114.668 Y230.742 Z-5.250
G1 X114.611 Y230.738 Z-5.250
G1 X114.553 Y230.725 Z-5.250
G1 X114.495 Y230.702 Z-5.250
G1 X114.440 Y230.669 Z-5.250
G1 X114.391 Y230.627 Z-5.250
G1 X114.349 Y230.578 Z-5.250
G1 X114.316 Y230.523 Z-5.250
G1 X114.293 Y230.465 Z-5.250
G1 X114.280 Y230.406 Z-5.250
G1 X114.276 Y230.350 Z-5.250
G1 X114.280 Y230.293 Z-5.250
G1 X114.293 Y230.234 Z-5.250
G1 X114.316 Y230.176 Z-5.250
G1 X114.349 Y230.121 Z-5.250
G1 X114.391 Y230.072 Z-5.250
G1 X114.440 Y230.030 Z-5.250
G1 X114.495 Y229.997 Z-5.250
G1 X114.553 Y229.974 Z-5.250
G1 X114.611 Y229.961 Z-5.250
G1 X114.668 Y229.957 Z-5.250
G1 X114.725 Y229.961 Z-5.250
G1 X114.783 Y229.974 Z-5.250
G1 X114.841 Y229.997 Z-5.250
G1 X114.896 Y230.030 Z-5.250
G1 X114.946 Y230.072 Z-5.250
G1 X114.988 Y230.121 Z-5.250
G1 X115.020 Y230.176 Z-5.250
G1 X115.043 Y230.234 Z-5.250
G1 X115.056 Y230.293 Z-5.250
G1 X115.061 Y230.350 Z-5.250
G1 X116.331 Y230.350 Z-5.250
G1 X116.313 Y230.590 Z-5.250
G1 X116.257 Y230.838 Z-5.250
G1 X116.160 Y231.083 Z-5.250
G1 X116.021 Y231.316 Z-5.250
G1 X115.844 Y231.525 Z-5.250
G1 X115.634 Y231.703 Z-5.250
G1 X115.402 Y231.841 Z-5.250
G1 X115.157 Y231.939 Z-5.250
G1 X114.909 Y231.995 Z-5.250
G1 X114.668 Y232.012 Z-5.250
G1 X114.427 Y231.995 Z-5.250
G1 X114.180 Y231.939 Z-5.250
G1 X113.934 Y231.841 Z-5.250
G1 X113.702 Y231.703 Z-5.250
G1 X113.493 Y231.525 Z-5.250
G1 X113.315 Y231.316 Z-5.250
G1 X113.176 Y231.083 Z-5.250
G1 X113.079 Y230.838 Z-5.250
G1 X113.023 Y230.590 Z-5.250
G1 X113.006 Y230.350 Z-5.250
G1 X113.023 Y230.109 Z-5.250
G1 X113.079 Y229.861 Z-5.250
G1 X113.176 Y229.616 Z-5.250
G1 X113.315 Y229.383 Z-5.250
G1 X113.493 Y229.174 Z-5.250
G1 X113.702 Y228.997 Z-5.250
G1 X113.934 Y228.858 Z-5.250
G1 X114.180 Y228.760 Z-5.250
G1 X114.427 Y228.705 Z-5.250
G1 X114.668 Y228.687 Z-5.250
G1 X114.909 Y228.705 Z-5.250
G1 X115.157 Y228.760 Z-5.250
G1 X115.402 Y228.858 Z-5.250
G1 X115.634 Y228.997 Z-5.250
G1 X115.844 Y229.174 Z-5.250
G1 X116.021 Y229.383 Z-5.250
G1 X116.160 Y229.616 Z-5.250
G1 X116.257 Y229.861 Z-5.250
G1 X116.313 Y230.109 Z-5.250
G1 X116.331 Y230.350 Z-5.250
G0 X116.331 Y230.350
G0 Z6.000
G0 X115.061 Y230.350
G0 Z6.000
G1 X115.061 Y230.350 Z-6.000 F254.0
G1 X115.056 Y230.406 Z-6.000 F177.8
G1 X115.043 Y230.465 Z-6.000
G1 X115.020 Y230.523 Z-6.000
G1 X114.988 Y230.578 Z-6.000
G1 X114.946 Y230.627 Z-6.000
G1 X114.896 Y230.669 Z-6.000
G1 X114.841 Y230.702 Z-6.000
G1 X114.783 Y230.725 Z-6.000
G1 X114.725 Y230.738 Z-6.000
G1 X114.668 Y230.742 Z-6.000
G1 X114.611 Y230.738 Z-6.000
G1 X114.553 Y230.725 Z-6.000
G1 X114.495 Y230.702 Z-6.000
G1 X114.440 Y230.669 Z-6.000
G1 X114.391 Y230.627 Z-6.000
G1 X114.349 Y230.578 Z-6.000
G1 X114.316 Y230.523 Z-6.000
G1 X114.293 Y230.465 Z-6.000
G1 X114.280 Y230.406 Z-6.000
G1 X114.276 Y230.350 Z-6.000
G1 X114.280 Y230.293 Z-6.000
G1 X114.293 Y230.234 Z-6.000
G1 X114.316 Y230.176 Z-6.000
G1 X114.349 Y230.121 Z-6.000
G1 X114.391 Y230.072 Z-6.000
G1 X114.440 Y230.030 Z-6.000
G1 X114.495 Y229.997 Z-6.000
G1 X114.553 Y229.974 Z-6.000
G1 X114.611 Y229.961 Z-6.000
G1 X114.668 Y229.957 Z-6.000
G1 X114.725 Y229.961 Z-6.000
G1 X114.783 Y229.974 Z-6.000
G1 X114.841 Y229.997 Z-6.000
G1 X114.896 Y230.030 Z-6.000
G1 X114.946 Y230.072 Z-6.000
G1 X114.988 Y230.121 Z-6.000
G1 X115.020 Y230.176 Z-6.000
G1 X115.043 Y230.234 Z-6.000
G1 X115.056 Y230.293 Z-6.000
G1 X115.061 Y230.350 Z-6.000
G1 X116.331 Y230.350 Z-6.000
G1 X116.313 Y230.590 Z-6.000
G1 X116.257 Y230.838 Z-6.000
G1 X116.160 Y231.083 Z-6.000
G1 X116.021 Y231.316 Z-6.000
G1 X115.844 Y231.525 Z-6.000
G1 X115.634 Y231.703 Z-6.000
G1 X115.402 Y231.841 Z-6.000
G1 X115.157 Y231.939 Z-6.000
G1 X114.909 Y231.995 Z-6.000
G1 X114.668 Y232.012 Z-6.000
G1 X114.427 Y231.995 Z-6.000
G1 X114.180 Y231.939 Z-6.000
G1 X113.934 Y231.841 Z-6.000
G1 X113.702 Y231.703 Z-6.000
G1 X113.493 Y231.525 Z-6.000
G1 X113.315 Y231.316 Z-6.000
G1 X113.176 Y231.083 Z-6.000
G1 X113.079 Y230.838 Z-6.000
G1 X113.023 Y230.590 Z-6.000
G1 X113.006 Y230.350 Z-6.000
G1 X113.023 Y230.109 Z-6.000
G1 X113.079 Y229.861 Z-6.000
G1 X113.176 Y229.616 Z-6.000
G1 X113.315 Y229.383 Z-6.000
G1 X113.493 Y229.174 Z-6.000
G1 X113.702 Y228.997 Z-6.000
G1 X113.934 Y228.858 Z-6.000
G1 X114.180 Y228.760 Z-6.000
G1 X114.427 Y228.705 Z-6.000
G1 X114.668 Y228.687 Z-6.000
G1 X114.909 Y228.705 Z-6.000
G1 X115.157 Y228.760 Z-6.000
G1 X115.402 Y228.858 Z-6.000
G1 X115.634 Y228.997 Z-6.000
G1 X115.844 Y229.174 Z-6.000
G1 X116.021 Y229.383 Z-6.000
G1 X116.160 Y229.616 Z-6.000
G1 X116.257 Y229.861 Z-6.000
G1 X116.313 Y230.109 Z-6.000
G1 X116.331 Y230.350 Z-6.000
G0 X116.331 Y230.350
G0 Z6.000
G0 X115.061 Y230.350
G0 Z6.000
G1 X115.061 Y230.350 Z-6.750 F254.0
G1 X115.056 Y230.406 Z-6.750 F177.8
G1 X115.043 Y230.465 Z-6.750
G1 X115.020 Y230.523 Z-6.750
G1 X114.988 Y230.578 Z-6.750
G1 X114.946 Y230.627 Z-6.750
G1 X114.896 Y230.669 Z-6.750
G1 X114.841 Y230.702 Z-6.750
G1 X114.783 Y230.725 Z-6.750
G1 X114.725 Y230.738 Z-6.750
G1 X114.668 Y230.742 Z-6.750
G1 X114.611 Y230.738 Z-6.750
G1 X114.553 Y230.725 Z-6.750
G1 X114.495 Y230.702 Z-6.750
G1 X114.440 Y230.669 Z-6.750
G1 X114.391 Y230.627 Z-6.750
G1 X114.349 Y230.578 Z-6.750
G1 X114.316 Y230.523 Z-6.750
G1 X114.293 Y230.465 Z-6.750
G1 X114.280 Y230.406 Z-6.750
G1 X114.276 Y230.350 Z-6.750
G1 X114.280 Y230.293 Z-6.750
G1 X114.293 Y230.234 Z-6.750
G1 X114.316 Y230.176 Z-6.750
G1 X114.349 Y230.121 Z-6.750
G1 X114.391 Y230.072 Z-6.750
G1 X114.440 Y230.030 Z-6.750
G1 X114.495 Y229.997 Z-6.750
G1 X114.553 Y229.974 Z-6.750
G1 X114.611 Y229.961 Z-6.750
G1 X114.668 Y229.957 Z-6.750
G1 X114.725 Y229.961 Z-6.750
G1 X114.783 Y229.974 Z-6.750
G1 X114.841 Y229.997 Z-6.750
G1 X114.896 Y230.030 Z-6.750
G1 X114.946 Y230.072 Z-6.750
G1 X114.988 Y230.121 Z-6.750
G1 X115.020 Y230.176 Z-6.750
G1 X115.043 Y230.234 Z-6.750
G1 X115.056 Y230.293 Z-6.750
G1 X115.061 Y230.350 Z-6.750
G1 X116.331 Y230.350 Z-6.750
G1 X116.313 Y230.590 Z-6.750
G1 X116.257 Y230.838 Z-6.750
G1 X116.160 Y231.083 Z-6.750
G1 X116.021 Y231.316 Z-6.750
G1 X115.844 Y231.525 Z-6.750
G1 X115.634 Y231.703 Z-6.750
G1 X115.402 Y231.841 Z-6.750
G1 X115.157 Y231.939 Z-6.750
G1 X114.909 Y231.995 Z-6.750
G1 X114.668 Y232.012 Z-6.750
G1 X114.427 Y231.995 Z-6.750
G1 X114.180 Y231.939 Z-6.750
G1 X113.934 Y231.841 Z-6.750
G1 X113.702 Y231.703 Z-6.750
G1 X113.493 Y231.525 Z-6.750
G1 X113.315 Y231.316 Z-6.750
G1 X113.176 Y231.083 Z-6.750
G1 X113.079 Y230.838 Z-6.750
G1 X113.023 Y230.590 Z-6.750
G1 X113.006 Y230.350 Z-6.750
G1 X113.023 Y230.109 Z-6.750
G1 X113.079 Y229.861 Z-6.750
G1 X113.176 Y229.616 Z-6.750
G1 X113.315 Y229.383 Z-6.750
G1 X113.493 Y229.174 Z-6.750
G1 X113.702 Y228.997 Z-6.750
G1 X113.934 Y228.858 Z-6.750
G1 X114.180 Y228.760 Z-6.750
G1 X114.427 Y228.705 Z-6.750
G1 X114.668 Y228.687 Z-6.750
G1 X114.909 Y228.705 Z-6.750
G1 X115.157 Y228.760 Z-6.750
G1 X115.402 Y228.858 Z-6.750
G1 X115.634 Y228.997 Z-6.750
G1 X115.844 Y229.174 Z-6.750
G1 X116.021 Y229.383 Z-6.750
G1 X116.160 Y229.616 Z-6.750
G1 X116.257 Y229.861 Z-6.750
G1 X116.313 Y230.109 Z-6.750
G1 X116.331 Y230.350 Z-6.750
G0 X116.331 Y230.350
G0 Z6.000
G0 X115.061 Y230.350
G0 Z6.000
G1 X115.061 Y230.350 Z-7.500 F254.0
G1 X115.056 Y230.406 Z-7.500 F177.8
G1 X115.043 Y230.465 Z-7.500
G1 X115.020 Y230.523 Z-7.500
G1 X114.988 Y230.578 Z-7.500
G1 X114.946 Y230.627 Z-7.500
G1 X114.896 Y230.669 Z-7.500
G1 X114.841 Y230.702 Z-7.500
G1 X114.783 Y230.725 Z-7.500
G1 X114.725 Y230.738 Z-7.500
G1 X114.668 Y230.742 Z-7.500
G1 X114.611 Y230.738 Z-7.500
G1 X114.553 Y230.725 Z-7.500
G1 X114.495 Y230.702 Z-7.500
G1 X114.440 Y230.669 Z-7.500
G1 X114.391 Y230.627 Z-7.500
G1 X114.349 Y230.578 Z-7.500
G1 X114.316 Y230.523 Z-7.500
G1 X114.293 Y230.465 Z-7.500
G1 X114.280 Y230.406 Z-7.500
G1 X114.276 Y230.350 Z-7.500
G1 X114.280 Y230.293 Z-7.500
G1 X114.293 Y230.234 Z-7.500
G1 X114.316 Y230.176 Z-7.500
G1 X114.349 Y230.121 Z-7.500
G1 X114.391 Y230.072 Z-7.500
G1 X114.440 Y230.030 Z-7.500
G1 X114.495 Y229.997 Z-7.500
G1 X114.553 Y229.974 Z-7.500
G1 X114.611 Y229.961 Z-7.500
G1 X114.668 Y229.957 Z-7.500
G1 X114.725 Y229.961 Z-7.500
G1 X114.783 Y229.974 Z-7.500
G1 X114.841 Y229.997 Z-7.500
G1 X114.896 Y230.030 Z-7.500
G1 X114.946 Y230.072 Z-7.500
G1 X114.988 Y230.121 Z-7.500
G1 X115.020 Y230.176 Z-7.500
G1 X115.043 Y230.234 Z-7.500
G1 X115.056 Y230.293 Z-7.500
G1 X115.061 Y230.350 Z-7.500
G1 X116.331 Y230.350 Z-7.500
G1 X116.313 Y230.590 Z-7.500
G1 X116.257 Y230.838 Z-7.500
G1 X116.160 Y231.083 Z-7.500
G1 X116.021 Y231.316 Z-7.500
G1 X115.844 Y231.525 Z-7.500
G1 X115.634 Y231.703 Z-7.500
G1 X115.402 Y231.841 Z-7.500
G1 X115.157 Y231.939 Z-7.500
G1 X114.909 Y231.995 Z-7.500
G1 X114.668 Y232.012 Z-7.500
G1 X114.427 Y231.995 Z-7.500
G1 X114.180 Y231.939 Z-7.500
G1 X113.934 Y231.841 Z-7.500
G1 X113.702 Y231.703 Z-7.500
G1 X113.493 Y231.525 Z-7.500
G1 X113.315 Y231.316 Z-7.500
G1 X113.176 Y231.083 Z-7.500
G1 X113.079 Y230.838 Z-7.500
G1 X113.023 Y230.590 Z-7.500
G1 X113.006 Y230.350 Z-7.500
G1 X113.023 Y230.109 Z-7.500
G1 X113.079 Y229.861 Z-7.500
G1 X113.176 Y229.616 Z-7.500
G1 X113.315 Y229.383 Z-7.500
G1 X113.493 Y229.174 Z-7.500
G1 X113.702 Y228.997 Z-7.500
G1 X113.934 Y228.858 Z-7.500
G1 X114.180 Y228.760 Z-7.500
G1 X114.427 Y228.705 Z-7.500
G1 X114.668 Y228.687 Z-7.500
G1 X114.909 Y228.705 Z-7.500
G1 X115.157 Y228.760 Z-7.500
G1 X115.402 Y228.858 Z-7.500
G1 X115.634 Y228.997 Z-7.500
G1 X115.844 Y229.174 Z-7.500
G1 X116.021 Y229.383 Z-7.500
G1 X116.160 Y229.616 Z-7.500
G1 X116.257 Y229.861 Z-7.500
G1 X116.313 Y230.109 Z-7.500
G1 X116.331 Y230.350 Z-7.500
G0 X116.331 Y230.350
G0 Z6.000
G0 X115.061 Y230.350
G0 Z6.000
G1 X115.061 Y230.350 Z-8.250 F254.0
G1 X115.056 Y230.406 Z-8.250 F177.8
G1 X115.043 Y230.465 Z-8.250
G1 X115.020 Y230.523 Z-8.250
G1 X114.988 Y230.578 Z-8.250
G1 X114.946 Y230.627 Z-8.250
G1 X114.896 Y230.669 Z-8.250
G1 X114.841 Y230.702 Z-8.250
G1 X114.783 Y230.725 Z-8.250
G1 X114.725 Y230.738 Z-8.250
G1 X114.668 Y230.742 Z-8.250
G1 X114.611 Y230.738 Z-8.250
G1 X114.553 Y230.725 Z-8.250
G1 X114.495 Y230.702 Z-8.250
G1 X114.440 Y230.669 Z-8.250
G1 X114.391 Y230.627 Z-8.250
G1 X114.349 Y230.578 Z-8.250
G1 X114.316 Y230.523 Z-8.250
G1 X114.293 Y230.465 Z-8.250
G1 X114.280 Y230.406 Z-8.250
G1 X114.276 Y230.350 Z-8.250
G1 X114.280 Y230.293 Z-8.250
G1 X114.293 Y230.234 Z-8.250
G1 X114.316 Y230.176 Z-8.250
G1 X114.349 Y230.121 Z-8.250
G1 X114.391 Y230.072 Z-8.250
G1 X114.440 Y230.030 Z-8.250
G1 X114.495 Y229.997 Z-8.250
G1 X114.553 Y229.974 Z-8.250
G1 X114.611 Y229.961 Z-8.250
G1 X114.668 Y229.957 Z-8.250
G1 X114.725 Y229.961 Z-8.250
G1 X114.783 Y229.974 Z-8.250
G1 X114.841 Y229.997 Z-8.250
G1 X114.896 Y230.030 Z-8.250
G1 X114.946 Y230.072 Z-8.250
G1 X114.988 Y230.121 Z-8.250
G1 X115.020 Y230.176 Z-8.250
G1 X115.043 Y230.234 Z-8.250
G1 X115.056 Y230.293 Z-8.250
G1 X115.061 Y230.350 Z-8.250
G1 X116.331 Y230.350 Z-8.250
G1 X116.313 Y230.590 Z-8.250
G1 X116.257 Y230.838 Z-8.250
G1 X116.160 Y231.083 Z-8.250
G1 X116.021 Y231.316 Z-8.250
G1 X115.844 Y231.525 Z-8.250
G1 X115.634 Y231.703 Z-8.250
G1 X115.402 Y231.841 Z-8.250
G1 X115.157 Y231.939 Z-8.250
G1 X114.909 Y231.995 Z-8.250
G1 X114.668 Y232.012 Z-8.250
G1 X114.427 Y231.995 Z-8.250
G1 X114.180 Y231.939 Z-8.250
G1 X113.934 Y231.841 Z-8.250
G1 X113.702 Y231.703 Z-8.250
G1 X113.493 Y231.525 Z-8.250
G1 X113.315 Y231.316 Z-8.250
G1 X113.176 Y231.083 Z-8.250
G1 X113.079 Y230.838 Z-8.250
G1 X113.023 Y230.590 Z-8.250
G1 X113.006 Y230.350 Z-8.250
G1 X113.023 Y230.109 Z-8.250
G1 X113.079 Y229.861 Z-8.250
G1 X113.176 Y229.616 Z-8.250
G1 X113.315 Y229.383 Z-8.250
G1 X113.493 Y229.174 Z-8.250
G1 X113.702 Y228.997 Z-8.250
G1 X113.934 Y228.858 Z-8.250
G1 X114.180 Y228.760 Z-8.250
G1 X114.427 Y228.705 Z-8.250
G1 X114.668 Y228.687 Z-8.250
G1 X114.909 Y228.705 Z-8.250
G1 X115.157 Y228.760 Z-8.250
G1 X115.402 Y228.858 Z-8.250
G1 X115.634 Y228.997 Z-8.250
G1 X115.844 Y229.174 Z-8.250
G1 X116.021 Y229.383 Z-8.250
G1 X116.160 Y229.616 Z-8.250
G1 X116.257 Y229.861 Z-8.250
G1 X116.313 Y230.109 Z-8.250
G1 X116.331 Y230.350 Z-8.250
G0 X116.331 Y230.350
G0 Z6.000
G0 X115.061 Y230.350
G0 Z6.000
G1 X115.061 Y230.350 Z-9.000 F254.0
G1 X115.056 Y230.406 Z-9.000 F177.8
G1 X115.043 Y230.465 Z-9.000
G1 X115.020 Y230.523 Z-9.000
G1 X114.988 Y230.578 Z-9.000
G1 X114.946 Y230.627 Z-9.000
G1 X114.896 Y230.669 Z-9.000
G1 X114.841 Y230.702 Z-9.000
G1 X114.783 Y230.725 Z-9.000
G1 X114.725 Y230.738 Z-9.000
G1 X114.668 Y230.742 Z-9.000
G1 X114.611 Y230.738 Z-9.000
G1 X114.553 Y230.725 Z-9.000
G1 X114.495 Y230.702 Z-9.000
G1 X114.440 Y230.669 Z-9.000
G1 X114.391 Y230.627 Z-9.000
G1 X114.349 Y230.578 Z-9.000
G1 X114.316 Y230.523 Z-9.000
G1 X114.293 Y230.465 Z-9.000
G1 X114.280 Y230.406 Z-9.000
G1 X114.276 Y230.350 Z-9.000
G1 X114.280 Y230.293 Z-9.000
G1 X114.293 Y230.234 Z-9.000
G1 X114.316 Y230.176 Z-9.000
G1 X114.349 Y230.121 Z-9.000
G1 X114.391 Y230.072 Z-9.000
G1 X114.440 Y230.030 Z-9.000
G1 X114.495 Y229.997 Z-9.000
G1 X114.553 Y229.974 Z-9.000
G1 X114.611 Y229.961 Z-9.000
G1 X114.668 Y229.957 Z-9.000
G1 X114.725 Y229.961 Z-9.000
G1 X114.783 Y229.974 Z-9.000
G1 X114.841 Y229.997 Z-9.000
G1 X114.896 Y230.030 Z-9.000
G1 X114.946 Y230.072 Z-9.000
G1 X114.988 Y230.121 Z-9.000
G1 X115.020 Y230.176 Z-9.000
G1 X115.043 Y230.234 Z-9.000
G1 X115.056 Y230.293 Z-9.000
G1 X115.061 Y230.350 Z-9.000
G1 X116.331 Y230.350 Z-9.000
G1 X116.313 Y230.590 Z-9.000
G1 X116.257 Y230.838 Z-9.000
G1 X116.160 Y231.083 Z-9.000
G1 X116.021 Y231.316 Z-9.000
G1 X115.844 Y231.525 Z-9.000
G1 X115.634 Y231.703 Z-9.000
G1 X115.402 Y231.841 Z-9.000
G1 X115.157 Y231.939 Z-9.000
G1 X114.909 Y231.995 Z-9.000
G1 X114.668 Y232.012 Z-9.000
G1 X114.427 Y231.995 Z-9.000
G1 X114.180 Y231.939 Z-9.000
G1 X113.934 Y231.841 Z-9.000
G1 X113.702 Y231.703 Z-9.000
G1 X113.493 Y231.525 Z-9.000
G1 X113.315 Y231.316 Z-9.000
G1 X113.176 Y231.083 Z-9.000
G1 X113.079 Y230.838 Z-9.000
G1 X113.023 Y230.590 Z-9.000
G1 X113.006 Y230.350 Z-9.000
G1 X113.023 Y230.109 Z-9.000
G1 X113.079 Y229.861 Z-9.000
G1 X113.176 Y229.616 Z-9.000
G1 X113.315 Y229.383 Z-9.000
G1 X113.493 Y229.174 Z-9.000
G1 X113.702 Y228.997 Z-9.000
G1 X113.934 Y228.858 Z-9.000
G1 X114.180 Y228.760 Z-9.000
G1 X114.427 Y228.705 Z-9.000
G1 X114.668 Y228.687 Z-9.000
G1 X114.909 Y228.705 Z-9.000
G1 X115.157 Y228.760 Z-9.000
G1 X115.402 Y228.858 Z-9.000
G1 X115.634 Y228.997 Z-9.000
G1 X115.844 Y229.174 Z-9.000
G1 X116.021 Y229.383 Z-9.000
G1 X116.160 Y229.616 Z-9.000
G1 X116.257 Y229.861 Z-9.000
G1 X116.313 Y230.109 Z-9.000
G1 X116.331 Y230.350 Z-9.000
G0 X116.331 Y230.350
G0 Z6.000
G0 X115.061 Y230.350
G0 Z6.000
G1 X115.061 Y230.350 Z-9.750 F254.0
G1 X115.056 Y230.406 Z-9.750 F177.8
G1 X115.043 Y230.465 Z-9.750
G1 X115.020 Y230.523 Z-9.750
G1 X114.988 Y230.578 Z-9.750
G1 X114.946 Y230.627 Z-9.750
G1 X114.896 Y230.669 Z-9.750
G1 X114.841 Y230.702 Z-9.750
G1 X114.783 Y230.725 Z-9.750
G1 X114.725 Y230.738 Z-9.750
G1 X114.668 Y230.742 Z-9.750
G1 X114.611 Y230.738 Z-9.750
G1 X114.553 Y230.725 Z-9.750
G1 X114.495 Y230.702 Z-9.750
G1 X114.440 Y230.669 Z-9.750
G1 X114.391 Y230.627 Z-9.750
G1 X114.349 Y230.578 Z-9.750
G1 X114.316 Y230.523 Z-9.750
G1 X114.293 Y230.465 Z-9.750
G1 X114.280 Y230.406 Z-9.750
G1 X114.276 Y230.350 Z-9.750
G1 X114.280 Y230.293 Z-9.750
G1 X114.293 Y230.234 Z-9.750
G1 X114.316 Y230.176 Z-9.750
G1 X114.349 Y230.121 Z-9.750
G1 X114.391 Y230.072 Z-9.750
G1 X114.440 Y230.030 Z-9.750
G1 X114.495 Y229.997 Z-9.750
G1 X114.553 Y229.974 Z-9.750
G1 X114.611 Y229.961 Z-9.750
G1 X114.668 Y229.957 Z-9.750
G1 X114.725 Y229.961 Z-9.750
G1 X114.783 Y229.974 Z-9.750
G1 X114.841 Y229.997 Z-9.750
G1 X114.896 Y230.030 Z-9.750
G1 X114.946 Y230.072 Z-9.750
G1 X114.988 Y230.121 Z-9.750
G1 X115.020 Y230.176 Z-9.750
G1 X115.043 Y230.234 Z-9.750
G1 X115.056 Y230.293 Z-9.750
G1 X115.061 Y230.350 Z-9.750
G1 X116.331 Y230.350 Z-9.750
G1 X116.313 Y230.590 Z-9.750
G1 X116.257 Y230.838 Z-9.750
G1 X116.160 Y231.083 Z-9.750
G1 X116.021 Y231.316 Z-9.750
G1 X115.844 Y231.525 Z-9.750
G1 X115.634 Y231.703 Z-9.750
G1 X115.402 Y231.841 Z-9.750
G1 X115.157 Y231.939 Z-9.750
G1 X114.909 Y231.995 Z-9.750
G1 X114.668 Y232.012 Z-9.750
G1 X114.427 Y231.995 Z-9.750
G1 X114.180 Y231.939 Z-9.750
G1 X113.934 Y231.841 Z-9.750
G1 X113.702 Y231.703 Z-9.750
G1 X113.493 Y231.525 Z-9.750
G1 X113.315 Y231.316 Z-9.750
G1 X113.176 Y231.083 Z-9.750
G1 X113.079 Y230.838 Z-9.750
G1 X113.023 Y230.590 Z-9.750
G1 X113.006 Y230.350 Z-9.750
G1 X113.023 Y230.109 Z-9.750
G1 X113.079 Y229.861 Z-9.750
G1 X113.176 Y229.616 Z-9.750
G1 X113.315 Y229.383 Z-9.750
G1 X113.493 Y229.174 Z-9.750
G1 X113.702 Y228.997 Z-9.750
G1 X113.934 Y228.858 Z-9.750
G1 X114.180 Y228.760 Z-9.750
G1 X114.427 Y228.705 Z-9.750
G1 X114.668 Y228.687 Z-9.750
G1 X114.909 Y228.705 Z-9.750
G1 X115.157 Y228.760 Z-9.750
G1 X115.402 Y228.858 Z-9.750
G1 X115.634 Y228.997 Z-9.750
G1 X115.844 Y229.174 Z-9.750
G1 X116.021 Y229.383 Z-9.750
G1 X116.160 Y229.616 Z-9.750
G1 X116.257 Y229.861 Z-9.750
G1 X116.313 Y230.109 Z-9.750
G1 X116.331 Y230.350 Z-9.750
G0 X116.331 Y230.350
G0 Z6.000
G0 X115.061 Y230.350
G0 Z6.000
G1 X115.061 Y230.350 Z-10.500 F254.0
G1 X115.056 Y230.406 Z-10.500 F177.8
G1 X115.043 Y230.465 Z-10.500
G1 X115.020 Y230.523 Z-10.500
G1 X114.988 Y230.578 Z-10.500
G1 X114.946 Y230.627 Z-10.500
G1 X114.896 Y230.669 Z-10.500
G1 X114.841 Y230.702 Z-10.500
G1 X114.783 Y230.725 Z-10.500
G1 X114.725 Y230.738 Z-10.500
G1 X114.668 Y230.742 Z-10.500
G1 X114.611 Y230.738 Z-10.500
G1 X114.553 Y230.725 Z-10.500
G1 X114.495 Y230.702 Z-10.500
G1 X114.440 Y230.669 Z-10.500
G1 X114.391 Y230.627 Z-10.500
G1 X114.349 Y230.578 Z-10.500
G1 X114.316 Y230.523 Z-10.500
G1 X114.293 Y230.465 Z-10.500
G1 X114.280 Y230.406 Z-10.500
G1 X114.276 Y230.350 Z-10.500
G1 X114.280 Y230.293 Z-10.500
G1 X114.293 Y230.234 Z-10.500
G1 X114.316 Y230.176 Z-10.500
G1 X114.349 Y230.121 Z-10.500
G1 X114.391 Y230.072 Z-10.500
G1 X114.440 Y230.030 Z-10.500
G1 X114.495 Y229.997 Z-10.500
G1 X114.553 Y229.974 Z-10.500
G1 X114.611 Y229.961 Z-10.500
G1 X114.668 Y229.957 Z-10.500
G1 X114.725 Y229.961 Z-10.500
G1 X114.783 Y229.974 Z-10.500
G1 X114.841 Y229.997 Z-10.500
G1 X114.896 Y230.030 Z-10.500
G1 X114.946 Y230.072 Z-10.500
G1 X114.988 Y230.121 Z-10.500
G1 X115.020 Y230.176 Z-10.500
G1 X115.043 Y230.234 Z-10.500
G1 X115.056 Y230.293 Z-10.500
G1 X115.061 Y230.350 Z-10.500
G1 X116.331 Y230.350 Z-10.500
G1 X116.313 Y230.590 Z-10.500
G1 X116.257 Y230.838 Z-10.500
G1 X116.160 Y231.083 Z-10.500
G1 X116.021 Y231.316 Z-10.500
G1 X115.844 Y231.525 Z-10.500
G1 X115.634 Y231.703 Z-10.500
G1 X115.402 Y231.841 Z-10.500
G1 X115.157 Y231.939 Z-10.500
G1 X114.909 Y231.995 Z-10.500
G1 X114.668 Y232.012 Z-10.500
G1 X114.427 Y231.995 Z-10.500
G1 X114.180 Y231.939 Z-10.500
G1 X113.934 Y231.841 Z-10.500
G1 X113.702 Y231.703 Z-10.500
G1 X113.493 Y231.525 Z-10.500
G1 X113.315 Y231.316 Z-10.500
G1 X113.176 Y231.083 Z-10.500
G1 X113.079 Y230.838 Z-10.500
G1 X113.023 Y230.590 Z-10.500
G1 X113.006 Y230.350 Z-10.500
G1 X113.023 Y230.109 Z-10.500
G1 X113.079 Y229.861 Z-10.500
G1 X113.176 Y229.616 Z-10.500
G1 X113.315 Y229.383 Z-10.500
G1 X113.493 Y229.174 Z-10.500
G1 X113.702 Y228.997 Z-10.500
G1 X113.934 Y228.858 Z-10.500
G1 X114.180 Y228.760 Z-10.500
G1 X114.427 Y228.705 Z-10.500
G1 X114.668 Y228.687 Z-10.500
G1 X114.909 Y228.705 Z-10.500
G1 X115.157 Y228.760 Z-10.500
G1 X115.402 Y228.858 Z-10.500
G1 X115.634 Y228.997 Z-10.500
G1 X115.844 Y229.174 Z-10.500
G1 X116.021 Y229.383 Z-10.500
G1 X116.160 Y229.616 Z-10.500
G1 X116.257 Y229.861 Z-10.500
G1 X116.313 Y230.109 Z-10.500
G1 X116.331 Y230.350 Z-10.500
G0 X116.331 Y230.350
G0 Z6.000
G0 X115.061 Y230.350
G0 Z6.000
G1 X115.061 Y230.350 Z-11.250 F254.0
G1 X115.056 Y230.406 Z-11.250 F177.8
G1 X115.043 Y230.465 Z-11.250
G1 X115.020 Y230.523 Z-11.250
G1 X114.988 Y230.578 Z-11.250
G1 X114.946 Y230.627 Z-11.250
G1 X114.896 Y230.669 Z-11.250
G1 X114.841 Y230.702 Z-11.250
G1 X114.783 Y230.725 Z-11.250
G1 X114.725 Y230.738 Z-11.250
G1 X114.668 Y230.742 Z-11.250
G1 X114.611 Y230.738 Z-11.250
G1 X114.553 Y230.725 Z-11.250
G1 X114.495 Y230.702 Z-11.250
G1 X114.440 Y230.669 Z-11.250
G1 X114.391 Y230.627 Z-11.250
G1 X114.349 Y230.578 Z-11.250
G1 X114.316 Y230.523 Z-11.250
G1 X114.293 Y230.465 Z-11.250
G1 X114.280 Y230.406 Z-11.250
G1 X114.276 Y230.350 Z-11.250
G1 X114.280 Y230.293 Z-11.250
G1 X114.293 Y230.234 Z-11.250
G1 X114.316 Y230.176 Z-11.250
G1 X114.349 Y230.121 Z-11.250
G1 X114.391 Y230.072 Z-11.250
G1 X114.440 Y230.030 Z-11.250
G1 X114.495 Y229.997 Z-11.250
G1 X114.553 Y229.974 Z-11.250
G1 X114.611 Y229.961 Z-11.250
G1 X114.668 Y229.957 Z-11.250
G1 X114.725 Y229.961 Z-11.250
G1 X114.783 Y229.974 Z-11.250
G1 X114.841 Y229.997 Z-11.250
G1 X114.896 Y230.030 Z-11.250
G1 X114.946 Y230.072 Z-11.250
G1 X114.988 Y230.121 Z-11.250
G1 X115.020 Y230.176 Z-11.250
G1 X115.043 Y230.234 Z-11.250
G1 X115.056 Y230.293 Z-11.250
G1 X115.061 Y230.350 Z-11.250
G1 X116.331 Y230.350 Z-11.250
G1 X116.313 Y230.590 Z-11.250
G1 X116.257 Y230.838 Z-11.250
G1 X116.160 Y231.083 Z-11.250
G1 X116.021 Y231.316 Z-11.250
G1 X115.844 Y231.525 Z-11.250
G1 X115.634 Y231.703 Z-11.250
G1 X115.402 Y231.841 Z-11.250
G1 X115.157 Y231.939 Z-11.250
G1 X114.909 Y231.995 Z-11.250
G1 X114.668 Y232.012 Z-11.250
G1 X114.427 Y231.995 Z-11.250
G1 X114.180 Y231.939 Z-11.250
G1 X113.934 Y231.841 Z-11.250
G1 X113.702 Y231.703 Z-11.250
G1 X113.493 Y231.525 Z-11.250
G1 X113.315 Y231.316 Z-11.250
G1 X113.176 Y231.083 Z-11.250
G1 X113.079 Y230.838 Z-11.250
G1 X113.023 Y230.590 Z-11.250
G1 X113.006 Y230.350 Z-11.250
G1 X113.023 Y230.109 Z-11.250
G1 X113.079 Y229.861 Z-11.250
G1 X113.176 Y229.616 Z-11.250
G1 X113.315 Y229.383 Z-11.250
G1 X113.493 Y229.174 Z-11.250
G1 X113.702 Y228.997 Z-11.250
G1 X113.934 Y228.858 Z-11.250
G1 X114.180 Y228.760 Z-11.250
G1 X114.427 Y228.705 Z-11.250
G1 X114.668 Y228.687 Z-11.250
G1 X114.909 Y228.705 Z-11.250
G1 X115.157 Y228.760 Z-11.250
G1 X115.402 Y228.858 Z-11.250
G1 X115.634 Y228.997 Z-11.250
G1 X115.844 Y229.174 Z-11.250
G1 X116.021 Y229.383 Z-11.250
G1 X116.160 Y229.616 Z-11.250
G1 X116.257 Y229.861 Z-11.250
G1 X116.313 Y230.109 Z-11.250
G1 X116.331 Y230.350 Z-11.250
G0 X116.331 Y230.350
G0 Z6.000
G0 X115.061 Y230.350
G0 Z6.000
G1 X115.061 Y230.350 Z-12.000 F254.0
G1 X115.056 Y230.406 Z-12.000 F177.8
G1 X115.043 Y230.465 Z-12.000
G1 X115.020 Y230.523 Z-12.000
G1 X114.988 Y230.578 Z-12.000
G1 X114.946 Y230.627 Z-12.000
G1 X114.896 Y230.669 Z-12.000
G1 X114.841 Y230.702 Z-12.000
G1 X114.783 Y230.725 Z-12.000
G1 X114.725 Y230.738 Z-12.000
G1 X114.668 Y230.742 Z-12.000
G1 X114.611 Y230.738 Z-12.000
G1 X114.553 Y230.725 Z-12.000
G1 X114.495 Y230.702 Z-12.000
G1 X114.440 Y230.669 Z-12.000
G1 X114.391 Y230.627 Z-12.000
G1 X114.349 Y230.578 Z-12.000
G1 X114.316 Y230.523 Z-12.000
G1 X114.293 Y230.465 Z-12.000
G1 X114.280 Y230.406 Z-12.000
G1 X114.276 Y230.350 Z-12.000
G1 X114.280 Y230.293 Z-12.000
G1 X114.293 Y230.234 Z-12.000
G1 X114.316 Y230.176 Z-12.000
G1 X114.349 Y230.121 Z-12.000
G1 X114.391 Y230.072 Z-12.000
G1 X114.440 Y230.030 Z-12.000
G1 X114.495 Y229.997 Z-12.000
G1 X114.553 Y229.974 Z-12.000
G1 X114.611 Y229.961 Z-12.000
G1 X114.668 Y229.957 Z-12.000
G1 X114.725 Y229.961 Z-12.000
G1 X114.783 Y229.974 Z-12.000
G1 X114.841 Y229.997 Z-12.000
G1 X114.896 Y230.030 Z-12.000
G1 X114.946 Y230.072 Z-12.000
G1 X114.988 Y230.121 Z-12.000
G1 X115.020 Y230.176 Z-12.000
G1 X115.043 Y230.234 Z-12.000
G1 X115.056 Y230.293 Z-12.000
G1 X115.061 Y230.350 Z-12.000
G1 X116.331 Y230.350 Z-12.000
G1 X116.313 Y230.590 Z-12.000
G1 X116.257 Y230.838 Z-12.000
G1 X116.160 Y231.083 Z-12.000
G1 X116.021 Y231.316 Z-12.000
G1 X115.844 Y231.525 Z-12.000
G1 X115.634 Y231.703 Z-12.000
G1 X115.402 Y231.841 Z-12.000
G1 X115.157 Y231.939 Z-12.000
G1 X114.909 Y231.995 Z-12.000
G1 X114.668 Y232.012 Z-12.000
G1 X114.427 Y231.995 Z-12.000
G1 X114.180 Y231.939 Z-12.000
G1 X113.934 Y231.841 Z-12.000
G1 X113.702 Y231.703 Z-12.000
G1 X113.493 Y231.525 Z-12.000
G1 X113.315 Y231.316 Z-12.000
G1 X113.176 Y231.083 Z-12.000
G1 X113.079 Y230.838 Z-12.000
G1 X113.023 Y230.590 Z-12.000
G1 X113.006 Y230.350 Z-12.000
G1 X113.023 Y230.109 Z-12.000
G1 X113.079 Y229.861 Z-12.000
G1 X113.176 Y229.616 Z-12.000
G1 X113.315 Y229.383 Z-12.000
G1 X113.493 Y229.174 Z-12.000
G1 X113.702 Y228.997 Z-12.000
G1 X113.934 Y228.858 Z-12.000
G1 X114.180 Y228.760 Z-12.000
G1 X114.427 Y228.705 Z-12.000
G1 X114.668 Y228.687 Z-12.000
G1 X114.909 Y228.705 Z-12.000
G1 X115.157 Y228.760 Z-12.000
G1 X115.402 Y228.858 Z-12.000
G1 X115.634 Y228.997 Z-12.000
G1 X115.844 Y229.174 Z-12.000
G1 X116.021 Y229.383 Z-12.000
G1 X116.160 Y229.616 Z-12.000
G1 X116.257 Y229.861 Z-12.000
G1 X116.313 Y230.109 Z-12.000
G1 X116.331 Y230.350 Z-12.000
G0 X116.331 Y230.350
G0 Z6.000
G0 X115.061 Y230.350
G0 Z6.000
G1 X115.061 Y230.350 Z-12.750 F254.0
G1 X115.056 Y230.406 Z-12.750 F177.8
G1 X115.043 Y230.465 Z-12.750
G1 X115.020 Y230.523 Z-12.750
G1 X114.988 Y230.578 Z-12.750
G1 X114.946 Y230.627 Z-12.750
G1 X114.896 Y230.669 Z-12.750
G1 X114.841 Y230.702 Z-12.750
G1 X114.783 Y230.725 Z-12.750
G1 X114.725 Y230.738 Z-12.750
G1 X114.668 Y230.742 Z-12.750
G1 X114.611 Y230.738 Z-12.750
G1 X114.553 Y230.725 Z-12.750
G1 X114.495 Y230.702 Z-12.750
G1 X114.440 Y230.669 Z-12.750
G1 X114.391 Y230.627 Z-12.750
G1 X114.349 Y230.578 Z-12.750
G1 X114.316 Y230.523 Z-12.750
G1 X114.293 Y230.465 Z-12.750
G1 X114.280 Y230.406 Z-12.750
G1 X114.276 Y230.350 Z-12.750
G1 X114.280 Y230.293 Z-12.750
G1 X114.293 Y230.234 Z-12.750
G1 X114.316 Y230.176 Z-12.750
G1 X114.349 Y230.121 Z-12.750
G1 X114.391 Y230.072 Z-12.750
G1 X114.440 Y230.030 Z-12.750
G1 X114.495 Y229.997 Z-12.750
G1 X114.553 Y229.974 Z-12.750
G1 X114.611 Y229.961 Z-12.750
G1 X114.668 Y229.957 Z-12.750
G1 X114.725 Y229.961 Z-12.750
G1 X114.783 Y229.974 Z-12.750
G1 X114.841 Y229.997 Z-12.750
G1 X114.896 Y230.030 Z-12.750
G1 X114.946 Y230.072 Z-12.750
G1 X114.988 Y230.121 Z-12.750
G1 X115.020 Y230.176 Z-12.750
G1 X115.043 Y230.234 Z-12.750
G1 X115.056 Y230.293 Z-12.750
G1 X115.061 Y230.350 Z-12.750
G1 X116.331 Y230.350 Z-12.750
G1 X116.313 Y230.590 Z-12.750
G1 X116.257 Y230.838 Z-12.750
G1 X116.160 Y231.083 Z-12.750
G1 X116.021 Y231.316 Z-12.750
G1 X115.844 Y231.525 Z-12.750
G1 X115.634 Y231.703 Z-12.750
G1 X115.402 Y231.841 Z-12.750
G1 X115.157 Y231.939 Z-12.750
G1 X114.909 Y231.995 Z-12.750
G1 X114.668 Y232.012 Z-12.750
G1 X114.427 Y231.995 Z-12.750
G1 X114.180 Y231.939 Z-12.750
G1 X113.934 Y231.841 Z-12.750
G1 X113.702 Y231.703 Z-12.750
G1 X113.493 Y231.525 Z-12.750
G1 X113.315 Y231.316 Z-12.750
G1 X113.176 Y231.083 Z-12.750
G1 X113.079 Y230.838 Z-12.750
G1 X113.023 Y230.590 Z-12.750
G1 X113.006 Y230.350 Z-12.750
G1 X113.023 Y230.109 Z-12.750
G1 X113.079 Y229.861 Z-12.750
G1 X113.176 Y229.616 Z-12.750
G1 X113.315 Y229.383 Z-12.750
G1 X113.493 Y229.174 Z-12.750
G1 X113.702 Y228.997 Z-12.750
G1 X113.934 Y228.858 Z-12.750
G1 X114.180 Y228.760 Z-12.750
G1 X114.427 Y228.705 Z-12.750
G1 X114.668 Y228.687 Z-12.750
G1 X114.909 Y228.705 Z-12.750
G1 X115.157 Y228.760 Z-12.750
G1 X115.402 Y228.858 Z-12.750
G1 X115.634 Y228.997 Z-12.750
G1 X115.844 Y229.174 Z-12.750
G1 X116.021 Y229.383 Z-12.750
G1 X116.160 Y229.616 Z-12.750
G1 X116.257 Y229.861 Z-12.750
G1 X116.313 Y230.109 Z-12.750
G1 X116.331 Y230.350 Z-12.750
G0 X116.331 Y230.350
G0 Z6.000
G0 X115.061 Y230.350
G0 Z6.000
G1 X115.061 Y230.350 Z-13.500 F254.0
