(VECTRIC POST REVISION)
(AE8C5706166A14C0DE23454C54EBD95B)
%
G21
G40
G94
G97
G64
G90
T3 M6
M8
M3 S17000
G0 X47.675 Y49.435
G0 Z6.000
G1 X47.675 Y49.435 Z-0.750 F254.0
G1 X47.627 Y49.417 Z-0.750 F177.8
G1 X47.579 Y49.392 Z-0.750
G1 X47.533 Y49.359 Z-0.750
G1 X47.492 Y49.319 Z-0.750
G1 X47.456 Y49.272 Z-0.750
G1 X47.428 Y49.221 Z-0.750
G1 X47.407 Y49.165 Z-0.750
G1 X47.396 Y49.109 Z-0.750
G1 X47.392 Y49.053 Z-0.750
G1 X47.397 Y48.999 Z-0.750
G1 X47.408 Y48.948 Z-0.750
G1 X47.428 Y48.895 Z-0.750
G1 X47.457 Y48.842 Z-0.750
G1 X47.495 Y48.793 Z-0.750
G1 X47.542 Y48.750 Z-0.750
G1 X47.596 Y48.714 Z-0.750
G1 X47.655 Y48.688 Z-0.750
G1 X47.717 Y48.671 Z-0.750
G1 X47.779 Y48.666 Z-0.750
G1 X47.839 Y48.669 Z-0.750
G1 X47.895 Y48.681 Z-0.750
G1 X47.948 Y48.701 Z-0.750
G1 X48.000 Y48.730 Z-0.750
G1 X48.050 Y48.768 Z-0.750
G1 X48.093 Y48.815 Z-0.750
G1 X48.129 Y48.869 Z-0.750
G1 X48.155 Y48.928 Z-0.750
G1 X48.171 Y48.990 Z-0.750
G1 X48.177 Y49.052 Z-0.750
G1 X48.174 Y49.112 Z-0.750
G1 X48.162 Y49.168 Z-0.750
G1 X48.142 Y49.221 Z-0.750
G1 X48.113 Y49.274 Z-0.750
G1 X48.075 Y49.323 Z-0.750
G1 X48.028 Y49.366 Z-0.750
G1 X47.974 Y49.402 Z-0.750
G1 X47.915 Y49.429 Z-0.750
G1 X47.853 Y49.445 Z-0.750
G1 X47.791 Y49.451 Z-0.750
G1 X47.731 Y49.447 Z-0.750
G1 X47.675 Y49.435 Z-0.750
G1 X47.320 Y50.654 Z-0.750
G1 X47.114 Y50.579 Z-0.750
G1 X46.911 Y50.473 Z-0.750
G1 X46.718 Y50.333 Z-0.750
G1 X46.543 Y50.163 Z-0.750
G1 X46.392 Y49.965 Z-0.750
G1 X46.271 Y49.746 Z-0.750
G1 X46.186 Y49.513 Z-0.750
G1 X46.136 Y49.273 Z-0.750
G1 X46.122 Y49.036 Z-0.750
G1 X46.141 Y48.807 Z-0.750
G1 X46.189 Y48.593 Z-0.750
G1 X46.273 Y48.367 Z-0.750
G1 X46.396 Y48.145 Z-0.750
G1 X46.558 Y47.937 Z-0.750
G1 X46.756 Y47.752 Z-0.750
G1 X46.985 Y47.601 Z-0.750
G1 X47.236 Y47.489 Z-0.750
G1 X47.498 Y47.421 Z-0.750
G1 X47.760 Y47.396 Z-0.750
G1 X48.013 Y47.411 Z-0.750
G1 X48.250 Y47.462 Z-0.750
G1 X48.476 Y47.546 Z-0.750
G1 X48.698 Y47.669 Z-0.750
G1 X48.906 Y47.831 Z-0.750
G1 X49.091 Y48.029 Z-0.750
G1 X49.242 Y48.258 Z-0.750
G1 X49.354 Y48.509 Z-0.750
G1 X49.422 Y48.771 Z-0.750
G1 X49.447 Y49.033 Z-0.750
G1 X49.432 Y49.287 Z-0.750
G1 X49.381 Y49.523 Z-0.750
G1 X49.297 Y49.749 Z-0.750
G1 X49.174 Y49.971 Z-0.750
G1 X49.012 Y50.180 Z-0.750
G1 X48.814 Y50.364 Z-0.750
G1 X48.585 Y50.515 Z-0.750
G1 X48.334 Y50.627 Z-0.750
G1 X48.072 Y50.696 Z-0.750
G1 X47.810 Y50.720 Z-0.750
G1 X47.556 Y50.705 Z-0.750
G1 X47.320 Y50.654 Z-0.750
G0 X47.320 Y50.654
G0 Z6.000
G0 X47.675 Y49.435
G0 Z6.000
G1 X47.675 Y49.435 Z-1.500 F254.0
G1 X47.627 Y49.417 Z-1.500 F177.8
G1 X47.579 Y49.392 Z-1.500
G1 X47.533 Y49.359 Z-1.500
G1 X47.492 Y49.319 Z-1.500
G1 X47.456 Y49.272 Z-1.500
G1 X47.428 Y49.221 Z-1.500
G1 X47.407 Y49.165 Z-1.500
G1 X47.396 Y49.109 Z-1.500
G1 X47.392 Y49.053 Z-1.500
G1 X47.397 Y48.999 Z-1.500
G1 X47.408 Y48.948 Z-1.500
G1 X47.428 Y48.895 Z-1.500
G1 X47.457 Y48.842 Z-1.500
G1 X47.495 Y48.793 Z-1.500
G1 X47.542 Y48.750 Z-1.500
G1 X47.596 Y48.714 Z-1.500
G1 X47.655 Y48.688 Z-1.500
G1 X47.717 Y48.671 Z-1.500
G1 X47.779 Y48.666 Z-1.500
G1 X47.839 Y48.669 Z-1.500
G1 X47.895 Y48.681 Z-1.500
G1 X47.948 Y48.701 Z-1.500
G1 X48.000 Y48.730 Z-1.500
G1 X48.050 Y48.768 Z-1.500
G1 X48.093 Y48.815 Z-1.500
G1 X48.129 Y48.869 Z-1.500
G1 X48.155 Y48.928 Z-1.500
G1 X48.171 Y48.990 Z-1.500
G1 X48.177 Y49.052 Z-1.500
G1 X48.174 Y49.112 Z-1.500
G1 X48.162 Y49.168 Z-1.500
G1 X48.142 Y49.221 Z-1.500
G1 X48.113 Y49.274 Z-1.500
G1 X48.075 Y49.323 Z-1.500
G1 X48.028 Y49.366 Z-1.500
G1 X47.974 Y49.402 Z-1.500
G1 X47.915 Y49.429 Z-1.500
G1 X47.853 Y49.445 Z-1.500
G1 X47.791 Y49.451 Z-1.500
G1 X47.731 Y49.447 Z-1.500
G1 X47.675 Y49.435 Z-1.500
G1 X47.320 Y50.654 Z-1.500
G1 X47.114 Y50.579 Z-1.500
G1 X46.911 Y50.473 Z-1.500
G1 X46.718 Y50.333 Z-1.500
G1 X46.543 Y50.163 Z-1.500
G1 X46.392 Y49.965 Z-1.500
G1 X46.271 Y49.746 Z-1.500
G1 X46.186 Y49.513 Z-1.500
G1 X46.136 Y49.273 Z-1.500
G1 X46.122 Y49.036 Z-1.500
G1 X46.141 Y48.807 Z-1.500
G1 X46.189 Y48.593 Z-1.500
G1 X46.273 Y48.367 Z-1.500
G1 X46.396 Y48.145 Z-1.500
G1 X46.558 Y47.937 Z-1.500
G1 X46.756 Y47.752 Z-1.500
G1 X46.985 Y47.601 Z-1.500
G1 X47.236 Y47.489 Z-1.500
G1 X47.498 Y47.421 Z-1.500
G1 X47.760 Y47.396 Z-1.500
G1 X48.013 Y47.411 Z-1.500
G1 X48.250 Y47.462 Z-1.500
G1 X48.476 Y47.546 Z-1.500
G1 X48.698 Y47.669 Z-1.500
G1 X48.906 Y47.831 Z-1.500
G1 X49.091 Y48.029 Z-1.500
G1 X49.242 Y48.258 Z-1.500
G1 X49.354 Y48.509 Z-1.500
G1 X49.422 Y48.771 Z-1.500
G1 X49.447 Y49.033 Z-1.500
G1 X49.432 Y49.287 Z-1.500
G1 X49.381 Y49.523 Z-1.500
G1 X49.297 Y49.749 Z-1.500
G1 X49.174 Y49.971 Z-1.500
G1 X49.012 Y50.180 Z-1.500
G1 X48.814 Y50.364 Z-1.500
G1 X48.585 Y50.515 Z-1.500
G1 X48.334 Y50.627 Z-1.500
G1 X48.072 Y50.696 Z-1.500
G1 X47.810 Y50.720 Z-1.500
G1 X47.556 Y50.705 Z-1.500
G1 X47.320 Y50.654 Z-1.500
G0 X47.320 Y50.654
G0 Z6.000
G0 X47.675 Y49.435
G0 Z6.000
G1 X47.675 Y49.435 Z-2.250 F254.0
G1 X47.627 Y49.417 Z-2.250 F177.8
G1 X47.579 Y49.392 Z-2.250
G1 X47.533 Y49.359 Z-2.250
G1 X47.492 Y49.319 Z-2.250
G1 X47.456 Y49.272 Z-2.250
G1 X47.428 Y49.221 Z-2.250
G1 X47.407 Y49.165 Z-2.250
G1 X47.396 Y49.109 Z-2.250
G1 X47.392 Y49.053 Z-2.250
G1 X47.397 Y48.999 Z-2.250
G1 X47.408 Y48.948 Z-2.250
G1 X47.428 Y48.895 Z-2.250
G1 X47.457 Y48.842 Z-2.250
G1 X47.495 Y48.793 Z-2.250
G1 X47.542 Y48.750 Z-2.250
G1 X47.596 Y48.714 Z-2.250
G1 X47.655 Y48.688 Z-2.250
G1 X47.717 Y48.671 Z-2.250
G1 X47.779 Y48.666 Z-2.250
G1 X47.839 Y48.669 Z-2.250
G1 X47.895 Y48.681 Z-2.250
G1 X47.948 Y48.701 Z-2.250
G1 X48.000 Y48.730 Z-2.250
G1 X48.050 Y48.768 Z-2.250
G1 X48.093 Y48.815 Z-2.250
G1 X48.129 Y48.869 Z-2.250
G1 X48.155 Y48.928 Z-2.250
G1 X48.171 Y48.990 Z-2.250
G1 X48.177 Y49.052 Z-2.250
G1 X48.174 Y49.112 Z-2.250
G1 X48.162 Y49.168 Z-2.250
G1 X48.142 Y49.221 Z-2.250
G1 X48.113 Y49.274 Z-2.250
G1 X48.075 Y49.323 Z-2.250
G1 X48.028 Y49.366 Z-2.250
G1 X47.974 Y49.402 Z-2.250
G1 X47.915 Y49.429 Z-2.250
G1 X47.853 Y49.445 Z-2.250
G1 X47.791 Y49.451 Z-2.250
G1 X47.731 Y49.447 Z-2.250
G1 X47.675 Y49.435 Z-2.250
G1 X47.320 Y50.654 Z-2.250
G1 X47.114 Y50.579 Z-2.250
G1 X46.911 Y50.473 Z-2.250
G1 X46.718 Y50.333 Z-2.250
G1 X46.543 Y50.163 Z-2.250
G1 X46.392 Y49.965 Z-2.250
G1 X46.271 Y49.746 Z-2.250
G1 X46.186 Y49.513 Z-2.250
G1 X46.136 Y49.273 Z-2.250
G1 X46.122 Y49.036 Z-2.250
G1 X46.141 Y48.807 Z-2.250
G1 X46.189 Y48.593 Z-2.250
G1 X46.273 Y48.367 Z-2.250
G1 X46.396 Y48.145 Z-2.250
G1 X46.558 Y47.937 Z-2.250
G1 X46.756 Y47.752 Z-2.250
G1 X46.985 Y47.601 Z-2.250
G1 X47.236 Y47.489 Z-2.250
G1 X47.498 Y47.421 Z-2.250
G1 X47.760 Y47.396 Z-2.250
G1 X48.013 Y47.411 Z-2.250
G1 X48.250 Y47.462 Z-2.250
G1 X48.476 Y47.546 Z-2.250
G1 X48.698 Y47.669 Z-2.250
G1 X48.906 Y47.831 Z-2.250
G1 X49.091 Y48.029 Z-2.250
G1 X49.242 Y48.258 Z-2.250
G1 X49.354 Y48.509 Z-2.250
G1 X49.422 Y48.771 Z-2.250
G1 X49.447 Y49.033 Z-2.250
G1 X49.432 Y49.287 Z-2.250
G1 X49.381 Y49.523 Z-2.250
G1 X49.297 Y49.749 Z-2.250
G1 X49.174 Y49.971 Z-2.250
G1 X49.012 Y50.180 Z-2.250
G1 X48.814 Y50.364 Z-2.250
G1 X48.585 Y50.515 Z-2.250
G1 X48.334 Y50.627 Z-2.250
G1 X48.072 Y50.696 Z-2.250
G1 X47.810 Y50.720 Z-2.250
G1 X47.556 Y50.705 Z-2.250
G1 X47.320 Y50.654 Z-2.250
G0 X47.320 Y50.654
G0 Z6.000
G0 X47.675 Y49.435
G0 Z6.000
G1 X47.675 Y49.435 Z-3.000 F254.0
G1 X47.627 Y49.417 Z-3.000 F177.8
G1 X47.579 Y49.392 Z-3.000
G1 X47.533 Y49.359 Z-3.000
G1 X47.492 Y49.319 Z-3.000
G1 X47.456 Y49.272 Z-3.000
G1 X47.428 Y49.221 Z-3.000
G1 X47.407 Y49.165 Z-3.000
G1 X47.396 Y49.109 Z-3.000
G1 X47.392 Y49.053 Z-3.000
G1 X47.397 Y48.999 Z-3.000
G1 X47.408 Y48.948 Z-3.000
G1 X47.428 Y48.895 Z-3.000
G1 X47.457 Y48.842 Z-3.000
G1 X47.495 Y48.793 Z-3.000
G1 X47.542 Y48.750 Z-3.000
G1 X47.596 Y48.714 Z-3.000
G1 X47.655 Y48.688 Z-3.000
G1 X47.717 Y48.671 Z-3.000
G1 X47.779 Y48.666 Z-3.000
G1 X47.839 Y48.669 Z-3.000
G1 X47.895 Y48.681 Z-3.000
G1 X47.948 Y48.701 Z-3.000
G1 X48.000 Y48.730 Z-3.000
G1 X48.050 Y48.768 Z-3.000
G1 X48.093 Y48.815 Z-3.000
G1 X48.129 Y48.869 Z-3.000
G1 X48.155 Y48.928 Z-3.000
G1 X48.171 Y48.990 Z-3.000
G1 X48.177 Y49.052 Z-3.000
G1 X48.174 Y49.112 Z-3.000
G1 X48.162 Y49.168 Z-3.000
G1 X48.142 Y49.221 Z-3.000
G1 X48.113 Y49.274 Z-3.000
G1 X48.075 Y49.323 Z-3.000
G1 X48.028 Y49.366 Z-3.000
G1 X47.974 Y49.402 Z-3.000
G1 X47.915 Y49.429 Z-3.000
G1 X47.853 Y49.445 Z-3.000
G1 X47.791 Y49.451 Z-3.000
G1 X47.731 Y49.447 Z-3.000
G1 X47.675 Y49.435 Z-3.000
G1 X47.320 Y50.654 Z-3.000
G1 X47.114 Y50.579 Z-3.000
G1 X46.911 Y50.473 Z-3.000
G1 X46.718 Y50.333 Z-3.000
G1 X46.543 Y50.163 Z-3.000
G1 X46.392 Y49.965 Z-3.000
G1 X46.271 Y49.746 Z-3.000
G1 X46.186 Y49.513 Z-3.000
G1 X46.136 Y49.273 Z-3.000
G1 X46.122 Y49.036 Z-3.000
G1 X46.141 Y48.807 Z-3.000
G1 X46.189 Y48.593 Z-3.000
G1 X46.273 Y48.367 Z-3.000
G1 X46.396 Y48.145 Z-3.000
G1 X46.558 Y47.937 Z-3.000
G1 X46.756 Y47.752 Z-3.000
G1 X46.985 Y47.601 Z-3.000
G1 X47.236 Y47.489 Z-3.000
G1 X47.498 Y47.421 Z-3.000
G1 X47.760 Y47.396 Z-3.000
G1 X48.013 Y47.411 Z-3.000
G1 X48.250 Y47.462 Z-3.000
G1 X48.476 Y47.546 Z-3.000
G1 X48.698 Y47.669 Z-3.000
G1 X48.906 Y47.831 Z-3.000
G1 X49.091 Y48.029 Z-3.000
G1 X49.242 Y48.258 Z-3.000
G1 X49.354 Y48.509 Z-3.000
G1 X49.422 Y48.771 Z-3.000
G1 X49.447 Y49.033 Z-3.000
G1 X49.432 Y49.287 Z-3.000
G1 X49.381 Y49.523 Z-3.000
G1 X49.297 Y49.749 Z-3.000
G1 X49.174 Y49.971 Z-3.000
G1 X49.012 Y50.180 Z-3.000
G1 X48.814 Y50.364 Z-3.000
G1 X48.585 Y50.515 Z-3.000
G1 X48.334 Y50.627 Z-3.000
G1 X48.072 Y50.696 Z-3.000
G1 X47.810 Y50.720 Z-3.000
G1 X47.556 Y50.705 Z-3.000
G1 X47.320 Y50.654 Z-3.000
G0 X47.320 Y50.654
G0 Z6.000
G0 X47.675 Y49.435
G0 Z6.000
G1 X47.675 Y49.435 Z-3.750 F254.0
G1 X47.627 Y49.417 Z-3.750 F177.8
G1 X47.579 Y49.392 Z-3.750
G1 X47.533 Y49.359 Z-3.750
G1 X47.492 Y49.319 Z-3.750
G1 X47.456 Y49.272 Z-3.750
G1 X47.428 Y49.221 Z-3.750
G1 X47.407 Y49.165 Z-3.750
G1 X47.396 Y49.109 Z-3.750
G1 X47.392 Y49.053 Z-3.750
G1 X47.397 Y48.999 Z-3.750
G1 X47.408 Y48.948 Z-3.750
G1 X47.428 Y48.895 Z-3.750
G1 X47.457 Y48.842 Z-3.750
G1 X47.495 Y48.793 Z-3.750
G1 X47.542 Y48.750 Z-3.750
G1 X47.596 Y48.714 Z-3.750
G1 X47.655 Y48.688 Z-3.750
G1 X47.717 Y48.671 Z-3.750
G1 X47.779 Y48.666 Z-3.750
G1 X47.839 Y48.669 Z-3.750
G1 X47.895 Y48.681 Z-3.750
G1 X47.948 Y48.701 Z-3.750
G1 X48.000 Y48.730 Z-3.750
G1 X48.050 Y48.768 Z-3.750
G1 X48.093 Y48.815 Z-3.750
G1 X48.129 Y48.869 Z-3.750
G1 X48.155 Y48.928 Z-3.750
G1 X48.171 Y48.990 Z-3.750
G1 X48.177 Y49.052 Z-3.750
G1 X48.174 Y49.112 Z-3.750
G1 X48.162 Y49.168 Z-3.750
G1 X48.142 Y49.221 Z-3.750
G1 X48.113 Y49.274 Z-3.750
G1 X48.075 Y49.323 Z-3.750
G1 X48.028 Y49.366 Z-3.750
G1 X47.974 Y49.402 Z-3.750
G1 X47.915 Y49.429 Z-3.750
G1 X47.853 Y49.445 Z-3.750
G1 X47.791 Y49.451 Z-3.750
G1 X47.731 Y49.447 Z-3.750
G1 X47.675 Y49.435 Z-3.750
G1 X47.320 Y50.654 Z-3.750
G1 X47.114 Y50.579 Z-3.750
G1 X46.911 Y50.473 Z-3.750
G1 X46.718 Y50.333 Z-3.750
G1 X46.543 Y50.163 Z-3.750
G1 X46.392 Y49.965 Z-3.750
G1 X46.271 Y49.746 Z-3.750
G1 X46.186 Y49.513 Z-3.750
G1 X46.136 Y49.273 Z-3.750
G1 X46.122 Y49.036 Z-3.750
G1 X46.141 Y48.807 Z-3.750
G1 X46.189 Y48.593 Z-3.750
G1 X46.273 Y48.367 Z-3.750
G1 X46.396 Y48.145 Z-3.750
G1 X46.558 Y47.937 Z-3.750
G1 X46.756 Y47.752 Z-3.750
G1 X46.985 Y47.601 Z-3.750
G1 X47.236 Y47.489 Z-3.750
G1 X47.498 Y47.421 Z-3.750
G1 X47.760 Y47.396 Z-3.750
G1 X48.013 Y47.411 Z-3.750
G1 X48.250 Y47.462 Z-3.750
G1 X48.476 Y47.546 Z-3.750
G1 X48.698 Y47.669 Z-3.750
G1 X48.906 Y47.831 Z-3.750
G1 X49.091 Y48.029 Z-3.750
G1 X49.242 Y48.258 Z-3.750
G1 X49.354 Y48.509 Z-3.750
G1 X49.422 Y48.771 Z-3.750
G1 X49.447 Y49.033 Z-3.750
G1 X49.432 Y49.287 Z-3.750
G1 X49.381 Y49.523 Z-3.750
G1 X49.297 Y49.749 Z-3.750
G1 X49.174 Y49.971 Z-3.750
G1 X49.012 Y50.180 Z-3.750
G1 X48.814 Y50.364 Z-3.750
G1 X48.585 Y50.515 Z-3.750
G1 X48.334 Y50.627 Z-3.750
G1 X48.072 Y50.696 Z-3.750
G1 X47.810 Y50.720 Z-3.750
G1 X47.556 Y50.705 Z-3.750
G1 X47.320 Y50.654 Z-3.750
G0 X47.320 Y50.654
G0 Z6.000
G0 X47.675 Y49.435
G0 Z6.000
G1 X47.675 Y49.435 Z-4.500 F254.0
G1 X47.627 Y49.417 Z-4.500 F177.8
G1 X47.579 Y49.392 Z-4.500
G1 X47.533 Y49.359 Z-4.500
G1 X47.492 Y49.319 Z-4.500
G1 X47.456 Y49.272 Z-4.500
G1 X47.428 Y49.221 Z-4.500
G1 X47.407 Y49.165 Z-4.500
G1 X47.396 Y49.109 Z-4.500
G1 X47.392 Y49.053 Z-4.500
G1 X47.397 Y48.999 Z-4.500
G1 X47.408 Y48.948 Z-4.500
G1 X47.428 Y48.895 Z-4.500
G1 X47.457 Y48.842 Z-4.500
G1 X47.495 Y48.793 Z-4.500
G1 X47.542 Y48.750 Z-4.500
G1 X47.596 Y48.714 Z-4.500
G1 X47.655 Y48.688 Z-4.500
G1 X47.717 Y48.671 Z-4.500
G1 X47.779 Y48.666 Z-4.500
G1 X47.839 Y48.669 Z-4.500
G1 X47.895 Y48.681 Z-4.500
G1 X47.948 Y48.701 Z-4.500
G1 X48.000 Y48.730 Z-4.500
G1 X48.050 Y48.768 Z-4.500
G1 X48.093 Y48.815 Z-4.500
G1 X48.129 Y48.869 Z-4.500
G1 X48.155 Y48.928 Z-4.500
G1 X48.171 Y48.990 Z-4.500
G1 X48.177 Y49.052 Z-4.500
G1 X48.174 Y49.112 Z-4.500
G1 X48.162 Y49.168 Z-4.500
G1 X48.142 Y49.221 Z-4.500
G1 X48.113 Y49.274 Z-4.500
G1 X48.075 Y49.323 Z-4.500
G1 X48.028 Y49.366 Z-4.500
G1 X47.974 Y49.402 Z-4.500
G1 X47.915 Y49.429 Z-4.500
G1 X47.853 Y49.445 Z-4.500
G1 X47.791 Y49.451 Z-4.500
G1 X47.731 Y49.447 Z-4.500
G1 X47.675 Y49.435 Z-4.500
G1 X47.320 Y50.654 Z-4.500
G1 X47.114 Y50.579 Z-4.500
G1 X46.911 Y50.473 Z-4.500
G1 X46.718 Y50.333 Z-4.500
G1 X46.543 Y50.163 Z-4.500
G1 X46.392 Y49.965 Z-4.500
G1 X46.271 Y49.746 Z-4.500
G1 X46.186 Y49.513 Z-4.500
G1 X46.136 Y49.273 Z-4.500
G1 X46.122 Y49.036 Z-4.500
G1 X46.141 Y48.807 Z-4.500
G1 X46.189 Y48.593 Z-4.500
G1 X46.273 Y48.367 Z-4.500
G1 X46.396 Y48.145 Z-4.500
G1 X46.558 Y47.937 Z-4.500
G1 X46.756 Y47.752 Z-4.500
G1 X46.985 Y47.601 Z-4.500
G1 X47.236 Y47.489 Z-4.500
G1 X47.498 Y47.421 Z-4.500
G1 X47.760 Y47.396 Z-4.500
G1 X48.013 Y47.411 Z-4.500
G1 X48.250 Y47.462 Z-4.500
G1 X48.476 Y47.546 Z-4.500
G1 X48.698 Y47.669 Z-4.500
G1 X48.906 Y47.831 Z-4.500
G1 X49.091 Y48.029 Z-4.500
G1 X49.242 Y48.258 Z-4.500
G1 X49.354 Y48.509 Z-4.500
G1 X49.422 Y48.771 Z-4.500
G1 X49.447 Y49.033 Z-4.500
G1 X49.432 Y49.287 Z-4.500
G1 X49.381 Y49.523 Z-4.500
G1 X49.297 Y49.749 Z-4.500
G1 X49.174 Y49.971 Z-4.500
G1 X49.012 Y50.180 Z-4.500
G1 X48.814 Y50.364 Z-4.500
G1 X48.585 Y50.515 Z-4.500
G1 X48.334 Y50.627 Z-4.500
G1 X48.072 Y50.696 Z-4.500
G1 X47.810 Y50.720 Z-4.500
G1 X47.556 Y50.705 Z-4.500
G1 X47.320 Y50.654 Z-4.500
G0 X47.320 Y50.654
G0 Z6.000
G0 X47.675 Y49.435
G0 Z6.000
G1 X47.675 Y49.435 Z-5.250 F254.0
G1 X47.627 Y49.417 Z-5.250 F177.8
G1 X47.579 Y49.392 Z-5.250
G1 X47.533 Y49.359 Z-5.250
G1 X47.492 Y49.319 Z-5.250
G1 X47.456 Y49.272 Z-5.250
G1 X47.428 Y49.221 Z-5.250
G1 X47.407 Y49.165 Z-5.250
G1 X47.396 Y49.109 Z-5.250
G1 X47.392 Y49.053 Z-5.250
G1 X47.397 Y48.999 Z-5.250
G1 X47.408 Y48.948 Z-5.250
G1 X47.428 Y48.895 Z-5.250
G1 X47.457 Y48.842 Z-5.250
G1 X47.495 Y48.793 Z-5.250
G1 X47.542 Y48.750 Z-5.250
G1 X47.596 Y48.714 Z-5.250
G1 X47.655 Y48.688 Z-5.250
G1 X47.717 Y48.671 Z-5.250
G1 X47.779 Y48.666 Z-5.250
G1 X47.839 Y48.669 Z-5.250
G1 X47.895 Y48.681 Z-5.250
G1 X47.948 Y48.701 Z-5.250
G1 X48.000 Y48.730 Z-5.250
G1 X48.050 Y48.768 Z-5.250
G1 X48.093 Y48.815 Z-5.250
G1 X48.129 Y48.869 Z-5.250
G1 X48.155 Y48.928 Z-5.250
G1 X48.171 Y48.990 Z-5.250
G1 X48.177 Y49.052 Z-5.250
G1 X48.174 Y49.112 Z-5.250
G1 X48.162 Y49.168 Z-5.250
G1 X48.142 Y49.221 Z-5.250
G1 X48.113 Y49.274 Z-5.250
G1 X48.075 Y49.323 Z-5.250
G1 X48.028 Y49.366 Z-5.250
G1 X47.974 Y49.402 Z-5.250
G1 X47.915 Y49.429 Z-5.250
G1 X47.853 Y49.445 Z-5.250
G1 X47.791 Y49.451 Z-5.250
G1 X47.731 Y49.447 Z-5.250
G1 X47.675 Y49.435 Z-5.250
G1 X47.320 Y50.654 Z-5.250
G1 X47.114 Y50.579 Z-5.250
G1 X46.911 Y50.473 Z-5.250
G1 X46.718 Y50.333 Z-5.250
G1 X46.543 Y50.163 Z-5.250
G1 X46.392 Y49.965 Z-5.250
G1 X46.271 Y49.746 Z-5.250
G1 X46.186 Y49.513 Z-5.250
G1 X46.136 Y49.273 Z-5.250
G1 X46.122 Y49.036 Z-5.250
G1 X46.141 Y48.807 Z-5.250
G1 X46.189 Y48.593 Z-5.250
G1 X46.273 Y48.367 Z-5.250
G1 X46.396 Y48.145 Z-5.250
G1 X46.558 Y47.937 Z-5.250
G1 X46.756 Y47.752 Z-5.250
G1 X46.985 Y47.601 Z-5.250
G1 X47.236 Y47.489 Z-5.250
G1 X47.498 Y47.421 Z-5.250
G1 X47.760 Y47.396 Z-5.250
G1 X48.013 Y47.411 Z-5.250
G1 X48.250 Y47.462 Z-5.250
G1 X48.476 Y47.546 Z-5.250
G1 X48.698 Y47.669 Z-5.250
G1 X48.906 Y47.831 Z-5.250
G1 X49.091 Y48.029 Z-5.250
G1 X49.242 Y48.258 Z-5.250
G1 X49.354 Y48.509 Z-5.250
G1 X49.422 Y48.771 Z-5.250
G1 X49.447 Y49.033 Z-5.250
G1 X49.432 Y49.287 Z-5.250
G1 X49.381 Y49.523 Z-5.250
G1 X49.297 Y49.749 Z-5.250
G1 X49.174 Y49.971 Z-5.250
G1 X49.012 Y50.180 Z-5.250
G1 X48.814 Y50.364 Z-5.250
G1 X48.585 Y50.515 Z-5.250
G1 X48.334 Y50.627 Z-5.250
G1 X48.072 Y50.696 Z-5.250
G1 X47.810 Y50.720 Z-5.250
G1 X47.556 Y50.705 Z-5.250
G1 X47.320 Y50.654 Z-5.250
G0 X47.320 Y50.654
G0 Z6.000
G0 X47.675 Y49.435
G0 Z6.000
G1 X47.675 Y49.435 Z-6.000 F254.0
G1 X47.627 Y49.417 Z-6.000 F177.8
G1 X47.579 Y49.392 Z-6.000
G1 X47.533 Y49.359 Z-6.000
G1 X47.492 Y49.319 Z-6.000
G1 X47.456 Y49.272 Z-6.000
G1 X47.428 Y49.221 Z-6.000
G1 X47.407 Y49.165 Z-6.000
G1 X47.396 Y49.109 Z-6.000
G1 X47.392 Y49.053 Z-6.000
G1 X47.397 Y48.999 Z-6.000
G1 X47.408 Y48.948 Z-6.000
G1 X47.428 Y48.895 Z-6.000
G1 X47.457 Y48.842 Z-6.000
G1 X47.495 Y48.793 Z-6.000
G1 X47.542 Y48.750 Z-6.000
G1 X47.596 Y48.714 Z-6.000
G1 X47.655 Y48.688 Z-6.000
G1 X47.717 Y48.671 Z-6.000
G1 X47.779 Y48.666 Z-6.000
G1 X47.839 Y48.669 Z-6.000
G1 X47.895 Y48.681 Z-6.000
G1 X47.948 Y48.701 Z-6.000
G1 X48.000 Y48.730 Z-6.000
G1 X48.050 Y48.768 Z-6.000
G1 X48.093 Y48.815 Z-6.000
G1 X48.129 Y48.869 Z-6.000
G1 X48.155 Y48.928 Z-6.000
G1 X48.171 Y48.990 Z-6.000
G1 X48.177 Y49.052 Z-6.000
G1 X48.174 Y49.112 Z-6.000
G1 X48.162 Y49.168 Z-6.000
G1 X48.142 Y49.221 Z-6.000
G1 X48.113 Y49.274 Z-6.000
G1 X48.075 Y49.323 Z-6.000
G1 X48.028 Y49.366 Z-6.000
G1 X47.974 Y49.402 Z-6.000
G1 X47.915 Y49.429 Z-6.000
G1 X47.853 Y49.445 Z-6.000
G1 X47.791 Y49.451 Z-6.000
G1 X47.731 Y49.447 Z-6.000
G1 X47.675 Y49.435 Z-6.000
G1 X47.320 Y50.654 Z-6.000
G1 X47.114 Y50.579 Z-6.000
G1 X46.911 Y50.473 Z-6.000
G1 X46.718 Y50.333 Z-6.000
G1 X46.543 Y50.163 Z-6.000
G1 X46.392 Y49.965 Z-6.000
G1 X46.271 Y49.746 Z-6.000
G1 X46.186 Y49.513 Z-6.000
G1 X46.136 Y49.273 Z-6.000
G1 X46.122 Y49.036 Z-6.000
G1 X46.141 Y48.807 Z-6.000
G1 X46.189 Y48.593 Z-6.000
G1 X46.273 Y48.367 Z-6.000
G1 X46.396 Y48.145 Z-6.000
G1 X46.558 Y47.937 Z-6.000
G1 X46.756 Y47.752 Z-6.000
G1 X46.985 Y47.601 Z-6.000
G1 X47.236 Y47.489 Z-6.000
G1 X47.498 Y47.421 Z-6.000
G1 X47.760 Y47.396 Z-6.000
G1 X48.013 Y47.411 Z-6.000
G1 X48.250 Y47.462 Z-6.000
G1 X48.476 Y47.546 Z-6.000
G1 X48.698 Y47.669 Z-6.000
G1 X48.906 Y47.831 Z-6.000
G1 X49.091 Y48.029 Z-6.000
G1 X49.242 Y48.258 Z-6.000
G1 X49.354 Y48.509 Z-6.000
G1 X49.422 Y48.771 Z-6.000
G1 X49.447 Y49.033 Z-6.000
G1 X49.432 Y49.287 Z-6.000
G1 X49.381 Y49.523 Z-6.000
G1 X49.297 Y49.749 Z-6.000
G1 X49.174 Y49.971 Z-6.000
G1 X49.012 Y50.180 Z-6.000
G1 X48.814 Y50.364 Z-6.000
G1 X48.585 Y50.515 Z-6.000
G1 X48.334 Y50.627 Z-6.000
G1 X48.072 Y50.696 Z-6.000
G1 X47.810 Y50.720 Z-6.000
G1 X47.556 Y50.705 Z-6.000
G1 X47.320 Y50.654 Z-6.000
G0 X47.320 Y50.654
G0 Z6.000
G0 X47.675 Y49.435
G0 Z6.000
G1 X47.675 Y49.435 Z-6.750 F254.0
G1 X47.627 Y49.417 Z-6.750 F177.8
G1 X47.579 Y49.392 Z-6.750
G1 X47.533 Y49.359 Z-6.750
G1 X47.492 Y49.319 Z-6.750
G1 X47.456 Y49.272 Z-6.750
G1 X47.428 Y49.221 Z-6.750
G1 X47.407 Y49.165 Z-6.750
G1 X47.396 Y49.109 Z-6.750
G1 X47.392 Y49.053 Z-6.750
G1 X47.397 Y48.999 Z-6.750
G1 X47.408 Y48.948 Z-6.750
G1 X47.428 Y48.895 Z-6.750
G1 X47.457 Y48.842 Z-6.750
G1 X47.495 Y48.793 Z-6.750
G1 X47.542 Y48.750 Z-6.750
G1 X47.596 Y48.714 Z-6.750
G1 X47.655 Y48.688 Z-6.750
G1 X47.717 Y48.671 Z-6.750
G1 X47.779 Y48.666 Z-6.750
G1 X47.839 Y48.669 Z-6.750
G1 X47.895 Y48.681 Z-6.750
G1 X47.948 Y48.701 Z-6.750
G1 X48.000 Y48.730 Z-6.750
G1 X48.050 Y48.768 Z-6.750
G1 X48.093 Y48.815 Z-6.750
G1 X48.129 Y48.869 Z-6.750
G1 X48.155 Y48.928 Z-6.750
G1 X48.171 Y48.990 Z-6.750
G1 X48.177 Y49.052 Z-6.750
G1 X48.174 Y49.112 Z-6.750
G1 X48.162 Y49.168 Z-6.750
G1 X48.142 Y49.221 Z-6.750
G1 X48.113 Y49.274 Z-6.750
G1 X48.075 Y49.323 Z-6.750
G1 X48.028 Y49.366 Z-6.750
G1 X47.974 Y49.402 Z-6.750
G1 X47.915 Y49.429 Z-6.750
G1 X47.853 Y49.445 Z-6.750
G1 X47.791 Y49.451 Z-6.750
G1 X47.731 Y49.447 Z-6.750
G1 X47.675 Y49.435 Z-6.750
G1 X47.320 Y50.654 Z-6.750
G1 X47.114 Y50.579 Z-6.750
G1 X46.911 Y50.473 Z-6.750
G1 X46.718 Y50.333 Z-6.750
G1 X46.543 Y50.163 Z-6.750
G1 X46.392 Y49.965 Z-6.750
G1 X46.271 Y49.746 Z-6.750
G1 X46.186 Y49.513 Z-6.750
G1 X46.136 Y49.273 Z-6.750
G1 X46.122 Y49.036 Z-6.750
G1 X46.141 Y48.807 Z-6.750
G1 X46.189 Y48.593 Z-6.750
G1 X46.273 Y48.367 Z-6.750
G1 X46.396 Y48.145 Z-6.750
G1 X46.558 Y47.937 Z-6.750
G1 X46.756 Y47.752 Z-6.750
G1 X46.985 Y47.601 Z-6.750
G1 X47.236 Y47.489 Z-6.750
G1 X47.498 Y47.421 Z-6.750
G1 X47.760 Y47.396 Z-6.750
G1 X48.013 Y47.411 Z-6.750
G1 X48.250 Y47.462 Z-6.750
G1 X48.476 Y47.546 Z-6.750
G1 X48.698 Y47.669 Z-6.750
G1 X48.906 Y47.831 Z-6.750
G1 X49.091 Y48.029 Z-6.750
G1 X49.242 Y48.258 Z-6.750
G1 X49.354 Y48.509 Z-6.750
G1 X49.422 Y48.771 Z-6.750
G1 X49.447 Y49.033 Z-6.750
G1 X49.432 Y49.287 Z-6.750
G1 X49.381 Y49.523 Z-6.750
G1 X49.297 Y49.749 Z-6.750
G1 X49.174 Y49.971 Z-6.750
G1 X49.012 Y50.180 Z-6.750
G1 X48.814 Y50.364 Z-6.750
G1 X48.585 Y50.515 Z-6.750
G1 X48.334 Y50.627 Z-6.750
G1 X48.072 Y50.696 Z-6.750
G1 X47.810 Y50.720 Z-6.750
G1 X47.556 Y50.705 Z-6.750
G1 X47.320 Y50.654 Z-6.750
G0 X47.320 Y50.654
G0 Z6.000
G0 X47.675 Y49.435
G0 Z6.000
G1 X47.675 Y49.435 Z-7.500 F254.0
G1 X47.627 Y49.417 Z-7.500 F177.8
G1 X47.579 Y49.392 Z-7.500
G1 X47.533 Y49.359 Z-7.500
G1 X47.492 Y49.319 Z-7.500
G1 X47.456 Y49.272 Z-7.500
G1 X47.428 Y49.221 Z-7.500
G1 X47.407 Y49.165 Z-7.500
G1 X47.396 Y49.109 Z-7.500
G1 X47.392 Y49.053 Z-7.500
G1 X47.397 Y48.999 Z-7.500
G1 X47.408 Y48.948 Z-7.500
G1 X47.428 Y48.895 Z-7.500
G1 X47.457 Y48.842 Z-7.500
G1 X47.495 Y48.793 Z-7.500
G1 X47.542 Y48.750 Z-7.500
G1 X47.596 Y48.714 Z-7.500
G1 X47.655 Y48.688 Z-7.500
G1 X47.717 Y48.671 Z-7.500
G1 X47.779 Y48.666 Z-7.500
G1 X47.839 Y48.669 Z-7.500
G1 X47.895 Y48.681 Z-7.500
G1 X47.948 Y48.701 Z-7.500
G1 X48.000 Y48.730 Z-7.500
G1 X48.050 Y48.768 Z-7.500
G1 X48.093 Y48.815 Z-7.500
G1 X48.129 Y48.869 Z-7.500
G1 X48.155 Y48.928 Z-7.500
G1 X48.171 Y48.990 Z-7.500
G1 X48.177 Y49.052 Z-7.500
G1 X48.174 Y49.112 Z-7.500
G1 X48.162 Y49.168 Z-7.500
G1 X48.142 Y49.221 Z-7.500
G1 X48.113 Y49.274 Z-7.500
G1 X48.075 Y49.323 Z-7.500
G1 X48.028 Y49.366 Z-7.500
G1 X47.974 Y49.402 Z-7.500
G1 X47.915 Y49.429 Z-7.500
G1 X47.853 Y49.445 Z-7.500
G1 X47.791 Y49.451 Z-7.500
G1 X47.731 Y49.447 Z-7.500
G1 X47.675 Y49.435 Z-7.500
G1 X47.320 Y50.654 Z-7.500
G1 X47.114 Y50.579 Z-7.500
G1 X46.911 Y50.473 Z-7.500
G1 X46.718 Y50.333 Z-7.500
G1 X46.543 Y50.163 Z-7.500
G1 X46.392 Y49.965 Z-7.500
G1 X46.271 Y49.746 Z-7.500
G1 X46.186 Y49.513 Z-7.500
G1 X46.136 Y49.273 Z-7.500
G1 X46.122 Y49.036 Z-7.500
G1 X46.141 Y48.807 Z-7.500
G1 X46.189 Y48.593 Z-7.500
G1 X46.273 Y48.367 Z-7.500
G1 X46.396 Y48.145 Z-7.500
G1 X46.558 Y47.937 Z-7.500
G1 X46.756 Y47.752 Z-7.500
G1 X46.985 Y47.601 Z-7.500
G1 X47.236 Y47.489 Z-7.500
G1 X47.498 Y47.421 Z-7.500
G1 X47.760 Y47.396 Z-7.500
G1 X48.013 Y47.411 Z-7.500
G1 X48.250 Y47.462 Z-7.500
G1 X48.476 Y47.546 Z-7.500
G1 X48.698 Y47.669 Z-7.500
G1 X48.906 Y47.831 Z-7.500
G1 X49.091 Y48.029 Z-7.500
G1 X49.242 Y48.258 Z-7.500
G1 X49.354 Y48.509 Z-7.500
G1 X49.422 Y48.771 Z-7.500
G1 X49.447 Y49.033 Z-7.500
G1 X49.432 Y49.287 Z-7.500
G1 X49.381 Y49.523 Z-7.500
G1 X49.297 Y49.749 Z-7.500
G1 X49.174 Y49.971 Z-7.500
G1 X49.012 Y50.180 Z-7.500
G1 X48.814 Y50.364 Z-7.500
G1 X48.585 Y50.515 Z-7.500
G1 X48.334 Y50.627 Z-7.500
G1 X48.072 Y50.696 Z-7.500
G1 X47.810 Y50.720 Z-7.500
G1 X47.556 Y50.705 Z-7.500
G1 X47.320 Y50.654 Z-7.500
G0 X47.320 Y50.654
G0 Z6.000
G0 X47.675 Y49.435
G0 Z6.000
G1 X47.675 Y49.435 Z-8.250 F254.0
G1 X47.627 Y49.417 Z-8.250 F177.8
G1 X47.579 Y49.392 Z-8.250
G1 X47.533 Y49.359 Z-8.250
G1 X47.492 Y49.319 Z-8.250
G1 X47.456 Y49.272 Z-8.250
G1 X47.428 Y49.221 Z-8.250
G1 X47.407 Y49.165 Z-8.250
G1 X47.396 Y49.109 Z-8.250
G1 X47.392 Y49.053 Z-8.250
G1 X47.397 Y48.999 Z-8.250
G1 X47.408 Y48.948 Z-8.250
G1 X47.428 Y48.895 Z-8.250
G1 X47.457 Y48.842 Z-8.250
G1 X47.495 Y48.793 Z-8.250
G1 X47.542 Y48.750 Z-8.250
G1 X47.596 Y48.714 Z-8.250
G1 X47.655 Y48.688 Z-8.250
G1 X47.717 Y48.671 Z-8.250
G1 X47.779 Y48.666 Z-8.250
G1 X47.839 Y48.669 Z-8.250
G1 X47.895 Y48.681 Z-8.250
G1 X47.948 Y48.701 Z-8.250
G1 X48.000 Y48.730 Z-8.250
G1 X48.050 Y48.768 Z-8.250
G1 X48.093 Y48.815 Z-8.250
G1 X48.129 Y48.869 Z-8.250
G1 X48.155 Y48.928 Z-8.250
G1 X48.171 Y48.990 Z-8.250
G1 X48.177 Y49.052 Z-8.250
G1 X48.174 Y49.112 Z-8.250
G1 X48.162 Y49.168 Z-8.250
G1 X48.142 Y49.221 Z-8.250
G1 X48.113 Y49.274 Z-8.250
G1 X48.075 Y49.323 Z-8.250
G1 X48.028 Y49.366 Z-8.250
G1 X47.974 Y49.402 Z-8.250
G1 X47.915 Y49.429 Z-8.250
G1 X47.853 Y49.445 Z-8.250
G1 X47.791 Y49.451 Z-8.250
G1 X47.731 Y49.447 Z-8.250
G1 X47.675 Y49.435 Z-8.250
G1 X47.320 Y50.654 Z-8.250
G1 X47.114 Y50.579 Z-8.250
G1 X46.911 Y50.473 Z-8.250
G1 X46.718 Y50.333 Z-8.250
G1 X46.543 Y50.163 Z-8.250
G1 X46.392 Y49.965 Z-8.250
G1 X46.271 Y49.746 Z-8.250
G1 X46.186 Y49.513 Z-8.250
G1 X46.136 Y49.273 Z-8.250
G1 X46.122 Y49.036 Z-8.250
G1 X46.141 Y48.807 Z-8.250
G1 X46.189 Y48.593 Z-8.250
G1 X46.273 Y48.367 Z-8.250
G1 X46.396 Y48.145 Z-8.250
G1 X46.558 Y47.937 Z-8.250
G1 X46.756 Y47.752 Z-8.250
G1 X46.985 Y47.601 Z-8.250
G1 X47.236 Y47.489 Z-8.250
G1 X47.498 Y47.421 Z-8.250
G1 X47.760 Y47.396 Z-8.250
G1 X48.013 Y47.411 Z-8.250
G1 X48.250 Y47.462 Z-8.250
G1 X48.476 Y47.546 Z-8.250
G1 X48.698 Y47.669 Z-8.250
G1 X48.906 Y47.831 Z-8.250
G1 X49.091 Y48.029 Z-8.250
G1 X49.242 Y48.258 Z-8.250
G1 X49.354 Y48.509 Z-8.250
G1 X49.422 Y48.771 Z-8.250
G1 X49.447 Y49.033 Z-8.250
G1 X49.432 Y49.287 Z-8.250
G1 X49.381 Y49.523 Z-8.250
G1 X49.297 Y49.749 Z-8.250
G1 X49.174 Y49.971 Z-8.250
G1 X49.012 Y50.180 Z-8.250
G1 X48.814 Y50.364 Z-8.250
G1 X48.585 Y50.515 Z-8.250
G1 X48.334 Y50.627 Z-8.250
G1 X48.072 Y50.696 Z-8.250
G1 X47.810 Y50.720 Z-8.250
G1 X47.556 Y50.705 Z-8.250
G1 X47.320 Y50.654 Z-8.250
G0 X47.320 Y50.654
G0 Z6.000
G0 X47.675 Y49.435
G0 Z6.000
G1 X47.675 Y49.435 Z-9.000 F254.0
G1 X47.627 Y49.417 Z-9.000 F177.8
G1 X47.579 Y49.392 Z-9.000
G1 X47.533 Y49.359 Z-9.000
G1 X47.492 Y49.319 Z-9.000
G1 X47.456 Y49.272 Z-9.000
G1 X47.428 Y49.221 Z-9.000
G1 X47.407 Y49.165 Z-9.000
G1 X47.396 Y49.109 Z-9.000
G1 X47.392 Y49.053 Z-9.000
G1 X47.397 Y48.999 Z-9.000
G1 X47.408 Y48.948 Z-9.000
G1 X47.428 Y48.895 Z-9.000
G1 X47.457 Y48.842 Z-9.000
G1 X47.495 Y48.793 Z-9.000
G1 X47.542 Y48.750 Z-9.000
G1 X47.596 Y48.714 Z-9.000
G1 X47.655 Y48.688 Z-9.000
G1 X47.717 Y48.671 Z-9.000
G1 X47.779 Y48.666 Z-9.000
G1 X47.839 Y48.669 Z-9.000
G1 X47.895 Y48.681 Z-9.000
G1 X47.948 Y48.701 Z-9.000
G1 X48.000 Y48.730 Z-9.000
G1 X48.050 Y48.768 Z-9.000
G1 X48.093 Y48.815 Z-9.000
G1 X48.129 Y48.869 Z-9.000
G1 X48.155 Y48.928 Z-9.000
G1 X48.171 Y48.990 Z-9.000
G1 X48.177 Y49.052 Z-9.000
G1 X48.174 Y49.112 Z-9.000
G1 X48.162 Y49.168 Z-9.000
G1 X48.142 Y49.221 Z-9.000
G1 X48.113 Y49.274 Z-9.000
G1 X48.075 Y49.323 Z-9.000
G1 X48.028 Y49.366 Z-9.000
G1 X47.974 Y49.402 Z-9.000
G1 X47.915 Y49.429 Z-9.000
G1 X47.853 Y49.445 Z-9.000
G1 X47.791 Y49.451 Z-9.000
G1 X47.731 Y49.447 Z-9.000
G1 X47.675 Y49.435 Z-9.000
G1 X47.320 Y50.654 Z-9.000
G1 X47.114 Y50.579 Z-9.000
G1 X46.911 Y50.473 Z-9.000
G1 X46.718 Y50.333 Z-9.000
G1 X46.543 Y50.163 Z-9.000
G1 X46.392 Y49.965 Z-9.000
G1 X46.271 Y49.746 Z-9.000
G1 X46.186 Y49.513 Z-9.000
G1 X46.136 Y49.273 Z-9.000
G1 X46.122 Y49.036 Z-9.000
G1 X46.141 Y48.807 Z-9.000
G1 X46.189 Y48.593 Z-9.000
G1 X46.273 Y48.367 Z-9.000
G1 X46.396 Y48.145 Z-9.000
G1 X46.558 Y47.937 Z-9.000
G1 X46.756 Y47.752 Z-9.000
G1 X46.985 Y47.601 Z-9.000
G1 X47.236 Y47.489 Z-9.000
G1 X47.498 Y47.421 Z-9.000
G1 X47.760 Y47.396 Z-9.000
G1 X48.013 Y47.411 Z-9.000
G1 X48.250 Y47.462 Z-9.000
G1 X48.476 Y47.546 Z-9.000
G1 X48.698 Y47.669 Z-9.000
G1 X48.906 Y47.831 Z-9.000
G1 X49.091 Y48.029 Z-9.000
G1 X49.242 Y48.258 Z-9.000
G1 X49.354 Y48.509 Z-9.000
G1 X49.422 Y48.771 Z-9.000
G1 X49.447 Y49.033 Z-9.000
G1 X49.432 Y49.287 Z-9.000
G1 X49.381 Y49.523 Z-9.000
G1 X49.297 Y49.749 Z-9.000
G1 X49.174 Y49.971 Z-9.000
G1 X49.012 Y50.180 Z-9.000
G1 X48.814 Y50.364 Z-9.000
G1 X48.585 Y50.515 Z-9.000
G1 X48.334 Y50.627 Z-9.000
G1 X48.072 Y50.696 Z-9.000
G1 X47.810 Y50.720 Z-9.000
G1 X47.556 Y50.705 Z-9.000
G1 X47.320 Y50.654 Z-9.000
G0 X47.320 Y50.654
G0 Z6.000
G0 X47.675 Y49.435
G0 Z6.000
G1 X47.675 Y49.435 Z-9.750 F254.0
G1 X47.627 Y49.417 Z-9.750 F177.8
G1 X47.579 Y49.392 Z-9.750
G1 X47.533 Y49.359 Z-9.750
G1 X47.492 Y49.319 Z-9.750
G1 X47.456 Y49.272 Z-9.750
G1 X47.428 Y49.221 Z-9.750
G1 X47.407 Y49.165 Z-9.750
G1 X47.396 Y49.109 Z-9.750
G1 X47.392 Y49.053 Z-9.750
G1 X47.397 Y48.999 Z-9.750
G1 X47.408 Y48.948 Z-9.750
G1 X47.428 Y48.895 Z-9.750
G1 X47.457 Y48.842 Z-9.750
G1 X47.495 Y48.793 Z-9.750
G1 X47.542 Y48.750 Z-9.750
G1 X47.596 Y48.714 Z-9.750
G1 X47.655 Y48.688 Z-9.750
G1 X47.717 Y48.671 Z-9.750
G1 X47.779 Y48.666 Z-9.750
G1 X47.839 Y48.669 Z-9.750
G1 X47.895 Y48.681 Z-9.750
G1 X47.948 Y48.701 Z-9.750
G1 X48.000 Y48.730 Z-9.750
G1 X48.050 Y48.768 Z-9.750
G1 X48.093 Y48.815 Z-9.750
G1 X48.129 Y48.869 Z-9.750
G1 X48.155 Y48.928 Z-9.750
G1 X48.171 Y48.990 Z-9.750
G1 X48.177 Y49.052 Z-9.750
G1 X48.174 Y49.112 Z-9.750
G1 X48.162 Y49.168 Z-9.750
G1 X48.142 Y49.221 Z-9.750
G1 X48.113 Y49.274 Z-9.750
G1 X48.075 Y49.323 Z-9.750
G1 X48.028 Y49.366 Z-9.750
G1 X47.974 Y49.402 Z-9.750
G1 X47.915 Y49.429 Z-9.750
G1 X47.853 Y49.445 Z-9.750
G1 X47.791 Y49.451 Z-9.750
G1 X47.731 Y49.447 Z-9.750
G1 X47.675 Y49.435 Z-9.750
G1 X47.320 Y50.654 Z-9.750
G1 X47.114 Y50.579 Z-9.750
G1 X46.911 Y50.473 Z-9.750
G1 X46.718 Y50.333 Z-9.750
G1 X46.543 Y50.163 Z-9.750
G1 X46.392 Y49.965 Z-9.750
G1 X46.271 Y49.746 Z-9.750
G1 X46.186 Y49.513 Z-9.750
G1 X46.136 Y49.273 Z-9.750
G1 X46.122 Y49.036 Z-9.750
G1 X46.141 Y48.807 Z-9.750
G1 X46.189 Y48.593 Z-9.750
G1 X46.273 Y48.367 Z-9.750
G1 X46.396 Y48.145 Z-9.750
G1 X46.558 Y47.937 Z-9.750
G1 X46.756 Y47.752 Z-9.750
G1 X46.985 Y47.601 Z-9.750
G1 X47.236 Y47.489 Z-9.750
G1 X47.498 Y47.421 Z-9.750
G1 X47.760 Y47.396 Z-9.750
G1 X48.013 Y47.411 Z-9.750
G1 X48.250 Y47.462 Z-9.750
G1 X48.476 Y47.546 Z-9.750
G1 X48.698 Y47.669 Z-9.750
G1 X48.906 Y47.831 Z-9.750
G1 X49.091 Y48.029 Z-9.750
G1 X49.242 Y48.258 Z-9.750
G1 X49.354 Y48.509 Z-9.750
G1 X49.422 Y48.771 Z-9.750
G1 X49.447 Y49.033 Z-9.750
G1 X49.432 Y49.287 Z-9.750
G1 X49.381 Y49.523 Z-9.750
G1 X49.297 Y49.749 Z-9.750
G1 X49.174 Y49.971 Z-9.750
G1 X49.012 Y50.180 Z-9.750
G1 X48.814 Y50.364 Z-9.750
G1 X48.585 Y50.515 Z-9.750
G1 X48.334 Y50.627 Z-9.750
G1 X48.072 Y50.696 Z-9.750
G1 X47.810 Y50.720 Z-9.750
G1 X47.556 Y50.705 Z-9.750
G1 X47.320 Y50.654 Z-9.750
G0 X47.320 Y50.654
G0 Z6.000
G0 X47.675 Y49.435
G0 Z6.000
G1 X47.675 Y49.435 Z-10.500 F254.0
G1 X47.627 Y49.417 Z-10.500 F177.8
G1 X47.579 Y49.392 Z-10.500
G1 X47.533 Y49.359 Z-10.500
G1 X47.492 Y49.319 Z-10.500
G1 X47.456 Y49.272 Z-10.500
G1 X47.428 Y49.221 Z-10.500
G1 X47.407 Y49.165 Z-10.500
G1 X47.396 Y49.109 Z-10.500
G1 X47.392 Y49.053 Z-10.500
G1 X47.397 Y48.999 Z-10.500
G1 X47.408 Y48.948 Z-10.500
G1 X47.428 Y48.895 Z-10.500
G1 X47.457 Y48.842 Z-10.500
G1 X47.495 Y48.793 Z-10.500
G1 X47.542 Y48.750 Z-10.500
G1 X47.596 Y48.714 Z-10.500
G1 X47.655 Y48.688 Z-10.500
G1 X47.717 Y48.671 Z-10.500
G1 X47.779 Y48.666 Z-10.500
G1 X47.839 Y48.669 Z-10.500
G1 X47.895 Y48.681 Z-10.500
G1 X47.948 Y48.701 Z-10.500
G1 X48.000 Y48.730 Z-10.500
G1 X48.050 Y48.768 Z-10.500
G1 X48.093 Y48.815 Z-10.500
G1 X48.129 Y48.869 Z-10.500
G1 X48.155 Y48.928 Z-10.500
G1 X48.171 Y48.990 Z-10.500
G1 X48.177 Y49.052 Z-10.500
G1 X48.174 Y49.112 Z-10.500
G1 X48.162 Y49.168 Z-10.500
G1 X48.142 Y49.221 Z-10.500
G1 X48.113 Y49.274 Z-10.500
G1 X48.075 Y49.323 Z-10.500
G1 X48.028 Y49.366 Z-10.500
G1 X47.974 Y49.402 Z-10.500
G1 X47.915 Y49.429 Z-10.500
G1 X47.853 Y49.445 Z-10.500
G1 X47.791 Y49.451 Z-10.500
G1 X47.731 Y49.447 Z-10.500
G1 X47.675 Y49.435 Z-10.500
G1 X47.320 Y50.654 Z-10.500
G1 X47.114 Y50.579 Z-10.500
G1 X46.911 Y50.473 Z-10.500
G1 X46.718 Y50.333 Z-10.500
G1 X46.543 Y50.163 Z-10.500
G1 X46.392 Y49.965 Z-10.500
G1 X46.271 Y49.746 Z-10.500
G1 X46.186 Y49.513 Z-10.500
G1 X46.136 Y49.273 Z-10.500
G1 X46.122 Y49.036 Z-10.500
G1 X46.141 Y48.807 Z-10.500
G1 X46.189 Y48.593 Z-10.500
G1 X46.273 Y48.367 Z-10.500
G1 X46.396 Y48.145 Z-10.500
G1 X46.558 Y47.937 Z-10.500
G1 X46.756 Y47.752 Z-10.500
G1 X46.985 Y47.601 Z-10.500
G1 X47.236 Y47.489 Z-10.500
G1 X47.498 Y47.421 Z-10.500
G1 X47.760 Y47.396 Z-10.500
G1 X48.013 Y47.411 Z-10.500
G1 X48.250 Y47.462 Z-10.500
G1 X48.476 Y47.546 Z-10.500
G1 X48.698 Y47.669 Z-10.500
G1 X48.906 Y47.831 Z-10.500
G1 X49.091 Y48.029 Z-10.500
G1 X49.242 Y48.258 Z-10.500
G1 X49.354 Y48.509 Z-10.500
G1 X49.422 Y48.771 Z-10.500
G1 X49.447 Y49.033 Z-10.500
G1 X49.432 Y49.287 Z-10.500
G1 X49.381 Y49.523 Z-10.500
G1 X49.297 Y49.749 Z-10.500
G1 X49.174 Y49.971 Z-10.500
G1 X49.012 Y50.180 Z-10.500
G1 X48.814 Y50.364 Z-10.500
G1 X48.585 Y50.515 Z-10.500
G1 X48.334 Y50.627 Z-10.500
G1 X48.072 Y50.696 Z-10.500
G1 X47.810 Y50.720 Z-10.500
G1 X47.556 Y50.705 Z-10.500
G1 X47.320 Y50.654 Z-10.500
G0 X47.320 Y50.654
G0 Z6.000
G0 X47.675 Y49.435
G0 Z6.000
G1 X47.675 Y49.435 Z-11.250 F254.0
G1 X47.627 Y49.417 Z-11.250 F177.8
G1 X47.579 Y49.392 Z-11.250
G1 X47.533 Y49.359 Z-11.250
G1 X47.492 Y49.319 Z-11.250
G1 X47.456 Y49.272 Z-11.250
G1 X47.428 Y49.221 Z-11.250
G1 X47.407 Y49.165 Z-11.250
G1 X47.396 Y49.109 Z-11.250
G1 X47.392 Y49.053 Z-11.250
G1 X47.397 Y48.999 Z-11.250
G1 X47.408 Y48.948 Z-11.250
G1 X47.428 Y48.895 Z-11.250
G1 X47.457 Y48.842 Z-11.250
G1 X47.495 Y48.793 Z-11.250
G1 X47.542 Y48.750 Z-11.250
G1 X47.596 Y48.714 Z-11.250
G1 X47.655 Y48.688 Z-11.250
G1 X47.717 Y48.671 Z-11.250
G1 X47.779 Y48.666 Z-11.250
G1 X47.839 Y48.669 Z-11.250
G1 X47.895 Y48.681 Z-11.250
G1 X47.948 Y48.701 Z-11.250
G1 X48.000 Y48.730 Z-11.250
G1 X48.050 Y48.768 Z-11.250
G1 X48.093 Y48.815 Z-11.250
G1 X48.129 Y48.869 Z-11.250
G1 X48.155 Y48.928 Z-11.250
G1 X48.171 Y48.990 Z-11.250
G1 X48.177 Y49.052 Z-11.250
G1 X48.174 Y49.112 Z-11.250
G1 X48.162 Y49.168 Z-11.250
G1 X48.142 Y49.221 Z-11.250
G1 X48.113 Y49.274 Z-11.250
G1 X48.075 Y49.323 Z-11.250
G1 X48.028 Y49.366 Z-11.250
G1 X47.974 Y49.402 Z-11.250
G1 X47.915 Y49.429 Z-11.250
G1 X47.853 Y49.445 Z-11.250
G1 X47.791 Y49.451 Z-11.250
G1 X47.731 Y49.447 Z-11.250
G1 X47.675 Y49.435 Z-11.250
G1 X47.320 Y50.654 Z-11.250
G1 X47.114 Y50.579 Z-11.250
G1 X46.911 Y50.473 Z-11.250
G1 X46.718 Y50.333 Z-11.250
G1 X46.543 Y50.163 Z-11.250
G1 X46.392 Y49.965 Z-11.250
G1 X46.271 Y49.746 Z-11.250
G1 X46.186 Y49.513 Z-11.250
G1 X46.136 Y49.273 Z-11.250
G1 X46.122 Y49.036 Z-11.250
G1 X46.141 Y48.807 Z-11.250
G1 X46.189 Y48.593 Z-11.250
G1 X46.273 Y48.367 Z-11.250
G1 X46.396 Y48.145 Z-11.250
G1 X46.558 Y47.937 Z-11.250
G1 X46.756 Y47.752 Z-11.250
G1 X46.985 Y47.601 Z-11.250
G1 X47.236 Y47.489 Z-11.250
G1 X47.498 Y47.421 Z-11.250
G1 X47.760 Y47.396 Z-11.250
G1 X48.013 Y47.411 Z-11.250
G1 X48.250 Y47.462 Z-11.250
G1 X48.476 Y47.546 Z-11.250
G1 X48.698 Y47.669 Z-11.250
G1 X48.906 Y47.831 Z-11.250
G1 X49.091 Y48.029 Z-11.250
G1 X49.242 Y48.258 Z-11.250
G1 X49.354 Y48.509 Z-11.250
G1 X49.422 Y48.771 Z-11.250
G1 X49.447 Y49.033 Z-11.250
G1 X49.432 Y49.287 Z-11.250
G1 X49.381 Y49.523 Z-11.250
G1 X49.297 Y49.749 Z-11.250
G1 X49.174 Y49.971 Z-11.250
G1 X49.012 Y50.180 Z-11.250
G1 X48.814 Y50.364 Z-11.250
G1 X48.585 Y50.515 Z-11.250
G1 X48.334 Y50.627 Z-11.250
G1 X48.072 Y50.696 Z-11.250
G1 X47.810 Y50.720 Z-11.250
G1 X47.556 Y50.705 Z-11.250
G1 X47.320 Y50.654 Z-11.250
G0 X47.320 Y50.654
G0 Z6.000
G0 X47.675 Y49.435
G0 Z6.000
G1 X47.675 Y49.435 Z-12.000 F254.0
G1 X47.627 Y49.417 Z-12.000 F177.8
G1 X47.579 Y49.392 Z-12.000
G1 X47.533 Y49.359 Z-12.000
G1 X47.492 Y49.319 Z-12.000
G1 X47.456 Y49.272 Z-12.000
G1 X47.428 Y49.221 Z-12.000
G1 X47.407 Y49.165 Z-12.000
G1 X47.396 Y49.109 Z-12.000
G1 X47.392 Y49.053 Z-12.000
G1 X47.397 Y48.999 Z-12.000
G1 X47.408 Y48.948 Z-12.000
G1 X47.428 Y48.895 Z-12.000
G1 X47.457 Y48.842 Z-12.000
G1 X47.495 Y48.793 Z-12.000
G1 X47.542 Y48.750 Z-12.000
G1 X47.596 Y48.714 Z-12.000
G1 X47.655 Y48.688 Z-12.000
G1 X47.717 Y48.671 Z-12.000
G1 X47.779 Y48.666 Z-12.000
G1 X47.839 Y48.669 Z-12.000
G1 X47.895 Y48.681 Z-12.000
G1 X47.948 Y48.701 Z-12.000
G1 X48.000 Y48.730 Z-12.000
G1 X48.050 Y48.768 Z-12.000
G1 X48.093 Y48.815 Z-12.000
G1 X48.129 Y48.869 Z-12.000
G1 X48.155 Y48.928 Z-12.000
G1 X48.171 Y48.990 Z-12.000
G1 X48.177 Y49.052 Z-12.000
G1 X48.174 Y49.112 Z-12.000
G1 X48.162 Y49.168 Z-12.000
G1 X48.142 Y49.221 Z-12.000
G1 X48.113 Y49.274 Z-12.000
G1 X48.075 Y49.323 Z-12.000
G1 X48.028 Y49.366 Z-12.000
G1 X47.974 Y49.402 Z-12.000
G1 X47.915 Y49.429 Z-12.000
G1 X47.853 Y49.445 Z-12.000
G1 X47.791 Y49.451 Z-12.000
G1 X47.731 Y49.447 Z-12.000
G1 X47.675 Y49.435 Z-12.000
G1 X47.320 Y50.654 Z-12.000
G1 X47.114 Y50.579 Z-12.000
G1 X46.911 Y50.473 Z-12.000
G1 X46.718 Y50.333 Z-12.000
G1 X46.543 Y50.163 Z-12.000
G1 X46.392 Y49.965 Z-12.000
G1 X46.271 Y49.746 Z-12.000
G1 X46.186 Y49.513 Z-12.000
G1 X46.136 Y49.273 Z-12.000
G1 X46.122 Y49.036 Z-12.000
G1 X46.141 Y48.807 Z-12.000
G1 X46.189 Y48.593 Z-12.000
G1 X46.273 Y48.367 Z-12.000
G1 X46.396 Y48.145 Z-12.000
G1 X46.558 Y47.937 Z-12.000
G1 X46.756 Y47.752 Z-12.000
G1 X46.985 Y47.601 Z-12.000
G1 X47.236 Y47.489 Z-12.000
G1 X47.498 Y47.421 Z-12.000
G1 X47.760 Y47.396 Z-12.000
G1 X48.013 Y47.411 Z-12.000
G1 X48.250 Y47.462 Z-12.000
G1 X48.476 Y47.546 Z-12.000
G1 X48.698 Y47.669 Z-12.000
G1 X48.906 Y47.831 Z-12.000
G1 X49.091 Y48.029 Z-12.000
G1 X49.242 Y48.258 Z-12.000
G1 X49.354 Y48.509 Z-12.000
G1 X49.422 Y48.771 Z-12.000
G1 X49.447 Y49.033 Z-12.000
G1 X49.432 Y49.287 Z-12.000
G1 X49.381 Y49.523 Z-12.000
G1 X49.297 Y49.749 Z-12.000
G1 X49.174 Y49.971 Z-12.000
G1 X49.012 Y50.180 Z-12.000
G1 X48.814 Y50.364 Z-12.000
G1 X48.585 Y50.515 Z-12.000
G1 X48.334 Y50.627 Z-12.000
G1 X48.072 Y50.696 Z-12.000
G1 X47.810 Y50.720 Z-12.000
G1 X47.556 Y50.705 Z-12.000
G1 X47.320 Y50.654 Z-12.000
G0 X47.320 Y50.654
G0 Z6.000
G0 X143.226 Y53.428
G0 Z6.000
G1 X143.226 Y53.428 Z-0.750 F254.0
G1 X143.208 Y53.380 Z-0.750 F177.8
G1 X143.196 Y53.327 Z-0.750
G1 X143.192 Y53.271 Z-0.750
G1 X143.196 Y53.213 Z-0.750
G1 X143.209 Y53.156 Z-0.750
G1 X143.230 Y53.101 Z-0.750
G1 X143.259 Y53.050 Z-0.750
G1 X143.295 Y53.005 Z-0.750
G1 X143.335 Y52.966 Z-0.750
G1 X143.379 Y52.934 Z-0.750
G1 X143.425 Y52.910 Z-0.750
G1 X143.474 Y52.893 Z-0.750
G1 X143.527 Y52.881 Z-0.750
G1 X143.583 Y52.877 Z-0.750
G1 X143.640 Y52.881 Z-0.750
G1 X143.698 Y52.893 Z-0.750
G1 X143.753 Y52.915 Z-0.750
G1 X143.804 Y52.944 Z-0.750
G1 X143.849 Y52.979 Z-0.750
G1 X143.888 Y53.020 Z-0.750
G1 X143.919 Y53.064 Z-0.750
G1 X143.943 Y53.110 Z-0.750
G1 X143.963 Y53.164 Z-0.750
G1 X143.974 Y53.222 Z-0.750
G1 X143.977 Y53.285 Z-0.750
G1 X143.969 Y53.348 Z-0.750
G1 X143.951 Y53.410 Z-0.750
G1 X143.923 Y53.469 Z-0.750
G1 X143.886 Y53.521 Z-0.750
G1 X143.842 Y53.565 Z-0.750
G1 X143.794 Y53.601 Z-0.750
G1 X143.744 Y53.628 Z-0.750
G1 X143.695 Y53.646 Z-0.750
G1 X143.642 Y53.657 Z-0.750
G1 X143.586 Y53.662 Z-0.750
G1 X143.529 Y53.658 Z-0.750
G1 X143.471 Y53.645 Z-0.750
G1 X143.416 Y53.624 Z-0.750
G1 X143.365 Y53.595 Z-0.750
G1 X143.320 Y53.559 Z-0.750
G1 X143.281 Y53.518 Z-0.750
G1 X143.250 Y53.474 Z-0.750
G1 X143.226 Y53.428 Z-0.750
G1 X142.065 Y53.944 Z-0.750
G1 X141.990 Y53.738 Z-0.750
G1 X141.940 Y53.514 Z-0.750
G1 X141.922 Y53.277 Z-0.750
G1 X141.939 Y53.033 Z-0.750
G1 X141.993 Y52.790 Z-0.750
G1 X142.082 Y52.557 Z-0.750
G1 X142.205 Y52.341 Z-0.750
G1 X142.357 Y52.148 Z-0.750
G1 X142.529 Y51.985 Z-0.750
G1 X142.716 Y51.852 Z-0.750
G1 X142.910 Y51.750 Z-0.750
G1 X143.137 Y51.668 Z-0.750
G1 X143.386 Y51.619 Z-0.750
G1 X143.650 Y51.608 Z-0.750
G1 X143.918 Y51.641 Z-0.750
G1 X144.182 Y51.718 Z-0.750
G1 X144.429 Y51.837 Z-0.750
G1 X144.650 Y51.993 Z-0.750
G1 X144.839 Y52.178 Z-0.750
G1 X144.990 Y52.381 Z-0.750
G1 X145.104 Y52.595 Z-0.750
G1 X145.186 Y52.822 Z-0.750
G1 X145.235 Y53.071 Z-0.750
G1 X145.246 Y53.334 Z-0.750
G1 X145.213 Y53.603 Z-0.750
G1 X145.136 Y53.867 Z-0.750
G1 X145.017 Y54.114 Z-0.750
G1 X144.860 Y54.335 Z-0.750
G1 X144.676 Y54.523 Z-0.750
G1 X144.472 Y54.675 Z-0.750
G1 X144.259 Y54.789 Z-0.750
G1 X144.053 Y54.864 Z-0.750
G1 X143.830 Y54.914 Z-0.750
G1 X143.592 Y54.932 Z-0.750
G1 X143.348 Y54.915 Z-0.750
G1 X143.106 Y54.861 Z-0.750
G1 X142.872 Y54.771 Z-0.750
G1 X142.656 Y54.648 Z-0.750
G1 X142.464 Y54.497 Z-0.750
G1 X142.300 Y54.325 Z-0.750
G1 X142.167 Y54.138 Z-0.750
G1 X142.065 Y53.944 Z-0.750
G0 X142.065 Y53.944
G0 Z6.000
G0 X143.226 Y53.428
G0 Z6.000
G1 X143.226 Y53.428 Z-1.500 F254.0
G1 X143.208 Y53.380 Z-1.500 F177.8
G1 X143.196 Y53.327 Z-1.500
G1 X143.192 Y53.271 Z-1.500
G1 X143.196 Y53.213 Z-1.500
G1 X143.209 Y53.156 Z-1.500
G1 X143.230 Y53.101 Z-1.500
G1 X143.259 Y53.050 Z-1.500
G1 X143.295 Y53.005 Z-1.500
G1 X143.335 Y52.966 Z-1.500
G1 X143.379 Y52.934 Z-1.500
G1 X143.425 Y52.910 Z-1.500
G1 X143.474 Y52.893 Z-1.500
G1 X143.527 Y52.881 Z-1.500
G1 X143.583 Y52.877 Z-1.500
G1 X143.640 Y52.881 Z-1.500
G1 X143.698 Y52.893 Z-1.500
G1 X143.753 Y52.915 Z-1.500
G1 X143.804 Y52.944 Z-1.500
G1 X143.849 Y52.979 Z-1.500
G1 X143.888 Y53.020 Z-1.500
G1 X143.919 Y53.064 Z-1.500
G1 X143.943 Y53.110 Z-1.500
G1 X143.963 Y53.164 Z-1.500
G1 X143.974 Y53.222 Z-1.500
G1 X143.977 Y53.285 Z-1.500
G1 X143.969 Y53.348 Z-1.500
G1 X143.951 Y53.410 Z-1.500
G1 X143.923 Y53.469 Z-1.500
G1 X143.886 Y53.521 Z-1.500
G1 X143.842 Y53.565 Z-1.500
G1 X143.794 Y53.601 Z-1.500
G1 X143.744 Y53.628 Z-1.500
G1 X143.695 Y53.646 Z-1.500
G1 X143.642 Y53.657 Z-1.500
G1 X143.586 Y53.662 Z-1.500
G1 X143.529 Y53.658 Z-1.500
G1 X143.471 Y53.645 Z-1.500
G1 X143.416 Y53.624 Z-1.500
G1 X143.365 Y53.595 Z-1.500
G1 X143.320 Y53.559 Z-1.500
G1 X143.281 Y53.518 Z-1.500
G1 X143.250 Y53.474 Z-1.500
G1 X143.226 Y53.428 Z-1.500
G1 X142.065 Y53.944 Z-1.500
G1 X141.990 Y53.738 Z-1.500
G1 X141.940 Y53.514 Z-1.500
G1 X141.922 Y53.277 Z-1.500
G1 X141.939 Y53.033 Z-1.500
G1 X141.993 Y52.790 Z-1.500
G1 X142.082 Y52.557 Z-1.500
G1 X142.205 Y52.341 Z-1.500
G1 X142.357 Y52.148 Z-1.500
G1 X142.529 Y51.985 Z-1.500
G1 X142.716 Y51.852 Z-1.500
G1 X142.910 Y51.750 Z-1.500
G1 X143.137 Y51.668 Z-1.500
G1 X143.386 Y51.619 Z-1.500
G1 X143.650 Y51.608 Z-1.500
G1 X143.918 Y51.641 Z-1.500
G1 X144.182 Y51.718 Z-1.500
G1 X144.429 Y51.837 Z-1.500
G1 X144.650 Y51.993 Z-1.500
G1 X144.839 Y52.178 Z-1.500
G1 X144.990 Y52.381 Z-1.500
G1 X145.104 Y52.595 Z-1.500
G1 X145.186 Y52.822 Z-1.500
G1 X145.235 Y53.071 Z-1.500
G1 X145.246 Y53.334 Z-1.500
G1 X145.213 Y53.603 Z-1.500
G1 X145.136 Y53.867 Z-1.500
G1 X145.017 Y54.114 Z-1.500
G1 X144.860 Y54.335 Z-1.500
G1 X144.676 Y54.523 Z-1.500
G1 X144.472 Y54.675 Z-1.500
G1 X144.259 Y54.789 Z-1.500
G1 X144.053 Y54.864 Z-1.500
G1 X143.830 Y54.914 Z-1.500
G1 X143.592 Y54.932 Z-1.500
G1 X143.348 Y54.915 Z-1.500
G1 X143.106 Y54.861 Z-1.500
G1 X142.872 Y54.771 Z-1.500
G1 X142.656 Y54.648 Z-1.500
G1 X142.464 Y54.497 Z-1.500
G1 X142.300 Y54.325 Z-1.500
G1 X142.167 Y54.138 Z-1.500
G1 X142.065 Y53.944 Z-1.500
G0 X142.065 Y53.944
G0 Z6.000
G0 X143.226 Y53.428
G0 Z6.000
G1 X143.226 Y53.428 Z-2.250 F254.0
G1 X143.208 Y53.380 Z-2.250 F177.8
G1 X143.196 Y53.327 Z-2.250
G1 X143.192 Y53.271 Z-2.250
G1 X143.196 Y53.213 Z-2.250
G1 X143.209 Y53.156 Z-2.250
G1 X143.230 Y53.101 Z-2.250
G1 X143.259 Y53.050 Z-2.250
G1 X143.295 Y53.005 Z-2.250
G1 X143.335 Y52.966 Z-2.250
G1 X143.379 Y52.934 Z-2.250
G1 X143.425 Y52.910 Z-2.250
G1 X143.474 Y52.893 Z-2.250
G1 X143.527 Y52.881 Z-2.250
G1 X143.583 Y52.877 Z-2.250
G1 X143.640 Y52.881 Z-2.250
G1 X143.698 Y52.893 Z-2.250
G1 X143.753 Y52.915 Z-2.250
G1 X143.804 Y52.944 Z-2.250
G1 X143.849 Y52.979 Z-2.250
G1 X143.888 Y53.020 Z-2.250
G1 X143.919 Y53.064 Z-2.250
G1 X143.943 Y53.110 Z-2.250
G1 X143.963 Y53.164 Z-2.250
G1 X143.974 Y53.222 Z-2.250
G1 X143.977 Y53.285 Z-2.250
G1 X143.969 Y53.348 Z-2.250
G1 X143.951 Y53.410 Z-2.250
G1 X143.923 Y53.469 Z-2.250
G1 X143.886 Y53.521 Z-2.250
G1 X143.842 Y53.565 Z-2.250
G1 X143.794 Y53.601 Z-2.250
G1 X143.744 Y53.628 Z-2.250
G1 X143.695 Y53.646 Z-2.250
G1 X143.642 Y53.657 Z-2.250
G1 X143.586 Y53.662 Z-2.250
G1 X143.529 Y53.658 Z-2.250
G1 X143.471 Y53.645 Z-2.250
G1 X143.416 Y53.624 Z-2.250
G1 X143.365 Y53.595 Z-2.250
G1 X143.320 Y53.559 Z-2.250
G1 X143.281 Y53.518 Z-2.250
G1 X143.250 Y53.474 Z-2.250
G1 X143.226 Y53.428 Z-2.250
G1 X142.065 Y53.944 Z-2.250
G1 X141.990 Y53.738 Z-2.250
G1 X141.940 Y53.514 Z-2.250
G1 X141.922 Y53.277 Z-2.250
G1 X141.939 Y53.033 Z-2.250
G1 X141.993 Y52.790 Z-2.250
G1 X142.082 Y52.557 Z-2.250
G1 X142.205 Y52.341 Z-2.250
G1 X142.357 Y52.148 Z-2.250
G1 X142.529 Y51.985 Z-2.250
G1 X142.716 Y51.852 Z-2.250
G1 X142.910 Y51.750 Z-2.250
G1 X143.137 Y51.668 Z-2.250
G1 X143.386 Y51.619 Z-2.250
G1 X143.650 Y51.608 Z-2.250
G1 X143.918 Y51.641 Z-2.250
G1 X144.182 Y51.718 Z-2.250
G1 X144.429 Y51.837 Z-2.250
G1 X144.650 Y51.993 Z-2.250
G1 X144.839 Y52.178 Z-2.250
G1 X144.990 Y52.381 Z-2.250
G1 X145.104 Y52.595 Z-2.250
G1 X145.186 Y52.822 Z-2.250
G1 X145.235 Y53.071 Z-2.250
G1 X145.246 Y53.334 Z-2.250
G1 X145.213 Y53.603 Z-2.250
G1 X145.136 Y53.867 Z-2.250
G1 X145.017 Y54.114 Z-2.250
G1 X144.860 Y54.335 Z-2.250
G1 X144.676 Y54.523 Z-2.250
G1 X144.472 Y54.675 Z-2.250
G1 X144.259 Y54.789 Z-2.250
G1 X144.053 Y54.864 Z-2.250
G1 X143.830 Y54.914 Z-2.250
G1 X143.592 Y54.932 Z-2.250
G1 X143.348 Y54.915 Z-2.250
G1 X143.106 Y54.861 Z-2.250
G1 X142.872 Y54.771 Z-2.250
G1 X142.656 Y54.648 Z-2.250
G1 X142.464 Y54.497 Z-2.250
G1 X142.300 Y54.325 Z-2.250
G1 X142.167 Y54.138 Z-2.250
G1 X142.065 Y53.944 Z-2.250
G0 X142.065 Y53.944
G0 Z6.000
G0 X143.226 Y53.428
G0 Z6.000
G1 X143.226 Y53.428 Z-3.000 F254.0
G1 X143.208 Y53.380 Z-3.000 F177.8
G1 X143.196 Y53.327 Z-3.000
G1 X143.192 Y53.271 Z-3.000
G1 X143.196 Y53.213 Z-3.000
G1 X143.209 Y53.156 Z-3.000
G1 X143.230 Y53.101 Z-3.000
G1 X143.259 Y53.050 Z-3.000
G1 X143.295 Y53.005 Z-3.000
G1 X143.335 Y52.966 Z-3.000
G1 X143.379 Y52.934 Z-3.000
G1 X143.425 Y52.910 Z-3.000
G1 X143.474 Y52.893 Z-3.000
G1 X143.527 Y52.881 Z-3.000
G1 X143.583 Y52.877 Z-3.000
G1 X143.640 Y52.881 Z-3.000
G1 X143.698 Y52.893 Z-3.000
G1 X143.753 Y52.915 Z-3.000
G1 X143.804 Y52.944 Z-3.000
G1 X143.849 Y52.979 Z-3.000
G1 X143.888 Y53.020 Z-3.000
G1 X143.919 Y53.064 Z-3.000
G1 X143.943 Y53.110 Z-3.000
G1 X143.963 Y53.164 Z-3.000
G1 X143.974 Y53.222 Z-3.000
G1 X143.977 Y53.285 Z-3.000
G1 X143.969 Y53.348 Z-3.000
G1 X143.951 Y53.410 Z-3.000
G1 X143.923 Y53.469 Z-3.000
G1 X143.886 Y53.521 Z-3.000
G1 X143.842 Y53.565 Z-3.000
G1 X143.794 Y53.601 Z-3.000
G1 X143.744 Y53.628 Z-3.000
G1 X143.695 Y53.646 Z-3.000
G1 X143.642 Y53.657 Z-3.000
G1 X143.586 Y53.662 Z-3.000
G1 X143.529 Y53.658 Z-3.000
G1 X143.471 Y53.645 Z-3.000
G1 X143.416 Y53.624 Z-3.000
G1 X143.365 Y53.595 Z-3.000
G1 X143.320 Y53.559 Z-3.000
G1 X143.281 Y53.518 Z-3.000
G1 X143.250 Y53.474 Z-3.000
G1 X143.226 Y53.428 Z-3.000
G1 X142.065 Y53.944 Z-3.000
G1 X141.990 Y53.738 Z-3.000
G1 X141.940 Y53.514 Z-3.000
G1 X141.922 Y53.277 Z-3.000
G1 X141.939 Y53.033 Z-3.000
G1 X141.993 Y52.790 Z-3.000
G1 X142.082 Y52.557 Z-3.000
G1 X142.205 Y52.341 Z-3.000
G1 X142.357 Y52.148 Z-3.000
G1 X142.529 Y51.985 Z-3.000
G1 X142.716 Y51.852 Z-3.000
G1 X142.910 Y51.750 Z-3.000
G1 X143.137 Y51.668 Z-3.000
G1 X143.386 Y51.619 Z-3.000
G1 X143.650 Y51.608 Z-3.000
G1 X143.918 Y51.641 Z-3.000
G1 X144.182 Y51.718 Z-3.000
G1 X144.429 Y51.837 Z-3.000
G1 X144.650 Y51.993 Z-3.000
G1 X144.839 Y52.178 Z-3.000
G1 X144.990 Y52.381 Z-3.000
G1 X145.104 Y52.595 Z-3.000
G1 X145.186 Y52.822 Z-3.000
G1 X145.235 Y53.071 Z-3.000
G1 X145.246 Y53.334 Z-3.000
G1 X145.213 Y53.603 Z-3.000
G1 X145.136 Y53.867 Z-3.000
G1 X145.017 Y54.114 Z-3.000
G1 X144.860 Y54.335 Z-3.000
G1 X144.676 Y54.523 Z-3.000
G1 X144.472 Y54.675 Z-3.000
G1 X144.259 Y54.789 Z-3.000
G1 X144.053 Y54.864 Z-3.000
G1 X143.830 Y54.914 Z-3.000
G1 X143.592 Y54.932 Z-3.000
G1 X143.348 Y54.915 Z-3.000
G1 X143.106 Y54.861 Z-3.000
G1 X142.872 Y54.771 Z-3.000
G1 X142.656 Y54.648 Z-3.000
G1 X142.464 Y54.497 Z-3.000
G1 X142.300 Y54.325 Z-3.000
G1 X142.167 Y54.138 Z-3.000
G1 X142.065 Y53.944 Z-3.000
G0 X142.065 Y53.944
G0 Z6.000
G0 X143.226 Y53.428
G0 Z6.000
G1 X143.226 Y53.428 Z-3.750 F254.0
G1 X143.208 Y53.380 Z-3.750 F177.8
G1 X143.196 Y53.327 Z-3.750
G1 X143.192 Y53.271 Z-3.750
G1 X143.196 Y53.213 Z-3.750
G1 X143.209 Y53.156 Z-3.750
G1 X143.230 Y53.101 Z-3.750
G1 X143.259 Y53.050 Z-3.750
G1 X143.295 Y53.005 Z-3.750
G1 X143.335 Y52.966 Z-3.750
G1 X143.379 Y52.934 Z-3.750
G1 X143.425 Y52.910 Z-3.750
G1 X143.474 Y52.893 Z-3.750
G1 X143.527 Y52.881 Z-3.750
G1 X143.583 Y52.877 Z-3.750
G1 X143.640 Y52.881 Z-3.750
G1 X143.698 Y52.893 Z-3.750
G1 X143.753 Y52.915 Z-3.750
G1 X143.804 Y52.944 Z-3.750
G1 X143.849 Y52.979 Z-3.750
G1 X143.888 Y53.020 Z-3.750
G1 X143.919 Y53.064 Z-3.750
G1 X143.943 Y53.110 Z-3.750
G1 X143.963 Y53.164 Z-3.750
G1 X143.974 Y53.222 Z-3.750
G1 X143.977 Y53.285 Z-3.750
G1 X143.969 Y53.348 Z-3.750
G1 X143.951 Y53.410 Z-3.750
G1 X143.923 Y53.469 Z-3.750
G1 X143.886 Y53.521 Z-3.750
G1 X143.842 Y53.565 Z-3.750
G1 X143.794 Y53.601 Z-3.750
G1 X143.744 Y53.628 Z-3.750
G1 X143.695 Y53.646 Z-3.750
G1 X143.642 Y53.657 Z-3.750
G1 X143.586 Y53.662 Z-3.750
G1 X143.529 Y53.658 Z-3.750
G1 X143.471 Y53.645 Z-3.750
G1 X143.416 Y53.624 Z-3.750
G1 X143.365 Y53.595 Z-3.750
G1 X143.320 Y53.559 Z-3.750
G1 X143.281 Y53.518 Z-3.750
G1 X143.250 Y53.474 Z-3.750
G1 X143.226 Y53.428 Z-3.750
G1 X142.065 Y53.944 Z-3.750
G1 X141.990 Y53.738 Z-3.750
G1 X141.940 Y53.514 Z-3.750
G1 X141.922 Y53.277 Z-3.750
G1 X141.939 Y53.033 Z-3.750
G1 X141.993 Y52.790 Z-3.750
G1 X142.082 Y52.557 Z-3.750
G1 X142.205 Y52.341 Z-3.750
G1 X142.357 Y52.148 Z-3.750
G1 X142.529 Y51.985 Z-3.750
G1 X142.716 Y51.852 Z-3.750
G1 X142.910 Y51.750 Z-3.750
G1 X143.137 Y51.668 Z-3.750
G1 X143.386 Y51.619 Z-3.750
G1 X143.650 Y51.608 Z-3.750
G1 X143.918 Y51.641 Z-3.750
G1 X144.182 Y51.718 Z-3.750
G1 X144.429 Y51.837 Z-3.750
G1 X144.650 Y51.993 Z-3.750
G1 X144.839 Y52.178 Z-3.750
G1 X144.990 Y52.381 Z-3.750
G1 X145.104 Y52.595 Z-3.750
G1 X145.186 Y52.822 Z-3.750
G1 X145.235 Y53.071 Z-3.750
G1 X145.246 Y53.334 Z-3.750
G1 X145.213 Y53.603 Z-3.750
G1 X145.136 Y53.867 Z-3.750
G1 X145.017 Y54.114 Z-3.750
G1 X144.860 Y54.335 Z-3.750
G1 X144.676 Y54.523 Z-3.750
G1 X144.472 Y54.675 Z-3.750
G1 X144.259 Y54.789 Z-3.750
G1 X144.053 Y54.864 Z-3.750
G1 X143.830 Y54.914 Z-3.750
G1 X143.592 Y54.932 Z-3.750
G1 X143.348 Y54.915 Z-3.750
G1 X143.106 Y54.861 Z-3.750
G1 X142.872 Y54.771 Z-3.750
G1 X142.656 Y54.648 Z-3.750
G1 X142.464 Y54.497 Z-3.750
G1 X142.300 Y54.325 Z-3.750
G1 X142.167 Y54.138 Z-3.750
G1 X142.065 Y53.944 Z-3.750
G0 X142.065 Y53.944
G0 Z6.000
G0 X143.226 Y53.428
G0 Z6.000
G1 X143.226 Y53.428 Z-4.500 F254.0
G1 X143.208 Y53.380 Z-4.500 F177.8
G1 X143.196 Y53.327 Z-4.500
G1 X143.192 Y53.271 Z-4.500
G1 X143.196 Y53.213 Z-4.500
G1 X143.209 Y53.156 Z-4.500
G1 X143.230 Y53.101 Z-4.500
G1 X143.259 Y53.050 Z-4.500
G1 X143.295 Y53.005 Z-4.500
G1 X143.335 Y52.966 Z-4.500
G1 X143.379 Y52.934 Z-4.500
G1 X143.425 Y52.910 Z-4.500
G1 X143.474 Y52.893 Z-4.500
G1 X143.527 Y52.881 Z-4.500
G1 X143.583 Y52.877 Z-4.500
G1 X143.640 Y52.881 Z-4.500
G1 X143.698 Y52.893 Z-4.500
G1 X143.753 Y52.915 Z-4.500
G1 X143.804 Y52.944 Z-4.500
G1 X143.849 Y52.979 Z-4.500
G1 X143.888 Y53.020 Z-4.500
G1 X143.919 Y53.064 Z-4.500
G1 X143.943 Y53.110 Z-4.500
G1 X143.963 Y53.164 Z-4.500
G1 X143.974 Y53.222 Z-4.500
G1 X143.977 Y53.285 Z-4.500
G1 X143.969 Y53.348 Z-4.500
G1 X143.951 Y53.410 Z-4.500
G1 X143.923 Y53.469 Z-4.500
G1 X143.886 Y53.521 Z-4.500
G1 X143.842 Y53.565 Z-4.500
G1 X143.794 Y53.601 Z-4.500
G1 X143.744 Y53.628 Z-4.500
G1 X143.695 Y53.646 Z-4.500
G1 X143.642 Y53.657 Z-4.500
G1 X143.586 Y53.662 Z-4.500
G1 X143.529 Y53.658 Z-4.500
G1 X143.471 Y53.645 Z-4.500
G1 X143.416 Y53.624 Z-4.500
G1 X143.365 Y53.595 Z-4.500
G1 X143.320 Y53.559 Z-4.500
G1 X143.281 Y53.518 Z-4.500
G1 X143.250 Y53.474 Z-4.500
G1 X143.226 Y53.428 Z-4.500
G1 X142.065 Y53.944 Z-4.500
G1 X141.990 Y53.738 Z-4.500
G1 X141.940 Y53.514 Z-4.500
G1 X141.922 Y53.277 Z-4.500
G1 X141.939 Y53.033 Z-4.500
G1 X141.993 Y52.790 Z-4.500
G1 X142.082 Y52.557 Z-4.500
G1 X142.205 Y52.341 Z-4.500
G1 X142.357 Y52.148 Z-4.500
G1 X142.529 Y51.985 Z-4.500
G1 X142.716 Y51.852 Z-4.500
G1 X142.910 Y51.750 Z-4.500
G1 X143.137 Y51.668 Z-4.500
G1 X143.386 Y51.619 Z-4.500
G1 X143.650 Y51.608 Z-4.500
G1 X143.918 Y51.641 Z-4.500
G1 X144.182 Y51.718 Z-4.500
G1 X144.429 Y51.837 Z-4.500
G1 X144.650 Y51.993 Z-4.500
G1 X144.839 Y52.178 Z-4.500
G1 X144.990 Y52.381 Z-4.500
G1 X145.104 Y52.595 Z-4.500
G1 X145.186 Y52.822 Z-4.500
G1 X145.235 Y53.071 Z-4.500
G1 X145.246 Y53.334 Z-4.500
G1 X145.213 Y53.603 Z-4.500
G1 X145.136 Y53.867 Z-4.500
G1 X145.017 Y54.114 Z-4.500
G1 X144.860 Y54.335 Z-4.500
G1 X144.676 Y54.523 Z-4.500
G1 X144.472 Y54.675 Z-4.500
G1 X144.259 Y54.789 Z-4.500
G1 X144.053 Y54.864 Z-4.500
G1 X143.830 Y54.914 Z-4.500
G1 X143.592 Y54.932 Z-4.500
G1 X143.348 Y54.915 Z-4.500
G1 X143.106 Y54.861 Z-4.500
G1 X142.872 Y54.771 Z-4.500
G1 X142.656 Y54.648 Z-4.500
G1 X142.464 Y54.497 Z-4.500
G1 X142.300 Y54.325 Z-4.500
G1 X142.167 Y54.138 Z-4.500
G1 X142.065 Y53.944 Z-4.500
G0 X142.065 Y53.944
G0 Z6.000
G0 X143.226 Y53.428
G0 Z6.000
G1 X143.226 Y53.428 Z-5.250 F254.0
G1 X143.208 Y53.380 Z-5.250 F177.8
G1 X143.196 Y53.327 Z-5.250
G1 X143.192 Y53.271 Z-5.250
G1 X143.196 Y53.213 Z-5.250
G1 X143.209 Y53.156 Z-5.250
G1 X143.230 Y53.101 Z-5.250
G1 X143.259 Y53.050 Z-5.250
G1 X143.295 Y53.005 Z-5.250
G1 X143.335 Y52.966 Z-5.250
G1 X143.379 Y52.934 Z-5.250
G1 X143.425 Y52.910 Z-5.250
G1 X143.474 Y52.893 Z-5.250
G1 X143.527 Y52.881 Z-5.250
G1 X143.583 Y52.877 Z-5.250
G1 X143.640 Y52.881 Z-5.250
G1 X143.698 Y52.893 Z-5.250
G1 X143.753 Y52.915 Z-5.250
G1 X143.804 Y52.944 Z-5.250
G1 X143.849 Y52.979 Z-5.250
G1 X143.888 Y53.020 Z-5.250
G1 X143.919 Y53.064 Z-5.250
G1 X143.943 Y53.110 Z-5.250
G1 X143.963 Y53.164 Z-5.250
G1 X143.974 Y53.222 Z-5.250
G1 X143.977 Y53.285 Z-5.250
G1 X143.969 Y53.348 Z-5.250
G1 X143.951 Y53.410 Z-5.250
G1 X143.923 Y53.469 Z-5.250
G1 X143.886 Y53.521 Z-5.250
G1 X143.842 Y53.565 Z-5.250
G1 X143.794 Y53.601 Z-5.250
G1 X143.744 Y53.628 Z-5.250
G1 X143.695 Y53.646 Z-5.250
G1 X143.642 Y53.657 Z-5.250
G1 X143.586 Y53.662 Z-5.250
G1 X143.529 Y53.658 Z-5.250
G1 X143.471 Y53.645 Z-5.250
G1 X143.416 Y53.624 Z-5.250
G1 X143.365 Y53.595 Z-5.250
G1 X143.320 Y53.559 Z-5.250
G1 X143.281 Y53.518 Z-5.250
G1 X143.250 Y53.474 Z-5.250
G1 X143.226 Y53.428 Z-5.250
G1 X142.065 Y53.944 Z-5.250
G1 X141.990 Y53.738 Z-5.250
G1 X141.940 Y53.514 Z-5.250
G1 X141.922 Y53.277 Z-5.250
G1 X141.939 Y53.033 Z-5.250
G1 X141.993 Y52.790 Z-5.250
G1 X142.082 Y52.557 Z-5.250
G1 X142.205 Y52.341 Z-5.250
G1 X142.357 Y52.148 Z-5.250
G1 X142.529 Y51.985 Z-5.250
G1 X142.716 Y51.852 Z-5.250
G1 X142.910 Y51.750 Z-5.250
G1 X143.137 Y51.668 Z-5.250
G1 X143.386 Y51.619 Z-5.250
G1 X143.650 Y51.608 Z-5.250
G1 X143.918 Y51.641 Z-5.250
G1 X144.182 Y51.718 Z-5.250
G1 X144.429 Y51.837 Z-5.250
G1 X144.650 Y51.993 Z-5.250
G1 X144.839 Y52.178 Z-5.250
G1 X144.990 Y52.381 Z-5.250
G1 X145.104 Y52.595 Z-5.250
G1 X145.186 Y52.822 Z-5.250
G1 X145.235 Y53.071 Z-5.250
G1 X145.246 Y53.334 Z-5.250
G1 X145.213 Y53.603 Z-5.250
G1 X145.136 Y53.867 Z-5.250
G1 X145.017 Y54.114 Z-5.250
G1 X144.860 Y54.335 Z-5.250
G1 X144.676 Y54.523 Z-5.250
G1 X144.472 Y54.675 Z-5.250
G1 X144.259 Y54.789 Z-5.250
G1 X144.053 Y54.864 Z-5.250
G1 X143.830 Y54.914 Z-5.250
G1 X143.592 Y54.932 Z-5.250
G1 X143.348 Y54.915 Z-5.250
G1 X143.106 Y54.861 Z-5.250
G1 X142.872 Y54.771 Z-5.250
G1 X142.656 Y54.648 Z-5.250
G1 X142.464 Y54.497 Z-5.250
G1 X142.300 Y54.325 Z-5.250
G1 X142.167 Y54.138 Z-5.250
G1 X142.065 Y53.944 Z-5.250
G0 X142.065 Y53.944
G0 Z6.000
G0 X143.226 Y53.428
G0 Z6.000
G1 X143.226 Y53.428 Z-6.000 F254.0
G1 X143.208 Y53.380 Z-6.000 F177.8
G1 X143.196 Y53.327 Z-6.000
G1 X143.192 Y53.271 Z-6.000
G1 X143.196 Y53.213 Z-6.000
G1 X143.209 Y53.156 Z-6.000
G1 X143.230 Y53.101 Z-6.000
G1 X143.259 Y53.050 Z-6.000
G1 X143.295 Y53.005 Z-6.000
G1 X143.335 Y52.966 Z-6.000
G1 X143.379 Y52.934 Z-6.000
G1 X143.425 Y52.910 Z-6.000
G1 X143.474 Y52.893 Z-6.000
G1 X143.527 Y52.881 Z-6.000
G1 X143.583 Y52.877 Z-6.000
G1 X143.640 Y52.881 Z-6.000
G1 X143.698 Y52.893 Z-6.000
G1 X143.753 Y52.915 Z-6.000
G1 X143.804 Y52.944 Z-6.000
G1 X143.849 Y52.979 Z-6.000
G1 X143.888 Y53.020 Z-6.000
G1 X143.919 Y53.064 Z-6.000
G1 X143.943 Y53.110 Z-6.000
G1 X143.963 Y53.164 Z-6.000
G1 X143.974 Y53.222 Z-6.000
G1 X143.977 Y53.285 Z-6.000
G1 X143.969 Y53.348 Z-6.000
G1 X143.951 Y53.410 Z-6.000
G1 X143.923 Y53.469 Z-6.000
G1 X143.886 Y53.521 Z-6.000
G1 X143.842 Y53.565 Z-6.000
G1 X143.794 Y53.601 Z-6.000
G1 X143.744 Y53.628 Z-6.000
G1 X143.695 Y53.646 Z-6.000
G1 X143.642 Y53.657 Z-6.000
G1 X143.586 Y53.662 Z-6.000
G1 X143.529 Y53.658 Z-6.000
G1 X143.471 Y53.645 Z-6.000
G1 X143.416 Y53.624 Z-6.000
G1 X143.365 Y53.595 Z-6.000
G1 X143.320 Y53.559 Z-6.000
G1 X143.281 Y53.518 Z-6.000
G1 X143.250 Y53.474 Z-6.000
G1 X143.226 Y53.428 Z-6.000
G1 X142.065 Y53.944 Z-6.000
G1 X141.990 Y53.738 Z-6.000
G1 X141.940 Y53.514 Z-6.000
G1 X141.922 Y53.277 Z-6.000
G1 X141.939 Y53.033 Z-6.000
G1 X141.993 Y52.790 Z-6.000
G1 X142.082 Y52.557 Z-6.000
G1 X142.205 Y52.341 Z-6.000
G1 X142.357 Y52.148 Z-6.000
G1 X142.529 Y51.985 Z-6.000
G1 X142.716 Y51.852 Z-6.000
G1 X142.910 Y51.750 Z-6.000
G1 X143.137 Y51.668 Z-6.000
G1 X143.386 Y51.619 Z-6.000
G1 X143.650 Y51.608 Z-6.000
G1 X143.918 Y51.641 Z-6.000
G1 X144.182 Y51.718 Z-6.000
G1 X144.429 Y51.837 Z-6.000
G1 X144.650 Y51.993 Z-6.000
G1 X144.839 Y52.178 Z-6.000
G1 X144.990 Y52.381 Z-6.000
G1 X145.104 Y52.595 Z-6.000
G1 X145.186 Y52.822 Z-6.000
G1 X145.235 Y53.071 Z-6.000
G1 X145.246 Y53.334 Z-6.000
G1 X145.213 Y53.603 Z-6.000
G1 X145.136 Y53.867 Z-6.000
G1 X145.017 Y54.114 Z-6.000
G1 X144.860 Y54.335 Z-6.000
G1 X144.676 Y54.523 Z-6.000
G1 X144.472 Y54.675 Z-6.000
G1 X144.259 Y54.789 Z-6.000
G1 X144.053 Y54.864 Z-6.000
G1 X143.830 Y54.914 Z-6.000
G1 X143.592 Y54.932 Z-6.000
G1 X143.348 Y54.915 Z-6.000
G1 X143.106 Y54.861 Z-6.000
G1 X142.872 Y54.771 Z-6.000
G1 X142.656 Y54.648 Z-6.000
G1 X142.464 Y54.497 Z-6.000
G1 X142.300 Y54.325 Z-6.000
G1 X142.167 Y54.138 Z-6.000
G1 X142.065 Y53.944 Z-6.000
G0 X142.065 Y53.944
G0 Z6.000
G0 X143.226 Y53.428
G0 Z6.000
G1 X143.226 Y53.428 Z-6.750 F254.0
G1 X143.208 Y53.380 Z-6.750 F177.8
G1 X143.196 Y53.327 Z-6.750
G1 X143.192 Y53.271 Z-6.750
G1 X143.196 Y53.213 Z-6.750
G1 X143.209 Y53.156 Z-6.750
G1 X143.230 Y53.101 Z-6.750
G1 X143.259 Y53.050 Z-6.750
G1 X143.295 Y53.005 Z-6.750
G1 X143.335 Y52.966 Z-6.750
G1 X143.379 Y52.934 Z-6.750
G1 X143.425 Y52.910 Z-6.750
G1 X143.474 Y52.893 Z-6.750
G1 X143.527 Y52.881 Z-6.750
G1 X143.583 Y52.877 Z-6.750
G1 X143.640 Y52.881 Z-6.750
G1 X143.698 Y52.893 Z-6.750
G1 X143.753 Y52.915 Z-6.750
G1 X143.804 Y52.944 Z-6.750
G1 X143.849 Y52.979 Z-6.750
G1 X143.888 Y53.020 Z-6.750
G1 X143.919 Y53.064 Z-6.750
G1 X143.943 Y53.110 Z-6.750
G1 X143.963 Y53.164 Z-6.750
G1 X143.974 Y53.222 Z-6.750
G1 X143.977 Y53.285 Z-6.750
G1 X143.969 Y53.348 Z-6.750
G1 X143.951 Y53.410 Z-6.750
G1 X143.923 Y53.469 Z-6.750
G1 X143.886 Y53.521 Z-6.750
G1 X143.842 Y53.565 Z-6.750
G1 X143.794 Y53.601 Z-6.750
G1 X143.744 Y53.628 Z-6.750
G1 X143.695 Y53.646 Z-6.750
G1 X143.642 Y53.657 Z-6.750
G1 X143.586 Y53.662 Z-6.750
G1 X143.529 Y53.658 Z-6.750
G1 X143.471 Y53.645 Z-6.750
G1 X143.416 Y53.624 Z-6.750
G1 X143.365 Y53.595 Z-6.750
G1 X143.320 Y53.559 Z-6.750
G1 X143.281 Y53.518 Z-6.750
G1 X143.250 Y53.474 Z-6.750
G1 X143.226 Y53.428 Z-6.750
G1 X142.065 Y53.944 Z-6.750
G1 X141.990 Y53.738 Z-6.750
G1 X141.940 Y53.514 Z-6.750
G1 X141.922 Y53.277 Z-6.750
G1 X141.939 Y53.033 Z-6.750
G1 X141.993 Y52.790 Z-6.750
G1 X142.082 Y52.557 Z-6.750
G1 X142.205 Y52.341 Z-6.750
G1 X142.357 Y52.148 Z-6.750
G1 X142.529 Y51.985 Z-6.750
G1 X142.716 Y51.852 Z-6.750
G1 X142.910 Y51.750 Z-6.750
G1 X143.137 Y51.668 Z-6.750
G1 X143.386 Y51.619 Z-6.750
G1 X143.650 Y51.608 Z-6.750
G1 X143.918 Y51.641 Z-6.750
G1 X144.182 Y51.718 Z-6.750
G1 X144.429 Y51.837 Z-6.750
G1 X144.650 Y51.993 Z-6.750
G1 X144.839 Y52.178 Z-6.750
G1 X144.990 Y52.381 Z-6.750
G1 X145.104 Y52.595 Z-6.750
G1 X145.186 Y52.822 Z-6.750
G1 X145.235 Y53.071 Z-6.750
G1 X145.246 Y53.334 Z-6.750
G1 X145.213 Y53.603 Z-6.750
G1 X145.136 Y53.867 Z-6.750
G1 X145.017 Y54.114 Z-6.750
G1 X144.860 Y54.335 Z-6.750
G1 X144.676 Y54.523 Z-6.750
G1 X144.472 Y54.675 Z-6.750
G1 X144.259 Y54.789 Z-6.750
G1 X144.053 Y54.864 Z-6.750
G1 X143.830 Y54.914 Z-6.750
G1 X143.592 Y54.932 Z-6.750
G1 X143.348 Y54.915 Z-6.750
G1 X143.106 Y54.861 Z-6.750
G1 X142.872 Y54.771 Z-6.750
G1 X142.656 Y54.648 Z-6.750
G1 X142.464 Y54.497 Z-6.750
G1 X142.300 Y54.325 Z-6.750
G1 X142.167 Y54.138 Z-6.750
G1 X142.065 Y53.944 Z-6.750
G0 X142.065 Y53.944
G0 Z6.000
G0 X143.226 Y53.428
G0 Z6.000
G1 X143.226 Y53.428 Z-7.500 F254.0
G1 X143.208 Y53.380 Z-7.500 F177.8
G1 X143.196 Y53.327 Z-7.500
G1 X143.192 Y53.271 Z-7.500
G1 X143.196 Y53.213 Z-7.500
G1 X143.209 Y53.156 Z-7.500
G1 X143.230 Y53.101 Z-7.500
G1 X143.259 Y53.050 Z-7.500
G1 X143.295 Y53.005 Z-7.500
G1 X143.335 Y52.966 Z-7.500
G1 X143.379 Y52.934 Z-7.500
G1 X143.425 Y52.910 Z-7.500
G1 X143.474 Y52.893 Z-7.500
G1 X143.527 Y52.881 Z-7.500
G1 X143.583 Y52.877 Z-7.500
G1 X143.640 Y52.881 Z-7.500
G1 X143.698 Y52.893 Z-7.500
G1 X143.753 Y52.915 Z-7.500
G1 X143.804 Y52.944 Z-7.500
G1 X143.849 Y52.979 Z-7.500
G1 X143.888 Y53.020 Z-7.500
G1 X143.919 Y53.064 Z-7.500
G1 X143.943 Y53.110 Z-7.500
G1 X143.963 Y53.164 Z-7.500
G1 X143.974 Y53.222 Z-7.500
G1 X143.977 Y53.285 Z-7.500
G1 X143.969 Y53.348 Z-7.500
G1 X143.951 Y53.410 Z-7.500
G1 X143.923 Y53.469 Z-7.500
G1 X143.886 Y53.521 Z-7.500
G1 X143.842 Y53.565 Z-7.500
G1 X143.794 Y53.601 Z-7.500
G1 X143.744 Y53.628 Z-7.500
G1 X143.695 Y53.646 Z-7.500
G1 X143.642 Y53.657 Z-7.500
G1 X143.586 Y53.662 Z-7.500
G1 X143.529 Y53.658 Z-7.500
G1 X143.471 Y53.645 Z-7.500
G1 X143.416 Y53.624 Z-7.500
G1 X143.365 Y53.595 Z-7.500
G1 X143.320 Y53.559 Z-7.500
G1 X143.281 Y53.518 Z-7.500
G1 X143.250 Y53.474 Z-7.500
G1 X143.226 Y53.428 Z-7.500
G1 X142.065 Y53.944 Z-7.500
G1 X141.990 Y53.738 Z-7.500
G1 X141.940 Y53.514 Z-7.500
G1 X141.922 Y53.277 Z-7.500
G1 X141.939 Y53.033 Z-7.500
G1 X141.993 Y52.790 Z-7.500
G1 X142.082 Y52.557 Z-7.500
G1 X142.205 Y52.341 Z-7.500
G1 X142.357 Y52.148 Z-7.500
G1 X142.529 Y51.985 Z-7.500
G1 X142.716 Y51.852 Z-7.500
G1 X142.910 Y51.750 Z-7.500
G1 X143.137 Y51.668 Z-7.500
G1 X143.386 Y51.619 Z-7.500
G1 X143.650 Y51.608 Z-7.500
G1 X143.918 Y51.641 Z-7.500
G1 X144.182 Y51.718 Z-7.500
G1 X144.429 Y51.837 Z-7.500
G1 X144.650 Y51.993 Z-7.500
G1 X144.839 Y52.178 Z-7.500
G1 X144.990 Y52.381 Z-7.500
G1 X145.104 Y52.595 Z-7.500
G1 X145.186 Y52.822 Z-7.500
G1 X145.235 Y53.071 Z-7.500
G1 X145.246 Y53.334 Z-7.500
G1 X145.213 Y53.603 Z-7.500
G1 X145.136 Y53.867 Z-7.500
G1 X145.017 Y54.114 Z-7.500
G1 X144.860 Y54.335 Z-7.500
G1 X144.676 Y54.523 Z-7.500
G1 X144.472 Y54.675 Z-7.500
G1 X144.259 Y54.789 Z-7.500
G1 X144.053 Y54.864 Z-7.500
G1 X143.830 Y54.914 Z-7.500
G1 X143.592 Y54.932 Z-7.500
G1 X143.348 Y54.915 Z-7.500
G1 X143.106 Y54.861 Z-7.500
G1 X142.872 Y54.771 Z-7.500
G1 X142.656 Y54.648 Z-7.500
G1 X142.464 Y54.497 Z-7.500
G1 X142.300 Y54.325 Z-7.500
G1 X142.167 Y54.138 Z-7.500
G1 X142.065 Y53.944 Z-7.500
G0 X142.065 Y53.944
G0 Z6.000
G0 X143.226 Y53.428
G0 Z6.000
G1 X143.226 Y53.428 Z-8.250 F254.0
G1 X143.208 Y53.380 Z-8.250 F177.8
G1 X143.196 Y53.327 Z-8.250
G1 X143.192 Y53.271 Z-8.250
G1 X143.196 Y53.213 Z-8.250
G1 X143.209 Y53.156 Z-8.250
G1 X143.230 Y53.101 Z-8.250
G1 X143.259 Y53.050 Z-8.250
G1 X143.295 Y53.005 Z-8.250
G1 X143.335 Y52.966 Z-8.250
G1 X143.379 Y52.934 Z-8.250
G1 X143.425 Y52.910 Z-8.250
G1 X143.474 Y52.893 Z-8.250
G1 X143.527 Y52.881 Z-8.250
G1 X143.583 Y52.877 Z-8.250
G1 X143.640 Y52.881 Z-8.250
G1 X143.698 Y52.893 Z-8.250
G1 X143.753 Y52.915 Z-8.250
G1 X143.804 Y52.944 Z-8.250
G1 X143.849 Y52.979 Z-8.250
G1 X143.888 Y53.020 Z-8.250
G1 X143.919 Y53.064 Z-8.250
G1 X143.943 Y53.110 Z-8.250
G1 X143.963 Y53.164 Z-8.250
G1 X143.974 Y53.222 Z-8.250
G1 X143.977 Y53.285 Z-8.250
G1 X143.969 Y53.348 Z-8.250
G1 X143.951 Y53.410 Z-8.250
G1 X143.923 Y53.469 Z-8.250
G1 X143.886 Y53.521 Z-8.250
G1 X143.842 Y53.565 Z-8.250
G1 X143.794 Y53.601 Z-8.250
G1 X143.744 Y53.628 Z-8.250
G1 X143.695 Y53.646 Z-8.250
G1 X143.642 Y53.657 Z-8.250
G1 X143.586 Y53.662 Z-8.250
G1 X143.529 Y53.658 Z-8.250
G1 X143.471 Y53.645 Z-8.250
G1 X143.416 Y53.624 Z-8.250
G1 X143.365 Y53.595 Z-8.250
G1 X143.320 Y53.559 Z-8.250
G1 X143.281 Y53.518 Z-8.250
G1 X143.250 Y53.474 Z-8.250
G1 X143.226 Y53.428 Z-8.250
G1 X142.065 Y53.944 Z-8.250
G1 X141.990 Y53.738 Z-8.250
G1 X141.940 Y53.514 Z-8.250
G1 X141.922 Y53.277 Z-8.250
G1 X141.939 Y53.033 Z-8.250
G1 X141.993 Y52.790 Z-8.250
G1 X142.082 Y52.557 Z-8.250
G1 X142.205 Y52.341 Z-8.250
G1 X142.357 Y52.148 Z-8.250
G1 X142.529 Y51.985 Z-8.250
G1 X142.716 Y51.852 Z-8.250
G1 X142.910 Y51.750 Z-8.250
G1 X143.137 Y51.668 Z-8.250
G1 X143.386 Y51.619 Z-8.250
G1 X143.650 Y51.608 Z-8.250
G1 X143.918 Y51.641 Z-8.250
G1 X144.182 Y51.718 Z-8.250
G1 X144.429 Y51.837 Z-8.250
G1 X144.650 Y51.993 Z-8.250
G1 X144.839 Y52.178 Z-8.250
G1 X144.990 Y52.381 Z-8.250
G1 X145.104 Y52.595 Z-8.250
G1 X145.186 Y52.822 Z-8.250
G1 X145.235 Y53.071 Z-8.250
G1 X145.246 Y53.334 Z-8.250
G1 X145.213 Y53.603 Z-8.250
G1 X145.136 Y53.867 Z-8.250
G1 X145.017 Y54.114 Z-8.250
G1 X144.860 Y54.335 Z-8.250
G1 X144.676 Y54.523 Z-8.250
G1 X144.472 Y54.675 Z-8.250
G1 X144.259 Y54.789 Z-8.250
G1 X144.053 Y54.864 Z-8.250
G1 X143.830 Y54.914 Z-8.250
G1 X143.592 Y54.932 Z-8.250
G1 X143.348 Y54.915 Z-8.250
G1 X143.106 Y54.861 Z-8.250
G1 X142.872 Y54.771 Z-8.250
G1 X142.656 Y54.648 Z-8.250
G1 X142.464 Y54.497 Z-8.250
G1 X142.300 Y54.325 Z-8.250
G1 X142.167 Y54.138 Z-8.250
G1 X142.065 Y53.944 Z-8.250
G0 X142.065 Y53.944
G0 Z6.000
G0 X143.226 Y53.428
G0 Z6.000
G1 X143.226 Y53.428 Z-9.000 F254.0
G1 X143.208 Y53.380 Z-9.000 F177.8
G1 X143.196 Y53.327 Z-9.000
G1 X143.192 Y53.271 Z-9.000
G1 X143.196 Y53.213 Z-9.000
G1 X143.209 Y53.156 Z-9.000
G1 X143.230 Y53.101 Z-9.000
G1 X143.259 Y53.050 Z-9.000
G1 X143.295 Y53.005 Z-9.000
G1 X143.335 Y52.966 Z-9.000
G1 X143.379 Y52.934 Z-9.000
G1 X143.425 Y52.910 Z-9.000
G1 X143.474 Y52.893 Z-9.000
G1 X143.527 Y52.881 Z-9.000
G1 X143.583 Y52.877 Z-9.000
G1 X143.640 Y52.881 Z-9.000
G1 X143.698 Y52.893 Z-9.000
G1 X143.753 Y52.915 Z-9.000
G1 X143.804 Y52.944 Z-9.000
G1 X143.849 Y52.979 Z-9.000
G1 X143.888 Y53.020 Z-9.000
G1 X143.919 Y53.064 Z-9.000
G1 X143.943 Y53.110 Z-9.000
G1 X143.963 Y53.164 Z-9.000
G1 X143.974 Y53.222 Z-9.000
G1 X143.977 Y53.285 Z-9.000
G1 X143.969 Y53.348 Z-9.000
G1 X143.951 Y53.410 Z-9.000
G1 X143.923 Y53.469 Z-9.000
G1 X143.886 Y53.521 Z-9.000
G1 X143.842 Y53.565 Z-9.000
G1 X143.794 Y53.601 Z-9.000
G1 X143.744 Y53.628 Z-9.000
G1 X143.695 Y53.646 Z-9.000
G1 X143.642 Y53.657 Z-9.000
G1 X143.586 Y53.662 Z-9.000
G1 X143.529 Y53.658 Z-9.000
G1 X143.471 Y53.645 Z-9.000
G1 X143.416 Y53.624 Z-9.000
G1 X143.365 Y53.595 Z-9.000
G1 X143.320 Y53.559 Z-9.000
G1 X143.281 Y53.518 Z-9.000
G1 X143.250 Y53.474 Z-9.000
G1 X143.226 Y53.428 Z-9.000
G1 X142.065 Y53.944 Z-9.000
G1 X141.990 Y53.738 Z-9.000
G1 X141.940 Y53.514 Z-9.000
G1 X141.922 Y53.277 Z-9.000
G1 X141.939 Y53.033 Z-9.000
G1 X141.993 Y52.790 Z-9.000
G1 X142.082 Y52.557 Z-9.000
G1 X142.205 Y52.341 Z-9.000
G1 X142.357 Y52.148 Z-9.000
G1 X142.529 Y51.985 Z-9.000
G1 X142.716 Y51.852 Z-9.000
G1 X142.910 Y51.750 Z-9.000
G1 X143.137 Y51.668 Z-9.000
G1 X143.386 Y51.619 Z-9.000
G1 X143.650 Y51.608 Z-9.000
G1 X143.918 Y51.641 Z-9.000
G1 X144.182 Y51.718 Z-9.000
G1 X144.429 Y51.837 Z-9.000
G1 X144.650 Y51.993 Z-9.000
G1 X144.839 Y52.178 Z-9.000
G1 X144.990 Y52.381 Z-9.000
G1 X145.104 Y52.595 Z-9.000
G1 X145.186 Y52.822 Z-9.000
G1 X145.235 Y53.071 Z-9.000
G1 X145.246 Y53.334 Z-9.000
G1 X145.213 Y53.603 Z-9.000
G1 X145.136 Y53.867 Z-9.000
G1 X145.017 Y54.114 Z-9.000
G1 X144.860 Y54.335 Z-9.000
G1 X144.676 Y54.523 Z-9.000
G1 X144.472 Y54.675 Z-9.000
G1 X144.259 Y54.789 Z-9.000
G1 X144.053 Y54.864 Z-9.000
G1 X143.830 Y54.914 Z-9.000
G1 X143.592 Y54.932 Z-9.000
G1 X143.348 Y54.915 Z-9.000
G1 X143.106 Y54.861 Z-9.000
G1 X142.872 Y54.771 Z-9.000
G1 X142.656 Y54.648 Z-9.000
G1 X142.464 Y54.497 Z-9.000
G1 X142.300 Y54.325 Z-9.000
G1 X142.167 Y54.138 Z-9.000
G1 X142.065 Y53.944 Z-9.000
G0 X142.065 Y53.944
G0 Z6.000
G0 X143.226 Y53.428
G0 Z6.000
G1 X143.226 Y53.428 Z-9.750 F254.0
G1 X143.208 Y53.380 Z-9.750 F177.8
G1 X143.196 Y53.327 Z-9.750
G1 X143.192 Y53.271 Z-9.750
G1 X143.196 Y53.213 Z-9.750
G1 X143.209 Y53.156 Z-9.750
G1 X143.230 Y53.101 Z-9.750
G1 X143.259 Y53.050 Z-9.750
G1 X143.295 Y53.005 Z-9.750
G1 X143.335 Y52.966 Z-9.750
G1 X143.379 Y52.934 Z-9.750
G1 X143.425 Y52.910 Z-9.750
G1 X143.474 Y52.893 Z-9.750
G1 X143.527 Y52.881 Z-9.750
G1 X143.583 Y52.877 Z-9.750
G1 X143.640 Y52.881 Z-9.750
G1 X143.698 Y52.893 Z-9.750
G1 X143.753 Y52.915 Z-9.750
G1 X143.804 Y52.944 Z-9.750
G1 X143.849 Y52.979 Z-9.750
G1 X143.888 Y53.020 Z-9.750
G1 X143.919 Y53.064 Z-9.750
G1 X143.943 Y53.110 Z-9.750
G1 X143.963 Y53.164 Z-9.750
G1 X143.974 Y53.222 Z-9.750
G1 X143.977 Y53.285 Z-9.750
G1 X143.969 Y53.348 Z-9.750
G1 X143.951 Y53.410 Z-9.750
G1 X143.923 Y53.469 Z-9.750
G1 X143.886 Y53.521 Z-9.750
G1 X143.842 Y53.565 Z-9.750
G1 X143.794 Y53.601 Z-9.750
G1 X143.744 Y53.628 Z-9.750
G1 X143.695 Y53.646 Z-9.750
G1 X143.642 Y53.657 Z-9.750
G1 X143.586 Y53.662 Z-9.750
G1 X143.529 Y53.658 Z-9.750
G1 X143.471 Y53.645 Z-9.750
G1 X143.416 Y53.624 Z-9.750
G1 X143.365 Y53.595 Z-9.750
G1 X143.320 Y53.559 Z-9.750
G1 X143.281 Y53.518 Z-9.750
G1 X143.250 Y53.474 Z-9.750
G1 X143.226 Y53.428 Z-9.750
G1 X142.065 Y53.944 Z-9.750
G1 X141.990 Y53.738 Z-9.750
G1 X141.940 Y53.514 Z-9.750
G1 X141.922 Y53.277 Z-9.750
G1 X141.939 Y53.033 Z-9.750
G1 X141.993 Y52.790 Z-9.750
G1 X142.082 Y52.557 Z-9.750
G1 X142.205 Y52.341 Z-9.750
G1 X142.357 Y52.148 Z-9.750
G1 X142.529 Y51.985 Z-9.750
G1 X142.716 Y51.852 Z-9.750
G1 X142.910 Y51.750 Z-9.750
G1 X143.137 Y51.668 Z-9.750
G1 X143.386 Y51.619 Z-9.750
G1 X143.650 Y51.608 Z-9.750
G1 X143.918 Y51.641 Z-9.750
G1 X144.182 Y51.718 Z-9.750
G1 X144.429 Y51.837 Z-9.750
G1 X144.650 Y51.993 Z-9.750
G1 X144.839 Y52.178 Z-9.750
G1 X144.990 Y52.381 Z-9.750
G1 X145.104 Y52.595 Z-9.750
G1 X145.186 Y52.822 Z-9.750
G1 X145.235 Y53.071 Z-9.750
G1 X145.246 Y53.334 Z-9.750
G1 X145.213 Y53.603 Z-9.750
G1 X145.136 Y53.867 Z-9.750
G1 X145.017 Y54.114 Z-9.750
G1 X144.860 Y54.335 Z-9.750
G1 X144.676 Y54.523 Z-9.750
G1 X144.472 Y54.675 Z-9.750
G1 X144.259 Y54.789 Z-9.750
G1 X144.053 Y54.864 Z-9.750
G1 X143.830 Y54.914 Z-9.750
G1 X143.592 Y54.932 Z-9.750
G1 X143.348 Y54.915 Z-9.750
G1 X143.106 Y54.861 Z-9.750
G1 X142.872 Y54.771 Z-9.750
G1 X142.656 Y54.648 Z-9.750
G1 X142.464 Y54.497 Z-9.750
G1 X142.300 Y54.325 Z-9.750
G1 X142.167 Y54.138 Z-9.750
G1 X142.065 Y53.944 Z-9.750
G0 X142.065 Y53.944
G0 Z6.000
G0 X143.226 Y53.428
G0 Z6.000
G1 X143.226 Y53.428 Z-10.500 F254.0
G1 X143.208 Y53.380 Z-10.500 F177.8
G1 X143.196 Y53.327 Z-10.500
G1 X143.192 Y53.271 Z-10.500
G1 X143.196 Y53.213 Z-10.500
G1 X143.209 Y53.156 Z-10.500
G1 X143.230 Y53.101 Z-10.500
G1 X143.259 Y53.050 Z-10.500
G1 X143.295 Y53.005 Z-10.500
G1 X143.335 Y52.966 Z-10.500
G1 X143.379 Y52.934 Z-10.500
G1 X143.425 Y52.910 Z-10.500
G1 X143.474 Y52.893 Z-10.500
G1 X143.527 Y52.881 Z-10.500
G1 X143.583 Y52.877 Z-10.500
G1 X143.640 Y52.881 Z-10.500
G1 X143.698 Y52.893 Z-10.500
G1 X143.753 Y52.915 Z-10.500
G1 X143.804 Y52.944 Z-10.500
G1 X143.849 Y52.979 Z-10.500
G1 X143.888 Y53.020 Z-10.500
G1 X143.919 Y53.064 Z-10.500
G1 X143.943 Y53.110 Z-10.500
G1 X143.963 Y53.164 Z-10.500
G1 X143.974 Y53.222 Z-10.500
G1 X143.977 Y53.285 Z-10.500
G1 X143.969 Y53.348 Z-10.500
G1 X143.951 Y53.410 Z-10.500
G1 X143.923 Y53.469 Z-10.500
G1 X143.886 Y53.521 Z-10.500
G1 X143.842 Y53.565 Z-10.500
G1 X143.794 Y53.601 Z-10.500
G1 X143.744 Y53.628 Z-10.500
G1 X143.695 Y53.646 Z-10.500
G1 X143.642 Y53.657 Z-10.500
G1 X143.586 Y53.662 Z-10.500
G1 X143.529 Y53.658 Z-10.500
G1 X143.471 Y53.645 Z-10.500
G1 X143.416 Y53.624 Z-10.500
G1 X143.365 Y53.595 Z-10.500
G1 X143.320 Y53.559 Z-10.500
G1 X143.281 Y53.518 Z-10.500
G1 X143.250 Y53.474 Z-10.500
G1 X143.226 Y53.428 Z-10.500
G1 X142.065 Y53.944 Z-10.500
G1 X141.990 Y53.738 Z-10.500
G1 X141.940 Y53.514 Z-10.500
G1 X141.922 Y53.277 Z-10.500
G1 X141.939 Y53.033 Z-10.500
G1 X141.993 Y52.790 Z-10.500
G1 X142.082 Y52.557 Z-10.500
G1 X142.205 Y52.341 Z-10.500
G1 X142.357 Y52.148 Z-10.500
G1 X142.529 Y51.985 Z-10.500
G1 X142.716 Y51.852 Z-10.500
G1 X142.910 Y51.750 Z-10.500
G1 X143.137 Y51.668 Z-10.500
G1 X143.386 Y51.619 Z-10.500
G1 X143.650 Y51.608 Z-10.500
G1 X143.918 Y51.641 Z-10.500
G1 X144.182 Y51.718 Z-10.500
G1 X144.429 Y51.837 Z-10.500
G1 X144.650 Y51.993 Z-10.500
G1 X144.839 Y52.178 Z-10.500
G1 X144.990 Y52.381 Z-10.500
G1 X145.104 Y52.595 Z-10.500
G1 X145.186 Y52.822 Z-10.500
G1 X145.235 Y53.071 Z-10.500
G1 X145.246 Y53.334 Z-10.500
G1 X145.213 Y53.603 Z-10.500
G1 X145.136 Y53.867 Z-10.500
G1 X145.017 Y54.114 Z-10.500
G1 X144.860 Y54.335 Z-10.500
G1 X144.676 Y54.523 Z-10.500
G1 X144.472 Y54.675 Z-10.500
G1 X144.259 Y54.789 Z-10.500
G1 X144.053 Y54.864 Z-10.500
G1 X143.830 Y54.914 Z-10.500
G1 X143.592 Y54.932 Z-10.500
G1 X143.348 Y54.915 Z-10.500
G1 X143.106 Y54.861 Z-10.500
G1 X142.872 Y54.771 Z-10.500
G1 X142.656 Y54.648 Z-10.500
G1 X142.464 Y54.497 Z-10.500
G1 X142.300 Y54.325 Z-10.500
G1 X142.167 Y54.138 Z-10.500
G1 X142.065 Y53.944 Z-10.500
G0 X142.065 Y53.944
G0 Z6.000
G0 X143.226 Y53.428
G0 Z6.000
G1 X143.226 Y53.428 Z-11.250 F254.0
G1 X143.208 Y53.380 Z-11.250 F177.8
G1 X143.196 Y53.327 Z-11.250
G1 X143.192 Y53.271 Z-11.250
G1 X143.196 Y53.213 Z-11.250
G1 X143.209 Y53.156 Z-11.250
G1 X143.230 Y53.101 Z-11.250
G1 X143.259 Y53.050 Z-11.250
G1 X143.295 Y53.005 Z-11.250
G1 X143.335 Y52.966 Z-11.250
G1 X143.379 Y52.934 Z-11.250
G1 X143.425 Y52.910 Z-11.250
G1 X143.474 Y52.893 Z-11.250
G1 X143.527 Y52.881 Z-11.250
G1 X143.583 Y52.877 Z-11.250
G1 X143.640 Y52.881 Z-11.250
G1 X143.698 Y52.893 Z-11.250
G1 X143.753 Y52.915 Z-11.250
G1 X143.804 Y52.944 Z-11.250
G1 X143.849 Y52.979 Z-11.250
G1 X143.888 Y53.020 Z-11.250
G1 X143.919 Y53.064 Z-11.250
G1 X143.943 Y53.110 Z-11.250
G1 X143.963 Y53.164 Z-11.250
G1 X143.974 Y53.222 Z-11.250
G1 X143.977 Y53.285 Z-11.250
G1 X143.969 Y53.348 Z-11.250
G1 X143.951 Y53.410 Z-11.250
G1 X143.923 Y53.469 Z-11.250
G1 X143.886 Y53.521 Z-11.250
G1 X143.842 Y53.565 Z-11.250
G1 X143.794 Y53.601 Z-11.250
G1 X143.744 Y53.628 Z-11.250
G1 X143.695 Y53.646 Z-11.250
G1 X143.642 Y53.657 Z-11.250
G1 X143.586 Y53.662 Z-11.250
G1 X143.529 Y53.658 Z-11.250
G1 X143.471 Y53.645 Z-11.250
G1 X143.416 Y53.624 Z-11.250
G1 X143.365 Y53.595 Z-11.250
G1 X143.320 Y53.559 Z-11.250
G1 X143.281 Y53.518 Z-11.250
G1 X143.250 Y53.474 Z-11.250
G1 X143.226 Y53.428 Z-11.250
G1 X142.065 Y53.944 Z-11.250
G1 X141.990 Y53.738 Z-11.250
G1 X141.940 Y53.514 Z-11.250
G1 X141.922 Y53.277 Z-11.250
G1 X141.939 Y53.033 Z-11.250
G1 X141.993 Y52.790 Z-11.250
G1 X142.082 Y52.557 Z-11.250
G1 X142.205 Y52.341 Z-11.250
G1 X142.357 Y52.148 Z-11.250
G1 X142.529 Y51.985 Z-11.250
G1 X142.716 Y51.852 Z-11.250
G1 X142.910 Y51.750 Z-11.250
G1 X143.137 Y51.668 Z-11.250
G1 X143.386 Y51.619 Z-11.250
G1 X143.650 Y51.608 Z-11.250
G1 X143.918 Y51.641 Z-11.250
G1 X144.182 Y51.718 Z-11.250
G1 X144.429 Y51.837 Z-11.250
G1 X144.650 Y51.993 Z-11.250
G1 X144.839 Y52.178 Z-11.250
G1 X144.990 Y52.381 Z-11.250
G1 X145.104 Y52.595 Z-11.250
G1 X145.186 Y52.822 Z-11.250
G1 X145.235 Y53.071 Z-11.250
G1 X145.246 Y53.334 Z-11.250
G1 X145.213 Y53.603 Z-11.250
G1 X145.136 Y53.867 Z-11.250
G1 X145.017 Y54.114 Z-11.250
G1 X144.860 Y54.335 Z-11.250
G1 X144.676 Y54.523 Z-11.250
G1 X144.472 Y54.675 Z-11.250
G1 X144.259 Y54.789 Z-11.250
G1 X144.053 Y54.864 Z-11.250
G1 X143.830 Y54.914 Z-11.250
G1 X143.592 Y54.932 Z-11.250
G1 X143.348 Y54.915 Z-11.250
G1 X143.106 Y54.861 Z-11.250
G1 X142.872 Y54.771 Z-11.250
G1 X142.656 Y54.648 Z-11.250
G1 X142.464 Y54.497 Z-11.250
G1 X142.300 Y54.325 Z-11.250
G1 X142.167 Y54.138 Z-11.250
G1 X142.065 Y53.944 Z-11.250
G0 X142.065 Y53.944
G0 Z6.000
G0 X143.226 Y53.428
G0 Z6.000
G1 X143.226 Y53.428 Z-12.000 F254.0
G1 X143.208 Y53.380 Z-12.000 F177.8
G1 X143.196 Y53.327 Z-12.000
G1 X143.192 Y53.271 Z-12.000
G1 X143.196 Y53.213 Z-12.000
G1 X143.209 Y53.156 Z-12.000
G1 X143.230 Y53.101 Z-12.000
G1 X143.259 Y53.050 Z-12.000
G1 X143.295 Y53.005 Z-12.000
G1 X143.335 Y52.966 Z-12.000
G1 X143.379 Y52.934 Z-12.000
G1 X143.425 Y52.910 Z-12.000
G1 X143.474 Y52.893 Z-12.000
G1 X143.527 Y52.881 Z-12.000
G1 X143.583 Y52.877 Z-12.000
G1 X143.640 Y52.881 Z-12.000
G1 X143.698 Y52.893 Z-12.000
G1 X143.753 Y52.915 Z-12.000
G1 X143.804 Y52.944 Z-12.000
G1 X143.849 Y52.979 Z-12.000
G1 X143.888 Y53.020 Z-12.000
G1 X143.919 Y53.064 Z-12.000
G1 X143.943 Y53.110 Z-12.000
G1 X143.963 Y53.164 Z-12.000
G1 X143.974 Y53.222 Z-12.000
G1 X143.977 Y53.285 Z-12.000
G1 X143.969 Y53.348 Z-12.000
G1 X143.951 Y53.410 Z-12.000
G1 X143.923 Y53.469 Z-12.000
G1 X143.886 Y53.521 Z-12.000
G1 X143.842 Y53.565 Z-12.000
G1 X143.794 Y53.601 Z-12.000
G1 X143.744 Y53.628 Z-12.000
G1 X143.695 Y53.646 Z-12.000
G1 X143.642 Y53.657 Z-12.000
G1 X143.586 Y53.662 Z-12.000
G1 X143.529 Y53.658 Z-12.000
G1 X143.471 Y53.645 Z-12.000
G1 X143.416 Y53.624 Z-12.000
G1 X143.365 Y53.595 Z-12.000
G1 X143.320 Y53.559 Z-12.000
G1 X143.281 Y53.518 Z-12.000
G1 X143.250 Y53.474 Z-12.000
G1 X143.226 Y53.428 Z-12.000
G1 X142.065 Y53.944 Z-12.000
G1 X141.990 Y53.738 Z-12.000
G1 X141.940 Y53.514 Z-12.000
G1 X141.922 Y53.277 Z-12.000
G1 X141.939 Y53.033 Z-12.000
G1 X141.993 Y52.790 Z-12.000
G1 X142.082 Y52.557 Z-12.000
G1 X142.205 Y52.341 Z-12.000
G1 X142.357 Y52.148 Z-12.000
G1 X142.529 Y51.985 Z-12.000
G1 X142.716 Y51.852 Z-12.000
G1 X142.910 Y51.750 Z-12.000
G1 X143.137 Y51.668 Z-12.000
G1 X143.386 Y51.619 Z-12.000
G1 X143.650 Y51.608 Z-12.000
G1 X143.918 Y51.641 Z-12.000
G1 X144.182 Y51.718 Z-12.000
G1 X144.429 Y51.837 Z-12.000
G1 X144.650 Y51.993 Z-12.000
G1 X144.839 Y52.178 Z-12.000
G1 X144.990 Y52.381 Z-12.000
G1 X145.104 Y52.595 Z-12.000
G1 X145.186 Y52.822 Z-12.000
G1 X145.235 Y53.071 Z-12.000
G1 X145.246 Y53.334 Z-12.000
G1 X145.213 Y53.603 Z-12.000
G1 X145.136 Y53.867 Z-12.000
G1 X145.017 Y54.114 Z-12.000
G1 X144.860 Y54.335 Z-12.000
G1 X144.676 Y54.523 Z-12.000
G1 X144.472 Y54.675 Z-12.000
G1 X144.259 Y54.789 Z-12.000
G1 X144.053 Y54.864 Z-12.000
G1 X143.830 Y54.914 Z-12.000
G1 X143.592 Y54.932 Z-12.000
G1 X143.348 Y54.915 Z-12.000
G1 X143.106 Y54.861 Z-12.000
G1 X142.872 Y54.771 Z-12.000
G1 X142.656 Y54.648 Z-12.000
G1 X142.464 Y54.497 Z-12.000
G1 X142.300 Y54.325 Z-12.000
G1 X142.167 Y54.138 Z-12.000
G1 X142.065 Y53.944 Z-12.000
G0 X142.065 Y53.944
G0 Z6.000
G0 X36.684 Y32.899
G0 Z6.000
G1 X36.684 Y32.899 Z-0.750 F254.0
G1 X36.076 Y33.608 Z-0.750 F177.8
G1 X35.498 Y34.330 Z-0.750
G1 X34.952 Y35.065 Z-0.750
G1 X34.436 Y35.813 Z-0.750
G1 X33.951 Y36.573 Z-0.750
G1 X33.498 Y37.345 Z-0.750
G1 X33.075 Y38.129 Z-0.750
G1 X32.684 Y38.924 Z-0.750
G1 X32.324 Y39.729 Z-0.750
G1 X31.994 Y40.544 Z-0.750
G1 X31.696 Y41.370 Z-0.750
G1 X31.429 Y42.204 Z-0.750
G1 X31.192 Y43.047 Z-0.750
G1 X30.987 Y43.899 Z-0.750
G1 X30.811 Y44.758 Z-0.750
G1 X30.667 Y45.624 Z-0.750
G1 X30.553 Y46.498 Z-0.750
G1 X30.469 Y47.378 Z-0.750
G1 X30.415 Y48.264 Z-0.750
G1 X30.391 Y49.156 Z-0.750
G1 X30.396 Y50.053 Z-0.750
G1 X30.431 Y50.955 Z-0.750
G1 X30.495 Y51.861 Z-0.750
G1 X30.588 Y52.772 Z-0.750
G1 X30.710 Y53.687 Z-0.750
G1 X30.875 Y54.695 Z-0.750
G1 X31.296 Y56.023 Z-0.750
G1 X31.776 Y57.357 Z-0.750
G1 X32.051 Y58.058 Z-0.750
G1 X32.344 Y58.760 Z-0.750
G1 X32.657 Y59.465 Z-0.750
G1 X32.991 Y60.169 Z-0.750
G1 X33.344 Y60.866 Z-0.750
G1 X33.716 Y61.552 Z-0.750
G1 X34.110 Y62.222 Z-0.750
G1 X34.523 Y62.871 Z-0.750
G1 X34.959 Y63.494 Z-0.750
G1 X35.418 Y64.087 Z-0.750
G1 X35.903 Y64.645 Z-0.750
G1 X36.374 Y65.119 Z-0.750
G1 X36.447 Y65.188 Z-0.750
G1 X36.526 Y65.254 Z-0.750
G1 X36.610 Y65.314 Z-0.750
G1 X36.698 Y65.370 Z-0.750
G1 X36.790 Y65.420 Z-0.750
G1 X36.885 Y65.463 Z-0.750
G1 X36.982 Y65.501 Z-0.750
G1 X37.082 Y65.532 Z-0.750
G1 X37.183 Y65.556 Z-0.750
G1 X37.285 Y65.573 Z-0.750
G1 X37.387 Y65.583 Z-0.750
G1 X37.489 Y65.587 Z-0.750
G1 X40.239 Y65.607 Z-0.750
G1 X41.636 Y65.614 Z-0.750
G1 X42.717 Y65.606 Z-0.750
G1 X43.013 Y65.955 Z-0.750
G1 X43.429 Y66.490 Z-0.750
G1 X43.911 Y67.086 Z-0.750
G1 X44.203 Y67.409 Z-0.750
G1 X44.524 Y67.721 Z-0.750
G1 X44.897 Y68.023 Z-0.750
G1 X45.346 Y68.300 Z-0.750
G1 X45.850 Y68.496 Z-0.750
G1 X46.211 Y68.569 Z-0.750
G1 X46.599 Y68.595 Z-0.750
G1 X47.166 Y68.518 Z-0.750
G1 X47.693 Y68.313 Z-0.750
G1 X48.120 Y68.050 Z-0.750
G1 X48.469 Y67.764 Z-0.750
G1 X48.765 Y67.470 Z-0.750
G1 X49.031 Y67.167 Z-0.750
G1 X49.465 Y66.611 Z-0.750
G1 X49.845 Y66.099 Z-0.750
G1 X50.172 Y65.690 Z-0.750
G1 X50.266 Y65.588 Z-0.750
G1 X50.319 Y65.589 Z-0.750
G1 X50.781 Y65.589 Z-0.750
G1 X51.492 Y65.590 Z-0.750
G1 X80.374 Y65.632 Z-0.750
G1 X95.549 Y65.654 Z-0.750
G1 X136.971 Y65.714 Z-0.750
G1 X138.669 Y65.589 Z-0.750
G1 X140.253 Y65.426 Z-0.750
G1 X141.763 Y65.222 Z-0.750
G1 X143.199 Y64.976 Z-0.750
G1 X144.559 Y64.688 Z-0.750
G1 X145.836 Y64.359 Z-0.750
G1 X146.460 Y64.174 Z-0.750
G1 X147.057 Y63.981 Z-0.750
G1 X147.636 Y63.777 Z-0.750
G1 X148.196 Y63.561 Z-0.750
G1 X148.737 Y63.333 Z-0.750
G1 X149.260 Y63.093 Z-0.750
G1 X149.764 Y62.841 Z-0.750
G1 X150.249 Y62.577 Z-0.750
G1 X150.716 Y62.299 Z-0.750
G1 X151.163 Y62.009 Z-0.750
G1 X151.591 Y61.705 Z-0.750
G1 X151.999 Y61.387 Z-0.750
G1 X152.386 Y61.055 Z-0.750
G1 X152.753 Y60.709 Z-0.750
G1 X153.098 Y60.348 Z-0.750
G1 X153.421 Y59.974 Z-0.750
G1 X153.721 Y59.585 Z-0.750
G1 X153.997 Y59.182 Z-0.750
G1 X154.249 Y58.766 Z-0.750
G1 X154.393 Y58.493 Z-0.750
G1 X154.566 Y58.263 Z-0.750
G1 X154.822 Y57.853 Z-0.750
G1 X155.037 Y57.425 Z-0.750
G1 X155.212 Y56.985 Z-0.750
G1 X155.348 Y56.535 Z-0.750
G1 X155.445 Y56.079 Z-0.750
G1 X155.507 Y55.619 Z-0.750
G1 X155.535 Y55.158 Z-0.750
G1 X155.531 Y54.696 Z-0.750
G1 X155.498 Y54.235 Z-0.750
G1 X155.437 Y53.776 Z-0.750
G1 X155.350 Y53.320 Z-0.750
G1 X155.238 Y52.866 Z-0.750
G1 X155.103 Y52.415 Z-0.750
G1 X154.947 Y51.968 Z-0.750
G1 X154.769 Y51.524 Z-0.750
G1 X154.572 Y51.085 Z-0.750
G1 X154.355 Y50.651 Z-0.750
G1 X154.120 Y50.222 Z-0.750
G1 X153.868 Y49.799 Z-0.750
G1 X153.599 Y49.383 Z-0.750
G1 X153.314 Y48.973 Z-0.750
G1 X153.013 Y48.571 Z-0.750
G1 X152.697 Y48.177 Z-0.750
G1 X152.367 Y47.792 Z-0.750
G1 X152.023 Y47.416 Z-0.750
G1 X151.666 Y47.051 Z-0.750
G1 X151.296 Y46.698 Z-0.750
G1 X150.914 Y46.356 Z-0.750
G1 X150.519 Y46.027 Z-0.750
G1 X150.114 Y45.712 Z-0.750
G1 X149.804 Y45.488 Z-0.750
G1 X149.626 Y45.321 Z-0.750
G1 X149.275 Y45.019 Z-0.750
G1 X148.423 Y44.341 Z-0.750
G1 X147.336 Y43.530 Z-0.750
G1 X146.046 Y42.610 Z-0.750
G1 X144.580 Y41.602 Z-0.750
G1 X142.972 Y40.533 Z-0.750
G1 X141.252 Y39.427 Z-0.750
G1 X139.454 Y38.310 Z-0.750
G1 X137.858 Y37.354 Z-0.750
G1 X136.249 Y36.422 Z-0.750
G1 X134.627 Y35.515 Z-0.750
G1 X132.993 Y34.632 Z-0.750
G1 X131.348 Y33.773 Z-0.750
G1 X129.692 Y32.938 Z-0.750
G1 X128.026 Y32.128 Z-0.750
G1 X126.351 Y31.343 Z-0.750
G1 X124.668 Y30.582 Z-0.750
G1 X122.977 Y29.846 Z-0.750
G1 X121.280 Y29.134 Z-0.750
G1 X119.576 Y28.448 Z-0.750
G1 X117.867 Y27.786 Z-0.750
G1 X116.154 Y27.149 Z-0.750
G1 X114.436 Y26.537 Z-0.750
G1 X112.716 Y25.950 Z-0.750
G1 X110.993 Y25.389 Z-0.750
G1 X109.269 Y24.852 Z-0.750
G1 X107.543 Y24.341 Z-0.750
G1 X105.818 Y23.855 Z-0.750
G1 X104.093 Y23.395 Z-0.750
G1 X102.370 Y22.960 Z-0.750
G1 X100.649 Y22.550 Z-0.750
G1 X98.930 Y22.166 Z-0.750
G1 X97.577 Y21.884 Z-0.750
G1 X97.216 Y21.808 Z-0.750
G1 X95.505 Y21.476 Z-0.750
G1 X93.800 Y21.169 Z-0.750
G1 X92.101 Y20.889 Z-0.750
G1 X90.408 Y20.634 Z-0.750
G1 X88.722 Y20.406 Z-0.750
G1 X87.044 Y20.204 Z-0.750
G1 X85.375 Y20.028 Z-0.750
G1 X83.716 Y19.878 Z-0.750
G1 X82.558 Y19.792 Z-0.750
G1 X82.067 Y19.755 Z-0.750
G1 X80.429 Y19.659 Z-0.750
G1 X78.802 Y19.589 Z-0.750
G1 X77.188 Y19.546 Z-0.750
G1 X75.587 Y19.529 Z-0.750
G1 X74.000 Y19.540 Z-0.750
G1 X72.428 Y19.577 Z-0.750
G1 X70.871 Y19.642 Z-0.750
G1 X69.329 Y19.734 Z-0.750
G1 X67.805 Y19.853 Z-0.750
G1 X66.298 Y20.000 Z-0.750
G1 X64.810 Y20.175 Z-0.750
G1 X63.340 Y20.377 Z-0.750
G1 X61.890 Y20.607 Z-0.750
G1 X60.461 Y20.865 Z-0.750
G1 X59.052 Y21.152 Z-0.750
G1 X57.666 Y21.466 Z-0.750
G1 X56.302 Y21.809 Z-0.750
G1 X54.962 Y22.181 Z-0.750
G1 X53.645 Y22.582 Z-0.750
G1 X52.354 Y23.011 Z-0.750
G1 X51.088 Y23.470 Z-0.750
G1 X49.848 Y23.958 Z-0.750
G1 X48.636 Y24.476 Z-0.750
G1 X47.451 Y25.024 Z-0.750
G1 X46.296 Y25.601 Z-0.750
G1 X45.170 Y26.209 Z-0.750
G1 X44.074 Y26.847 Z-0.750
G1 X43.010 Y27.516 Z-0.750
G1 X41.979 Y28.215 Z-0.750
G1 X40.982 Y28.944 Z-0.750
G1 X40.187 Y29.568 Z-0.750
G1 X39.425 Y30.205 Z-0.750
G1 X38.694 Y30.857 Z-0.750
G1 X37.993 Y31.523 Z-0.750
G1 X37.323 Y32.204 Z-0.750
G1 X36.684 Y32.899 Z-0.750
G1 X36.684 Y32.899 Z-1.500 F254.0
G1 X36.076 Y33.608 Z-1.500 F177.8
G1 X35.498 Y34.330 Z-1.500
G1 X34.952 Y35.065 Z-1.500
G1 X34.436 Y35.813 Z-1.500
G1 X33.951 Y36.573 Z-1.500
G1 X33.498 Y37.345 Z-1.500
G1 X33.075 Y38.129 Z-1.500
G1 X32.684 Y38.924 Z-1.500
G1 X32.324 Y39.729 Z-1.500
G1 X31.994 Y40.544 Z-1.500
G1 X31.696 Y41.370 Z-1.500
G1 X31.429 Y42.204 Z-1.500
G1 X31.192 Y43.047 Z-1.500
G1 X30.987 Y43.899 Z-1.500
G1 X30.811 Y44.758 Z-1.500
G1 X30.667 Y45.624 Z-1.500
G1 X30.553 Y46.498 Z-1.500
G1 X30.469 Y47.378 Z-1.500
G1 X30.415 Y48.264 Z-1.500
G1 X30.391 Y49.156 Z-1.500
G1 X30.396 Y50.053 Z-1.500
G1 X30.431 Y50.955 Z-1.500
G1 X30.495 Y51.861 Z-1.500
G1 X30.588 Y52.772 Z-1.500
G1 X30.710 Y53.687 Z-1.500
G1 X30.875 Y54.695 Z-1.500
G1 X31.296 Y56.023 Z-1.500
G1 X31.776 Y57.357 Z-1.500
G1 X32.051 Y58.058 Z-1.500
G1 X32.344 Y58.760 Z-1.500
G1 X32.657 Y59.465 Z-1.500
G1 X32.991 Y60.169 Z-1.500
G1 X33.344 Y60.866 Z-1.500
G1 X33.716 Y61.552 Z-1.500
G1 X34.110 Y62.222 Z-1.500
G1 X34.523 Y62.871 Z-1.500
G1 X34.959 Y63.494 Z-1.500
G1 X35.418 Y64.087 Z-1.500
G1 X35.903 Y64.645 Z-1.500
G1 X36.374 Y65.119 Z-1.500
G1 X36.447 Y65.188 Z-1.500
G1 X36.526 Y65.254 Z-1.500
G1 X36.610 Y65.314 Z-1.500
G1 X36.698 Y65.370 Z-1.500
G1 X36.790 Y65.420 Z-1.500
G1 X36.885 Y65.463 Z-1.500
G1 X36.982 Y65.501 Z-1.500
G1 X37.082 Y65.532 Z-1.500
G1 X37.183 Y65.556 Z-1.500
G1 X37.285 Y65.573 Z-1.500
G1 X37.387 Y65.583 Z-1.500
G1 X37.489 Y65.587 Z-1.500
G1 X40.239 Y65.607 Z-1.500
G1 X41.636 Y65.614 Z-1.500
G1 X42.717 Y65.606 Z-1.500
G1 X43.013 Y65.955 Z-1.500
G1 X43.429 Y66.490 Z-1.500
G1 X43.911 Y67.086 Z-1.500
G1 X44.203 Y67.409 Z-1.500
G1 X44.524 Y67.721 Z-1.500
G1 X44.897 Y68.023 Z-1.500
G1 X45.346 Y68.300 Z-1.500
G1 X45.850 Y68.496 Z-1.500
G1 X46.211 Y68.569 Z-1.500
G1 X46.599 Y68.595 Z-1.500
G1 X47.166 Y68.518 Z-1.500
G1 X47.693 Y68.313 Z-1.500
G1 X48.120 Y68.050 Z-1.500
G1 X48.469 Y67.764 Z-1.500
G1 X48.765 Y67.470 Z-1.500
G1 X49.031 Y67.167 Z-1.500
G1 X49.465 Y66.611 Z-1.500
G1 X49.845 Y66.099 Z-1.500
G1 X50.172 Y65.690 Z-1.500
G1 X50.266 Y65.588 Z-1.500
G1 X50.319 Y65.589 Z-1.500
G1 X50.781 Y65.589 Z-1.500
G1 X51.492 Y65.590 Z-1.500
G1 X80.374 Y65.632 Z-1.500
G1 X95.549 Y65.654 Z-1.500
G1 X136.971 Y65.714 Z-1.500
G1 X138.669 Y65.589 Z-1.500
G1 X140.253 Y65.426 Z-1.500
G1 X141.763 Y65.222 Z-1.500
G1 X143.199 Y64.976 Z-1.500
G1 X144.559 Y64.688 Z-1.500
G1 X145.836 Y64.359 Z-1.500
G1 X146.460 Y64.174 Z-1.500
G1 X147.057 Y63.981 Z-1.500
G1 X147.636 Y63.777 Z-1.500
G1 X148.196 Y63.561 Z-1.500
G1 X148.737 Y63.333 Z-1.500
G1 X149.260 Y63.093 Z-1.500
G1 X149.764 Y62.841 Z-1.500
G1 X150.249 Y62.577 Z-1.500
G1 X150.716 Y62.299 Z-1.500
G1 X151.163 Y62.009 Z-1.500
G1 X151.591 Y61.705 Z-1.500
G1 X151.999 Y61.387 Z-1.500
G1 X152.386 Y61.055 Z-1.500
G1 X152.753 Y60.709 Z-1.500
G1 X153.098 Y60.348 Z-1.500
G1 X153.421 Y59.974 Z-1.500
G1 X153.721 Y59.585 Z-1.500
G1 X153.997 Y59.182 Z-1.500
G1 X154.249 Y58.766 Z-1.500
G1 X154.393 Y58.493 Z-1.500
G1 X154.566 Y58.263 Z-1.500
G1 X154.822 Y57.853 Z-1.500
G1 X155.037 Y57.425 Z-1.500
G1 X155.212 Y56.985 Z-1.500
G1 X155.348 Y56.535 Z-1.500
G1 X155.445 Y56.079 Z-1.500
G1 X155.507 Y55.619 Z-1.500
G1 X155.535 Y55.158 Z-1.500
G1 X155.531 Y54.696 Z-1.500
G1 X155.498 Y54.235 Z-1.500
G1 X155.437 Y53.776 Z-1.500
G1 X155.350 Y53.320 Z-1.500
G1 X155.238 Y52.866 Z-1.500
G1 X155.103 Y52.415 Z-1.500
G1 X154.947 Y51.968 Z-1.500
G1 X154.769 Y51.524 Z-1.500
G1 X154.572 Y51.085 Z-1.500
G1 X154.355 Y50.651 Z-1.500
G1 X154.120 Y50.222 Z-1.500
G1 X153.868 Y49.799 Z-1.500
G1 X153.599 Y49.383 Z-1.500
G1 X153.314 Y48.973 Z-1.500
G1 X153.013 Y48.571 Z-1.500
G1 X152.697 Y48.177 Z-1.500
G1 X152.367 Y47.792 Z-1.500
G1 X152.023 Y47.416 Z-1.500
G1 X151.666 Y47.051 Z-1.500
G1 X151.296 Y46.698 Z-1.500
G1 X150.914 Y46.356 Z-1.500
G1 X150.519 Y46.027 Z-1.500
G1 X150.114 Y45.712 Z-1.500
G1 X149.804 Y45.488 Z-1.500
G1 X149.626 Y45.321 Z-1.500
G1 X149.275 Y45.019 Z-1.500
G1 X148.423 Y44.341 Z-1.500
G1 X147.336 Y43.530 Z-1.500
G1 X146.046 Y42.610 Z-1.500
G1 X144.580 Y41.602 Z-1.500
G1 X142.972 Y40.533 Z-1.500
G1 X141.252 Y39.427 Z-1.500
G1 X139.454 Y38.310 Z-1.500
G1 X137.858 Y37.354 Z-1.500
G1 X136.249 Y36.422 Z-1.500
G1 X134.627 Y35.515 Z-1.500
G1 X132.993 Y34.632 Z-1.500
G1 X131.348 Y33.773 Z-1.500
G1 X129.692 Y32.938 Z-1.500
G1 X128.026 Y32.128 Z-1.500
G1 X126.351 Y31.343 Z-1.500
G1 X124.668 Y30.582 Z-1.500
G1 X122.977 Y29.846 Z-1.500
G1 X121.280 Y29.134 Z-1.500
G1 X119.576 Y28.448 Z-1.500
G1 X117.867 Y27.786 Z-1.500
G1 X116.154 Y27.149 Z-1.500
G1 X114.436 Y26.537 Z-1.500
G1 X112.716 Y25.950 Z-1.500
G1 X110.993 Y25.389 Z-1.500
G1 X109.269 Y24.852 Z-1.500
G1 X107.543 Y24.341 Z-1.500
G1 X105.818 Y23.855 Z-1.500
G1 X104.093 Y23.395 Z-1.500
G1 X102.370 Y22.960 Z-1.500
G1 X100.649 Y22.550 Z-1.500
G1 X98.930 Y22.166 Z-1.500
G1 X97.577 Y21.884 Z-1.500
G1 X97.216 Y21.808 Z-1.500
G1 X95.505 Y21.476 Z-1.500
G1 X93.800 Y21.169 Z-1.500
G1 X92.101 Y20.889 Z-1.500
G1 X90.408 Y20.634 Z-1.500
G1 X88.722 Y20.406 Z-1.500
G1 X87.044 Y20.204 Z-1.500
G1 X85.375 Y20.028 Z-1.500
G1 X83.716 Y19.878 Z-1.500
G1 X82.558 Y19.792 Z-1.500
G1 X82.067 Y19.755 Z-1.500
G1 X80.429 Y19.659 Z-1.500
G1 X78.802 Y19.589 Z-1.500
G1 X77.188 Y19.546 Z-1.500
G1 X75.587 Y19.529 Z-1.500
G1 X74.000 Y19.540 Z-1.500
G1 X72.428 Y19.577 Z-1.500
G1 X70.871 Y19.642 Z-1.500
G1 X69.329 Y19.734 Z-1.500
G1 X67.805 Y19.853 Z-1.500
G1 X66.298 Y20.000 Z-1.500
G1 X64.810 Y20.175 Z-1.500
G1 X63.340 Y20.377 Z-1.500
G1 X61.890 Y20.607 Z-1.500
G1 X60.461 Y20.865 Z-1.500
G1 X59.052 Y21.152 Z-1.500
G1 X57.666 Y21.466 Z-1.500
G1 X56.302 Y21.809 Z-1.500
G1 X54.962 Y22.181 Z-1.500
G1 X53.645 Y22.582 Z-1.500
G1 X52.354 Y23.011 Z-1.500
G1 X51.088 Y23.470 Z-1.500
G1 X49.848 Y23.958 Z-1.500
G1 X48.636 Y24.476 Z-1.500
G1 X47.451 Y25.024 Z-1.500
G1 X46.296 Y25.601 Z-1.500
G1 X45.170 Y26.209 Z-1.500
G1 X44.074 Y26.847 Z-1.500
G1 X43.010 Y27.516 Z-1.500
G1 X41.979 Y28.215 Z-1.500
G1 X40.982 Y28.944 Z-1.500
G1 X40.187 Y29.568 Z-1.500
G1 X39.425 Y30.205 Z-1.500
G1 X38.694 Y30.857 Z-1.500
G1 X37.993 Y31.523 Z-1.500
G1 X37.323 Y32.204 Z-1.500
G1 X36.684 Y32.899 Z-1.500
G1 X36.684 Y32.899 Z-2.250 F254.0
G1 X36.076 Y33.608 Z-2.250 F177.8
G1 X35.498 Y34.330 Z-2.250
G1 X34.952 Y35.065 Z-2.250
G1 X34.436 Y35.813 Z-2.250
G1 X33.951 Y36.573 Z-2.250
G1 X33.498 Y37.345 Z-2.250
G1 X33.075 Y38.129 Z-2.250
G1 X32.684 Y38.924 Z-2.250
G1 X32.324 Y39.729 Z-2.250
G1 X31.994 Y40.544 Z-2.250
G1 X31.696 Y41.370 Z-2.250
G1 X31.429 Y42.204 Z-2.250
G1 X31.192 Y43.047 Z-2.250
G1 X30.987 Y43.899 Z-2.250
G1 X30.811 Y44.758 Z-2.250
G1 X30.667 Y45.624 Z-2.250
G1 X30.553 Y46.498 Z-2.250
G1 X30.469 Y47.378 Z-2.250
G1 X30.415 Y48.264 Z-2.250
G1 X30.391 Y49.156 Z-2.250
G1 X30.396 Y50.053 Z-2.250
G1 X30.431 Y50.955 Z-2.250
G1 X30.495 Y51.861 Z-2.250
G1 X30.588 Y52.772 Z-2.250
G1 X30.710 Y53.687 Z-2.250
G1 X30.875 Y54.695 Z-2.250
G1 X31.296 Y56.023 Z-2.250
G1 X31.776 Y57.357 Z-2.250
G1 X32.051 Y58.058 Z-2.250
G1 X32.344 Y58.760 Z-2.250
G1 X32.657 Y59.465 Z-2.250
G1 X32.991 Y60.169 Z-2.250
G1 X33.344 Y60.866 Z-2.250
G1 X33.716 Y61.552 Z-2.250
G1 X34.110 Y62.222 Z-2.250
G1 X34.523 Y62.871 Z-2.250
G1 X34.959 Y63.494 Z-2.250
G1 X35.418 Y64.087 Z-2.250
G1 X35.903 Y64.645 Z-2.250
G1 X36.374 Y65.119 Z-2.250
G1 X36.447 Y65.188 Z-2.250
G1 X36.526 Y65.254 Z-2.250
G1 X36.610 Y65.314 Z-2.250
G1 X36.698 Y65.370 Z-2.250
G1 X36.790 Y65.420 Z-2.250
G1 X36.885 Y65.463 Z-2.250
G1 X36.982 Y65.501 Z-2.250
G1 X37.082 Y65.532 Z-2.250
G1 X37.183 Y65.556 Z-2.250
G1 X37.285 Y65.573 Z-2.250
G1 X37.387 Y65.583 Z-2.250
G1 X37.489 Y65.587 Z-2.250
G1 X40.239 Y65.607 Z-2.250
G1 X41.636 Y65.614 Z-2.250
G1 X42.717 Y65.606 Z-2.250
G1 X43.013 Y65.955 Z-2.250
G1 X43.429 Y66.490 Z-2.250
G1 X43.911 Y67.086 Z-2.250
G1 X44.203 Y67.409 Z-2.250
G1 X44.524 Y67.721 Z-2.250
G1 X44.897 Y68.023 Z-2.250
G1 X45.346 Y68.300 Z-2.250
G1 X45.850 Y68.496 Z-2.250
G1 X46.211 Y68.569 Z-2.250
G1 X46.599 Y68.595 Z-2.250
G1 X47.166 Y68.518 Z-2.250
G1 X47.693 Y68.313 Z-2.250
G1 X48.120 Y68.050 Z-2.250
G1 X48.469 Y67.764 Z-2.250
G1 X48.765 Y67.470 Z-2.250
G1 X49.031 Y67.167 Z-2.250
G1 X49.465 Y66.611 Z-2.250
G1 X49.845 Y66.099 Z-2.250
G1 X50.172 Y65.690 Z-2.250
G1 X50.266 Y65.588 Z-2.250
G1 X50.319 Y65.589 Z-2.250
G1 X50.781 Y65.589 Z-2.250
G1 X51.492 Y65.590 Z-2.250
G1 X80.374 Y65.632 Z-2.250
G1 X95.549 Y65.654 Z-2.250
G1 X136.971 Y65.714 Z-2.250
G1 X138.669 Y65.589 Z-2.250
G1 X140.253 Y65.426 Z-2.250
G1 X141.763 Y65.222 Z-2.250
G1 X143.199 Y64.976 Z-2.250
G1 X144.559 Y64.688 Z-2.250
G1 X145.836 Y64.359 Z-2.250
G1 X146.460 Y64.174 Z-2.250
G1 X147.057 Y63.981 Z-2.250
G1 X147.636 Y63.777 Z-2.250
G1 X148.196 Y63.561 Z-2.250
G1 X148.737 Y63.333 Z-2.250
G1 X149.260 Y63.093 Z-2.250
G1 X149.764 Y62.841 Z-2.250
G1 X150.249 Y62.577 Z-2.250
G1 X150.716 Y62.299 Z-2.250
G1 X151.163 Y62.009 Z-2.250
G1 X151.591 Y61.705 Z-2.250
G1 X151.999 Y61.387 Z-2.250
G1 X152.386 Y61.055 Z-2.250
G1 X152.753 Y60.709 Z-2.250
G1 X153.098 Y60.348 Z-2.250
G1 X153.421 Y59.974 Z-2.250
G1 X153.721 Y59.585 Z-2.250
G1 X153.997 Y59.182 Z-2.250
G1 X154.249 Y58.766 Z-2.250
G1 X154.393 Y58.493 Z-2.250
G1 X154.566 Y58.263 Z-2.250
G1 X154.822 Y57.853 Z-2.250
G1 X155.037 Y57.425 Z-2.250
G1 X155.212 Y56.985 Z-2.250
G1 X155.348 Y56.535 Z-2.250
G1 X155.445 Y56.079 Z-2.250
G1 X155.507 Y55.619 Z-2.250
G1 X155.535 Y55.158 Z-2.250
G1 X155.531 Y54.696 Z-2.250
G1 X155.498 Y54.235 Z-2.250
G1 X155.437 Y53.776 Z-2.250
G1 X155.350 Y53.320 Z-2.250
G1 X155.238 Y52.866 Z-2.250
G1 X155.103 Y52.415 Z-2.250
G1 X154.947 Y51.968 Z-2.250
G1 X154.769 Y51.524 Z-2.250
G1 X154.572 Y51.085 Z-2.250
G1 X154.355 Y50.651 Z-2.250
G1 X154.120 Y50.222 Z-2.250
G1 X153.868 Y49.799 Z-2.250
G1 X153.599 Y49.383 Z-2.250
G1 X153.314 Y48.973 Z-2.250
G1 X153.013 Y48.571 Z-2.250
G1 X152.697 Y48.177 Z-2.250
G1 X152.367 Y47.792 Z-2.250
G1 X152.023 Y47.416 Z-2.250
G1 X151.666 Y47.051 Z-2.250
G1 X151.296 Y46.698 Z-2.250
G1 X150.914 Y46.356 Z-2.250
G1 X150.519 Y46.027 Z-2.250
G1 X150.114 Y45.712 Z-2.250
G1 X149.804 Y45.488 Z-2.250
G1 X149.626 Y45.321 Z-2.250
G1 X149.275 Y45.019 Z-2.250
G1 X148.423 Y44.341 Z-2.250
G1 X147.336 Y43.530 Z-2.250
G1 X146.046 Y42.610 Z-2.250
G1 X144.580 Y41.602 Z-2.250
G1 X142.972 Y40.533 Z-2.250
G1 X141.252 Y39.427 Z-2.250
G1 X139.454 Y38.310 Z-2.250
G1 X137.858 Y37.354 Z-2.250
G1 X136.249 Y36.422 Z-2.250
G1 X134.627 Y35.515 Z-2.250
G1 X132.993 Y34.632 Z-2.250
G1 X131.348 Y33.773 Z-2.250
G1 X129.692 Y32.938 Z-2.250
G1 X128.026 Y32.128 Z-2.250
G1 X126.351 Y31.343 Z-2.250
G1 X124.668 Y30.582 Z-2.250
G1 X122.977 Y29.846 Z-2.250
G1 X121.280 Y29.134 Z-2.250
G1 X119.576 Y28.448 Z-2.250
G1 X117.867 Y27.786 Z-2.250
G1 X116.154 Y27.149 Z-2.250
G1 X114.436 Y26.537 Z-2.250
G1 X112.716 Y25.950 Z-2.250
G1 X110.993 Y25.389 Z-2.250
G1 X109.269 Y24.852 Z-2.250
G1 X107.543 Y24.341 Z-2.250
G1 X105.818 Y23.855 Z-2.250
G1 X104.093 Y23.395 Z-2.250
G1 X102.370 Y22.960 Z-2.250
G1 X100.649 Y22.550 Z-2.250
G1 X98.930 Y22.166 Z-2.250
G1 X97.577 Y21.884 Z-2.250
G1 X97.216 Y21.808 Z-2.250
G1 X95.505 Y21.476 Z-2.250
G1 X93.800 Y21.169 Z-2.250
G1 X92.101 Y20.889 Z-2.250
G1 X90.408 Y20.634 Z-2.250
G1 X88.722 Y20.406 Z-2.250
G1 X87.044 Y20.204 Z-2.250
G1 X85.375 Y20.028 Z-2.250
G1 X83.716 Y19.878 Z-2.250
G1 X82.558 Y19.792 Z-2.250
G1 X82.067 Y19.755 Z-2.250
G1 X80.429 Y19.659 Z-2.250
G1 X78.802 Y19.589 Z-2.250
G1 X77.188 Y19.546 Z-2.250
G1 X75.587 Y19.529 Z-2.250
G1 X74.000 Y19.540 Z-2.250
G1 X72.428 Y19.577 Z-2.250
G1 X70.871 Y19.642 Z-2.250
G1 X69.329 Y19.734 Z-2.250
G1 X67.805 Y19.853 Z-2.250
G1 X66.298 Y20.000 Z-2.250
G1 X64.810 Y20.175 Z-2.250
G1 X63.340 Y20.377 Z-2.250
G1 X61.890 Y20.607 Z-2.250
G1 X60.461 Y20.865 Z-2.250
G1 X59.052 Y21.152 Z-2.250
G1 X57.666 Y21.466 Z-2.250
G1 X56.302 Y21.809 Z-2.250
G1 X54.962 Y22.181 Z-2.250
G1 X53.645 Y22.582 Z-2.250
G1 X52.354 Y23.011 Z-2.250
G1 X51.088 Y23.470 Z-2.250
G1 X49.848 Y23.958 Z-2.250
G1 X48.636 Y24.476 Z-2.250
G1 X47.451 Y25.024 Z-2.250
G1 X46.296 Y25.601 Z-2.250
G1 X45.170 Y26.209 Z-2.250
G1 X44.074 Y26.847 Z-2.250
G1 X43.010 Y27.516 Z-2.250
G1 X41.979 Y28.215 Z-2.250
G1 X40.982 Y28.944 Z-2.250
G1 X40.187 Y29.568 Z-2.250
G1 X39.425 Y30.205 Z-2.250
G1 X38.694 Y30.857 Z-2.250
G1 X37.993 Y31.523 Z-2.250
G1 X37.323 Y32.204 Z-2.250
G1 X36.684 Y32.899 Z-2.250
G1 X36.684 Y32.899 Z-3.000 F254.0
G1 X36.076 Y33.608 Z-3.000 F177.8
G1 X35.498 Y34.330 Z-3.000
G1 X34.952 Y35.065 Z-3.000
G1 X34.436 Y35.813 Z-3.000
G1 X33.951 Y36.573 Z-3.000
G1 X33.498 Y37.345 Z-3.000
G1 X33.075 Y38.129 Z-3.000
G1 X32.684 Y38.924 Z-3.000
G1 X32.324 Y39.729 Z-3.000
G1 X31.994 Y40.544 Z-3.000
G1 X31.696 Y41.370 Z-3.000
G1 X31.429 Y42.204 Z-3.000
G1 X31.192 Y43.047 Z-3.000
G1 X30.987 Y43.899 Z-3.000
G1 X30.811 Y44.758 Z-3.000
G1 X30.667 Y45.624 Z-3.000
G1 X30.553 Y46.498 Z-3.000
G1 X30.469 Y47.378 Z-3.000
G1 X30.415 Y48.264 Z-3.000
G1 X30.391 Y49.156 Z-3.000
G1 X30.396 Y50.053 Z-3.000
G1 X30.431 Y50.955 Z-3.000
G1 X30.495 Y51.861 Z-3.000
G1 X30.588 Y52.772 Z-3.000
G1 X30.710 Y53.687 Z-3.000
G1 X30.875 Y54.695 Z-3.000
G1 X31.296 Y56.023 Z-3.000
G1 X31.776 Y57.357 Z-3.000
G1 X32.051 Y58.058 Z-3.000
G1 X32.344 Y58.760 Z-3.000
G1 X32.657 Y59.465 Z-3.000
G1 X32.991 Y60.169 Z-3.000
G1 X33.344 Y60.866 Z-3.000
G1 X33.716 Y61.552 Z-3.000
G1 X34.110 Y62.222 Z-3.000
G1 X34.523 Y62.871 Z-3.000
G1 X34.959 Y63.494 Z-3.000
G1 X35.418 Y64.087 Z-3.000
G1 X35.903 Y64.645 Z-3.000
G1 X36.374 Y65.119 Z-3.000
G1 X36.447 Y65.188 Z-3.000
G1 X36.526 Y65.254 Z-3.000
G1 X36.610 Y65.314 Z-3.000
G1 X36.698 Y65.370 Z-3.000
G1 X36.790 Y65.420 Z-3.000
G1 X36.885 Y65.463 Z-3.000
G1 X36.982 Y65.501 Z-3.000
G1 X37.082 Y65.532 Z-3.000
G1 X37.183 Y65.556 Z-3.000
G1 X37.285 Y65.573 Z-3.000
G1 X37.387 Y65.583 Z-3.000
G1 X37.489 Y65.587 Z-3.000
G1 X40.239 Y65.607 Z-3.000
G1 X41.636 Y65.614 Z-3.000
G1 X42.717 Y65.606 Z-3.000
G1 X43.013 Y65.955 Z-3.000
G1 X43.429 Y66.490 Z-3.000
G1 X43.911 Y67.086 Z-3.000
G1 X44.203 Y67.409 Z-3.000
G1 X44.524 Y67.721 Z-3.000
G1 X44.897 Y68.023 Z-3.000
G1 X45.346 Y68.300 Z-3.000
G1 X45.850 Y68.496 Z-3.000
G1 X46.211 Y68.569 Z-3.000
G1 X46.599 Y68.595 Z-3.000
G1 X47.166 Y68.518 Z-3.000
G1 X47.693 Y68.313 Z-3.000
G1 X48.120 Y68.050 Z-3.000
G1 X48.469 Y67.764 Z-3.000
G1 X48.765 Y67.470 Z-3.000
G1 X49.031 Y67.167 Z-3.000
G1 X49.465 Y66.611 Z-3.000
G1 X49.845 Y66.099 Z-3.000
G1 X50.172 Y65.690 Z-3.000
G1 X50.266 Y65.588 Z-3.000
G1 X50.319 Y65.589 Z-3.000
G1 X50.781 Y65.589 Z-3.000
G1 X51.492 Y65.590 Z-3.000
G1 X80.374 Y65.632 Z-3.000
G1 X95.549 Y65.654 Z-3.000
G1 X136.971 Y65.714 Z-3.000
G1 X138.669 Y65.589 Z-3.000
G1 X140.253 Y65.426 Z-3.000
G1 X141.763 Y65.222 Z-3.000
G1 X143.199 Y64.976 Z-3.000
G1 X144.559 Y64.688 Z-3.000
G1 X145.836 Y64.359 Z-3.000
G1 X146.460 Y64.174 Z-3.000
G1 X147.057 Y63.981 Z-3.000
G1 X147.636 Y63.777 Z-3.000
G1 X148.196 Y63.561 Z-3.000
G1 X148.737 Y63.333 Z-3.000
G1 X149.260 Y63.093 Z-3.000
G1 X149.764 Y62.841 Z-3.000
G1 X150.249 Y62.577 Z-3.000
G1 X150.716 Y62.299 Z-3.000
G1 X151.163 Y62.009 Z-3.000
G1 X151.591 Y61.705 Z-3.000
G1 X151.999 Y61.387 Z-3.000
G1 X152.386 Y61.055 Z-3.000
G1 X152.753 Y60.709 Z-3.000
G1 X153.098 Y60.348 Z-3.000
G1 X153.421 Y59.974 Z-3.000
G1 X153.721 Y59.585 Z-3.000
G1 X153.997 Y59.182 Z-3.000
G1 X154.249 Y58.766 Z-3.000
G1 X154.393 Y58.493 Z-3.000
G1 X154.566 Y58.263 Z-3.000
G1 X154.822 Y57.853 Z-3.000
G1 X155.037 Y57.425 Z-3.000
G1 X155.212 Y56.985 Z-3.000
G1 X155.348 Y56.535 Z-3.000
G1 X155.445 Y56.079 Z-3.000
G1 X155.507 Y55.619 Z-3.000
G1 X155.535 Y55.158 Z-3.000
G1 X155.531 Y54.696 Z-3.000
G1 X155.498 Y54.235 Z-3.000
G1 X155.437 Y53.776 Z-3.000
G1 X155.350 Y53.320 Z-3.000
G1 X155.238 Y52.866 Z-3.000
G1 X155.103 Y52.415 Z-3.000
G1 X154.947 Y51.968 Z-3.000
G1 X154.769 Y51.524 Z-3.000
G1 X154.572 Y51.085 Z-3.000
G1 X154.355 Y50.651 Z-3.000
G1 X154.120 Y50.222 Z-3.000
G1 X153.868 Y49.799 Z-3.000
