(VECTRIC POST REVISION)
(AE8C5706166A14C0DE23454C54EBD95B)
%
G21
G40
G94
G97
G64
G90
T1 M6
M8
M3 S10000
G0 X46.585 Y48.709
G0 Z6.000
G1 X46.585 Y48.709 Z-1.000 F635.0
G1 X46.641 Y48.554 Z-1.000 F180.0
G1 X46.721 Y48.401 Z-1.000
G1 X46.826 Y48.256 Z-1.000
G1 X46.954 Y48.124 Z-1.000
G1 X47.103 Y48.011 Z-1.000
G1 X47.267 Y47.920 Z-1.000
G1 X47.443 Y47.856 Z-1.000
G1 X47.623 Y47.819 Z-1.000
G1 X47.802 Y47.808 Z-1.000
G1 X47.973 Y47.822 Z-1.000
G1 X48.134 Y47.858 Z-1.000
G1 X48.305 Y47.921 Z-1.000
G1 X48.471 Y48.014 Z-1.000
G1 X48.628 Y48.135 Z-1.000
G1 X48.767 Y48.284 Z-1.000
G1 X48.881 Y48.457 Z-1.000
G1 X48.965 Y48.645 Z-1.000
G1 X49.016 Y48.842 Z-1.000
G1 X49.035 Y49.039 Z-1.000
G1 X49.023 Y49.230 Z-1.000
G1 X48.985 Y49.408 Z-1.000
G1 X48.922 Y49.578 Z-1.000
G1 X48.829 Y49.745 Z-1.000
G1 X48.708 Y49.901 Z-1.000
G1 X48.558 Y50.040 Z-1.000
G1 X48.386 Y50.154 Z-1.000
G1 X48.198 Y50.238 Z-1.000
G1 X48.001 Y50.289 Z-1.000
G1 X47.803 Y50.308 Z-1.000
G1 X47.613 Y50.296 Z-1.000
G1 X47.435 Y50.258 Z-1.000
G1 X47.281 Y50.202 Z-1.000
G1 X47.128 Y50.122 Z-1.000
G1 X46.983 Y50.017 Z-1.000
G1 X46.851 Y49.889 Z-1.000
G1 X46.737 Y49.740 Z-1.000
G1 X46.647 Y49.576 Z-1.000
G1 X46.583 Y49.400 Z-1.000
G1 X46.545 Y49.220 Z-1.000
G1 X46.535 Y49.041 Z-1.000
G1 X46.549 Y48.869 Z-1.000
G1 X46.585 Y48.709 Z-1.000
G0 X46.585 Y48.709
G0 Z6.000
G1 X46.585 Y48.709 Z-2.000 F635.0
G1 X46.641 Y48.554 Z-2.000 F180.0
G1 X46.721 Y48.401 Z-2.000
G1 X46.826 Y48.256 Z-2.000
G1 X46.954 Y48.124 Z-2.000
G1 X47.103 Y48.011 Z-2.000
G1 X47.267 Y47.920 Z-2.000
G1 X47.443 Y47.856 Z-2.000
G1 X47.623 Y47.819 Z-2.000
G1 X47.802 Y47.808 Z-2.000
G1 X47.973 Y47.822 Z-2.000
G1 X48.134 Y47.858 Z-2.000
G1 X48.305 Y47.921 Z-2.000
G1 X48.471 Y48.014 Z-2.000
G1 X48.628 Y48.135 Z-2.000
G1 X48.767 Y48.284 Z-2.000
G1 X48.881 Y48.457 Z-2.000
G1 X48.965 Y48.645 Z-2.000
G1 X49.016 Y48.842 Z-2.000
G1 X49.035 Y49.039 Z-2.000
G1 X49.023 Y49.230 Z-2.000
G1 X48.985 Y49.408 Z-2.000
G1 X48.922 Y49.578 Z-2.000
G1 X48.829 Y49.745 Z-2.000
G1 X48.708 Y49.901 Z-2.000
G1 X48.558 Y50.040 Z-2.000
G1 X48.386 Y50.154 Z-2.000
G1 X48.198 Y50.238 Z-2.000
G1 X48.001 Y50.289 Z-2.000
G1 X47.803 Y50.308 Z-2.000
G1 X47.613 Y50.296 Z-2.000
G1 X47.435 Y50.258 Z-2.000
G1 X47.281 Y50.202 Z-2.000
G1 X47.128 Y50.122 Z-2.000
G1 X46.983 Y50.017 Z-2.000
G1 X46.851 Y49.889 Z-2.000
G1 X46.737 Y49.740 Z-2.000
G1 X46.647 Y49.576 Z-2.000
G1 X46.583 Y49.400 Z-2.000
G1 X46.545 Y49.220 Z-2.000
G1 X46.535 Y49.041 Z-2.000
G1 X46.549 Y48.869 Z-2.000
G1 X46.585 Y48.709 Z-2.000
G0 X46.585 Y48.709
G0 Z6.000
G1 X46.585 Y48.709 Z-3.000 F635.0
G1 X46.641 Y48.554 Z-3.000 F180.0
G1 X46.721 Y48.401 Z-3.000
G1 X46.826 Y48.256 Z-3.000
G1 X46.954 Y48.124 Z-3.000
G1 X47.103 Y48.011 Z-3.000
G1 X47.267 Y47.920 Z-3.000
G1 X47.443 Y47.856 Z-3.000
G1 X47.623 Y47.819 Z-3.000
G1 X47.802 Y47.808 Z-3.000
G1 X47.973 Y47.822 Z-3.000
G1 X48.134 Y47.858 Z-3.000
G1 X48.305 Y47.921 Z-3.000
G1 X48.471 Y48.014 Z-3.000
G1 X48.628 Y48.135 Z-3.000
G1 X48.767 Y48.284 Z-3.000
G1 X48.881 Y48.457 Z-3.000
G1 X48.965 Y48.645 Z-3.000
G1 X49.016 Y48.842 Z-3.000
G1 X49.035 Y49.039 Z-3.000
G1 X49.023 Y49.230 Z-3.000
G1 X48.985 Y49.408 Z-3.000
G1 X48.922 Y49.578 Z-3.000
G1 X48.829 Y49.745 Z-3.000
G1 X48.708 Y49.901 Z-3.000
G1 X48.558 Y50.040 Z-3.000
G1 X48.386 Y50.154 Z-3.000
G1 X48.198 Y50.238 Z-3.000
G1 X48.001 Y50.289 Z-3.000
G1 X47.803 Y50.308 Z-3.000
G1 X47.613 Y50.296 Z-3.000
G1 X47.435 Y50.258 Z-3.000
G1 X47.281 Y50.202 Z-3.000
G1 X47.128 Y50.122 Z-3.000
G1 X46.983 Y50.017 Z-3.000
G1 X46.851 Y49.889 Z-3.000
G1 X46.737 Y49.740 Z-3.000
G1 X46.647 Y49.576 Z-3.000
G1 X46.583 Y49.400 Z-3.000
G1 X46.545 Y49.220 Z-3.000
G1 X46.535 Y49.041 Z-3.000
G1 X46.549 Y48.869 Z-3.000
G1 X46.585 Y48.709 Z-3.000
G0 X46.585 Y48.709
G0 Z6.000
G1 X46.585 Y48.709 Z-4.000 F635.0
G1 X46.641 Y48.554 Z-4.000 F180.0
G1 X46.721 Y48.401 Z-4.000
G1 X46.826 Y48.256 Z-4.000
G1 X46.954 Y48.124 Z-4.000
G1 X47.103 Y48.011 Z-4.000
G1 X47.267 Y47.920 Z-4.000
G1 X47.443 Y47.856 Z-4.000
G1 X47.623 Y47.819 Z-4.000
G1 X47.802 Y47.808 Z-4.000
G1 X47.973 Y47.822 Z-4.000
G1 X48.134 Y47.858 Z-4.000
G1 X48.305 Y47.921 Z-4.000
G1 X48.471 Y48.014 Z-4.000
G1 X48.628 Y48.135 Z-4.000
G1 X48.767 Y48.284 Z-4.000
G1 X48.881 Y48.457 Z-4.000
G1 X48.965 Y48.645 Z-4.000
G1 X49.016 Y48.842 Z-4.000
G1 X49.035 Y49.039 Z-4.000
G1 X49.023 Y49.230 Z-4.000
G1 X48.985 Y49.408 Z-4.000
G1 X48.922 Y49.578 Z-4.000
G1 X48.829 Y49.745 Z-4.000
G1 X48.708 Y49.901 Z-4.000
G1 X48.558 Y50.040 Z-4.000
G1 X48.386 Y50.154 Z-4.000
G1 X48.198 Y50.238 Z-4.000
G1 X48.001 Y50.289 Z-4.000
G1 X47.803 Y50.308 Z-4.000
G1 X47.613 Y50.296 Z-4.000
G1 X47.435 Y50.258 Z-4.000
G1 X47.281 Y50.202 Z-4.000
G1 X47.128 Y50.122 Z-4.000
G1 X46.983 Y50.017 Z-4.000
G1 X46.851 Y49.889 Z-4.000
G1 X46.737 Y49.740 Z-4.000
G1 X46.647 Y49.576 Z-4.000
G1 X46.583 Y49.400 Z-4.000
G1 X46.545 Y49.220 Z-4.000
G1 X46.535 Y49.041 Z-4.000
G1 X46.549 Y48.869 Z-4.000
G1 X46.585 Y48.709 Z-4.000
G0 X46.585 Y48.709
G0 Z6.000
G1 X46.585 Y48.709 Z-5.000 F635.0
G1 X46.641 Y48.554 Z-5.000 F180.0
G1 X46.721 Y48.401 Z-5.000
G1 X46.826 Y48.256 Z-5.000
G1 X46.954 Y48.124 Z-5.000
G1 X47.103 Y48.011 Z-5.000
G1 X47.267 Y47.920 Z-5.000
G1 X47.443 Y47.856 Z-5.000
G1 X47.623 Y47.819 Z-5.000
G1 X47.802 Y47.808 Z-5.000
G1 X47.973 Y47.822 Z-5.000
G1 X48.134 Y47.858 Z-5.000
G1 X48.305 Y47.921 Z-5.000
G1 X48.471 Y48.014 Z-5.000
G1 X48.628 Y48.135 Z-5.000
G1 X48.767 Y48.284 Z-5.000
G1 X48.881 Y48.457 Z-5.000
G1 X48.965 Y48.645 Z-5.000
G1 X49.016 Y48.842 Z-5.000
G1 X49.035 Y49.039 Z-5.000
G1 X49.023 Y49.230 Z-5.000
G1 X48.985 Y49.408 Z-5.000
G1 X48.922 Y49.578 Z-5.000
G1 X48.829 Y49.745 Z-5.000
G1 X48.708 Y49.901 Z-5.000
G1 X48.558 Y50.040 Z-5.000
G1 X48.386 Y50.154 Z-5.000
G1 X48.198 Y50.238 Z-5.000
G1 X48.001 Y50.289 Z-5.000
G1 X47.803 Y50.308 Z-5.000
G1 X47.613 Y50.296 Z-5.000
G1 X47.435 Y50.258 Z-5.000
G1 X47.281 Y50.202 Z-5.000
G1 X47.128 Y50.122 Z-5.000
G1 X46.983 Y50.017 Z-5.000
G1 X46.851 Y49.889 Z-5.000
G1 X46.737 Y49.740 Z-5.000
G1 X46.647 Y49.576 Z-5.000
G1 X46.583 Y49.400 Z-5.000
G1 X46.545 Y49.220 Z-5.000
G1 X46.535 Y49.041 Z-5.000
G1 X46.549 Y48.869 Z-5.000
G1 X46.585 Y48.709 Z-5.000
G0 X46.585 Y48.709
G0 Z6.000
G1 X46.585 Y48.709 Z-6.000 F635.0
G1 X46.641 Y48.554 Z-6.000 F180.0
G1 X46.721 Y48.401 Z-6.000
G1 X46.826 Y48.256 Z-6.000
G1 X46.954 Y48.124 Z-6.000
G1 X47.103 Y48.011 Z-6.000
G1 X47.267 Y47.920 Z-6.000
G1 X47.443 Y47.856 Z-6.000
G1 X47.623 Y47.819 Z-6.000
G1 X47.802 Y47.808 Z-6.000
G1 X47.973 Y47.822 Z-6.000
G1 X48.134 Y47.858 Z-6.000
G1 X48.305 Y47.921 Z-6.000
G1 X48.471 Y48.014 Z-6.000
G1 X48.628 Y48.135 Z-6.000
G1 X48.767 Y48.284 Z-6.000
G1 X48.881 Y48.457 Z-6.000
G1 X48.965 Y48.645 Z-6.000
G1 X49.016 Y48.842 Z-6.000
G1 X49.035 Y49.039 Z-6.000
G1 X49.023 Y49.230 Z-6.000
G1 X48.985 Y49.408 Z-6.000
G1 X48.922 Y49.578 Z-6.000
G1 X48.829 Y49.745 Z-6.000
G1 X48.708 Y49.901 Z-6.000
G1 X48.558 Y50.040 Z-6.000
G1 X48.386 Y50.154 Z-6.000
G1 X48.198 Y50.238 Z-6.000
G1 X48.001 Y50.289 Z-6.000
G1 X47.803 Y50.308 Z-6.000
G1 X47.613 Y50.296 Z-6.000
G1 X47.435 Y50.258 Z-6.000
G1 X47.281 Y50.202 Z-6.000
G1 X47.128 Y50.122 Z-6.000
G1 X46.983 Y50.017 Z-6.000
G1 X46.851 Y49.889 Z-6.000
G1 X46.737 Y49.740 Z-6.000
G1 X46.647 Y49.576 Z-6.000
G1 X46.583 Y49.400 Z-6.000
G1 X46.545 Y49.220 Z-6.000
G1 X46.535 Y49.041 Z-6.000
G1 X46.549 Y48.869 Z-6.000
G1 X46.585 Y48.709 Z-6.000
G0 X46.585 Y48.709
G0 Z6.000
G1 X46.585 Y48.709 Z-7.000 F635.0
G1 X46.641 Y48.554 Z-7.000 F180.0
G1 X46.721 Y48.401 Z-7.000
G1 X46.826 Y48.256 Z-7.000
G1 X46.954 Y48.124 Z-7.000
G1 X47.103 Y48.011 Z-7.000
G1 X47.267 Y47.920 Z-7.000
G1 X47.443 Y47.856 Z-7.000
G1 X47.623 Y47.819 Z-7.000
G1 X47.802 Y47.808 Z-7.000
G1 X47.973 Y47.822 Z-7.000
G1 X48.134 Y47.858 Z-7.000
G1 X48.305 Y47.921 Z-7.000
G1 X48.471 Y48.014 Z-7.000
G1 X48.628 Y48.135 Z-7.000
G1 X48.767 Y48.284 Z-7.000
G1 X48.881 Y48.457 Z-7.000
G1 X48.965 Y48.645 Z-7.000
G1 X49.016 Y48.842 Z-7.000
G1 X49.035 Y49.039 Z-7.000
G1 X49.023 Y49.230 Z-7.000
G1 X48.985 Y49.408 Z-7.000
G1 X48.922 Y49.578 Z-7.000
G1 X48.829 Y49.745 Z-7.000
G1 X48.708 Y49.901 Z-7.000
G1 X48.558 Y50.040 Z-7.000
G1 X48.386 Y50.154 Z-7.000
G1 X48.198 Y50.238 Z-7.000
G1 X48.001 Y50.289 Z-7.000
G1 X47.803 Y50.308 Z-7.000
G1 X47.613 Y50.296 Z-7.000
G1 X47.435 Y50.258 Z-7.000
G1 X47.281 Y50.202 Z-7.000
G1 X47.128 Y50.122 Z-7.000
G1 X46.983 Y50.017 Z-7.000
G1 X46.851 Y49.889 Z-7.000
G1 X46.737 Y49.740 Z-7.000
G1 X46.647 Y49.576 Z-7.000
G1 X46.583 Y49.400 Z-7.000
G1 X46.545 Y49.220 Z-7.000
G1 X46.535 Y49.041 Z-7.000
G1 X46.549 Y48.869 Z-7.000
G1 X46.585 Y48.709 Z-7.000
G0 X46.585 Y48.709
G0 Z6.000
G1 X46.585 Y48.709 Z-8.000 F635.0
G1 X46.641 Y48.554 Z-8.000 F180.0
G1 X46.721 Y48.401 Z-8.000
G1 X46.826 Y48.256 Z-8.000
G1 X46.954 Y48.124 Z-8.000
G1 X47.103 Y48.011 Z-8.000
G1 X47.267 Y47.920 Z-8.000
G1 X47.443 Y47.856 Z-8.000
G1 X47.623 Y47.819 Z-8.000
G1 X47.802 Y47.808 Z-8.000
G1 X47.973 Y47.822 Z-8.000
G1 X48.134 Y47.858 Z-8.000
G1 X48.305 Y47.921 Z-8.000
G1 X48.471 Y48.014 Z-8.000
G1 X48.628 Y48.135 Z-8.000
G1 X48.767 Y48.284 Z-8.000
G1 X48.881 Y48.457 Z-8.000
G1 X48.965 Y48.645 Z-8.000
G1 X49.016 Y48.842 Z-8.000
G1 X49.035 Y49.039 Z-8.000
G1 X49.023 Y49.230 Z-8.000
G1 X48.985 Y49.408 Z-8.000
G1 X48.922 Y49.578 Z-8.000
G1 X48.829 Y49.745 Z-8.000
G1 X48.708 Y49.901 Z-8.000
G1 X48.558 Y50.040 Z-8.000
G1 X48.386 Y50.154 Z-8.000
G1 X48.198 Y50.238 Z-8.000
G1 X48.001 Y50.289 Z-8.000
G1 X47.803 Y50.308 Z-8.000
G1 X47.613 Y50.296 Z-8.000
G1 X47.435 Y50.258 Z-8.000
G1 X47.281 Y50.202 Z-8.000
G1 X47.128 Y50.122 Z-8.000
G1 X46.983 Y50.017 Z-8.000
G1 X46.851 Y49.889 Z-8.000
G1 X46.737 Y49.740 Z-8.000
G1 X46.647 Y49.576 Z-8.000
G1 X46.583 Y49.400 Z-8.000
G1 X46.545 Y49.220 Z-8.000
G1 X46.535 Y49.041 Z-8.000
G1 X46.549 Y48.869 Z-8.000
G1 X46.585 Y48.709 Z-8.000
G0 X46.585 Y48.709
G0 Z6.000
G1 X46.585 Y48.709 Z-9.000 F635.0
G1 X46.641 Y48.554 Z-9.000 F180.0
G1 X46.721 Y48.401 Z-9.000
G1 X46.826 Y48.256 Z-9.000
G1 X46.954 Y48.124 Z-9.000
G1 X47.103 Y48.011 Z-9.000
G1 X47.267 Y47.920 Z-9.000
G1 X47.443 Y47.856 Z-9.000
G1 X47.623 Y47.819 Z-9.000
G1 X47.802 Y47.808 Z-9.000
G1 X47.973 Y47.822 Z-9.000
G1 X48.134 Y47.858 Z-9.000
G1 X48.305 Y47.921 Z-9.000
G1 X48.471 Y48.014 Z-9.000
G1 X48.628 Y48.135 Z-9.000
G1 X48.767 Y48.284 Z-9.000
G1 X48.881 Y48.457 Z-9.000
G1 X48.965 Y48.645 Z-9.000
G1 X49.016 Y48.842 Z-9.000
G1 X49.035 Y49.039 Z-9.000
G1 X49.023 Y49.230 Z-9.000
G1 X48.985 Y49.408 Z-9.000
G1 X48.922 Y49.578 Z-9.000
G1 X48.829 Y49.745 Z-9.000
G1 X48.708 Y49.901 Z-9.000
G1 X48.558 Y50.040 Z-9.000
G1 X48.386 Y50.154 Z-9.000
G1 X48.198 Y50.238 Z-9.000
G1 X48.001 Y50.289 Z-9.000
G1 X47.803 Y50.308 Z-9.000
G1 X47.613 Y50.296 Z-9.000
G1 X47.435 Y50.258 Z-9.000
G1 X47.281 Y50.202 Z-9.000
G1 X47.128 Y50.122 Z-9.000
G1 X46.983 Y50.017 Z-9.000
G1 X46.851 Y49.889 Z-9.000
G1 X46.737 Y49.740 Z-9.000
G1 X46.647 Y49.576 Z-9.000
G1 X46.583 Y49.400 Z-9.000
G1 X46.545 Y49.220 Z-9.000
G1 X46.535 Y49.041 Z-9.000
G1 X46.549 Y48.869 Z-9.000
G1 X46.585 Y48.709 Z-9.000
G0 X46.585 Y48.709
G0 Z6.000
G1 X46.585 Y48.709 Z-10.000 F635.0
G1 X46.641 Y48.554 Z-10.000 F180.0
G1 X46.721 Y48.401 Z-10.000
G1 X46.826 Y48.256 Z-10.000
G1 X46.954 Y48.124 Z-10.000
G1 X47.103 Y48.011 Z-10.000
G1 X47.267 Y47.920 Z-10.000
G1 X47.443 Y47.856 Z-10.000
G1 X47.623 Y47.819 Z-10.000
G1 X47.802 Y47.808 Z-10.000
G1 X47.973 Y47.822 Z-10.000
G1 X48.134 Y47.858 Z-10.000
G1 X48.305 Y47.921 Z-10.000
G1 X48.471 Y48.014 Z-10.000
G1 X48.628 Y48.135 Z-10.000
G1 X48.767 Y48.284 Z-10.000
G1 X48.881 Y48.457 Z-10.000
G1 X48.965 Y48.645 Z-10.000
G1 X49.016 Y48.842 Z-10.000
G1 X49.035 Y49.039 Z-10.000
G1 X49.023 Y49.230 Z-10.000
G1 X48.985 Y49.408 Z-10.000
G1 X48.922 Y49.578 Z-10.000
G1 X48.829 Y49.745 Z-10.000
G1 X48.708 Y49.901 Z-10.000
G1 X48.558 Y50.040 Z-10.000
G1 X48.386 Y50.154 Z-10.000
G1 X48.198 Y50.238 Z-10.000
G1 X48.001 Y50.289 Z-10.000
G1 X47.803 Y50.308 Z-10.000
G1 X47.613 Y50.296 Z-10.000
G1 X47.435 Y50.258 Z-10.000
G1 X47.281 Y50.202 Z-10.000
G1 X47.128 Y50.122 Z-10.000
G1 X46.983 Y50.017 Z-10.000
G1 X46.851 Y49.889 Z-10.000
G1 X46.737 Y49.740 Z-10.000
G1 X46.647 Y49.576 Z-10.000
G1 X46.583 Y49.400 Z-10.000
G1 X46.545 Y49.220 Z-10.000
G1 X46.535 Y49.041 Z-10.000
G1 X46.549 Y48.869 Z-10.000
G1 X46.585 Y48.709 Z-10.000
G0 X46.585 Y48.709
G0 Z6.000
G1 X46.585 Y48.709 Z-11.000 F635.0
G1 X46.641 Y48.554 Z-11.000 F180.0
G1 X46.721 Y48.401 Z-11.000
G1 X46.826 Y48.256 Z-11.000
G1 X46.954 Y48.124 Z-11.000
G1 X47.103 Y48.011 Z-11.000
G1 X47.267 Y47.920 Z-11.000
G1 X47.443 Y47.856 Z-11.000
G1 X47.623 Y47.819 Z-11.000
G1 X47.802 Y47.808 Z-11.000
G1 X47.973 Y47.822 Z-11.000
G1 X48.134 Y47.858 Z-11.000
G1 X48.305 Y47.921 Z-11.000
G1 X48.471 Y48.014 Z-11.000
G1 X48.628 Y48.135 Z-11.000
G1 X48.767 Y48.284 Z-11.000
G1 X48.881 Y48.457 Z-11.000
G1 X48.965 Y48.645 Z-11.000
G1 X49.016 Y48.842 Z-11.000
G1 X49.035 Y49.039 Z-11.000
G1 X49.023 Y49.230 Z-11.000
G1 X48.985 Y49.408 Z-11.000
G1 X48.922 Y49.578 Z-11.000
G1 X48.829 Y49.745 Z-11.000
G1 X48.708 Y49.901 Z-11.000
G1 X48.558 Y50.040 Z-11.000
G1 X48.386 Y50.154 Z-11.000
G1 X48.198 Y50.238 Z-11.000
G1 X48.001 Y50.289 Z-11.000
G1 X47.803 Y50.308 Z-11.000
G1 X47.613 Y50.296 Z-11.000
G1 X47.435 Y50.258 Z-11.000
G1 X47.281 Y50.202 Z-11.000
G1 X47.128 Y50.122 Z-11.000
G1 X46.983 Y50.017 Z-11.000
G1 X46.851 Y49.889 Z-11.000
G1 X46.737 Y49.740 Z-11.000
G1 X46.647 Y49.576 Z-11.000
G1 X46.583 Y49.400 Z-11.000
G1 X46.545 Y49.220 Z-11.000
G1 X46.535 Y49.041 Z-11.000
G1 X46.549 Y48.869 Z-11.000
G1 X46.585 Y48.709 Z-11.000
G0 X46.585 Y48.709
G0 Z6.000
G1 X46.585 Y48.709 Z-12.000 F635.0
G1 X46.641 Y48.554 Z-12.000 F180.0
G1 X46.721 Y48.401 Z-12.000
G1 X46.826 Y48.256 Z-12.000
G1 X46.954 Y48.124 Z-12.000
G1 X47.103 Y48.011 Z-12.000
G1 X47.267 Y47.920 Z-12.000
G1 X47.443 Y47.856 Z-12.000
G1 X47.623 Y47.819 Z-12.000
G1 X47.802 Y47.808 Z-12.000
G1 X47.973 Y47.822 Z-12.000
G1 X48.134 Y47.858 Z-12.000
G1 X48.305 Y47.921 Z-12.000
G1 X48.471 Y48.014 Z-12.000
G1 X48.628 Y48.135 Z-12.000
G1 X48.767 Y48.284 Z-12.000
G1 X48.881 Y48.457 Z-12.000
G1 X48.965 Y48.645 Z-12.000
G1 X49.016 Y48.842 Z-12.000
G1 X49.035 Y49.039 Z-12.000
G1 X49.023 Y49.230 Z-12.000
G1 X48.985 Y49.408 Z-12.000
G1 X48.922 Y49.578 Z-12.000
G1 X48.829 Y49.745 Z-12.000
G1 X48.708 Y49.901 Z-12.000
G1 X48.558 Y50.040 Z-12.000
G1 X48.386 Y50.154 Z-12.000
G1 X48.198 Y50.238 Z-12.000
G1 X48.001 Y50.289 Z-12.000
G1 X47.803 Y50.308 Z-12.000
G1 X47.613 Y50.296 Z-12.000
G1 X47.435 Y50.258 Z-12.000
G1 X47.281 Y50.202 Z-12.000
G1 X47.128 Y50.122 Z-12.000
G1 X46.983 Y50.017 Z-12.000
G1 X46.851 Y49.889 Z-12.000
G1 X46.737 Y49.740 Z-12.000
G1 X46.647 Y49.576 Z-12.000
G1 X46.583 Y49.400 Z-12.000
G1 X46.545 Y49.220 Z-12.000
G1 X46.535 Y49.041 Z-12.000
G1 X46.549 Y48.869 Z-12.000
G1 X46.585 Y48.709 Z-12.000
G0 X46.585 Y48.709
G0 Z6.000
G0 X143.077 Y52.127
G0 Z6.000
G1 X143.077 Y52.127 Z-1.000 F635.0
G1 X143.232 Y52.070 Z-1.000 F180.0
G1 X143.400 Y52.033 Z-1.000
G1 X143.579 Y52.019 Z-1.000
G1 X143.762 Y52.032 Z-1.000
G1 X143.945 Y52.072 Z-1.000
G1 X144.120 Y52.140 Z-1.000
G1 X144.283 Y52.232 Z-1.000
G1 X144.427 Y52.346 Z-1.000
G1 X144.550 Y52.476 Z-1.000
G1 X144.650 Y52.616 Z-1.000
G1 X144.727 Y52.762 Z-1.000
G1 X144.788 Y52.933 Z-1.000
G1 X144.826 Y53.120 Z-1.000
G1 X144.834 Y53.318 Z-1.000
G1 X144.809 Y53.520 Z-1.000
G1 X144.751 Y53.718 Z-1.000
G1 X144.661 Y53.904 Z-1.000
G1 X144.544 Y54.071 Z-1.000
G1 X144.405 Y54.212 Z-1.000
G1 X144.252 Y54.326 Z-1.000
G1 X144.092 Y54.412 Z-1.000
G1 X143.937 Y54.468 Z-1.000
G1 X143.769 Y54.506 Z-1.000
G1 X143.590 Y54.519 Z-1.000
G1 X143.407 Y54.506 Z-1.000
G1 X143.224 Y54.466 Z-1.000
G1 X143.049 Y54.399 Z-1.000
G1 X142.886 Y54.306 Z-1.000
G1 X142.742 Y54.192 Z-1.000
G1 X142.619 Y54.063 Z-1.000
G1 X142.519 Y53.922 Z-1.000
G1 X142.442 Y53.776 Z-1.000
G1 X142.385 Y53.622 Z-1.000
G1 X142.348 Y53.453 Z-1.000
G1 X142.335 Y53.275 Z-1.000
G1 X142.347 Y53.092 Z-1.000
G1 X142.388 Y52.909 Z-1.000
G1 X142.455 Y52.734 Z-1.000
G1 X142.548 Y52.571 Z-1.000
G1 X142.661 Y52.427 Z-1.000
G1 X142.791 Y52.303 Z-1.000
G1 X142.931 Y52.203 Z-1.000
G1 X143.077 Y52.127 Z-1.000
G0 X143.077 Y52.127
G0 Z6.000
G1 X143.077 Y52.127 Z-2.000 F635.0
G1 X143.232 Y52.070 Z-2.000 F180.0
G1 X143.400 Y52.033 Z-2.000
G1 X143.579 Y52.019 Z-2.000
G1 X143.762 Y52.032 Z-2.000
G1 X143.945 Y52.072 Z-2.000
G1 X144.120 Y52.140 Z-2.000
G1 X144.283 Y52.232 Z-2.000
G1 X144.427 Y52.346 Z-2.000
G1 X144.550 Y52.476 Z-2.000
G1 X144.650 Y52.616 Z-2.000
G1 X144.727 Y52.762 Z-2.000
G1 X144.788 Y52.933 Z-2.000
G1 X144.826 Y53.120 Z-2.000
G1 X144.834 Y53.318 Z-2.000
G1 X144.809 Y53.520 Z-2.000
G1 X144.751 Y53.718 Z-2.000
G1 X144.661 Y53.904 Z-2.000
G1 X144.544 Y54.071 Z-2.000
G1 X144.405 Y54.212 Z-2.000
G1 X144.252 Y54.326 Z-2.000
G1 X144.092 Y54.412 Z-2.000
G1 X143.937 Y54.468 Z-2.000
G1 X143.769 Y54.506 Z-2.000
G1 X143.590 Y54.519 Z-2.000
G1 X143.407 Y54.506 Z-2.000
G1 X143.224 Y54.466 Z-2.000
G1 X143.049 Y54.399 Z-2.000
G1 X142.886 Y54.306 Z-2.000
G1 X142.742 Y54.192 Z-2.000
G1 X142.619 Y54.063 Z-2.000
G1 X142.519 Y53.922 Z-2.000
G1 X142.442 Y53.776 Z-2.000
G1 X142.385 Y53.622 Z-2.000
G1 X142.348 Y53.453 Z-2.000
G1 X142.335 Y53.275 Z-2.000
G1 X142.347 Y53.092 Z-2.000
G1 X142.388 Y52.909 Z-2.000
G1 X142.455 Y52.734 Z-2.000
G1 X142.548 Y52.571 Z-2.000
G1 X142.661 Y52.427 Z-2.000
G1 X142.791 Y52.303 Z-2.000
G1 X142.931 Y52.203 Z-2.000
G1 X143.077 Y52.127 Z-2.000
G0 X143.077 Y52.127
G0 Z6.000
G1 X143.077 Y52.127 Z-3.000 F635.0
G1 X143.232 Y52.070 Z-3.000 F180.0
G1 X143.400 Y52.033 Z-3.000
G1 X143.579 Y52.019 Z-3.000
G1 X143.762 Y52.032 Z-3.000
G1 X143.945 Y52.072 Z-3.000
G1 X144.120 Y52.140 Z-3.000
G1 X144.283 Y52.232 Z-3.000
G1 X144.427 Y52.346 Z-3.000
G1 X144.550 Y52.476 Z-3.000
G1 X144.650 Y52.616 Z-3.000
G1 X144.727 Y52.762 Z-3.000
G1 X144.788 Y52.933 Z-3.000
G1 X144.826 Y53.120 Z-3.000
G1 X144.834 Y53.318 Z-3.000
G1 X144.809 Y53.520 Z-3.000
G1 X144.751 Y53.718 Z-3.000
G1 X144.661 Y53.904 Z-3.000
G1 X144.544 Y54.071 Z-3.000
G1 X144.405 Y54.212 Z-3.000
G1 X144.252 Y54.326 Z-3.000
G1 X144.092 Y54.412 Z-3.000
G1 X143.937 Y54.468 Z-3.000
G1 X143.769 Y54.506 Z-3.000
G1 X143.590 Y54.519 Z-3.000
G1 X143.407 Y54.506 Z-3.000
G1 X143.224 Y54.466 Z-3.000
G1 X143.049 Y54.399 Z-3.000
G1 X142.886 Y54.306 Z-3.000
G1 X142.742 Y54.192 Z-3.000
G1 X142.619 Y54.063 Z-3.000
G1 X142.519 Y53.922 Z-3.000
G1 X142.442 Y53.776 Z-3.000
G1 X142.385 Y53.622 Z-3.000
G1 X142.348 Y53.453 Z-3.000
G1 X142.335 Y53.275 Z-3.000
G1 X142.347 Y53.092 Z-3.000
G1 X142.388 Y52.909 Z-3.000
G1 X142.455 Y52.734 Z-3.000
G1 X142.548 Y52.571 Z-3.000
G1 X142.661 Y52.427 Z-3.000
G1 X142.791 Y52.303 Z-3.000
G1 X142.931 Y52.203 Z-3.000
G1 X143.077 Y52.127 Z-3.000
G0 X143.077 Y52.127
G0 Z6.000
G1 X143.077 Y52.127 Z-4.000 F635.0
G1 X143.232 Y52.070 Z-4.000 F180.0
G1 X143.400 Y52.033 Z-4.000
G1 X143.579 Y52.019 Z-4.000
G1 X143.762 Y52.032 Z-4.000
G1 X143.945 Y52.072 Z-4.000
G1 X144.120 Y52.140 Z-4.000
G1 X144.283 Y52.232 Z-4.000
G1 X144.427 Y52.346 Z-4.000
G1 X144.550 Y52.476 Z-4.000
G1 X144.650 Y52.616 Z-4.000
G1 X144.727 Y52.762 Z-4.000
G1 X144.788 Y52.933 Z-4.000
G1 X144.826 Y53.120 Z-4.000
G1 X144.834 Y53.318 Z-4.000
G1 X144.809 Y53.520 Z-4.000
G1 X144.751 Y53.718 Z-4.000
G1 X144.661 Y53.904 Z-4.000
G1 X144.544 Y54.071 Z-4.000
G1 X144.405 Y54.212 Z-4.000
G1 X144.252 Y54.326 Z-4.000
G1 X144.092 Y54.412 Z-4.000
G1 X143.937 Y54.468 Z-4.000
G1 X143.769 Y54.506 Z-4.000
G1 X143.590 Y54.519 Z-4.000
G1 X143.407 Y54.506 Z-4.000
G1 X143.224 Y54.466 Z-4.000
G1 X143.049 Y54.399 Z-4.000
G1 X142.886 Y54.306 Z-4.000
G1 X142.742 Y54.192 Z-4.000
G1 X142.619 Y54.063 Z-4.000
G1 X142.519 Y53.922 Z-4.000
G1 X142.442 Y53.776 Z-4.000
G1 X142.385 Y53.622 Z-4.000
G1 X142.348 Y53.453 Z-4.000
G1 X142.335 Y53.275 Z-4.000
G1 X142.347 Y53.092 Z-4.000
G1 X142.388 Y52.909 Z-4.000
G1 X142.455 Y52.734 Z-4.000
G1 X142.548 Y52.571 Z-4.000
G1 X142.661 Y52.427 Z-4.000
G1 X142.791 Y52.303 Z-4.000
G1 X142.931 Y52.203 Z-4.000
G1 X143.077 Y52.127 Z-4.000
G0 X143.077 Y52.127
G0 Z6.000
G1 X143.077 Y52.127 Z-5.000 F635.0
G1 X143.232 Y52.070 Z-5.000 F180.0
G1 X143.400 Y52.033 Z-5.000
G1 X143.579 Y52.019 Z-5.000
G1 X143.762 Y52.032 Z-5.000
G1 X143.945 Y52.072 Z-5.000
G1 X144.120 Y52.140 Z-5.000
G1 X144.283 Y52.232 Z-5.000
G1 X144.427 Y52.346 Z-5.000
G1 X144.550 Y52.476 Z-5.000
G1 X144.650 Y52.616 Z-5.000
G1 X144.727 Y52.762 Z-5.000
G1 X144.788 Y52.933 Z-5.000
G1 X144.826 Y53.120 Z-5.000
G1 X144.834 Y53.318 Z-5.000
G1 X144.809 Y53.520 Z-5.000
G1 X144.751 Y53.718 Z-5.000
G1 X144.661 Y53.904 Z-5.000
G1 X144.544 Y54.071 Z-5.000
G1 X144.405 Y54.212 Z-5.000
G1 X144.252 Y54.326 Z-5.000
G1 X144.092 Y54.412 Z-5.000
G1 X143.937 Y54.468 Z-5.000
G1 X143.769 Y54.506 Z-5.000
G1 X143.590 Y54.519 Z-5.000
G1 X143.407 Y54.506 Z-5.000
G1 X143.224 Y54.466 Z-5.000
G1 X143.049 Y54.399 Z-5.000
G1 X142.886 Y54.306 Z-5.000
G1 X142.742 Y54.192 Z-5.000
G1 X142.619 Y54.063 Z-5.000
G1 X142.519 Y53.922 Z-5.000
G1 X142.442 Y53.776 Z-5.000
G1 X142.385 Y53.622 Z-5.000
G1 X142.348 Y53.453 Z-5.000
G1 X142.335 Y53.275 Z-5.000
G1 X142.347 Y53.092 Z-5.000
G1 X142.388 Y52.909 Z-5.000
G1 X142.455 Y52.734 Z-5.000
G1 X142.548 Y52.571 Z-5.000
G1 X142.661 Y52.427 Z-5.000
G1 X142.791 Y52.303 Z-5.000
G1 X142.931 Y52.203 Z-5.000
G1 X143.077 Y52.127 Z-5.000
G0 X143.077 Y52.127
G0 Z6.000
G1 X143.077 Y52.127 Z-6.000 F635.0
G1 X143.232 Y52.070 Z-6.000 F180.0
G1 X143.400 Y52.033 Z-6.000
G1 X143.579 Y52.019 Z-6.000
G1 X143.762 Y52.032 Z-6.000
G1 X143.945 Y52.072 Z-6.000
G1 X144.120 Y52.140 Z-6.000
G1 X144.283 Y52.232 Z-6.000
G1 X144.427 Y52.346 Z-6.000
G1 X144.550 Y52.476 Z-6.000
G1 X144.650 Y52.616 Z-6.000
G1 X144.727 Y52.762 Z-6.000
G1 X144.788 Y52.933 Z-6.000
G1 X144.826 Y53.120 Z-6.000
G1 X144.834 Y53.318 Z-6.000
G1 X144.809 Y53.520 Z-6.000
G1 X144.751 Y53.718 Z-6.000
G1 X144.661 Y53.904 Z-6.000
G1 X144.544 Y54.071 Z-6.000
G1 X144.405 Y54.212 Z-6.000
G1 X144.252 Y54.326 Z-6.000
G1 X144.092 Y54.412 Z-6.000
G1 X143.937 Y54.468 Z-6.000
G1 X143.769 Y54.506 Z-6.000
G1 X143.590 Y54.519 Z-6.000
G1 X143.407 Y54.506 Z-6.000
G1 X143.224 Y54.466 Z-6.000
G1 X143.049 Y54.399 Z-6.000
G1 X142.886 Y54.306 Z-6.000
G1 X142.742 Y54.192 Z-6.000
G1 X142.619 Y54.063 Z-6.000
G1 X142.519 Y53.922 Z-6.000
G1 X142.442 Y53.776 Z-6.000
G1 X142.385 Y53.622 Z-6.000
G1 X142.348 Y53.453 Z-6.000
G1 X142.335 Y53.275 Z-6.000
G1 X142.347 Y53.092 Z-6.000
G1 X142.388 Y52.909 Z-6.000
G1 X142.455 Y52.734 Z-6.000
G1 X142.548 Y52.571 Z-6.000
G1 X142.661 Y52.427 Z-6.000
G1 X142.791 Y52.303 Z-6.000
G1 X142.931 Y52.203 Z-6.000
G1 X143.077 Y52.127 Z-6.000
G0 X143.077 Y52.127
G0 Z6.000
G1 X143.077 Y52.127 Z-7.000 F635.0
G1 X143.232 Y52.070 Z-7.000 F180.0
G1 X143.400 Y52.033 Z-7.000
G1 X143.579 Y52.019 Z-7.000
G1 X143.762 Y52.032 Z-7.000
G1 X143.945 Y52.072 Z-7.000
G1 X144.120 Y52.140 Z-7.000
G1 X144.283 Y52.232 Z-7.000
G1 X144.427 Y52.346 Z-7.000
G1 X144.550 Y52.476 Z-7.000
G1 X144.650 Y52.616 Z-7.000
G1 X144.727 Y52.762 Z-7.000
G1 X144.788 Y52.933 Z-7.000
G1 X144.826 Y53.120 Z-7.000
G1 X144.834 Y53.318 Z-7.000
G1 X144.809 Y53.520 Z-7.000
G1 X144.751 Y53.718 Z-7.000
G1 X144.661 Y53.904 Z-7.000
G1 X144.544 Y54.071 Z-7.000
G1 X144.405 Y54.212 Z-7.000
G1 X144.252 Y54.326 Z-7.000
G1 X144.092 Y54.412 Z-7.000
G1 X143.937 Y54.468 Z-7.000
G1 X143.769 Y54.506 Z-7.000
G1 X143.590 Y54.519 Z-7.000
G1 X143.407 Y54.506 Z-7.000
G1 X143.224 Y54.466 Z-7.000
G1 X143.049 Y54.399 Z-7.000
G1 X142.886 Y54.306 Z-7.000
G1 X142.742 Y54.192 Z-7.000
G1 X142.619 Y54.063 Z-7.000
G1 X142.519 Y53.922 Z-7.000
G1 X142.442 Y53.776 Z-7.000
G1 X142.385 Y53.622 Z-7.000
G1 X142.348 Y53.453 Z-7.000
G1 X142.335 Y53.275 Z-7.000
G1 X142.347 Y53.092 Z-7.000
G1 X142.388 Y52.909 Z-7.000
G1 X142.455 Y52.734 Z-7.000
G1 X142.548 Y52.571 Z-7.000
G1 X142.661 Y52.427 Z-7.000
G1 X142.791 Y52.303 Z-7.000
G1 X142.931 Y52.203 Z-7.000
G1 X143.077 Y52.127 Z-7.000
G0 X143.077 Y52.127
G0 Z6.000
G1 X143.077 Y52.127 Z-8.000 F635.0
G1 X143.232 Y52.070 Z-8.000 F180.0
G1 X143.400 Y52.033 Z-8.000
G1 X143.579 Y52.019 Z-8.000
G1 X143.762 Y52.032 Z-8.000
G1 X143.945 Y52.072 Z-8.000
G1 X144.120 Y52.140 Z-8.000
G1 X144.283 Y52.232 Z-8.000
G1 X144.427 Y52.346 Z-8.000
G1 X144.550 Y52.476 Z-8.000
G1 X144.650 Y52.616 Z-8.000
G1 X144.727 Y52.762 Z-8.000
G1 X144.788 Y52.933 Z-8.000
G1 X144.826 Y53.120 Z-8.000
G1 X144.834 Y53.318 Z-8.000
G1 X144.809 Y53.520 Z-8.000
G1 X144.751 Y53.718 Z-8.000
G1 X144.661 Y53.904 Z-8.000
G1 X144.544 Y54.071 Z-8.000
G1 X144.405 Y54.212 Z-8.000
G1 X144.252 Y54.326 Z-8.000
G1 X144.092 Y54.412 Z-8.000
G1 X143.937 Y54.468 Z-8.000
G1 X143.769 Y54.506 Z-8.000
G1 X143.590 Y54.519 Z-8.000
G1 X143.407 Y54.506 Z-8.000
G1 X143.224 Y54.466 Z-8.000
G1 X143.049 Y54.399 Z-8.000
G1 X142.886 Y54.306 Z-8.000
G1 X142.742 Y54.192 Z-8.000
G1 X142.619 Y54.063 Z-8.000
G1 X142.519 Y53.922 Z-8.000
G1 X142.442 Y53.776 Z-8.000
G1 X142.385 Y53.622 Z-8.000
G1 X142.348 Y53.453 Z-8.000
G1 X142.335 Y53.275 Z-8.000
G1 X142.347 Y53.092 Z-8.000
G1 X142.388 Y52.909 Z-8.000
G1 X142.455 Y52.734 Z-8.000
G1 X142.548 Y52.571 Z-8.000
G1 X142.661 Y52.427 Z-8.000
G1 X142.791 Y52.303 Z-8.000
G1 X142.931 Y52.203 Z-8.000
G1 X143.077 Y52.127 Z-8.000
G0 X143.077 Y52.127
G0 Z6.000
G1 X143.077 Y52.127 Z-9.000 F635.0
G1 X143.232 Y52.070 Z-9.000 F180.0
G1 X143.400 Y52.033 Z-9.000
G1 X143.579 Y52.019 Z-9.000
G1 X143.762 Y52.032 Z-9.000
G1 X143.945 Y52.072 Z-9.000
G1 X144.120 Y52.140 Z-9.000
G1 X144.283 Y52.232 Z-9.000
G1 X144.427 Y52.346 Z-9.000
G1 X144.550 Y52.476 Z-9.000
G1 X144.650 Y52.616 Z-9.000
G1 X144.727 Y52.762 Z-9.000
G1 X144.788 Y52.933 Z-9.000
G1 X144.826 Y53.120 Z-9.000
G1 X144.834 Y53.318 Z-9.000
G1 X144.809 Y53.520 Z-9.000
G1 X144.751 Y53.718 Z-9.000
G1 X144.661 Y53.904 Z-9.000
G1 X144.544 Y54.071 Z-9.000
G1 X144.405 Y54.212 Z-9.000
G1 X144.252 Y54.326 Z-9.000
G1 X144.092 Y54.412 Z-9.000
G1 X143.937 Y54.468 Z-9.000
G1 X143.769 Y54.506 Z-9.000
G1 X143.590 Y54.519 Z-9.000
G1 X143.407 Y54.506 Z-9.000
G1 X143.224 Y54.466 Z-9.000
G1 X143.049 Y54.399 Z-9.000
G1 X142.886 Y54.306 Z-9.000
G1 X142.742 Y54.192 Z-9.000
G1 X142.619 Y54.063 Z-9.000
G1 X142.519 Y53.922 Z-9.000
G1 X142.442 Y53.776 Z-9.000
G1 X142.385 Y53.622 Z-9.000
G1 X142.348 Y53.453 Z-9.000
G1 X142.335 Y53.275 Z-9.000
G1 X142.347 Y53.092 Z-9.000
G1 X142.388 Y52.909 Z-9.000
G1 X142.455 Y52.734 Z-9.000
G1 X142.548 Y52.571 Z-9.000
G1 X142.661 Y52.427 Z-9.000
G1 X142.791 Y52.303 Z-9.000
G1 X142.931 Y52.203 Z-9.000
G1 X143.077 Y52.127 Z-9.000
G0 X143.077 Y52.127
G0 Z6.000
G1 X143.077 Y52.127 Z-10.000 F635.0
G1 X143.232 Y52.070 Z-10.000 F180.0
G1 X143.400 Y52.033 Z-10.000
G1 X143.579 Y52.019 Z-10.000
G1 X143.762 Y52.032 Z-10.000
G1 X143.945 Y52.072 Z-10.000
G1 X144.120 Y52.140 Z-10.000
G1 X144.283 Y52.232 Z-10.000
G1 X144.427 Y52.346 Z-10.000
G1 X144.550 Y52.476 Z-10.000
G1 X144.650 Y52.616 Z-10.000
G1 X144.727 Y52.762 Z-10.000
G1 X144.788 Y52.933 Z-10.000
G1 X144.826 Y53.120 Z-10.000
G1 X144.834 Y53.318 Z-10.000
G1 X144.809 Y53.520 Z-10.000
G1 X144.751 Y53.718 Z-10.000
G1 X144.661 Y53.904 Z-10.000
G1 X144.544 Y54.071 Z-10.000
G1 X144.405 Y54.212 Z-10.000
G1 X144.252 Y54.326 Z-10.000
G1 X144.092 Y54.412 Z-10.000
G1 X143.937 Y54.468 Z-10.000
G1 X143.769 Y54.506 Z-10.000
G1 X143.590 Y54.519 Z-10.000
G1 X143.407 Y54.506 Z-10.000
G1 X143.224 Y54.466 Z-10.000
G1 X143.049 Y54.399 Z-10.000
G1 X142.886 Y54.306 Z-10.000
G1 X142.742 Y54.192 Z-10.000
G1 X142.619 Y54.063 Z-10.000
G1 X142.519 Y53.922 Z-10.000
G1 X142.442 Y53.776 Z-10.000
G1 X142.385 Y53.622 Z-10.000
G1 X142.348 Y53.453 Z-10.000
G1 X142.335 Y53.275 Z-10.000
G1 X142.347 Y53.092 Z-10.000
G1 X142.388 Y52.909 Z-10.000
G1 X142.455 Y52.734 Z-10.000
G1 X142.548 Y52.571 Z-10.000
G1 X142.661 Y52.427 Z-10.000
G1 X142.791 Y52.303 Z-10.000
G1 X142.931 Y52.203 Z-10.000
G1 X143.077 Y52.127 Z-10.000
G0 X143.077 Y52.127
G0 Z6.000
G1 X143.077 Y52.127 Z-11.000 F635.0
G1 X143.232 Y52.070 Z-11.000 F180.0
G1 X143.400 Y52.033 Z-11.000
G1 X143.579 Y52.019 Z-11.000
G1 X143.762 Y52.032 Z-11.000
G1 X143.945 Y52.072 Z-11.000
G1 X144.120 Y52.140 Z-11.000
G1 X144.283 Y52.232 Z-11.000
G1 X144.427 Y52.346 Z-11.000
G1 X144.550 Y52.476 Z-11.000
G1 X144.650 Y52.616 Z-11.000
G1 X144.727 Y52.762 Z-11.000
G1 X144.788 Y52.933 Z-11.000
G1 X144.826 Y53.120 Z-11.000
G1 X144.834 Y53.318 Z-11.000
G1 X144.809 Y53.520 Z-11.000
G1 X144.751 Y53.718 Z-11.000
G1 X144.661 Y53.904 Z-11.000
G1 X144.544 Y54.071 Z-11.000
G1 X144.405 Y54.212 Z-11.000
G1 X144.252 Y54.326 Z-11.000
G1 X144.092 Y54.412 Z-11.000
G1 X143.937 Y54.468 Z-11.000
G1 X143.769 Y54.506 Z-11.000
G1 X143.590 Y54.519 Z-11.000
G1 X143.407 Y54.506 Z-11.000
G1 X143.224 Y54.466 Z-11.000
G1 X143.049 Y54.399 Z-11.000
G1 X142.886 Y54.306 Z-11.000
G1 X142.742 Y54.192 Z-11.000
G1 X142.619 Y54.063 Z-11.000
G1 X142.519 Y53.922 Z-11.000
G1 X142.442 Y53.776 Z-11.000
G1 X142.385 Y53.622 Z-11.000
G1 X142.348 Y53.453 Z-11.000
G1 X142.335 Y53.275 Z-11.000
G1 X142.347 Y53.092 Z-11.000
G1 X142.388 Y52.909 Z-11.000
G1 X142.455 Y52.734 Z-11.000
G1 X142.548 Y52.571 Z-11.000
G1 X142.661 Y52.427 Z-11.000
G1 X142.791 Y52.303 Z-11.000
G1 X142.931 Y52.203 Z-11.000
G1 X143.077 Y52.127 Z-11.000
G0 X143.077 Y52.127
G0 Z6.000
G1 X143.077 Y52.127 Z-12.000 F635.0
G1 X143.232 Y52.070 Z-12.000 F180.0
G1 X143.400 Y52.033 Z-12.000
G1 X143.579 Y52.019 Z-12.000
G1 X143.762 Y52.032 Z-12.000
G1 X143.945 Y52.072 Z-12.000
G1 X144.120 Y52.140 Z-12.000
G1 X144.283 Y52.232 Z-12.000
G1 X144.427 Y52.346 Z-12.000
G1 X144.550 Y52.476 Z-12.000
G1 X144.650 Y52.616 Z-12.000
G1 X144.727 Y52.762 Z-12.000
G1 X144.788 Y52.933 Z-12.000
G1 X144.826 Y53.120 Z-12.000
G1 X144.834 Y53.318 Z-12.000
G1 X144.809 Y53.520 Z-12.000
G1 X144.751 Y53.718 Z-12.000
G1 X144.661 Y53.904 Z-12.000
G1 X144.544 Y54.071 Z-12.000
G1 X144.405 Y54.212 Z-12.000
G1 X144.252 Y54.326 Z-12.000
G1 X144.092 Y54.412 Z-12.000
G1 X143.937 Y54.468 Z-12.000
G1 X143.769 Y54.506 Z-12.000
G1 X143.590 Y54.519 Z-12.000
G1 X143.407 Y54.506 Z-12.000
G1 X143.224 Y54.466 Z-12.000
G1 X143.049 Y54.399 Z-12.000
G1 X142.886 Y54.306 Z-12.000
G1 X142.742 Y54.192 Z-12.000
G1 X142.619 Y54.063 Z-12.000
G1 X142.519 Y53.922 Z-12.000
G1 X142.442 Y53.776 Z-12.000
G1 X142.385 Y53.622 Z-12.000
G1 X142.348 Y53.453 Z-12.000
G1 X142.335 Y53.275 Z-12.000
G1 X142.347 Y53.092 Z-12.000
G1 X142.388 Y52.909 Z-12.000
G1 X142.455 Y52.734 Z-12.000
G1 X142.548 Y52.571 Z-12.000
G1 X142.661 Y52.427 Z-12.000
G1 X142.791 Y52.303 Z-12.000
G1 X142.931 Y52.203 Z-12.000
G1 X143.077 Y52.127 Z-12.000
G0 X143.077 Y52.127
G0 Z6.000
G0 X36.376 Y32.625
G0 Z6.000
G1 X36.376 Y32.625 Z-1.000 F635.0
G1 X35.758 Y33.345 Z-1.000 F180.0
G1 X35.171 Y34.078 Z-1.000
G1 X34.616 Y34.825 Z-1.000
G1 X34.092 Y35.585 Z-1.000
G1 X33.599 Y36.358 Z-1.000
G1 X33.138 Y37.143 Z-1.000
G1 X32.709 Y37.940 Z-1.000
G1 X32.311 Y38.748 Z-1.000
G1 X31.944 Y39.567 Z-1.000
G1 X31.609 Y40.397 Z-1.000
G1 X31.306 Y41.236 Z-1.000
G1 X31.034 Y42.085 Z-1.000
G1 X30.793 Y42.943 Z-1.000
G1 X30.584 Y43.809 Z-1.000
G1 X30.406 Y44.683 Z-1.000
G1 X30.259 Y45.564 Z-1.000
G1 X30.143 Y46.452 Z-1.000
G1 X30.057 Y47.346 Z-1.000
G1 X30.003 Y48.246 Z-1.000
G1 X29.978 Y49.152 Z-1.000
G1 X29.984 Y50.062 Z-1.000
G1 X30.019 Y50.977 Z-1.000
G1 X30.084 Y51.897 Z-1.000
G1 X30.179 Y52.820 Z-1.000
G1 X30.302 Y53.747 Z-1.000
G1 X30.474 Y54.794 Z-1.000
G1 X30.892 Y56.104 Z-1.000
G1 X31.339 Y57.312 Z-1.000
G1 X31.842 Y58.513 Z-1.000
G1 X32.400 Y59.707 Z-1.000
G1 X33.014 Y60.893 Z-1.000
G1 X33.681 Y62.069 Z-1.000
G1 X34.400 Y63.237 Z-1.000
G1 X35.189 Y64.421 Z-1.000
G1 X35.540 Y64.878 Z-1.000
G1 X35.994 Y65.438 Z-1.000
G1 X36.562 Y66.077 Z-1.000
G1 X36.906 Y66.430 Z-1.000
G1 X37.270 Y66.777 Z-1.000
G1 X37.665 Y67.120 Z-1.000
G1 X38.093 Y67.454 Z-1.000
G1 X38.556 Y67.771 Z-1.000
G1 X39.059 Y68.062 Z-1.000
G1 X39.609 Y68.315 Z-1.000
G1 X40.210 Y68.516 Z-1.000
G1 X40.826 Y68.636 Z-1.000
G1 X41.208 Y68.667 Z-1.000
G1 X41.716 Y68.666 Z-1.000
G1 X42.386 Y68.505 Z-1.000
G1 X42.956 Y68.170 Z-1.000
G1 X43.339 Y67.838 Z-1.000
G1 X43.637 Y67.515 Z-1.000
G1 X44.051 Y66.977 Z-1.000
G1 X44.412 Y66.472 Z-1.000
G1 X44.729 Y66.052 Z-1.000
G1 X44.777 Y65.995 Z-1.000
G1 X51.686 Y66.005 Z-1.000
G1 X67.686 Y66.028 Z-1.000
G1 X136.985 Y66.127 Z-1.000
G1 X138.705 Y66.000 Z-1.000
G1 X140.302 Y65.836 Z-1.000
G1 X141.826 Y65.629 Z-1.000
G1 X143.276 Y65.381 Z-1.000
G1 X144.654 Y65.089 Z-1.000
G1 X145.946 Y64.757 Z-1.000
G1 X146.582 Y64.568 Z-1.000
G1 X147.190 Y64.372 Z-1.000
G1 X147.779 Y64.164 Z-1.000
G1 X148.350 Y63.944 Z-1.000
G1 X148.903 Y63.711 Z-1.000
G1 X149.438 Y63.466 Z-1.000
G1 X149.955 Y63.207 Z-1.000
G1 X150.454 Y62.935 Z-1.000
G1 X150.934 Y62.650 Z-1.000
G1 X151.395 Y62.350 Z-1.000
G1 X151.837 Y62.036 Z-1.000
G1 X152.260 Y61.706 Z-1.000
G1 X152.662 Y61.362 Z-1.000
G1 X153.044 Y61.002 Z-1.000
G1 X153.403 Y60.626 Z-1.000
G1 X153.741 Y60.234 Z-1.000
G1 X154.054 Y59.827 Z-1.000
G1 X154.344 Y59.405 Z-1.000
G1 X154.608 Y58.969 Z-1.000
G1 X154.742 Y58.715 Z-1.000
G1 X154.906 Y58.498 Z-1.000
G1 X155.182 Y58.055 Z-1.000
G1 X155.414 Y57.595 Z-1.000
G1 X155.602 Y57.121 Z-1.000
G1 X155.747 Y56.638 Z-1.000
G1 X155.852 Y56.150 Z-1.000
G1 X155.918 Y55.659 Z-1.000
G1 X155.948 Y55.169 Z-1.000
G1 X155.944 Y54.680 Z-1.000
G1 X155.908 Y54.193 Z-1.000
G1 X155.844 Y53.710 Z-1.000
G1 X155.753 Y53.232 Z-1.000
G1 X155.636 Y52.757 Z-1.000
G1 X155.496 Y52.288 Z-1.000
G1 X155.333 Y51.823 Z-1.000
G1 X155.149 Y51.363 Z-1.000
G1 X154.944 Y50.909 Z-1.000
G1 X154.721 Y50.460 Z-1.000
G1 X154.478 Y50.018 Z-1.000
G1 X154.218 Y49.582 Z-1.000
G1 X153.941 Y49.153 Z-1.000
G1 X153.648 Y48.731 Z-1.000
G1 X153.625 Y48.700 Z-1.000
G1 X153.339 Y48.318 Z-1.000
G1 X153.015 Y47.913 Z-1.000
G1 X152.676 Y47.518 Z-1.000
G1 X152.323 Y47.133 Z-1.000
G1 X151.956 Y46.758 Z-1.000
G1 X151.576 Y46.395 Z-1.000
G1 X151.183 Y46.044 Z-1.000
G1 X150.778 Y45.706 Z-1.000
G1 X150.361 Y45.382 Z-1.000
G1 X150.067 Y45.170 Z-1.000
G1 X149.902 Y45.014 Z-1.000
G1 X149.538 Y44.701 Z-1.000
G1 X148.675 Y44.015 Z-1.000
G1 X147.579 Y43.197 Z-1.000
G1 X146.282 Y42.272 Z-1.000
G1 X144.811 Y41.260 Z-1.000
G1 X143.197 Y40.187 Z-1.000
G1 X141.472 Y39.078 Z-1.000
G1 X141.114 Y38.856 Z-1.000
G1 X139.669 Y37.958 Z-1.000
G1 X138.067 Y36.999 Z-1.000
G1 X136.453 Y36.064 Z-1.000
G1 X134.826 Y35.153 Z-1.000
G1 X133.186 Y34.267 Z-1.000
G1 X131.536 Y33.406 Z-1.000
G1 X129.875 Y32.569 Z-1.000
G1 X128.204 Y31.756 Z-1.000
G1 X126.524 Y30.968 Z-1.000
G1 X124.835 Y30.205 Z-1.000
G1 X123.139 Y29.466 Z-1.000
G1 X121.436 Y28.753 Z-1.000
G1 X119.728 Y28.064 Z-1.000
G1 X118.013 Y27.400 Z-1.000
G1 X116.295 Y26.761 Z-1.000
G1 X114.572 Y26.148 Z-1.000
G1 X112.846 Y25.559 Z-1.000
G1 X111.118 Y24.996 Z-1.000
G1 X109.389 Y24.457 Z-1.000
G1 X108.159 Y24.093 Z-1.000
G1 X107.658 Y23.945 Z-1.000
G1 X105.927 Y23.457 Z-1.000
G1 X104.197 Y22.995 Z-1.000
G1 X102.468 Y22.559 Z-1.000
G1 X100.742 Y22.148 Z-1.000
G1 X99.018 Y21.763 Z-1.000
G1 X97.297 Y21.404 Z-1.000
G1 X95.581 Y21.070 Z-1.000
G1 X93.870 Y20.763 Z-1.000
G1 X92.568 Y20.548 Z-1.000
G1 X92.165 Y20.481 Z-1.000
G1 X90.466 Y20.226 Z-1.000
G1 X88.774 Y19.997 Z-1.000
G1 X87.091 Y19.794 Z-1.000
G1 X85.416 Y19.617 Z-1.000
G1 X83.750 Y19.467 Z-1.000
G1 X82.094 Y19.344 Z-1.000
G1 X80.450 Y19.247 Z-1.000
G1 X78.817 Y19.176 Z-1.000
G1 X77.196 Y19.133 Z-1.000
G1 X75.588 Y19.117 Z-1.000
G1 X73.994 Y19.127 Z-1.000
G1 X72.414 Y19.165 Z-1.000
G1 X70.850 Y19.230 Z-1.000
G1 X69.301 Y19.323 Z-1.000
G1 X67.769 Y19.442 Z-1.000
G1 X66.254 Y19.590 Z-1.000
G1 X64.758 Y19.766 Z-1.000
G1 X63.280 Y19.969 Z-1.000
G1 X61.821 Y20.200 Z-1.000
G1 X60.383 Y20.460 Z-1.000
G1 X58.966 Y20.748 Z-1.000
G1 X57.570 Y21.065 Z-1.000
G1 X56.197 Y21.410 Z-1.000
G1 X54.846 Y21.785 Z-1.000
G1 X53.520 Y22.189 Z-1.000
G1 X52.218 Y22.622 Z-1.000
G1 X50.942 Y23.084 Z-1.000
G1 X49.691 Y23.577 Z-1.000
G1 X48.468 Y24.099 Z-1.000
G1 X47.273 Y24.652 Z-1.000
G1 X46.106 Y25.235 Z-1.000
G1 X44.968 Y25.849 Z-1.000
G1 X43.861 Y26.494 Z-1.000
G1 X42.785 Y27.170 Z-1.000
G1 X41.741 Y27.878 Z-1.000
G1 X40.733 Y28.616 Z-1.000
G1 X39.928 Y29.247 Z-1.000
G1 X39.156 Y29.893 Z-1.000
G1 X38.414 Y30.553 Z-1.000
G1 X37.704 Y31.229 Z-1.000
G1 X37.024 Y31.920 Z-1.000
G1 X36.376 Y32.625 Z-1.000
G1 X36.376 Y32.625 Z-2.000 F635.0
G1 X35.758 Y33.345 Z-2.000 F180.0
G1 X35.171 Y34.078 Z-2.000
G1 X34.616 Y34.825 Z-2.000
G1 X34.092 Y35.585 Z-2.000
G1 X33.599 Y36.358 Z-2.000
G1 X33.138 Y37.143 Z-2.000
G1 X32.709 Y37.940 Z-2.000
G1 X32.311 Y38.748 Z-2.000
G1 X31.944 Y39.567 Z-2.000
G1 X31.609 Y40.397 Z-2.000
G1 X31.306 Y41.236 Z-2.000
G1 X31.034 Y42.085 Z-2.000
G1 X30.793 Y42.943 Z-2.000
G1 X30.584 Y43.809 Z-2.000
G1 X30.406 Y44.683 Z-2.000
G1 X30.259 Y45.564 Z-2.000
G1 X30.143 Y46.452 Z-2.000
G1 X30.057 Y47.346 Z-2.000
G1 X30.003 Y48.246 Z-2.000
G1 X29.978 Y49.152 Z-2.000
G1 X29.984 Y50.062 Z-2.000
G1 X30.019 Y50.977 Z-2.000
G1 X30.084 Y51.897 Z-2.000
G1 X30.179 Y52.820 Z-2.000
G1 X30.302 Y53.747 Z-2.000
G1 X30.474 Y54.794 Z-2.000
G1 X30.892 Y56.104 Z-2.000
G1 X31.339 Y57.312 Z-2.000
G1 X31.842 Y58.513 Z-2.000
G1 X32.400 Y59.707 Z-2.000
G1 X33.014 Y60.893 Z-2.000
G1 X33.681 Y62.069 Z-2.000
G1 X34.400 Y63.237 Z-2.000
G1 X35.189 Y64.421 Z-2.000
G1 X35.540 Y64.878 Z-2.000
G1 X35.994 Y65.438 Z-2.000
G1 X36.562 Y66.077 Z-2.000
G1 X36.906 Y66.430 Z-2.000
G1 X37.270 Y66.777 Z-2.000
G1 X37.665 Y67.120 Z-2.000
G1 X38.093 Y67.454 Z-2.000
G1 X38.556 Y67.771 Z-2.000
G1 X39.059 Y68.062 Z-2.000
G1 X39.609 Y68.315 Z-2.000
G1 X40.210 Y68.516 Z-2.000
G1 X40.826 Y68.636 Z-2.000
G1 X41.208 Y68.667 Z-2.000
G1 X41.716 Y68.666 Z-2.000
G1 X42.386 Y68.505 Z-2.000
G1 X42.956 Y68.170 Z-2.000
G1 X43.339 Y67.838 Z-2.000
G1 X43.637 Y67.515 Z-2.000
G1 X44.051 Y66.977 Z-2.000
G1 X44.412 Y66.472 Z-2.000
G1 X44.729 Y66.052 Z-2.000
G1 X44.777 Y65.995 Z-2.000
G1 X51.686 Y66.005 Z-2.000
G1 X67.686 Y66.028 Z-2.000
G1 X136.985 Y66.127 Z-2.000
G1 X138.705 Y66.000 Z-2.000
G1 X140.302 Y65.836 Z-2.000
G1 X141.826 Y65.629 Z-2.000
G1 X143.276 Y65.381 Z-2.000
G1 X144.654 Y65.089 Z-2.000
G1 X145.946 Y64.757 Z-2.000
G1 X146.582 Y64.568 Z-2.000
G1 X147.190 Y64.372 Z-2.000
G1 X147.779 Y64.164 Z-2.000
G1 X148.350 Y63.944 Z-2.000
G1 X148.903 Y63.711 Z-2.000
G1 X149.438 Y63.466 Z-2.000
G1 X149.955 Y63.207 Z-2.000
G1 X150.454 Y62.935 Z-2.000
G1 X150.934 Y62.650 Z-2.000
G1 X151.395 Y62.350 Z-2.000
G1 X151.837 Y62.036 Z-2.000
G1 X152.260 Y61.706 Z-2.000
G1 X152.662 Y61.362 Z-2.000
G1 X153.044 Y61.002 Z-2.000
G1 X153.403 Y60.626 Z-2.000
G1 X153.741 Y60.234 Z-2.000
G1 X154.054 Y59.827 Z-2.000
G1 X154.344 Y59.405 Z-2.000
G1 X154.608 Y58.969 Z-2.000
G1 X154.742 Y58.715 Z-2.000
G1 X154.906 Y58.498 Z-2.000
G1 X155.182 Y58.055 Z-2.000
G1 X155.414 Y57.595 Z-2.000
G1 X155.602 Y57.121 Z-2.000
G1 X155.747 Y56.638 Z-2.000
G1 X155.852 Y56.150 Z-2.000
G1 X155.918 Y55.659 Z-2.000
G1 X155.948 Y55.169 Z-2.000
G1 X155.944 Y54.680 Z-2.000
G1 X155.908 Y54.193 Z-2.000
G1 X155.844 Y53.710 Z-2.000
G1 X155.753 Y53.232 Z-2.000
G1 X155.636 Y52.757 Z-2.000
G1 X155.496 Y52.288 Z-2.000
G1 X155.333 Y51.823 Z-2.000
G1 X155.149 Y51.363 Z-2.000
G1 X154.944 Y50.909 Z-2.000
G1 X154.721 Y50.460 Z-2.000
G1 X154.478 Y50.018 Z-2.000
G1 X154.218 Y49.582 Z-2.000
G1 X153.941 Y49.153 Z-2.000
G1 X153.648 Y48.731 Z-2.000
G1 X153.625 Y48.700 Z-2.000
G1 X153.339 Y48.318 Z-2.000
G1 X153.015 Y47.913 Z-2.000
G1 X152.676 Y47.518 Z-2.000
G1 X152.323 Y47.133 Z-2.000
G1 X151.956 Y46.758 Z-2.000
G1 X151.576 Y46.395 Z-2.000
G1 X151.183 Y46.044 Z-2.000
G1 X150.778 Y45.706 Z-2.000
G1 X150.361 Y45.382 Z-2.000
G1 X150.067 Y45.170 Z-2.000
G1 X149.902 Y45.014 Z-2.000
G1 X149.538 Y44.701 Z-2.000
G1 X148.675 Y44.015 Z-2.000
G1 X147.579 Y43.197 Z-2.000
G1 X146.282 Y42.272 Z-2.000
G1 X144.811 Y41.260 Z-2.000
G1 X143.197 Y40.187 Z-2.000
G1 X141.472 Y39.078 Z-2.000
G1 X141.114 Y38.856 Z-2.000
G1 X139.669 Y37.958 Z-2.000
G1 X138.067 Y36.999 Z-2.000
G1 X136.453 Y36.064 Z-2.000
G1 X134.826 Y35.153 Z-2.000
G1 X133.186 Y34.267 Z-2.000
G1 X131.536 Y33.406 Z-2.000
G1 X129.875 Y32.569 Z-2.000
G1 X128.204 Y31.756 Z-2.000
G1 X126.524 Y30.968 Z-2.000
G1 X124.835 Y30.205 Z-2.000
G1 X123.139 Y29.466 Z-2.000
G1 X121.436 Y28.753 Z-2.000
G1 X119.728 Y28.064 Z-2.000
G1 X118.013 Y27.400 Z-2.000
G1 X116.295 Y26.761 Z-2.000
G1 X114.572 Y26.148 Z-2.000
G1 X112.846 Y25.559 Z-2.000
G1 X111.118 Y24.996 Z-2.000
G1 X109.389 Y24.457 Z-2.000
G1 X108.159 Y24.093 Z-2.000
G1 X107.658 Y23.945 Z-2.000
G1 X105.927 Y23.457 Z-2.000
G1 X104.197 Y22.995 Z-2.000
G1 X102.468 Y22.559 Z-2.000
G1 X100.742 Y22.148 Z-2.000
G1 X99.018 Y21.763 Z-2.000
G1 X97.297 Y21.404 Z-2.000
G1 X95.581 Y21.070 Z-2.000
G1 X93.870 Y20.763 Z-2.000
G1 X92.568 Y20.548 Z-2.000
G1 X92.165 Y20.481 Z-2.000
G1 X90.466 Y20.226 Z-2.000
G1 X88.774 Y19.997 Z-2.000
G1 X87.091 Y19.794 Z-2.000
G1 X85.416 Y19.617 Z-2.000
G1 X83.750 Y19.467 Z-2.000
G1 X82.094 Y19.344 Z-2.000
G1 X80.450 Y19.247 Z-2.000
G1 X78.817 Y19.176 Z-2.000
G1 X77.196 Y19.133 Z-2.000
G1 X75.588 Y19.117 Z-2.000
G1 X73.994 Y19.127 Z-2.000
G1 X72.414 Y19.165 Z-2.000
G1 X70.850 Y19.230 Z-2.000
G1 X69.301 Y19.323 Z-2.000
G1 X67.769 Y19.442 Z-2.000
G1 X66.254 Y19.590 Z-2.000
G1 X64.758 Y19.766 Z-2.000
G1 X63.280 Y19.969 Z-2.000
G1 X61.821 Y20.200 Z-2.000
G1 X60.383 Y20.460 Z-2.000
G1 X58.966 Y20.748 Z-2.000
G1 X57.570 Y21.065 Z-2.000
G1 X56.197 Y21.410 Z-2.000
G1 X54.846 Y21.785 Z-2.000
G1 X53.520 Y22.189 Z-2.000
G1 X52.218 Y22.622 Z-2.000
G1 X50.942 Y23.084 Z-2.000
G1 X49.691 Y23.577 Z-2.000
G1 X48.468 Y24.099 Z-2.000
G1 X47.273 Y24.652 Z-2.000
G1 X46.106 Y25.235 Z-2.000
G1 X44.968 Y25.849 Z-2.000
G1 X43.861 Y26.494 Z-2.000
G1 X42.785 Y27.170 Z-2.000
G1 X41.741 Y27.878 Z-2.000
G1 X40.733 Y28.616 Z-2.000
G1 X39.928 Y29.247 Z-2.000
G1 X39.156 Y29.893 Z-2.000
G1 X38.414 Y30.553 Z-2.000
G1 X37.704 Y31.229 Z-2.000
G1 X37.024 Y31.920 Z-2.000
G1 X36.376 Y32.625 Z-2.000
G1 X36.376 Y32.625 Z-3.000 F635.0
G1 X35.758 Y33.345 Z-3.000 F180.0
G1 X35.171 Y34.078 Z-3.000
G1 X34.616 Y34.825 Z-3.000
G1 X34.092 Y35.585 Z-3.000
G1 X33.599 Y36.358 Z-3.000
G1 X33.138 Y37.143 Z-3.000
G1 X32.709 Y37.940 Z-3.000
G1 X32.311 Y38.748 Z-3.000
G1 X31.944 Y39.567 Z-3.000
G1 X31.609 Y40.397 Z-3.000
G1 X31.306 Y41.236 Z-3.000
G1 X31.034 Y42.085 Z-3.000
G1 X30.793 Y42.943 Z-3.000
G1 X30.584 Y43.809 Z-3.000
G1 X30.406 Y44.683 Z-3.000
G1 X30.259 Y45.564 Z-3.000
G1 X30.143 Y46.452 Z-3.000
G1 X30.057 Y47.346 Z-3.000
G1 X30.003 Y48.246 Z-3.000
G1 X29.978 Y49.152 Z-3.000
G1 X29.984 Y50.062 Z-3.000
G1 X30.019 Y50.977 Z-3.000
G1 X30.084 Y51.897 Z-3.000
G1 X30.179 Y52.820 Z-3.000
G1 X30.302 Y53.747 Z-3.000
G1 X30.474 Y54.794 Z-3.000
G1 X30.892 Y56.104 Z-3.000
G1 X31.339 Y57.312 Z-3.000
G1 X31.842 Y58.513 Z-3.000
G1 X32.400 Y59.707 Z-3.000
G1 X33.014 Y60.893 Z-3.000
G1 X33.681 Y62.069 Z-3.000
G1 X34.400 Y63.237 Z-3.000
G1 X35.189 Y64.421 Z-3.000
G1 X35.540 Y64.878 Z-3.000
G1 X35.994 Y65.438 Z-3.000
G1 X36.562 Y66.077 Z-3.000
G1 X36.906 Y66.430 Z-3.000
G1 X37.270 Y66.777 Z-3.000
G1 X37.665 Y67.120 Z-3.000
G1 X38.093 Y67.454 Z-3.000
G1 X38.556 Y67.771 Z-3.000
G1 X39.059 Y68.062 Z-3.000
G1 X39.609 Y68.315 Z-3.000
G1 X40.210 Y68.516 Z-3.000
G1 X40.826 Y68.636 Z-3.000
G1 X41.208 Y68.667 Z-3.000
G1 X41.716 Y68.666 Z-3.000
G1 X42.386 Y68.505 Z-3.000
G1 X42.956 Y68.170 Z-3.000
G1 X43.339 Y67.838 Z-3.000
G1 X43.637 Y67.515 Z-3.000
G1 X44.051 Y66.977 Z-3.000
G1 X44.412 Y66.472 Z-3.000
G1 X44.729 Y66.052 Z-3.000
G1 X44.777 Y65.995 Z-3.000
G1 X51.686 Y66.005 Z-3.000
G1 X67.686 Y66.028 Z-3.000
G1 X136.985 Y66.127 Z-3.000
G1 X138.705 Y66.000 Z-3.000
G1 X140.302 Y65.836 Z-3.000
G1 X141.826 Y65.629 Z-3.000
G1 X143.276 Y65.381 Z-3.000
G1 X144.654 Y65.089 Z-3.000
G1 X145.946 Y64.757 Z-3.000
G1 X146.582 Y64.568 Z-3.000
G1 X147.190 Y64.372 Z-3.000
G1 X147.779 Y64.164 Z-3.000
G1 X148.350 Y63.944 Z-3.000
G1 X148.903 Y63.711 Z-3.000
G1 X149.438 Y63.466 Z-3.000
G1 X149.955 Y63.207 Z-3.000
G1 X150.454 Y62.935 Z-3.000
G1 X150.934 Y62.650 Z-3.000
G1 X151.395 Y62.350 Z-3.000
G1 X151.837 Y62.036 Z-3.000
G1 X152.260 Y61.706 Z-3.000
G1 X152.662 Y61.362 Z-3.000
G1 X153.044 Y61.002 Z-3.000
G1 X153.403 Y60.626 Z-3.000
G1 X153.741 Y60.234 Z-3.000
G1 X154.054 Y59.827 Z-3.000
G1 X154.344 Y59.405 Z-3.000
G1 X154.608 Y58.969 Z-3.000
G1 X154.742 Y58.715 Z-3.000
G1 X154.906 Y58.498 Z-3.000
G1 X155.182 Y58.055 Z-3.000
G1 X155.414 Y57.595 Z-3.000
G1 X155.602 Y57.121 Z-3.000
G1 X155.747 Y56.638 Z-3.000
G1 X155.852 Y56.150 Z-3.000
G1 X155.918 Y55.659 Z-3.000
G1 X155.948 Y55.169 Z-3.000
G1 X155.944 Y54.680 Z-3.000
G1 X155.908 Y54.193 Z-3.000
G1 X155.844 Y53.710 Z-3.000
G1 X155.753 Y53.232 Z-3.000
G1 X155.636 Y52.757 Z-3.000
G1 X155.496 Y52.288 Z-3.000
G1 X155.333 Y51.823 Z-3.000
G1 X155.149 Y51.363 Z-3.000
G1 X154.944 Y50.909 Z-3.000
G1 X154.721 Y50.460 Z-3.000
G1 X154.478 Y50.018 Z-3.000
G1 X154.218 Y49.582 Z-3.000
G1 X153.941 Y49.153 Z-3.000
G1 X153.648 Y48.731 Z-3.000
G1 X153.625 Y48.700 Z-3.000
G1 X153.339 Y48.318 Z-3.000
G1 X153.015 Y47.913 Z-3.000
G1 X152.676 Y47.518 Z-3.000
G1 X152.323 Y47.133 Z-3.000
G1 X151.956 Y46.758 Z-3.000
G1 X151.576 Y46.395 Z-3.000
G1 X151.183 Y46.044 Z-3.000
G1 X150.778 Y45.706 Z-3.000
G1 X150.361 Y45.382 Z-3.000
G1 X150.067 Y45.170 Z-3.000
G1 X149.902 Y45.014 Z-3.000
G1 X149.538 Y44.701 Z-3.000
G1 X148.675 Y44.015 Z-3.000
G1 X147.579 Y43.197 Z-3.000
G1 X146.282 Y42.272 Z-3.000
G1 X144.811 Y41.260 Z-3.000
G1 X143.197 Y40.187 Z-3.000
G1 X141.472 Y39.078 Z-3.000
G1 X141.114 Y38.856 Z-3.000
G1 X139.669 Y37.958 Z-3.000
G1 X138.067 Y36.999 Z-3.000
G1 X136.453 Y36.064 Z-3.000
G1 X134.826 Y35.153 Z-3.000
G1 X133.186 Y34.267 Z-3.000
G1 X131.536 Y33.406 Z-3.000
G1 X129.875 Y32.569 Z-3.000
G1 X128.204 Y31.756 Z-3.000
G1 X126.524 Y30.968 Z-3.000
G1 X124.835 Y30.205 Z-3.000
G1 X123.139 Y29.466 Z-3.000
G1 X121.436 Y28.753 Z-3.000
G1 X119.728 Y28.064 Z-3.000
G1 X118.013 Y27.400 Z-3.000
G1 X116.295 Y26.761 Z-3.000
G1 X114.572 Y26.148 Z-3.000
G1 X112.846 Y25.559 Z-3.000
G1 X111.118 Y24.996 Z-3.000
G1 X109.389 Y24.457 Z-3.000
G1 X108.159 Y24.093 Z-3.000
G1 X107.658 Y23.945 Z-3.000
G1 X105.927 Y23.457 Z-3.000
G1 X104.197 Y22.995 Z-3.000
G1 X102.468 Y22.559 Z-3.000
G1 X100.742 Y22.148 Z-3.000
G1 X99.018 Y21.763 Z-3.000
G1 X97.297 Y21.404 Z-3.000
G1 X95.581 Y21.070 Z-3.000
G1 X93.870 Y20.763 Z-3.000
G1 X92.568 Y20.548 Z-3.000
G1 X92.165 Y20.481 Z-3.000
G1 X90.466 Y20.226 Z-3.000
G1 X88.774 Y19.997 Z-3.000
G1 X87.091 Y19.794 Z-3.000
G1 X85.416 Y19.617 Z-3.000
G1 X83.750 Y19.467 Z-3.000
G1 X82.094 Y19.344 Z-3.000
G1 X80.450 Y19.247 Z-3.000
G1 X78.817 Y19.176 Z-3.000
G1 X77.196 Y19.133 Z-3.000
G1 X75.588 Y19.117 Z-3.000
G1 X73.994 Y19.127 Z-3.000
G1 X72.414 Y19.165 Z-3.000
G1 X70.850 Y19.230 Z-3.000
G1 X69.301 Y19.323 Z-3.000
G1 X67.769 Y19.442 Z-3.000
G1 X66.254 Y19.590 Z-3.000
G1 X64.758 Y19.766 Z-3.000
G1 X63.280 Y19.969 Z-3.000
G1 X61.821 Y20.200 Z-3.000
G1 X60.383 Y20.460 Z-3.000
G1 X58.966 Y20.748 Z-3.000
G1 X57.570 Y21.065 Z-3.000
G1 X56.197 Y21.410 Z-3.000
G1 X54.846 Y21.785 Z-3.000
G1 X53.520 Y22.189 Z-3.000
G1 X52.218 Y22.622 Z-3.000
G1 X50.942 Y23.084 Z-3.000
G1 X49.691 Y23.577 Z-3.000
G1 X48.468 Y24.099 Z-3.000
G1 X47.273 Y24.652 Z-3.000
G1 X46.106 Y25.235 Z-3.000
G1 X44.968 Y25.849 Z-3.000
G1 X43.861 Y26.494 Z-3.000
G1 X42.785 Y27.170 Z-3.000
G1 X41.741 Y27.878 Z-3.000
G1 X40.733 Y28.616 Z-3.000
G1 X39.928 Y29.247 Z-3.000
G1 X39.156 Y29.893 Z-3.000
G1 X38.414 Y30.553 Z-3.000
G1 X37.704 Y31.229 Z-3.000
G1 X37.024 Y31.920 Z-3.000
G1 X36.376 Y32.625 Z-3.000
G1 X36.376 Y32.625 Z-4.000 F635.0
G1 X35.758 Y33.345 Z-4.000 F180.0
G1 X35.171 Y34.078 Z-4.000
G1 X34.616 Y34.825 Z-4.000
G1 X34.092 Y35.585 Z-4.000
G1 X33.599 Y36.358 Z-4.000
G1 X33.138 Y37.143 Z-4.000
G1 X32.709 Y37.940 Z-4.000
G1 X32.311 Y38.748 Z-4.000
G1 X31.944 Y39.567 Z-4.000
G1 X31.609 Y40.397 Z-4.000
G1 X31.306 Y41.236 Z-4.000
G1 X31.034 Y42.085 Z-4.000
G1 X30.793 Y42.943 Z-4.000
G1 X30.584 Y43.809 Z-4.000
G1 X30.406 Y44.683 Z-4.000
G1 X30.259 Y45.564 Z-4.000
G1 X30.143 Y46.452 Z-4.000
G1 X30.057 Y47.346 Z-4.000
G1 X30.003 Y48.246 Z-4.000
G1 X29.978 Y49.152 Z-4.000
G1 X29.984 Y50.062 Z-4.000
G1 X30.019 Y50.977 Z-4.000
G1 X30.084 Y51.897 Z-4.000
G1 X30.179 Y52.820 Z-4.000
G1 X30.302 Y53.747 Z-4.000
G1 X30.474 Y54.794 Z-4.000
G1 X30.892 Y56.104 Z-4.000
G1 X31.339 Y57.312 Z-4.000
G1 X31.842 Y58.513 Z-4.000
G1 X32.400 Y59.707 Z-4.000
G1 X33.014 Y60.893 Z-4.000
G1 X33.681 Y62.069 Z-4.000
G1 X34.400 Y63.237 Z-4.000
G1 X35.189 Y64.421 Z-4.000
G1 X35.540 Y64.878 Z-4.000
G1 X35.994 Y65.438 Z-4.000
G1 X36.562 Y66.077 Z-4.000
G1 X36.906 Y66.430 Z-4.000
G1 X37.270 Y66.777 Z-4.000
G1 X37.665 Y67.120 Z-4.000
G1 X38.093 Y67.454 Z-4.000
G1 X38.556 Y67.771 Z-4.000
G1 X39.059 Y68.062 Z-4.000
G1 X39.609 Y68.315 Z-4.000
G1 X40.210 Y68.516 Z-4.000
G1 X40.826 Y68.636 Z-4.000
G1 X41.208 Y68.667 Z-4.000
G1 X41.716 Y68.666 Z-4.000
G1 X42.386 Y68.505 Z-4.000
G1 X42.956 Y68.170 Z-4.000
G1 X43.339 Y67.838 Z-4.000
G1 X43.637 Y67.515 Z-4.000
G1 X44.051 Y66.977 Z-4.000
G1 X44.412 Y66.472 Z-4.000
G1 X44.729 Y66.052 Z-4.000
G1 X44.777 Y65.995 Z-4.000
G1 X51.686 Y66.005 Z-4.000
G1 X67.686 Y66.028 Z-4.000
G1 X136.985 Y66.127 Z-4.000
G1 X138.705 Y66.000 Z-4.000
G1 X140.302 Y65.836 Z-4.000
G1 X141.826 Y65.629 Z-4.000
G1 X143.276 Y65.381 Z-4.000
G1 X144.654 Y65.089 Z-4.000
G1 X145.946 Y64.757 Z-4.000
G1 X146.582 Y64.568 Z-4.000
G1 X147.190 Y64.372 Z-4.000
G1 X147.779 Y64.164 Z-4.000
G1 X148.350 Y63.944 Z-4.000
G1 X148.903 Y63.711 Z-4.000
G1 X149.438 Y63.466 Z-4.000
G1 X149.955 Y63.207 Z-4.000
G1 X150.454 Y62.935 Z-4.000
G1 X150.934 Y62.650 Z-4.000
G1 X151.395 Y62.350 Z-4.000
G1 X151.837 Y62.036 Z-4.000
G1 X152.260 Y61.706 Z-4.000
G1 X152.662 Y61.362 Z-4.000
G1 X153.044 Y61.002 Z-4.000
G1 X153.403 Y60.626 Z-4.000
G1 X153.741 Y60.234 Z-4.000
G1 X154.054 Y59.827 Z-4.000
G1 X154.344 Y59.405 Z-4.000
G1 X154.608 Y58.969 Z-4.000
G1 X154.742 Y58.715 Z-4.000
G1 X154.906 Y58.498 Z-4.000
G1 X155.182 Y58.055 Z-4.000
G1 X155.414 Y57.595 Z-4.000
G1 X155.602 Y57.121 Z-4.000
G1 X155.747 Y56.638 Z-4.000
G1 X155.852 Y56.150 Z-4.000
G1 X155.918 Y55.659 Z-4.000
G1 X155.948 Y55.169 Z-4.000
G1 X155.944 Y54.680 Z-4.000
G1 X155.908 Y54.193 Z-4.000
G1 X155.844 Y53.710 Z-4.000
G1 X155.753 Y53.232 Z-4.000
G1 X155.636 Y52.757 Z-4.000
G1 X155.496 Y52.288 Z-4.000
G1 X155.333 Y51.823 Z-4.000
G1 X155.149 Y51.363 Z-4.000
G1 X154.944 Y50.909 Z-4.000
G1 X154.721 Y50.460 Z-4.000
G1 X154.478 Y50.018 Z-4.000
G1 X154.218 Y49.582 Z-4.000
G1 X153.941 Y49.153 Z-4.000
G1 X153.648 Y48.731 Z-4.000
G1 X153.625 Y48.700 Z-4.000
G1 X153.339 Y48.318 Z-4.000
G1 X153.015 Y47.913 Z-4.000
G1 X152.676 Y47.518 Z-4.000
G1 X152.323 Y47.133 Z-4.000
G1 X151.956 Y46.758 Z-4.000
G1 X151.576 Y46.395 Z-4.000
G1 X151.183 Y46.044 Z-4.000
G1 X150.778 Y45.706 Z-4.000
G1 X150.361 Y45.382 Z-4.000
G1 X150.067 Y45.170 Z-4.000
G1 X149.902 Y45.014 Z-4.000
G1 X149.538 Y44.701 Z-4.000
G1 X148.675 Y44.015 Z-4.000
G1 X147.579 Y43.197 Z-4.000
G1 X146.282 Y42.272 Z-4.000
G1 X144.811 Y41.260 Z-4.000
G1 X143.197 Y40.187 Z-4.000
G1 X141.472 Y39.078 Z-4.000
G1 X141.114 Y38.856 Z-4.000
G1 X139.669 Y37.958 Z-4.000
G1 X138.067 Y36.999 Z-4.000
G1 X136.453 Y36.064 Z-4.000
G1 X134.826 Y35.153 Z-4.000
G1 X133.186 Y34.267 Z-4.000
G1 X131.536 Y33.406 Z-4.000
G1 X129.875 Y32.569 Z-4.000
G1 X128.204 Y31.756 Z-4.000
G1 X126.524 Y30.968 Z-4.000
G1 X124.835 Y30.205 Z-4.000
G1 X123.139 Y29.466 Z-4.000
G1 X121.436 Y28.753 Z-4.000
G1 X119.728 Y28.064 Z-4.000
G1 X118.013 Y27.400 Z-4.000
G1 X116.295 Y26.761 Z-4.000
G1 X114.572 Y26.148 Z-4.000
G1 X112.846 Y25.559 Z-4.000
G1 X111.118 Y24.996 Z-4.000
G1 X109.389 Y24.457 Z-4.000
G1 X108.159 Y24.093 Z-4.000
G1 X107.658 Y23.945 Z-4.000
G1 X105.927 Y23.457 Z-4.000
G1 X104.197 Y22.995 Z-4.000
G1 X102.468 Y22.559 Z-4.000
G1 X100.742 Y22.148 Z-4.000
G1 X99.018 Y21.763 Z-4.000
G1 X97.297 Y21.404 Z-4.000
G1 X95.581 Y21.070 Z-4.000
G1 X93.870 Y20.763 Z-4.000
G1 X92.568 Y20.548 Z-4.000
G1 X92.165 Y20.481 Z-4.000
G1 X90.466 Y20.226 Z-4.000
G1 X88.774 Y19.997 Z-4.000
G1 X87.091 Y19.794 Z-4.000
G1 X85.416 Y19.617 Z-4.000
G1 X83.750 Y19.467 Z-4.000
G1 X82.094 Y19.344 Z-4.000
G1 X80.450 Y19.247 Z-4.000
G1 X78.817 Y19.176 Z-4.000
G1 X77.196 Y19.133 Z-4.000
G1 X75.588 Y19.117 Z-4.000
G1 X73.994 Y19.127 Z-4.000
G1 X72.414 Y19.165 Z-4.000
G1 X70.850 Y19.230 Z-4.000
G1 X69.301 Y19.323 Z-4.000
G1 X67.769 Y19.442 Z-4.000
G1 X66.254 Y19.590 Z-4.000
G1 X64.758 Y19.766 Z-4.000
G1 X63.280 Y19.969 Z-4.000
G1 X61.821 Y20.200 Z-4.000
G1 X60.383 Y20.460 Z-4.000
G1 X58.966 Y20.748 Z-4.000
G1 X57.570 Y21.065 Z-4.000
G1 X56.197 Y21.410 Z-4.000
G1 X54.846 Y21.785 Z-4.000
G1 X53.520 Y22.189 Z-4.000
G1 X52.218 Y22.622 Z-4.000
G1 X50.942 Y23.084 Z-4.000
G1 X49.691 Y23.577 Z-4.000
G1 X48.468 Y24.099 Z-4.000
G1 X47.273 Y24.652 Z-4.000
G1 X46.106 Y25.235 Z-4.000
G1 X44.968 Y25.849 Z-4.000
G1 X43.861 Y26.494 Z-4.000
G1 X42.785 Y27.170 Z-4.000
G1 X41.741 Y27.878 Z-4.000
G1 X40.733 Y28.616 Z-4.000
G1 X39.928 Y29.247 Z-4.000
G1 X39.156 Y29.893 Z-4.000
G1 X38.414 Y30.553 Z-4.000
G1 X37.704 Y31.229 Z-4.000
G1 X37.024 Y31.920 Z-4.000
G1 X36.376 Y32.625 Z-4.000
G1 X36.376 Y32.625 Z-5.000 F635.0
G1 X35.758 Y33.345 Z-5.000 F180.0
G1 X35.171 Y34.078 Z-5.000
G1 X34.616 Y34.825 Z-5.000
G1 X34.092 Y35.585 Z-5.000
G1 X33.599 Y36.358 Z-5.000
G1 X33.138 Y37.143 Z-5.000
G1 X32.709 Y37.940 Z-5.000
G1 X32.311 Y38.748 Z-5.000
G1 X31.944 Y39.567 Z-5.000
G1 X31.609 Y40.397 Z-5.000
G1 X31.306 Y41.236 Z-5.000
G1 X31.034 Y42.085 Z-5.000
G1 X30.793 Y42.943 Z-5.000
G1 X30.584 Y43.809 Z-5.000
G1 X30.406 Y44.683 Z-5.000
G1 X30.259 Y45.564 Z-5.000
G1 X30.143 Y46.452 Z-5.000
G1 X30.057 Y47.346 Z-5.000
G1 X30.003 Y48.246 Z-5.000
G1 X29.978 Y49.152 Z-5.000
G1 X29.984 Y50.062 Z-5.000
G1 X30.019 Y50.977 Z-5.000
G1 X30.084 Y51.897 Z-5.000
G1 X30.179 Y52.820 Z-5.000
G1 X30.302 Y53.747 Z-5.000
G1 X30.474 Y54.794 Z-5.000
G1 X30.892 Y56.104 Z-5.000
G1 X31.339 Y57.312 Z-5.000
G1 X31.842 Y58.513 Z-5.000
G1 X32.400 Y59.707 Z-5.000
G1 X33.014 Y60.893 Z-5.000
G1 X33.681 Y62.069 Z-5.000
G1 X34.400 Y63.237 Z-5.000
G1 X35.189 Y64.421 Z-5.000
G1 X35.540 Y64.878 Z-5.000
G1 X35.994 Y65.438 Z-5.000
G1 X36.562 Y66.077 Z-5.000
G1 X36.906 Y66.430 Z-5.000
G1 X37.270 Y66.777 Z-5.000
G1 X37.665 Y67.120 Z-5.000
G1 X38.093 Y67.454 Z-5.000
G1 X38.556 Y67.771 Z-5.000
G1 X39.059 Y68.062 Z-5.000
G1 X39.609 Y68.315 Z-5.000
G1 X40.210 Y68.516 Z-5.000
G1 X40.826 Y68.636 Z-5.000
G1 X41.208 Y68.667 Z-5.000
G1 X41.716 Y68.666 Z-5.000
G1 X42.386 Y68.505 Z-5.000
G1 X42.956 Y68.170 Z-5.000
G1 X43.339 Y67.838 Z-5.000
G1 X43.637 Y67.515 Z-5.000
G1 X44.051 Y66.977 Z-5.000
G1 X44.412 Y66.472 Z-5.000
G1 X44.729 Y66.052 Z-5.000
G1 X44.777 Y65.995 Z-5.000
G1 X51.686 Y66.005 Z-5.000
G1 X67.686 Y66.028 Z-5.000
G1 X136.985 Y66.127 Z-5.000
G1 X138.705 Y66.000 Z-5.000
G1 X140.302 Y65.836 Z-5.000
G1 X141.826 Y65.629 Z-5.000
G1 X143.276 Y65.381 Z-5.000
G1 X144.654 Y65.089 Z-5.000
G1 X145.946 Y64.757 Z-5.000
G1 X146.582 Y64.568 Z-5.000
G1 X147.190 Y64.372 Z-5.000
G1 X147.779 Y64.164 Z-5.000
G1 X148.350 Y63.944 Z-5.000
G1 X148.903 Y63.711 Z-5.000
G1 X149.438 Y63.466 Z-5.000
G1 X149.955 Y63.207 Z-5.000
G1 X150.454 Y62.935 Z-5.000
G1 X150.934 Y62.650 Z-5.000
G1 X151.395 Y62.350 Z-5.000
G1 X151.837 Y62.036 Z-5.000
G1 X152.260 Y61.706 Z-5.000
G1 X152.662 Y61.362 Z-5.000
G1 X153.044 Y61.002 Z-5.000
G1 X153.403 Y60.626 Z-5.000
G1 X153.741 Y60.234 Z-5.000
G1 X154.054 Y59.827 Z-5.000
G1 X154.344 Y59.405 Z-5.000
G1 X154.608 Y58.969 Z-5.000
G1 X154.742 Y58.715 Z-5.000
G1 X154.906 Y58.498 Z-5.000
G1 X155.182 Y58.055 Z-5.000
G1 X155.414 Y57.595 Z-5.000
G1 X155.602 Y57.121 Z-5.000
G1 X155.747 Y56.638 Z-5.000
G1 X155.852 Y56.150 Z-5.000
G1 X155.918 Y55.659 Z-5.000
G1 X155.948 Y55.169 Z-5.000
G1 X155.944 Y54.680 Z-5.000
G1 X155.908 Y54.193 Z-5.000
G1 X155.844 Y53.710 Z-5.000
G1 X155.753 Y53.232 Z-5.000
G1 X155.636 Y52.757 Z-5.000
G1 X155.496 Y52.288 Z-5.000
G1 X155.333 Y51.823 Z-5.000
G1 X155.149 Y51.363 Z-5.000
G1 X154.944 Y50.909 Z-5.000
G1 X154.721 Y50.460 Z-5.000
G1 X154.478 Y50.018 Z-5.000
G1 X154.218 Y49.582 Z-5.000
G1 X153.941 Y49.153 Z-5.000
G1 X153.648 Y48.731 Z-5.000
G1 X153.625 Y48.700 Z-5.000
G1 X153.339 Y48.318 Z-5.000
G1 X153.015 Y47.913 Z-5.000
G1 X152.676 Y47.518 Z-5.000
G1 X152.323 Y47.133 Z-5.000
G1 X151.956 Y46.758 Z-5.000
G1 X151.576 Y46.395 Z-5.000
G1 X151.183 Y46.044 Z-5.000
G1 X150.778 Y45.706 Z-5.000
G1 X150.361 Y45.382 Z-5.000
G1 X150.067 Y45.170 Z-5.000
G1 X149.902 Y45.014 Z-5.000
G1 X149.538 Y44.701 Z-5.000
G1 X148.675 Y44.015 Z-5.000
G1 X147.579 Y43.197 Z-5.000
G1 X146.282 Y42.272 Z-5.000
G1 X144.811 Y41.260 Z-5.000
G1 X143.197 Y40.187 Z-5.000
G1 X141.472 Y39.078 Z-5.000
G1 X141.114 Y38.856 Z-5.000
G1 X139.669 Y37.958 Z-5.000
G1 X138.067 Y36.999 Z-5.000
G1 X136.453 Y36.064 Z-5.000
G1 X134.826 Y35.153 Z-5.000
G1 X133.186 Y34.267 Z-5.000
G1 X131.536 Y33.406 Z-5.000
G1 X129.875 Y32.569 Z-5.000
G1 X128.204 Y31.756 Z-5.000
G1 X126.524 Y30.968 Z-5.000
G1 X124.835 Y30.205 Z-5.000
G1 X123.139 Y29.466 Z-5.000
G1 X121.436 Y28.753 Z-5.000
G1 X119.728 Y28.064 Z-5.000
G1 X118.013 Y27.400 Z-5.000
G1 X116.295 Y26.761 Z-5.000
G1 X114.572 Y26.148 Z-5.000
G1 X112.846 Y25.559 Z-5.000
G1 X111.118 Y24.996 Z-5.000
G1 X109.389 Y24.457 Z-5.000
G1 X108.159 Y24.093 Z-5.000
G1 X107.658 Y23.945 Z-5.000
G1 X105.927 Y23.457 Z-5.000
G1 X104.197 Y22.995 Z-5.000
G1 X102.468 Y22.559 Z-5.000
G1 X100.742 Y22.148 Z-5.000
G1 X99.018 Y21.763 Z-5.000
G1 X97.297 Y21.404 Z-5.000
G1 X95.581 Y21.070 Z-5.000
G1 X93.870 Y20.763 Z-5.000
G1 X92.568 Y20.548 Z-5.000
G1 X92.165 Y20.481 Z-5.000
G1 X90.466 Y20.226 Z-5.000
G1 X88.774 Y19.997 Z-5.000
G1 X87.091 Y19.794 Z-5.000
G1 X85.416 Y19.617 Z-5.000
G1 X83.750 Y19.467 Z-5.000
G1 X82.094 Y19.344 Z-5.000
G1 X80.450 Y19.247 Z-5.000
G1 X78.817 Y19.176 Z-5.000
G1 X77.196 Y19.133 Z-5.000
G1 X75.588 Y19.117 Z-5.000
G1 X73.994 Y19.127 Z-5.000
G1 X72.414 Y19.165 Z-5.000
G1 X70.850 Y19.230 Z-5.000
G1 X69.301 Y19.323 Z-5.000
G1 X67.769 Y19.442 Z-5.000
G1 X66.254 Y19.590 Z-5.000
G1 X64.758 Y19.766 Z-5.000
G1 X63.280 Y19.969 Z-5.000
G1 X61.821 Y20.200 Z-5.000
G1 X60.383 Y20.460 Z-5.000
G1 X58.966 Y20.748 Z-5.000
G1 X57.570 Y21.065 Z-5.000
G1 X56.197 Y21.410 Z-5.000
G1 X54.846 Y21.785 Z-5.000
G1 X53.520 Y22.189 Z-5.000
G1 X52.218 Y22.622 Z-5.000
G1 X50.942 Y23.084 Z-5.000
G1 X49.691 Y23.577 Z-5.000
G1 X48.468 Y24.099 Z-5.000
G1 X47.273 Y24.652 Z-5.000
G1 X46.106 Y25.235 Z-5.000
G1 X44.968 Y25.849 Z-5.000
G1 X43.861 Y26.494 Z-5.000
G1 X42.785 Y27.170 Z-5.000
G1 X41.741 Y27.878 Z-5.000
G1 X40.733 Y28.616 Z-5.000
G1 X39.928 Y29.247 Z-5.000
G1 X39.156 Y29.893 Z-5.000
G1 X38.414 Y30.553 Z-5.000
G1 X37.704 Y31.229 Z-5.000
G1 X37.024 Y31.920 Z-5.000
G1 X36.376 Y32.625 Z-5.000
G1 X36.376 Y32.625 Z-6.000 F635.0
G1 X35.758 Y33.345 Z-6.000 F180.0
G1 X35.171 Y34.078 Z-6.000
G1 X34.616 Y34.825 Z-6.000
G1 X34.092 Y35.585 Z-6.000
G1 X33.599 Y36.358 Z-6.000
G1 X33.138 Y37.143 Z-6.000
G1 X32.709 Y37.940 Z-6.000
G1 X32.311 Y38.748 Z-6.000
G1 X31.944 Y39.567 Z-6.000
G1 X31.609 Y40.397 Z-6.000
G1 X31.306 Y41.236 Z-6.000
G1 X31.034 Y42.085 Z-6.000
G1 X30.793 Y42.943 Z-6.000
G1 X30.584 Y43.809 Z-6.000
G1 X30.406 Y44.683 Z-6.000
G1 X30.259 Y45.564 Z-6.000
G1 X30.143 Y46.452 Z-6.000
G1 X30.057 Y47.346 Z-6.000
G1 X30.003 Y48.246 Z-6.000
G1 X29.978 Y49.152 Z-6.000
G1 X29.984 Y50.062 Z-6.000
G1 X30.019 Y50.977 Z-6.000
G1 X30.084 Y51.897 Z-6.000
G1 X30.179 Y52.820 Z-6.000
G1 X30.302 Y53.747 Z-6.000
G1 X30.474 Y54.794 Z-6.000
G1 X30.892 Y56.104 Z-6.000
G1 X31.339 Y57.312 Z-6.000
G1 X31.842 Y58.513 Z-6.000
G1 X32.400 Y59.707 Z-6.000
G1 X33.014 Y60.893 Z-6.000
G1 X33.681 Y62.069 Z-6.000
G1 X34.400 Y63.237 Z-6.000
G1 X35.189 Y64.421 Z-6.000
G1 X35.540 Y64.878 Z-6.000
G1 X35.994 Y65.438 Z-6.000
G1 X36.562 Y66.077 Z-6.000
G1 X36.906 Y66.430 Z-6.000
G1 X37.270 Y66.777 Z-6.000
G1 X37.665 Y67.120 Z-6.000
G1 X38.093 Y67.454 Z-6.000
G1 X38.556 Y67.771 Z-6.000
G1 X39.059 Y68.062 Z-6.000
G1 X39.609 Y68.315 Z-6.000
G1 X40.210 Y68.516 Z-6.000
G1 X40.826 Y68.636 Z-6.000
G1 X41.208 Y68.667 Z-6.000
G1 X41.716 Y68.666 Z-6.000
G1 X42.386 Y68.505 Z-6.000
G1 X42.956 Y68.170 Z-6.000
G1 X43.339 Y67.838 Z-6.000
G1 X43.637 Y67.515 Z-6.000
G1 X44.051 Y66.977 Z-6.000
G1 X44.412 Y66.472 Z-6.000
G1 X44.729 Y66.052 Z-6.000
G1 X44.777 Y65.995 Z-6.000
G1 X51.686 Y66.005 Z-6.000
G1 X67.686 Y66.028 Z-6.000
G1 X136.985 Y66.127 Z-6.000
G1 X138.705 Y66.000 Z-6.000
G1 X140.302 Y65.836 Z-6.000
G1 X141.826 Y65.629 Z-6.000
G1 X143.276 Y65.381 Z-6.000
G1 X144.654 Y65.089 Z-6.000
G1 X145.946 Y64.757 Z-6.000
G1 X146.582 Y64.568 Z-6.000
G1 X147.190 Y64.372 Z-6.000
G1 X147.779 Y64.164 Z-6.000
G1 X148.350 Y63.944 Z-6.000
G1 X148.903 Y63.711 Z-6.000
G1 X149.438 Y63.466 Z-6.000
G1 X149.955 Y63.207 Z-6.000
G1 X150.454 Y62.935 Z-6.000
G1 X150.934 Y62.650 Z-6.000
G1 X151.395 Y62.350 Z-6.000
G1 X151.837 Y62.036 Z-6.000
G1 X152.260 Y61.706 Z-6.000
G1 X152.662 Y61.362 Z-6.000
G1 X153.044 Y61.002 Z-6.000
G1 X153.403 Y60.626 Z-6.000
G1 X153.741 Y60.234 Z-6.000
G1 X154.054 Y59.827 Z-6.000
G1 X154.344 Y59.405 Z-6.000
G1 X154.608 Y58.969 Z-6.000
G1 X154.742 Y58.715 Z-6.000
G1 X154.906 Y58.498 Z-6.000
G1 X155.182 Y58.055 Z-6.000
G1 X155.414 Y57.595 Z-6.000
G1 X155.602 Y57.121 Z-6.000
G1 X155.747 Y56.638 Z-6.000
G1 X155.852 Y56.150 Z-6.000
G1 X155.918 Y55.659 Z-6.000
G1 X155.948 Y55.169 Z-6.000
G1 X155.944 Y54.680 Z-6.000
G1 X155.908 Y54.193 Z-6.000
G1 X155.844 Y53.710 Z-6.000
G1 X155.753 Y53.232 Z-6.000
G1 X155.636 Y52.757 Z-6.000
G1 X155.496 Y52.288 Z-6.000
G1 X155.333 Y51.823 Z-6.000
G1 X155.149 Y51.363 Z-6.000
G1 X154.944 Y50.909 Z-6.000
G1 X154.721 Y50.460 Z-6.000
G1 X154.478 Y50.018 Z-6.000
G1 X154.218 Y49.582 Z-6.000
G1 X153.941 Y49.153 Z-6.000
G1 X153.648 Y48.731 Z-6.000
G1 X153.625 Y48.700 Z-6.000
G1 X153.339 Y48.318 Z-6.000
G1 X153.015 Y47.913 Z-6.000
G1 X152.676 Y47.518 Z-6.000
G1 X152.323 Y47.133 Z-6.000
G1 X151.956 Y46.758 Z-6.000
G1 X151.576 Y46.395 Z-6.000
G1 X151.183 Y46.044 Z-6.000
G1 X150.778 Y45.706 Z-6.000
G1 X150.361 Y45.382 Z-6.000
G1 X150.067 Y45.170 Z-6.000
G1 X149.902 Y45.014 Z-6.000
G1 X149.538 Y44.701 Z-6.000
G1 X148.675 Y44.015 Z-6.000
G1 X147.579 Y43.197 Z-6.000
G1 X146.282 Y42.272 Z-6.000
G1 X144.811 Y41.260 Z-6.000
G1 X143.197 Y40.187 Z-6.000
G1 X141.472 Y39.078 Z-6.000
G1 X141.114 Y38.856 Z-6.000
G1 X139.669 Y37.958 Z-6.000
G1 X138.067 Y36.999 Z-6.000
G1 X136.453 Y36.064 Z-6.000
G1 X134.826 Y35.153 Z-6.000
G1 X133.186 Y34.267 Z-6.000
G1 X131.536 Y33.406 Z-6.000
G1 X129.875 Y32.569 Z-6.000
G1 X128.204 Y31.756 Z-6.000
G1 X126.524 Y30.968 Z-6.000
G1 X124.835 Y30.205 Z-6.000
G1 X123.139 Y29.466 Z-6.000
G1 X121.436 Y28.753 Z-6.000
G1 X119.728 Y28.064 Z-6.000
G1 X118.013 Y27.400 Z-6.000
G1 X116.295 Y26.761 Z-6.000
G1 X114.572 Y26.148 Z-6.000
G1 X112.846 Y25.559 Z-6.000
G1 X111.118 Y24.996 Z-6.000
G1 X109.389 Y24.457 Z-6.000
G1 X108.159 Y24.093 Z-6.000
G1 X107.658 Y23.945 Z-6.000
G1 X105.927 Y23.457 Z-6.000
G1 X104.197 Y22.995 Z-6.000
G1 X102.468 Y22.559 Z-6.000
G1 X100.742 Y22.148 Z-6.000
G1 X99.018 Y21.763 Z-6.000
G1 X97.297 Y21.404 Z-6.000
G1 X95.581 Y21.070 Z-6.000
G1 X93.870 Y20.763 Z-6.000
G1 X92.568 Y20.548 Z-6.000
G1 X92.165 Y20.481 Z-6.000
G1 X90.466 Y20.226 Z-6.000
G1 X88.774 Y19.997 Z-6.000
G1 X87.091 Y19.794 Z-6.000
G1 X85.416 Y19.617 Z-6.000
G1 X83.750 Y19.467 Z-6.000
G1 X82.094 Y19.344 Z-6.000
G1 X80.450 Y19.247 Z-6.000
G1 X78.817 Y19.176 Z-6.000
G1 X77.196 Y19.133 Z-6.000
G1 X75.588 Y19.117 Z-6.000
G1 X73.994 Y19.127 Z-6.000
G1 X72.414 Y19.165 Z-6.000
G1 X70.850 Y19.230 Z-6.000
G1 X69.301 Y19.323 Z-6.000
G1 X67.769 Y19.442 Z-6.000
G1 X66.254 Y19.590 Z-6.000
G1 X64.758 Y19.766 Z-6.000
G1 X63.280 Y19.969 Z-6.000
G1 X61.821 Y20.200 Z-6.000
G1 X60.383 Y20.460 Z-6.000
G1 X58.966 Y20.748 Z-6.000
G1 X57.570 Y21.065 Z-6.000
G1 X56.197 Y21.410 Z-6.000
G1 X54.846 Y21.785 Z-6.000
G1 X53.520 Y22.189 Z-6.000
G1 X52.218 Y22.622 Z-6.000
G1 X50.942 Y23.084 Z-6.000
G1 X49.691 Y23.577 Z-6.000
G1 X48.468 Y24.099 Z-6.000
G1 X47.273 Y24.652 Z-6.000
G1 X46.106 Y25.235 Z-6.000
G1 X44.968 Y25.849 Z-6.000
G1 X43.861 Y26.494 Z-6.000
G1 X42.785 Y27.170 Z-6.000
G1 X41.741 Y27.878 Z-6.000
G1 X40.733 Y28.616 Z-6.000
G1 X39.928 Y29.247 Z-6.000
G1 X39.156 Y29.893 Z-6.000
G1 X38.414 Y30.553 Z-6.000
G1 X37.704 Y31.229 Z-6.000
G1 X37.024 Y31.920 Z-6.000
G1 X36.376 Y32.625 Z-6.000
G1 X36.376 Y32.625 Z-7.000 F635.0
G1 X35.758 Y33.345 Z-7.000 F180.0
G1 X35.171 Y34.078 Z-7.000
G1 X34.616 Y34.825 Z-7.000
G1 X34.092 Y35.585 Z-7.000
G1 X33.599 Y36.358 Z-7.000
G1 X33.138 Y37.143 Z-7.000
G1 X32.709 Y37.940 Z-7.000
G1 X32.311 Y38.748 Z-7.000
G1 X31.944 Y39.567 Z-7.000
G1 X31.609 Y40.397 Z-7.000
G1 X31.306 Y41.236 Z-7.000
G1 X31.034 Y42.085 Z-7.000
G1 X30.793 Y42.943 Z-7.000
G1 X30.584 Y43.809 Z-7.000
G1 X30.406 Y44.683 Z-7.000
G1 X30.259 Y45.564 Z-7.000
G1 X30.143 Y46.452 Z-7.000
G1 X30.057 Y47.346 Z-7.000
G1 X30.003 Y48.246 Z-7.000
G1 X29.978 Y49.152 Z-7.000
G1 X29.984 Y50.062 Z-7.000
G1 X30.019 Y50.977 Z-7.000
G1 X30.084 Y51.897 Z-7.000
G1 X30.179 Y52.820 Z-7.000
G1 X30.302 Y53.747 Z-7.000
G1 X30.474 Y54.794 Z-7.000
G1 X30.892 Y56.104 Z-7.000
G1 X31.339 Y57.312 Z-7.000
G1 X31.842 Y58.513 Z-7.000
G1 X32.400 Y59.707 Z-7.000
G1 X33.014 Y60.893 Z-7.000
G1 X33.681 Y62.069 Z-7.000
G1 X34.400 Y63.237 Z-7.000
G1 X35.189 Y64.421 Z-7.000
G1 X35.540 Y64.878 Z-7.000
G1 X35.994 Y65.438 Z-7.000
G1 X36.562 Y66.077 Z-7.000
G1 X36.906 Y66.430 Z-7.000
G1 X37.270 Y66.777 Z-7.000
G1 X37.665 Y67.120 Z-7.000
G1 X38.093 Y67.454 Z-7.000
G1 X38.556 Y67.771 Z-7.000
G1 X39.059 Y68.062 Z-7.000
G1 X39.609 Y68.315 Z-7.000
G1 X40.210 Y68.516 Z-7.000
G1 X40.826 Y68.636 Z-7.000
G1 X41.208 Y68.667 Z-7.000
G1 X41.716 Y68.666 Z-7.000
G1 X42.386 Y68.505 Z-7.000
G1 X42.956 Y68.170 Z-7.000
G1 X43.339 Y67.838 Z-7.000
G1 X43.637 Y67.515 Z-7.000
G1 X44.051 Y66.977 Z-7.000
G1 X44.412 Y66.472 Z-7.000
G1 X44.729 Y66.052 Z-7.000
G1 X44.777 Y65.995 Z-7.000
G1 X51.686 Y66.005 Z-7.000
G1 X67.686 Y66.028 Z-7.000
G1 X136.985 Y66.127 Z-7.000
G1 X138.705 Y66.000 Z-7.000
G1 X140.302 Y65.836 Z-7.000
G1 X141.826 Y65.629 Z-7.000
G1 X143.276 Y65.381 Z-7.000
G1 X144.654 Y65.089 Z-7.000
G1 X145.946 Y64.757 Z-7.000
G1 X146.582 Y64.568 Z-7.000
G1 X147.190 Y64.372 Z-7.000
G1 X147.779 Y64.164 Z-7.000
G1 X148.350 Y63.944 Z-7.000
G1 X148.903 Y63.711 Z-7.000
G1 X149.438 Y63.466 Z-7.000
G1 X149.955 Y63.207 Z-7.000
G1 X150.454 Y62.935 Z-7.000
G1 X150.934 Y62.650 Z-7.000
G1 X151.395 Y62.350 Z-7.000
G1 X151.837 Y62.036 Z-7.000
G1 X152.260 Y61.706 Z-7.000
G1 X152.662 Y61.362 Z-7.000
G1 X153.044 Y61.002 Z-7.000
G1 X153.403 Y60.626 Z-7.000
G1 X153.741 Y60.234 Z-7.000
G1 X154.054 Y59.827 Z-7.000
G1 X154.344 Y59.405 Z-7.000
G1 X154.608 Y58.969 Z-7.000
G1 X154.742 Y58.715 Z-7.000
G1 X154.906 Y58.498 Z-7.000
G1 X155.182 Y58.055 Z-7.000
G1 X155.414 Y57.595 Z-7.000
G1 X155.602 Y57.121 Z-7.000
G1 X155.747 Y56.638 Z-7.000
G1 X155.852 Y56.150 Z-7.000
G1 X155.918 Y55.659 Z-7.000
G1 X155.948 Y55.169 Z-7.000
G1 X155.944 Y54.680 Z-7.000
G1 X155.908 Y54.193 Z-7.000
G1 X155.844 Y53.710 Z-7.000
G1 X155.753 Y53.232 Z-7.000
G1 X155.636 Y52.757 Z-7.000
G1 X155.496 Y52.288 Z-7.000
G1 X155.333 Y51.823 Z-7.000
G1 X155.149 Y51.363 Z-7.000
G1 X154.944 Y50.909 Z-7.000
G1 X154.721 Y50.460 Z-7.000
G1 X154.478 Y50.018 Z-7.000
G1 X154.218 Y49.582 Z-7.000
G1 X153.941 Y49.153 Z-7.000
G1 X153.648 Y48.731 Z-7.000
G1 X153.625 Y48.700 Z-7.000
G1 X153.339 Y48.318 Z-7.000
G1 X153.015 Y47.913 Z-7.000
G1 X152.676 Y47.518 Z-7.000
G1 X152.323 Y47.133 Z-7.000
G1 X151.956 Y46.758 Z-7.000
G1 X151.576 Y46.395 Z-7.000
G1 X151.183 Y46.044 Z-7.000
G1 X150.778 Y45.706 Z-7.000
G1 X150.361 Y45.382 Z-7.000
G1 X150.067 Y45.170 Z-7.000
G1 X149.902 Y45.014 Z-7.000
G1 X149.538 Y44.701 Z-7.000
G1 X148.675 Y44.015 Z-7.000
G1 X147.579 Y43.197 Z-7.000
G1 X146.282 Y42.272 Z-7.000
G1 X144.811 Y41.260 Z-7.000
G1 X143.197 Y40.187 Z-7.000
G1 X141.472 Y39.078 Z-7.000
G1 X141.114 Y38.856 Z-7.000
G1 X139.669 Y37.958 Z-7.000
G1 X138.067 Y36.999 Z-7.000
G1 X136.453 Y36.064 Z-7.000
G1 X134.826 Y35.153 Z-7.000
G1 X133.186 Y34.267 Z-7.000
G1 X131.536 Y33.406 Z-7.000
G1 X129.875 Y32.569 Z-7.000
G1 X128.204 Y31.756 Z-7.000
G1 X126.524 Y30.968 Z-7.000
G1 X124.835 Y30.205 Z-7.000
G1 X123.139 Y29.466 Z-7.000
G1 X121.436 Y28.753 Z-7.000
G1 X119.728 Y28.064 Z-7.000
G1 X118.013 Y27.400 Z-7.000
G1 X116.295 Y26.761 Z-7.000
G1 X114.572 Y26.148 Z-7.000
G1 X112.846 Y25.559 Z-7.000
G1 X111.118 Y24.996 Z-7.000
G1 X109.389 Y24.457 Z-7.000
G1 X108.159 Y24.093 Z-7.000
G1 X107.658 Y23.945 Z-7.000
G1 X105.927 Y23.457 Z-7.000
G1 X104.197 Y22.995 Z-7.000
G1 X102.468 Y22.559 Z-7.000
G1 X100.742 Y22.148 Z-7.000
G1 X99.018 Y21.763 Z-7.000
G1 X97.297 Y21.404 Z-7.000
G1 X95.581 Y21.070 Z-7.000
G1 X93.870 Y20.763 Z-7.000
G1 X92.568 Y20.548 Z-7.000
G1 X92.165 Y20.481 Z-7.000
G1 X90.466 Y20.226 Z-7.000
G1 X88.774 Y19.997 Z-7.000
G1 X87.091 Y19.794 Z-7.000
G1 X85.416 Y19.617 Z-7.000
G1 X83.750 Y19.467 Z-7.000
G1 X82.094 Y19.344 Z-7.000
G1 X80.450 Y19.247 Z-7.000
G1 X78.817 Y19.176 Z-7.000
G1 X77.196 Y19.133 Z-7.000
G1 X75.588 Y19.117 Z-7.000
G1 X73.994 Y19.127 Z-7.000
G1 X72.414 Y19.165 Z-7.000
G1 X70.850 Y19.230 Z-7.000
G1 X69.301 Y19.323 Z-7.000
G1 X67.769 Y19.442 Z-7.000
G1 X66.254 Y19.590 Z-7.000
G1 X64.758 Y19.766 Z-7.000
G1 X63.280 Y19.969 Z-7.000
G1 X61.821 Y20.200 Z-7.000
G1 X60.383 Y20.460 Z-7.000
G1 X58.966 Y20.748 Z-7.000
G1 X57.570 Y21.065 Z-7.000
G1 X56.197 Y21.410 Z-7.000
G1 X54.846 Y21.785 Z-7.000
G1 X53.520 Y22.189 Z-7.000
G1 X52.218 Y22.622 Z-7.000
G1 X50.942 Y23.084 Z-7.000
G1 X49.691 Y23.577 Z-7.000
G1 X48.468 Y24.099 Z-7.000
G1 X47.273 Y24.652 Z-7.000
G1 X46.106 Y25.235 Z-7.000
G1 X44.968 Y25.849 Z-7.000
G1 X43.861 Y26.494 Z-7.000
G1 X42.785 Y27.170 Z-7.000
G1 X41.741 Y27.878 Z-7.000
G1 X40.733 Y28.616 Z-7.000
G1 X39.928 Y29.247 Z-7.000
G1 X39.156 Y29.893 Z-7.000
G1 X38.414 Y30.553 Z-7.000
G1 X37.704 Y31.229 Z-7.000
G1 X37.024 Y31.920 Z-7.000
G1 X36.376 Y32.625 Z-7.000
G1 X36.376 Y32.625 Z-8.000 F635.0
G1 X35.758 Y33.345 Z-8.000 F180.0
G1 X35.171 Y34.078 Z-8.000
G1 X34.616 Y34.825 Z-8.000
G1 X34.092 Y35.585 Z-8.000
G1 X33.599 Y36.358 Z-8.000
G1 X33.138 Y37.143 Z-8.000
G1 X32.709 Y37.940 Z-8.000
G1 X32.311 Y38.748 Z-8.000
G1 X31.944 Y39.567 Z-8.000
G1 X31.609 Y40.397 Z-8.000
G1 X31.306 Y41.236 Z-8.000
G1 X31.034 Y42.085 Z-8.000
G1 X30.793 Y42.943 Z-8.000
G1 X30.584 Y43.809 Z-8.000
G1 X30.406 Y44.683 Z-8.000
G1 X30.259 Y45.564 Z-8.000
G1 X30.143 Y46.452 Z-8.000
G1 X30.057 Y47.346 Z-8.000
G1 X30.003 Y48.246 Z-8.000
G1 X29.978 Y49.152 Z-8.000
G1 X29.984 Y50.062 Z-8.000
G1 X30.019 Y50.977 Z-8.000
G1 X30.084 Y51.897 Z-8.000
G1 X30.179 Y52.820 Z-8.000
G1 X30.302 Y53.747 Z-8.000
G1 X30.474 Y54.794 Z-8.000
G1 X30.892 Y56.104 Z-8.000
G1 X31.339 Y57.312 Z-8.000
G1 X31.842 Y58.513 Z-8.000
G1 X32.400 Y59.707 Z-8.000
G1 X33.014 Y60.893 Z-8.000
G1 X33.681 Y62.069 Z-8.000
G1 X34.400 Y63.237 Z-8.000
G1 X35.189 Y64.421 Z-8.000
G1 X35.540 Y64.878 Z-8.000
G1 X35.994 Y65.438 Z-8.000
G1 X36.562 Y66.077 Z-8.000
G1 X36.906 Y66.430 Z-8.000
G1 X37.270 Y66.777 Z-8.000
G1 X37.665 Y67.120 Z-8.000
G1 X38.093 Y67.454 Z-8.000
G1 X38.556 Y67.771 Z-8.000
G1 X39.059 Y68.062 Z-8.000
G1 X39.609 Y68.315 Z-8.000
G1 X40.210 Y68.516 Z-8.000
G1 X40.826 Y68.636 Z-8.000
G1 X41.208 Y68.667 Z-8.000
G1 X41.716 Y68.666 Z-8.000
G1 X42.386 Y68.505 Z-8.000
G1 X42.956 Y68.170 Z-8.000
G1 X43.339 Y67.838 Z-8.000
G1 X43.637 Y67.515 Z-8.000
G1 X44.051 Y66.977 Z-8.000
G1 X44.412 Y66.472 Z-8.000
G1 X44.729 Y66.052 Z-8.000
G1 X44.777 Y65.995 Z-8.000
G1 X51.686 Y66.005 Z-8.000
G1 X67.686 Y66.028 Z-8.000
G1 X136.985 Y66.127 Z-8.000
G1 X138.705 Y66.000 Z-8.000
G1 X140.302 Y65.836 Z-8.000
G1 X141.826 Y65.629 Z-8.000
G1 X143.276 Y65.381 Z-8.000
G1 X144.654 Y65.089 Z-8.000
G1 X145.946 Y64.757 Z-8.000
G1 X146.582 Y64.568 Z-8.000
G1 X147.190 Y64.372 Z-8.000
G1 X147.779 Y64.164 Z-8.000
G1 X148.350 Y63.944 Z-8.000
G1 X148.903 Y63.711 Z-8.000
G1 X149.438 Y63.466 Z-8.000
G1 X149.955 Y63.207 Z-8.000
G1 X150.454 Y62.935 Z-8.000
G1 X150.934 Y62.650 Z-8.000
G1 X151.395 Y62.350 Z-8.000
G1 X151.837 Y62.036 Z-8.000
G1 X152.260 Y61.706 Z-8.000
G1 X152.662 Y61.362 Z-8.000
G1 X153.044 Y61.002 Z-8.000
G1 X153.403 Y60.626 Z-8.000
G1 X153.741 Y60.234 Z-8.000
G1 X154.054 Y59.827 Z-8.000
G1 X154.344 Y59.405 Z-8.000
G1 X154.608 Y58.969 Z-8.000
G1 X154.742 Y58.715 Z-8.000
G1 X154.906 Y58.498 Z-8.000
G1 X155.182 Y58.055 Z-8.000
G1 X155.414 Y57.595 Z-8.000
G1 X155.602 Y57.121 Z-8.000
G1 X155.747 Y56.638 Z-8.000
G1 X155.852 Y56.150 Z-8.000
G1 X155.918 Y55.659 Z-8.000
G1 X155.948 Y55.169 Z-8.000
G1 X155.944 Y54.680 Z-8.000
G1 X155.908 Y54.193 Z-8.000
G1 X155.844 Y53.710 Z-8.000
G1 X155.753 Y53.232 Z-8.000
G1 X155.636 Y52.757 Z-8.000
G1 X155.496 Y52.288 Z-8.000
G1 X155.333 Y51.823 Z-8.000
G1 X155.149 Y51.363 Z-8.000
G1 X154.944 Y50.909 Z-8.000
G1 X154.721 Y50.460 Z-8.000
G1 X154.478 Y50.018 Z-8.000
G1 X154.218 Y49.582 Z-8.000
G1 X153.941 Y49.153 Z-8.000
G1 X153.648 Y48.731 Z-8.000
G1 X153.625 Y48.700 Z-8.000
G1 X153.339 Y48.318 Z-8.000
G1 X153.015 Y47.913 Z-8.000
G1 X152.676 Y47.518 Z-8.000
G1 X152.323 Y47.133 Z-8.000
G1 X151.956 Y46.758 Z-8.000
G1 X151.576 Y46.395 Z-8.000
G1 X151.183 Y46.044 Z-8.000
G1 X150.778 Y45.706 Z-8.000
G1 X150.361 Y45.382 Z-8.000
G1 X150.067 Y45.170 Z-8.000
G1 X149.902 Y45.014 Z-8.000
G1 X149.538 Y44.701 Z-8.000
G1 X148.675 Y44.015 Z-8.000
G1 X147.579 Y43.197 Z-8.000
G1 X146.282 Y42.272 Z-8.000
G1 X144.811 Y41.260 Z-8.000
G1 X143.197 Y40.187 Z-8.000
G1 X141.472 Y39.078 Z-8.000
G1 X141.114 Y38.856 Z-8.000
G1 X139.669 Y37.958 Z-8.000
G1 X138.067 Y36.999 Z-8.000
G1 X136.453 Y36.064 Z-8.000
G1 X134.826 Y35.153 Z-8.000
G1 X133.186 Y34.267 Z-8.000
G1 X131.536 Y33.406 Z-8.000
G1 X129.875 Y32.569 Z-8.000
G1 X128.204 Y31.756 Z-8.000
G1 X126.524 Y30.968 Z-8.000
G1 X124.835 Y30.205 Z-8.000
G1 X123.139 Y29.466 Z-8.000
G1 X121.436 Y28.753 Z-8.000
G1 X119.728 Y28.064 Z-8.000
G1 X118.013 Y27.400 Z-8.000
G1 X116.295 Y26.761 Z-8.000
G1 X114.572 Y26.148 Z-8.000
G1 X112.846 Y25.559 Z-8.000
G1 X111.118 Y24.996 Z-8.000
G1 X109.389 Y24.457 Z-8.000
G1 X108.159 Y24.093 Z-8.000
G1 X107.658 Y23.945 Z-8.000
G1 X105.927 Y23.457 Z-8.000
G1 X104.197 Y22.995 Z-8.000
G1 X102.468 Y22.559 Z-8.000
G1 X100.742 Y22.148 Z-8.000
G1 X99.018 Y21.763 Z-8.000
G1 X97.297 Y21.404 Z-8.000
G1 X95.581 Y21.070 Z-8.000
G1 X93.870 Y20.763 Z-8.000
G1 X92.568 Y20.548 Z-8.000
G1 X92.165 Y20.481 Z-8.000
G1 X90.466 Y20.226 Z-8.000
G1 X88.774 Y19.997 Z-8.000
G1 X87.091 Y19.794 Z-8.000
G1 X85.416 Y19.617 Z-8.000
G1 X83.750 Y19.467 Z-8.000
G1 X82.094 Y19.344 Z-8.000
G1 X80.450 Y19.247 Z-8.000
G1 X78.817 Y19.176 Z-8.000
G1 X77.196 Y19.133 Z-8.000
G1 X75.588 Y19.117 Z-8.000
G1 X73.994 Y19.127 Z-8.000
G1 X72.414 Y19.165 Z-8.000
G1 X70.850 Y19.230 Z-8.000
G1 X69.301 Y19.323 Z-8.000
G1 X67.769 Y19.442 Z-8.000
G1 X66.254 Y19.590 Z-8.000
G1 X64.758 Y19.766 Z-8.000
G1 X63.280 Y19.969 Z-8.000
G1 X61.821 Y20.200 Z-8.000
G1 X60.383 Y20.460 Z-8.000
G1 X58.966 Y20.748 Z-8.000
G1 X57.570 Y21.065 Z-8.000
G1 X56.197 Y21.410 Z-8.000
G1 X54.846 Y21.785 Z-8.000
G1 X53.520 Y22.189 Z-8.000
G1 X52.218 Y22.622 Z-8.000
G1 X50.942 Y23.084 Z-8.000
G1 X49.691 Y23.577 Z-8.000
G1 X48.468 Y24.099 Z-8.000
G1 X47.273 Y24.652 Z-8.000
G1 X46.106 Y25.235 Z-8.000
G1 X44.968 Y25.849 Z-8.000
G1 X43.861 Y26.494 Z-8.000
G1 X42.785 Y27.170 Z-8.000
G1 X41.741 Y27.878 Z-8.000
G1 X40.733 Y28.616 Z-8.000
G1 X39.928 Y29.247 Z-8.000
G1 X39.156 Y29.893 Z-8.000
G1 X38.414 Y30.553 Z-8.000
G1 X37.704 Y31.229 Z-8.000
G1 X37.024 Y31.920 Z-8.000
G1 X36.376 Y32.625 Z-8.000
G1 X36.376 Y32.625 Z-9.000 F635.0
G1 X35.758 Y33.345 Z-9.000 F180.0
G1 X35.171 Y34.078 Z-9.000
G1 X34.616 Y34.825 Z-9.000
G1 X34.092 Y35.585 Z-9.000
G1 X33.599 Y36.358 Z-9.000
G1 X33.138 Y37.143 Z-9.000
G1 X32.709 Y37.940 Z-9.000
G1 X32.311 Y38.748 Z-9.000
G1 X31.944 Y39.567 Z-9.000
G1 X31.609 Y40.397 Z-9.000
G1 X31.306 Y41.236 Z-9.000
G1 X31.034 Y42.085 Z-9.000
G1 X30.793 Y42.943 Z-9.000
G1 X30.584 Y43.809 Z-9.000
G1 X30.406 Y44.683 Z-9.000
G1 X30.259 Y45.564 Z-9.000
G1 X30.143 Y46.452 Z-9.000
G1 X30.057 Y47.346 Z-9.000
G1 X30.003 Y48.246 Z-9.000
G1 X29.978 Y49.152 Z-9.000
G1 X29.984 Y50.062 Z-9.000
G1 X30.019 Y50.977 Z-9.000
G1 X30.084 Y51.897 Z-9.000
G1 X30.179 Y52.820 Z-9.000
G1 X30.302 Y53.747 Z-9.000
G1 X30.474 Y54.794 Z-9.000
G1 X30.892 Y56.104 Z-9.000
G1 X31.339 Y57.312 Z-9.000
G1 X31.842 Y58.513 Z-9.000
G1 X32.400 Y59.707 Z-9.000
G1 X33.014 Y60.893 Z-9.000
G1 X33.681 Y62.069 Z-9.000
G1 X34.400 Y63.237 Z-9.000
G1 X35.189 Y64.421 Z-9.000
G1 X35.540 Y64.878 Z-9.000
G1 X35.994 Y65.438 Z-9.000
G1 X36.562 Y66.077 Z-9.000
G1 X36.906 Y66.430 Z-9.000
G1 X37.270 Y66.777 Z-9.000
G1 X37.665 Y67.120 Z-9.000
G1 X38.093 Y67.454 Z-9.000
G1 X38.556 Y67.771 Z-9.000
G1 X39.059 Y68.062 Z-9.000
G1 X39.609 Y68.315 Z-9.000
G1 X40.210 Y68.516 Z-9.000
G1 X40.826 Y68.636 Z-9.000
G1 X41.208 Y68.667 Z-9.000
G1 X41.716 Y68.666 Z-9.000
G1 X42.386 Y68.505 Z-9.000
G1 X42.956 Y68.170 Z-9.000
G1 X43.339 Y67.838 Z-9.000
G1 X43.637 Y67.515 Z-9.000
G1 X44.051 Y66.977 Z-9.000
G1 X44.412 Y66.472 Z-9.000
G1 X44.729 Y66.052 Z-9.000
G1 X44.777 Y65.995 Z-9.000
G1 X51.686 Y66.005 Z-9.000
G1 X67.686 Y66.028 Z-9.000
G1 X136.985 Y66.127 Z-9.000
G1 X138.705 Y66.000 Z-9.000
G1 X140.302 Y65.836 Z-9.000
G1 X141.826 Y65.629 Z-9.000
G1 X143.276 Y65.381 Z-9.000
G1 X144.654 Y65.089 Z-9.000
G1 X145.946 Y64.757 Z-9.000
G1 X146.582 Y64.568 Z-9.000
G1 X147.190 Y64.372 Z-9.000
G1 X147.779 Y64.164 Z-9.000
G1 X148.350 Y63.944 Z-9.000
G1 X148.903 Y63.711 Z-9.000
G1 X149.438 Y63.466 Z-9.000
G1 X149.955 Y63.207 Z-9.000
G1 X150.454 Y62.935 Z-9.000
G1 X150.934 Y62.650 Z-9.000
G1 X151.395 Y62.350 Z-9.000
G1 X151.837 Y62.036 Z-9.000
G1 X152.260 Y61.706 Z-9.000
G1 X152.662 Y61.362 Z-9.000
G1 X153.044 Y61.002 Z-9.000
G1 X153.403 Y60.626 Z-9.000
G1 X153.741 Y60.234 Z-9.000
G1 X154.054 Y59.827 Z-9.000
G1 X154.344 Y59.405 Z-9.000
G1 X154.608 Y58.969 Z-9.000
G1 X154.742 Y58.715 Z-9.000
G1 X154.906 Y58.498 Z-9.000
G1 X155.182 Y58.055 Z-9.000
G1 X155.414 Y57.595 Z-9.000
G1 X155.602 Y57.121 Z-9.000
G1 X155.747 Y56.638 Z-9.000
G1 X155.852 Y56.150 Z-9.000
G1 X155.918 Y55.659 Z-9.000
G1 X155.948 Y55.169 Z-9.000
G1 X155.944 Y54.680 Z-9.000
G1 X155.908 Y54.193 Z-9.000
G1 X155.844 Y53.710 Z-9.000
G1 X155.753 Y53.232 Z-9.000
G1 X155.636 Y52.757 Z-9.000
G1 X155.496 Y52.288 Z-9.000
G1 X155.333 Y51.823 Z-9.000
G1 X155.149 Y51.363 Z-9.000
G1 X154.944 Y50.909 Z-9.000
G1 X154.721 Y50.460 Z-9.000
G1 X154.478 Y50.018 Z-9.000
G1 X154.218 Y49.582 Z-9.000
G1 X153.941 Y49.153 Z-9.000
G1 X153.648 Y48.731 Z-9.000
G1 X153.625 Y48.700 Z-9.000
G1 X153.339 Y48.318 Z-9.000
G1 X153.015 Y47.913 Z-9.000
G1 X152.676 Y47.518 Z-9.000
G1 X152.323 Y47.133 Z-9.000
G1 X151.956 Y46.758 Z-9.000
G1 X151.576 Y46.395 Z-9.000
G1 X151.183 Y46.044 Z-9.000
G1 X150.778 Y45.706 Z-9.000
G1 X150.361 Y45.382 Z-9.000
G1 X150.067 Y45.170 Z-9.000
G1 X149.902 Y45.014 Z-9.000
G1 X149.538 Y44.701 Z-9.000
G1 X148.675 Y44.015 Z-9.000
G1 X147.579 Y43.197 Z-9.000
G1 X146.282 Y42.272 Z-9.000
G1 X144.811 Y41.260 Z-9.000
G1 X143.197 Y40.187 Z-9.000
G1 X141.472 Y39.078 Z-9.000
G1 X141.114 Y38.856 Z-9.000
G1 X139.669 Y37.958 Z-9.000
G1 X138.067 Y36.999 Z-9.000
G1 X136.453 Y36.064 Z-9.000
G1 X134.826 Y35.153 Z-9.000
G1 X133.186 Y34.267 Z-9.000
G1 X131.536 Y33.406 Z-9.000
G1 X129.875 Y32.569 Z-9.000
G1 X128.204 Y31.756 Z-9.000
G1 X126.524 Y30.968 Z-9.000
G1 X124.835 Y30.205 Z-9.000
G1 X123.139 Y29.466 Z-9.000
G1 X121.436 Y28.753 Z-9.000
G1 X119.728 Y28.064 Z-9.000
G1 X118.013 Y27.400 Z-9.000
G1 X116.295 Y26.761 Z-9.000
G1 X114.572 Y26.148 Z-9.000
G1 X112.846 Y25.559 Z-9.000
G1 X111.118 Y24.996 Z-9.000
G1 X109.389 Y24.457 Z-9.000
G1 X108.159 Y24.093 Z-9.000
G1 X107.658 Y23.945 Z-9.000
G1 X105.927 Y23.457 Z-9.000
G1 X104.197 Y22.995 Z-9.000
G1 X102.468 Y22.559 Z-9.000
G1 X100.742 Y22.148 Z-9.000
G1 X99.018 Y21.763 Z-9.000
G1 X97.297 Y21.404 Z-9.000
G1 X95.581 Y21.070 Z-9.000
G1 X93.870 Y20.763 Z-9.000
G1 X92.568 Y20.548 Z-9.000
G1 X92.165 Y20.481 Z-9.000
G1 X90.466 Y20.226 Z-9.000
G1 X88.774 Y19.997 Z-9.000
G1 X87.091 Y19.794 Z-9.000
G1 X85.416 Y19.617 Z-9.000
G1 X83.750 Y19.467 Z-9.000
G1 X82.094 Y19.344 Z-9.000
G1 X80.450 Y19.247 Z-9.000
G1 X78.817 Y19.176 Z-9.000
G1 X77.196 Y19.133 Z-9.000
G1 X75.588 Y19.117 Z-9.000
G1 X73.994 Y19.127 Z-9.000
G1 X72.414 Y19.165 Z-9.000
G1 X70.850 Y19.230 Z-9.000
G1 X69.301 Y19.323 Z-9.000
G1 X67.769 Y19.442 Z-9.000
G1 X66.254 Y19.590 Z-9.000
G1 X64.758 Y19.766 Z-9.000
G1 X63.280 Y19.969 Z-9.000
G1 X61.821 Y20.200 Z-9.000
G1 X60.383 Y20.460 Z-9.000
G1 X58.966 Y20.748 Z-9.000
G1 X57.570 Y21.065 Z-9.000
G1 X56.197 Y21.410 Z-9.000
G1 X54.846 Y21.785 Z-9.000
G1 X53.520 Y22.189 Z-9.000
G1 X52.218 Y22.622 Z-9.000
G1 X50.942 Y23.084 Z-9.000
G1 X49.691 Y23.577 Z-9.000
G1 X48.468 Y24.099 Z-9.000
G1 X47.273 Y24.652 Z-9.000
G1 X46.106 Y25.235 Z-9.000
G1 X44.968 Y25.849 Z-9.000
G1 X43.861 Y26.494 Z-9.000
G1 X42.785 Y27.170 Z-9.000
G1 X41.741 Y27.878 Z-9.000
G1 X40.733 Y28.616 Z-9.000
G1 X39.928 Y29.247 Z-9.000
G1 X39.156 Y29.893 Z-9.000
G1 X38.414 Y30.553 Z-9.000
G1 X37.704 Y31.229 Z-9.000
G1 X37.024 Y31.920 Z-9.000
G1 X36.376 Y32.625 Z-9.000
G1 X36.376 Y32.625 Z-10.000 F635.0
G1 X35.758 Y33.345 Z-10.000 F180.0
G1 X35.171 Y34.078 Z-10.000
G1 X34.616 Y34.825 Z-10.000
G1 X34.092 Y35.585 Z-10.000
G1 X33.599 Y36.358 Z-10.000
G1 X33.138 Y37.143 Z-10.000
G1 X32.709 Y37.940 Z-10.000
G1 X32.311 Y38.748 Z-10.000
G1 X31.944 Y39.567 Z-10.000
G1 X31.609 Y40.397 Z-10.000
G1 X31.306 Y41.236 Z-10.000
G1 X31.034 Y42.085 Z-10.000
G1 X30.793 Y42.943 Z-10.000
G1 X30.584 Y43.809 Z-10.000
G1 X30.406 Y44.683 Z-10.000
G1 X30.259 Y45.564 Z-10.000
G1 X30.143 Y46.452 Z-10.000
G1 X30.057 Y47.346 Z-10.000
G1 X30.003 Y48.246 Z-10.000
G1 X29.978 Y49.152 Z-10.000
G1 X29.984 Y50.062 Z-10.000
G1 X30.019 Y50.977 Z-10.000
G1 X30.084 Y51.897 Z-10.000
G1 X30.179 Y52.820 Z-10.000
G1 X30.302 Y53.747 Z-10.000
G1 X30.474 Y54.794 Z-10.000
G1 X30.892 Y56.104 Z-10.000
G1 X31.339 Y57.312 Z-10.000
G1 X31.842 Y58.513 Z-10.000
G1 X32.400 Y59.707 Z-10.000
G1 X33.014 Y60.893 Z-10.000
G1 X33.681 Y62.069 Z-10.000
G1 X34.400 Y63.237 Z-10.000
G1 X35.189 Y64.421 Z-10.000
G1 X35.540 Y64.878 Z-10.000
G1 X35.994 Y65.438 Z-10.000
G1 X36.562 Y66.077 Z-10.000
G1 X36.906 Y66.430 Z-10.000
G1 X37.270 Y66.777 Z-10.000
G1 X37.665 Y67.120 Z-10.000
G1 X38.093 Y67.454 Z-10.000
G1 X38.556 Y67.771 Z-10.000
G1 X39.059 Y68.062 Z-10.000
G1 X39.609 Y68.315 Z-10.000
G1 X40.210 Y68.516 Z-10.000
G1 X40.826 Y68.636 Z-10.000
G1 X41.208 Y68.667 Z-10.000
G1 X41.716 Y68.666 Z-10.000
G1 X42.386 Y68.505 Z-10.000
G1 X42.956 Y68.170 Z-10.000
G1 X43.339 Y67.838 Z-10.000
G1 X43.637 Y67.515 Z-10.000
G1 X44.051 Y66.977 Z-10.000
G1 X44.412 Y66.472 Z-10.000
G1 X44.729 Y66.052 Z-10.000
G1 X44.777 Y65.995 Z-10.000
G1 X51.686 Y66.005 Z-10.000
G1 X67.686 Y66.028 Z-10.000
G1 X136.985 Y66.127 Z-10.000
G1 X138.705 Y66.000 Z-10.000
G1 X140.302 Y65.836 Z-10.000
G1 X141.826 Y65.629 Z-10.000
G1 X143.276 Y65.381 Z-10.000
G1 X144.654 Y65.089 Z-10.000
G1 X145.946 Y64.757 Z-10.000
G1 X146.582 Y64.568 Z-10.000
G1 X147.190 Y64.372 Z-10.000
G1 X147.779 Y64.164 Z-10.000
G1 X148.350 Y63.944 Z-10.000
G1 X148.903 Y63.711 Z-10.000
G1 X149.438 Y63.466 Z-10.000
G1 X149.955 Y63.207 Z-10.000
G1 X150.454 Y62.935 Z-10.000
G1 X150.934 Y62.650 Z-10.000
G1 X151.395 Y62.350 Z-10.000
G1 X151.837 Y62.036 Z-10.000
G1 X152.260 Y61.706 Z-10.000
G1 X152.662 Y61.362 Z-10.000
G1 X153.044 Y61.002 Z-10.000
G1 X153.403 Y60.626 Z-10.000
G1 X153.741 Y60.234 Z-10.000
G1 X154.054 Y59.827 Z-10.000
G1 X154.344 Y59.405 Z-10.000
G1 X154.608 Y58.969 Z-10.000
G1 X154.742 Y58.715 Z-10.000
G1 X154.906 Y58.498 Z-10.000
G1 X155.182 Y58.055 Z-10.000
G1 X155.414 Y57.595 Z-10.000
G1 X155.602 Y57.121 Z-10.000
G1 X155.747 Y56.638 Z-10.000
G1 X155.852 Y56.150 Z-10.000
G1 X155.918 Y55.659 Z-10.000
G1 X155.948 Y55.169 Z-10.000
G1 X155.944 Y54.680 Z-10.000
G1 X155.908 Y54.193 Z-10.000
G1 X155.844 Y53.710 Z-10.000
G1 X155.753 Y53.232 Z-10.000
G1 X155.636 Y52.757 Z-10.000
G1 X155.496 Y52.288 Z-10.000
G1 X155.333 Y51.823 Z-10.000
G1 X155.149 Y51.363 Z-10.000
G1 X154.944 Y50.909 Z-10.000
G1 X154.721 Y50.460 Z-10.000
G1 X154.478 Y50.018 Z-10.000
G1 X154.218 Y49.582 Z-10.000
G1 X153.941 Y49.153 Z-10.000
G1 X153.648 Y48.731 Z-10.000
G1 X153.625 Y48.700 Z-10.000
G1 X153.339 Y48.318 Z-10.000
G1 X153.015 Y47.913 Z-10.000
G1 X152.676 Y47.518 Z-10.000
G1 X152.323 Y47.133 Z-10.000
G1 X151.956 Y46.758 Z-10.000
G1 X151.576 Y46.395 Z-10.000
G1 X151.183 Y46.044 Z-10.000
G1 X150.778 Y45.706 Z-10.000
G1 X150.361 Y45.382 Z-10.000
G1 X150.067 Y45.170 Z-10.000
G1 X149.902 Y45.014 Z-10.000
G1 X149.538 Y44.701 Z-10.000
G1 X148.675 Y44.015 Z-10.000
G1 X147.579 Y43.197 Z-10.000
G1 X146.282 Y42.272 Z-10.000
G1 X144.811 Y41.260 Z-10.000
G1 X143.197 Y40.187 Z-10.000
G1 X141.472 Y39.078 Z-10.000
G1 X141.114 Y38.856 Z-10.000
G1 X139.669 Y37.958 Z-10.000
G1 X138.067 Y36.999 Z-10.000
G1 X136.453 Y36.064 Z-10.000
G1 X134.826 Y35.153 Z-10.000
G1 X133.186 Y34.267 Z-10.000
G1 X131.536 Y33.406 Z-10.000
G1 X129.875 Y32.569 Z-10.000
G1 X128.204 Y31.756 Z-10.000
G1 X126.524 Y30.968 Z-10.000
G1 X124.835 Y30.205 Z-10.000
G1 X123.139 Y29.466 Z-10.000
G1 X121.436 Y28.753 Z-10.000
G1 X119.728 Y28.064 Z-10.000
G1 X118.013 Y27.400 Z-10.000
G1 X116.295 Y26.761 Z-10.000
G1 X114.572 Y26.148 Z-10.000
G1 X112.846 Y25.559 Z-10.000
G1 X111.118 Y24.996 Z-10.000
G1 X109.389 Y24.457 Z-10.000
G1 X108.159 Y24.093 Z-10.000
G1 X107.658 Y23.945 Z-10.000
G1 X105.927 Y23.457 Z-10.000
G1 X104.197 Y22.995 Z-10.000
G1 X102.468 Y22.559 Z-10.000
G1 X100.742 Y22.148 Z-10.000
G1 X99.018 Y21.763 Z-10.000
G1 X97.297 Y21.404 Z-10.000
G1 X95.581 Y21.070 Z-10.000
G1 X93.870 Y20.763 Z-10.000
G1 X92.568 Y20.548 Z-10.000
G1 X92.165 Y20.481 Z-10.000
G1 X90.466 Y20.226 Z-10.000
G1 X88.774 Y19.997 Z-10.000
G1 X87.091 Y19.794 Z-10.000
G1 X85.416 Y19.617 Z-10.000
G1 X83.750 Y19.467 Z-10.000
G1 X82.094 Y19.344 Z-10.000
G1 X80.450 Y19.247 Z-10.000
G1 X78.817 Y19.176 Z-10.000
G1 X77.196 Y19.133 Z-10.000
G1 X75.588 Y19.117 Z-10.000
G1 X73.994 Y19.127 Z-10.000
G1 X72.414 Y19.165 Z-10.000
G1 X70.850 Y19.230 Z-10.000
G1 X69.301 Y19.323 Z-10.000
G1 X67.769 Y19.442 Z-10.000
G1 X66.254 Y19.590 Z-10.000
G1 X64.758 Y19.766 Z-10.000
G1 X63.280 Y19.969 Z-10.000
G1 X61.821 Y20.200 Z-10.000
G1 X60.383 Y20.460 Z-10.000
G1 X58.966 Y20.748 Z-10.000
G1 X57.570 Y21.065 Z-10.000
G1 X56.197 Y21.410 Z-10.000
G1 X54.846 Y21.785 Z-10.000
G1 X53.520 Y22.189 Z-10.000
G1 X52.218 Y22.622 Z-10.000
G1 X50.942 Y23.084 Z-10.000
G1 X49.691 Y23.577 Z-10.000
G1 X48.468 Y24.099 Z-10.000
G1 X47.273 Y24.652 Z-10.000
G1 X46.106 Y25.235 Z-10.000
G1 X44.968 Y25.849 Z-10.000
G1 X43.861 Y26.494 Z-10.000
G1 X42.785 Y27.170 Z-10.000
G1 X41.741 Y27.878 Z-10.000
G1 X40.733 Y28.616 Z-10.000
G1 X39.928 Y29.247 Z-10.000
G1 X39.156 Y29.893 Z-10.000
G1 X38.414 Y30.553 Z-10.000
G1 X37.704 Y31.229 Z-10.000
G1 X37.024 Y31.920 Z-10.000
G1 X36.376 Y32.625 Z-10.000
G1 X36.376 Y32.625 Z-11.000 F635.0
G1 X35.758 Y33.345 Z-11.000 F180.0
G1 X35.171 Y34.078 Z-11.000
G1 X34.616 Y34.825 Z-11.000
G1 X34.092 Y35.585 Z-11.000
G1 X33.599 Y36.358 Z-11.000
G1 X33.138 Y37.143 Z-11.000
G1 X32.709 Y37.940 Z-11.000
G1 X32.311 Y38.748 Z-11.000
G1 X31.944 Y39.567 Z-11.000
G1 X31.609 Y40.397 Z-11.000
G1 X31.306 Y41.236 Z-11.000
G1 X31.034 Y42.085 Z-11.000
G1 X30.793 Y42.943 Z-11.000
G1 X30.584 Y43.809 Z-11.000
G1 X30.406 Y44.683 Z-11.000
G1 X30.259 Y45.564 Z-11.000
G1 X30.143 Y46.452 Z-11.000
G1 X30.057 Y47.346 Z-11.000
G1 X30.003 Y48.246 Z-11.000
G1 X29.978 Y49.152 Z-11.000
G1 X29.984 Y50.062 Z-11.000
G1 X30.019 Y50.977 Z-11.000
G1 X30.084 Y51.897 Z-11.000
G1 X30.179 Y52.820 Z-11.000
G1 X30.302 Y53.747 Z-11.000
G1 X30.474 Y54.794 Z-11.000
G1 X30.892 Y56.104 Z-11.000
G1 X31.339 Y57.312 Z-11.000
G1 X31.842 Y58.513 Z-11.000
G1 X32.400 Y59.707 Z-11.000
G1 X33.014 Y60.893 Z-11.000
G1 X33.681 Y62.069 Z-11.000
G1 X34.400 Y63.237 Z-11.000
G1 X35.189 Y64.421 Z-11.000
G1 X35.540 Y64.878 Z-11.000
G1 X35.994 Y65.438 Z-11.000
G1 X36.562 Y66.077 Z-11.000
G1 X36.906 Y66.430 Z-11.000
G1 X37.270 Y66.777 Z-11.000
G1 X37.665 Y67.120 Z-11.000
G1 X38.093 Y67.454 Z-11.000
G1 X38.556 Y67.771 Z-11.000
G1 X39.059 Y68.062 Z-11.000
G1 X39.609 Y68.315 Z-11.000
G1 X40.210 Y68.516 Z-11.000
G1 X40.826 Y68.636 Z-11.000
G1 X41.208 Y68.667 Z-11.000
G1 X41.716 Y68.666 Z-11.000
G1 X42.386 Y68.505 Z-11.000
G1 X42.956 Y68.170 Z-11.000
G1 X43.339 Y67.838 Z-11.000
G1 X43.637 Y67.515 Z-11.000
G1 X44.051 Y66.977 Z-11.000
G1 X44.412 Y66.472 Z-11.000
G1 X44.729 Y66.052 Z-11.000
G1 X44.777 Y65.995 Z-11.000
G1 X51.686 Y66.005 Z-11.000
G1 X51.686 Y66.005 Z-10.500
G1 X67.686 Y66.028 Z-10.500
G1 X67.686 Y66.028 Z-11.000 F635.0
G1 X136.985 Y66.127 Z-11.000 F180.0
G1 X138.705 Y66.000 Z-11.000
G1 X140.302 Y65.836 Z-11.000
G1 X141.826 Y65.629 Z-11.000
G1 X143.276 Y65.381 Z-11.000
G1 X144.654 Y65.089 Z-11.000
G1 X145.946 Y64.757 Z-11.000
G1 X146.582 Y64.568 Z-11.000
G1 X147.190 Y64.372 Z-11.000
G1 X147.779 Y64.164 Z-11.000
G1 X148.350 Y63.944 Z-11.000
G1 X148.903 Y63.711 Z-11.000
G1 X149.438 Y63.466 Z-11.000
G1 X149.955 Y63.207 Z-11.000
G1 X150.454 Y62.935 Z-11.000
G1 X150.934 Y62.650 Z-11.000
G1 X151.395 Y62.350 Z-11.000
G1 X151.837 Y62.036 Z-11.000
G1 X152.260 Y61.706 Z-11.000
G1 X152.662 Y61.362 Z-11.000
G1 X153.044 Y61.002 Z-11.000
G1 X153.403 Y60.626 Z-11.000
G1 X153.741 Y60.234 Z-11.000
G1 X154.054 Y59.827 Z-11.000
G1 X154.344 Y59.405 Z-11.000
G1 X154.608 Y58.969 Z-11.000
G1 X154.742 Y58.715 Z-11.000
G1 X154.906 Y58.498 Z-11.000
G1 X155.182 Y58.055 Z-11.000
G1 X155.414 Y57.595 Z-11.000
G1 X155.602 Y57.121 Z-11.000
G1 X155.747 Y56.638 Z-11.000
G1 X155.852 Y56.150 Z-11.000
G1 X155.918 Y55.659 Z-11.000
G1 X155.948 Y55.169 Z-11.000
G1 X155.944 Y54.680 Z-11.000
G1 X155.908 Y54.193 Z-11.000
G1 X155.844 Y53.710 Z-11.000
G1 X155.753 Y53.232 Z-11.000
G1 X155.636 Y52.757 Z-11.000
G1 X155.496 Y52.288 Z-11.000
G1 X155.333 Y51.823 Z-11.000
G1 X155.149 Y51.363 Z-11.000
G1 X154.944 Y50.909 Z-11.000
G1 X154.721 Y50.460 Z-11.000
G1 X154.478 Y50.018 Z-11.000
G1 X154.218 Y49.582 Z-11.000
G1 X153.941 Y49.153 Z-11.000
G1 X153.648 Y48.731 Z-11.000
G1 X153.625 Y48.700 Z-11.000
G1 X153.625 Y48.700 Z-10.500
G1 X153.339 Y48.318 Z-10.500
G1 X153.015 Y47.913 Z-10.500
G1 X152.676 Y47.518 Z-10.500
G1 X152.323 Y47.133 Z-10.500
G1 X151.956 Y46.758 Z-10.500
G1 X151.576 Y46.395 Z-10.500
G1 X151.183 Y46.044 Z-10.500
G1 X150.778 Y45.706 Z-10.500
G1 X150.361 Y45.382 Z-10.500
G1 X150.067 Y45.170 Z-10.500
G1 X149.902 Y45.014 Z-10.500
G1 X149.538 Y44.701 Z-10.500
G1 X148.675 Y44.015 Z-10.500
G1 X147.579 Y43.197 Z-10.500
G1 X146.282 Y42.272 Z-10.500
G1 X144.811 Y41.260 Z-10.500
G1 X143.197 Y40.187 Z-10.500
G1 X141.472 Y39.078 Z-10.500
G1 X141.114 Y38.856 Z-10.500
G1 X141.114 Y38.856 Z-11.000 F635.0
G1 X139.669 Y37.958 Z-11.000 F180.0
G1 X138.067 Y36.999 Z-11.000
G1 X136.453 Y36.064 Z-11.000
G1 X134.826 Y35.153 Z-11.000
G1 X133.186 Y34.267 Z-11.000
G1 X131.536 Y33.406 Z-11.000
G1 X129.875 Y32.569 Z-11.000
G1 X128.204 Y31.756 Z-11.000
G1 X126.524 Y30.968 Z-11.000
G1 X124.835 Y30.205 Z-11.000
G1 X123.139 Y29.466 Z-11.000
G1 X121.436 Y28.753 Z-11.000
G1 X119.728 Y28.064 Z-11.000
G1 X118.013 Y27.400 Z-11.000
G1 X116.295 Y26.761 Z-11.000
G1 X114.572 Y26.148 Z-11.000
G1 X112.846 Y25.559 Z-11.000
G1 X111.118 Y24.996 Z-11.000
G1 X109.389 Y24.457 Z-11.000
G1 X108.159 Y24.093 Z-11.000
G1 X108.159 Y24.093 Z-10.500
G1 X107.658 Y23.945 Z-10.500
G1 X105.927 Y23.457 Z-10.500
G1 X104.197 Y22.995 Z-10.500
G1 X102.468 Y22.559 Z-10.500
G1 X100.742 Y22.148 Z-10.500
G1 X99.018 Y21.763 Z-10.500
G1 X97.297 Y21.404 Z-10.500
G1 X95.581 Y21.070 Z-10.500
G1 X93.870 Y20.763 Z-10.500
G1 X92.568 Y20.548 Z-10.500
G1 X92.568 Y20.548 Z-11.000 F635.0
G1 X92.165 Y20.481 Z-11.000 F180.0
G1 X90.466 Y20.226 Z-11.000
G1 X88.774 Y19.997 Z-11.000
G1 X87.091 Y19.794 Z-11.000
G1 X85.416 Y19.617 Z-11.000
G1 X83.750 Y19.467 Z-11.000
G1 X82.094 Y19.344 Z-11.000
G1 X80.450 Y19.247 Z-11.000
G1 X78.817 Y19.176 Z-11.000
G1 X77.196 Y19.133 Z-11.000
G1 X75.588 Y19.117 Z-11.000
G1 X73.994 Y19.127 Z-11.000
G1 X72.414 Y19.165 Z-11.000
G1 X70.850 Y19.230 Z-11.000
G1 X69.301 Y19.323 Z-11.000
G1 X67.769 Y19.442 Z-11.000
G1 X66.254 Y19.590 Z-11.000
G1 X64.758 Y19.766 Z-11.000
G1 X63.280 Y19.969 Z-11.000
G1 X61.821 Y20.200 Z-11.000
G1 X60.383 Y20.460 Z-11.000
G1 X58.966 Y20.748 Z-11.000
G1 X57.570 Y21.065 Z-11.000
G1 X56.197 Y21.410 Z-11.000
G1 X54.846 Y21.785 Z-11.000
G1 X53.520 Y22.189 Z-11.000
G1 X52.218 Y22.622 Z-11.000
G1 X50.942 Y23.084 Z-11.000
G1 X49.691 Y23.577 Z-11.000
G1 X48.468 Y24.099 Z-11.000
G1 X47.273 Y24.652 Z-11.000
G1 X46.106 Y25.235 Z-11.000
G1 X44.968 Y25.849 Z-11.000
G1 X43.861 Y26.494 Z-11.000
G1 X42.785 Y27.170 Z-11.000
G1 X41.741 Y27.878 Z-11.000
G1 X40.733 Y28.616 Z-11.000
G1 X39.928 Y29.247 Z-11.000
G1 X39.156 Y29.893 Z-11.000
G1 X38.414 Y30.553 Z-11.000
G1 X37.704 Y31.229 Z-11.000
G1 X37.024 Y31.920 Z-11.000
G1 X36.376 Y32.625 Z-11.000
G1 X36.376 Y32.625 Z-12.000 F635.0
G1 X35.758 Y33.345 Z-12.000 F180.0
G1 X35.171 Y34.078 Z-12.000
G1 X34.616 Y34.825 Z-12.000
G1 X34.092 Y35.585 Z-12.000
G1 X33.599 Y36.358 Z-12.000
G1 X33.138 Y37.143 Z-12.000
G1 X32.709 Y37.940 Z-12.000
G1 X32.311 Y38.748 Z-12.000
G1 X31.944 Y39.567 Z-12.000
G1 X31.609 Y40.397 Z-12.000
G1 X31.306 Y41.236 Z-12.000
G1 X31.034 Y42.085 Z-12.000
G1 X30.793 Y42.943 Z-12.000
G1 X30.584 Y43.809 Z-12.000
G1 X30.406 Y44.683 Z-12.000
G1 X30.259 Y45.564 Z-12.000
G1 X30.143 Y46.452 Z-12.000
G1 X30.057 Y47.346 Z-12.000
G1 X30.003 Y48.246 Z-12.000
G1 X29.978 Y49.152 Z-12.000
G1 X29.984 Y50.062 Z-12.000
G1 X30.019 Y50.977 Z-12.000
G1 X30.084 Y51.897 Z-12.000
G1 X30.179 Y52.820 Z-12.000
G1 X30.302 Y53.747 Z-12.000
G1 X30.474 Y54.794 Z-12.000
G1 X30.892 Y56.104 Z-12.000
G1 X31.339 Y57.312 Z-12.000
G1 X31.842 Y58.513 Z-12.000
G1 X32.400 Y59.707 Z-12.000
G1 X33.014 Y60.893 Z-12.000
G1 X33.681 Y62.069 Z-12.000
G1 X34.400 Y63.237 Z-12.000
G1 X35.189 Y64.421 Z-12.000
G1 X35.540 Y64.878 Z-12.000
G1 X35.994 Y65.438 Z-12.000
G1 X36.562 Y66.077 Z-12.000
G1 X36.906 Y66.430 Z-12.000
G1 X37.270 Y66.777 Z-12.000
G1 X37.665 Y67.120 Z-12.000
G1 X38.093 Y67.454 Z-12.000
G1 X38.556 Y67.771 Z-12.000
G1 X39.059 Y68.062 Z-12.000
G1 X39.609 Y68.315 Z-12.000
G1 X40.210 Y68.516 Z-12.000
G1 X40.826 Y68.636 Z-12.000
G1 X41.208 Y68.667 Z-12.000
G1 X41.716 Y68.666 Z-12.000
G1 X42.386 Y68.505 Z-12.000
G1 X42.956 Y68.170 Z-12.000
G1 X43.339 Y67.838 Z-12.000
G1 X43.637 Y67.515 Z-12.000
G1 X44.051 Y66.977 Z-12.000
G1 X44.412 Y66.472 Z-12.000
G1 X44.729 Y66.052 Z-12.000
G1 X44.777 Y65.995 Z-12.000
G1 X51.686 Y66.005 Z-12.000
G1 X51.686 Y66.005 Z-10.500
G1 X67.686 Y66.028 Z-10.500
G1 X67.686 Y66.028 Z-12.000 F635.0
G1 X136.985 Y66.127 Z-12.000 F180.0
G1 X138.705 Y66.000 Z-12.000
G1 X140.302 Y65.836 Z-12.000
G1 X141.826 Y65.629 Z-12.000
G1 X143.276 Y65.381 Z-12.000
G1 X144.654 Y65.089 Z-12.000
G1 X145.946 Y64.757 Z-12.000
G1 X146.582 Y64.568 Z-12.000
G1 X147.190 Y64.372 Z-12.000
G1 X147.779 Y64.164 Z-12.000
G1 X148.350 Y63.944 Z-12.000
G1 X148.903 Y63.711 Z-12.000
G1 X149.438 Y63.466 Z-12.000
G1 X149.955 Y63.207 Z-12.000
G1 X150.454 Y62.935 Z-12.000
G1 X150.934 Y62.650 Z-12.000
G1 X151.395 Y62.350 Z-12.000
G1 X151.837 Y62.036 Z-12.000
G1 X152.260 Y61.706 Z-12.000
G1 X152.662 Y61.362 Z-12.000
G1 X153.044 Y61.002 Z-12.000
G1 X153.403 Y60.626 Z-12.000
G1 X153.741 Y60.234 Z-12.000
G1 X154.054 Y59.827 Z-12.000
G1 X154.344 Y59.405 Z-12.000
G1 X154.608 Y58.969 Z-12.000
G1 X154.742 Y58.715 Z-12.000
G1 X154.906 Y58.498 Z-12.000
G1 X155.182 Y58.055 Z-12.000
G1 X155.414 Y57.595 Z-12.000
G1 X155.602 Y57.121 Z-12.000
G1 X155.747 Y56.638 Z-12.000
G1 X155.852 Y56.150 Z-12.000
G1 X155.918 Y55.659 Z-12.000
G1 X155.948 Y55.169 Z-12.000
G1 X155.944 Y54.680 Z-12.000
G1 X155.908 Y54.193 Z-12.000
G1 X155.844 Y53.710 Z-12.000
G1 X155.753 Y53.232 Z-12.000
G1 X155.636 Y52.757 Z-12.000
G1 X155.496 Y52.288 Z-12.000
G1 X155.333 Y51.823 Z-12.000
G1 X155.149 Y51.363 Z-12.000
G1 X154.944 Y50.909 Z-12.000
G1 X154.721 Y50.460 Z-12.000
G1 X154.478 Y50.018 Z-12.000
G1 X154.218 Y49.582 Z-12.000
G1 X153.941 Y49.153 Z-12.000
G1 X153.648 Y48.731 Z-12.000
G1 X153.625 Y48.700 Z-12.000
G1 X153.625 Y48.700 Z-10.500
G1 X153.339 Y48.318 Z-10.500
G1 X153.015 Y47.913 Z-10.500
G1 X152.676 Y47.518 Z-10.500
G1 X152.323 Y47.133 Z-10.500
G1 X151.956 Y46.758 Z-10.500
G1 X151.576 Y46.395 Z-10.500
G1 X151.183 Y46.044 Z-10.500
G1 X150.778 Y45.706 Z-10.500
G1 X150.361 Y45.382 Z-10.500
G1 X150.067 Y45.170 Z-10.500
G1 X149.902 Y45.014 Z-10.500
G1 X149.538 Y44.701 Z-10.500
G1 X148.675 Y44.015 Z-10.500
G1 X147.579 Y43.197 Z-10.500
G1 X146.282 Y42.272 Z-10.500
G1 X144.811 Y41.260 Z-10.500
G1 X143.197 Y40.187 Z-10.500
G1 X141.472 Y39.078 Z-10.500
G1 X141.114 Y38.856 Z-10.500
G1 X141.114 Y38.856 Z-12.000 F635.0
G1 X139.669 Y37.958 Z-12.000 F180.0
G1 X138.067 Y36.999 Z-12.000
G1 X136.453 Y36.064 Z-12.000
G1 X134.826 Y35.153 Z-12.000
G1 X133.186 Y34.267 Z-12.000
G1 X131.536 Y33.406 Z-12.000
G1 X129.875 Y32.569 Z-12.000
G1 X128.204 Y31.756 Z-12.000
G1 X126.524 Y30.968 Z-12.000
G1 X124.835 Y30.205 Z-12.000
G1 X123.139 Y29.466 Z-12.000
G1 X121.436 Y28.753 Z-12.000
G1 X119.728 Y28.064 Z-12.000
G1 X118.013 Y27.400 Z-12.000
G1 X116.295 Y26.761 Z-12.000
G1 X114.572 Y26.148 Z-12.000
G1 X112.846 Y25.559 Z-12.000
G1 X111.118 Y24.996 Z-12.000
G1 X109.389 Y24.457 Z-12.000
G1 X108.159 Y24.093 Z-12.000
G1 X108.159 Y24.093 Z-10.500
G1 X107.658 Y23.945 Z-10.500
G1 X105.927 Y23.457 Z-10.500
G1 X104.197 Y22.995 Z-10.500
G1 X102.468 Y22.559 Z-10.500
G1 X100.742 Y22.148 Z-10.500
G1 X99.018 Y21.763 Z-10.500
G1 X97.297 Y21.404 Z-10.500
G1 X95.581 Y21.070 Z-10.500
G1 X93.870 Y20.763 Z-10.500
G1 X92.568 Y20.548 Z-10.500
G1 X92.568 Y20.548 Z-12.000 F635.0
G1 X92.165 Y20.481 Z-12.000 F180.0
G1 X90.466 Y20.226 Z-12.000
G1 X88.774 Y19.997 Z-12.000
G1 X87.091 Y19.794 Z-12.000
G1 X85.416 Y19.617 Z-12.000
G1 X83.750 Y19.467 Z-12.000
G1 X82.094 Y19.344 Z-12.000
G1 X80.450 Y19.247 Z-12.000
G1 X78.817 Y19.176 Z-12.000
G1 X77.196 Y19.133 Z-12.000
G1 X75.588 Y19.117 Z-12.000
G1 X73.994 Y19.127 Z-12.000
G1 X72.414 Y19.165 Z-12.000
G1 X70.850 Y19.230 Z-12.000
G1 X69.301 Y19.323 Z-12.000
G1 X67.769 Y19.442 Z-12.000
G1 X66.254 Y19.590 Z-12.000
G1 X64.758 Y19.766 Z-12.000
G1 X63.280 Y19.969 Z-12.000
G1 X61.821 Y20.200 Z-12.000
G1 X60.383 Y20.460 Z-12.000
G1 X58.966 Y20.748 Z-12.000
G1 X57.570 Y21.065 Z-12.000
G1 X56.197 Y21.410 Z-12.000
G1 X54.846 Y21.785 Z-12.000
G1 X53.520 Y22.189 Z-12.000
G1 X52.218 Y22.622 Z-12.000
G1 X50.942 Y23.084 Z-12.000
G1 X49.691 Y23.577 Z-12.000
G1 X48.468 Y24.099 Z-12.000
G1 X47.273 Y24.652 Z-12.000
G1 X46.106 Y25.235 Z-12.000
G1 X44.968 Y25.849 Z-12.000
G1 X43.861 Y26.494 Z-12.000
G1 X42.785 Y27.170 Z-12.000
G1 X41.741 Y27.878 Z-12.000
G1 X40.733 Y28.616 Z-12.000
G1 X39.928 Y29.247 Z-12.000
G1 X39.156 Y29.893 Z-12.000
G1 X38.414 Y30.553 Z-12.000
G1 X37.704 Y31.229 Z-12.000
G1 X37.024 Y31.920 Z-12.000
G1 X36.376 Y32.625 Z-12.000
G0 X36.376 Y32.625
G0 Z6.000
M9 (Khlung aus)
M5 (Spindel aus)
G0 Z20.000
G28
M30 (Programmende)
