(VECTRIC POST REVISION)
(AE8C5706166A14C0DE23454C54EBD95B)
%
G21
G40
G94
G97
G64
G90
T1 M6
M8
M3 S10000
G0 X33.009 Y269.376
G0 Z6.000
G1 X33.009 Y269.376 Z-1.000 F635.0
G1 X32.947 Y269.547 Z-1.000 F180.0
G1 X32.855 Y269.714 Z-1.000
G1 X32.733 Y269.871 Z-1.000
G1 X32.585 Y270.010 Z-1.000
G1 X32.413 Y270.124 Z-1.000
G1 X32.224 Y270.209 Z-1.000
G1 X32.028 Y270.261 Z-1.000
G1 X31.830 Y270.280 Z-1.000
G1 X31.640 Y270.269 Z-1.000
G1 X31.462 Y270.231 Z-1.000
G1 X31.307 Y270.175 Z-1.000
G1 X31.154 Y270.095 Z-1.000
G1 X31.009 Y269.991 Z-1.000
G1 X30.877 Y269.863 Z-1.000
G1 X30.763 Y269.715 Z-1.000
G1 X30.672 Y269.550 Z-1.000
G1 X30.607 Y269.375 Z-1.000
G1 X30.569 Y269.195 Z-1.000
G1 X30.558 Y269.016 Z-1.000
G1 X30.572 Y268.845 Z-1.000
G1 X30.607 Y268.684 Z-1.000
G1 X30.670 Y268.513 Z-1.000
G1 X30.762 Y268.346 Z-1.000
G1 X30.883 Y268.189 Z-1.000
G1 X31.032 Y268.050 Z-1.000
G1 X31.204 Y267.936 Z-1.000
G1 X31.392 Y267.851 Z-1.000
G1 X31.589 Y267.799 Z-1.000
G1 X31.787 Y267.780 Z-1.000
G1 X31.977 Y267.791 Z-1.000
G1 X32.155 Y267.829 Z-1.000
G1 X32.310 Y267.885 Z-1.000
G1 X32.462 Y267.965 Z-1.000
G1 X32.608 Y268.069 Z-1.000
G1 X32.740 Y268.197 Z-1.000
G1 X32.854 Y268.345 Z-1.000
G1 X32.945 Y268.510 Z-1.000
G1 X33.010 Y268.685 Z-1.000
G1 X33.047 Y268.865 Z-1.000
G1 X33.058 Y269.043 Z-1.000
G1 X33.045 Y269.215 Z-1.000
G1 X33.009 Y269.376 Z-1.000
G0 X33.009 Y269.376
G0 Z6.000
G1 X33.009 Y269.376 Z-2.000 F635.0
G1 X32.947 Y269.547 Z-2.000 F180.0
G1 X32.855 Y269.714 Z-2.000
G1 X32.733 Y269.871 Z-2.000
G1 X32.585 Y270.010 Z-2.000
G1 X32.413 Y270.124 Z-2.000
G1 X32.224 Y270.209 Z-2.000
G1 X32.028 Y270.261 Z-2.000
G1 X31.830 Y270.280 Z-2.000
G1 X31.640 Y270.269 Z-2.000
G1 X31.462 Y270.231 Z-2.000
G1 X31.307 Y270.175 Z-2.000
G1 X31.154 Y270.095 Z-2.000
G1 X31.009 Y269.991 Z-2.000
G1 X30.877 Y269.863 Z-2.000
G1 X30.763 Y269.715 Z-2.000
G1 X30.672 Y269.550 Z-2.000
G1 X30.607 Y269.375 Z-2.000
G1 X30.569 Y269.195 Z-2.000
G1 X30.558 Y269.016 Z-2.000
G1 X30.572 Y268.845 Z-2.000
G1 X30.607 Y268.684 Z-2.000
G1 X30.670 Y268.513 Z-2.000
G1 X30.762 Y268.346 Z-2.000
G1 X30.883 Y268.189 Z-2.000
G1 X31.032 Y268.050 Z-2.000
G1 X31.204 Y267.936 Z-2.000
G1 X31.392 Y267.851 Z-2.000
G1 X31.589 Y267.799 Z-2.000
G1 X31.787 Y267.780 Z-2.000
G1 X31.977 Y267.791 Z-2.000
G1 X32.155 Y267.829 Z-2.000
G1 X32.310 Y267.885 Z-2.000
G1 X32.462 Y267.965 Z-2.000
G1 X32.608 Y268.069 Z-2.000
G1 X32.740 Y268.197 Z-2.000
G1 X32.854 Y268.345 Z-2.000
G1 X32.945 Y268.510 Z-2.000
G1 X33.010 Y268.685 Z-2.000
G1 X33.047 Y268.865 Z-2.000
G1 X33.058 Y269.043 Z-2.000
G1 X33.045 Y269.215 Z-2.000
G1 X33.009 Y269.376 Z-2.000
G0 X33.009 Y269.376
G0 Z6.000
G1 X33.009 Y269.376 Z-3.000 F635.0
G1 X32.947 Y269.547 Z-3.000 F180.0
G1 X32.855 Y269.714 Z-3.000
G1 X32.733 Y269.871 Z-3.000
G1 X32.585 Y270.010 Z-3.000
G1 X32.413 Y270.124 Z-3.000
G1 X32.224 Y270.209 Z-3.000
G1 X32.028 Y270.261 Z-3.000
G1 X31.830 Y270.280 Z-3.000
G1 X31.640 Y270.269 Z-3.000
G1 X31.462 Y270.231 Z-3.000
G1 X31.307 Y270.175 Z-3.000
G1 X31.154 Y270.095 Z-3.000
G1 X31.009 Y269.991 Z-3.000
G1 X30.877 Y269.863 Z-3.000
G1 X30.763 Y269.715 Z-3.000
G1 X30.672 Y269.550 Z-3.000
G1 X30.607 Y269.375 Z-3.000
G1 X30.569 Y269.195 Z-3.000
G1 X30.558 Y269.016 Z-3.000
G1 X30.572 Y268.845 Z-3.000
G1 X30.607 Y268.684 Z-3.000
G1 X30.670 Y268.513 Z-3.000
G1 X30.762 Y268.346 Z-3.000
G1 X30.883 Y268.189 Z-3.000
G1 X31.032 Y268.050 Z-3.000
G1 X31.204 Y267.936 Z-3.000
G1 X31.392 Y267.851 Z-3.000
G1 X31.589 Y267.799 Z-3.000
G1 X31.787 Y267.780 Z-3.000
G1 X31.977 Y267.791 Z-3.000
G1 X32.155 Y267.829 Z-3.000
G1 X32.310 Y267.885 Z-3.000
G1 X32.462 Y267.965 Z-3.000
G1 X32.608 Y268.069 Z-3.000
G1 X32.740 Y268.197 Z-3.000
G1 X32.854 Y268.345 Z-3.000
G1 X32.945 Y268.510 Z-3.000
G1 X33.010 Y268.685 Z-3.000
G1 X33.047 Y268.865 Z-3.000
G1 X33.058 Y269.043 Z-3.000
G1 X33.045 Y269.215 Z-3.000
G1 X33.009 Y269.376 Z-3.000
G0 X33.009 Y269.376
G0 Z6.000
G1 X33.009 Y269.376 Z-4.000 F635.0
G1 X32.947 Y269.547 Z-4.000 F180.0
G1 X32.855 Y269.714 Z-4.000
G1 X32.733 Y269.871 Z-4.000
G1 X32.585 Y270.010 Z-4.000
G1 X32.413 Y270.124 Z-4.000
G1 X32.224 Y270.209 Z-4.000
G1 X32.028 Y270.261 Z-4.000
G1 X31.830 Y270.280 Z-4.000
G1 X31.640 Y270.269 Z-4.000
G1 X31.462 Y270.231 Z-4.000
G1 X31.307 Y270.175 Z-4.000
G1 X31.154 Y270.095 Z-4.000
G1 X31.009 Y269.991 Z-4.000
G1 X30.877 Y269.863 Z-4.000
G1 X30.763 Y269.715 Z-4.000
G1 X30.672 Y269.550 Z-4.000
G1 X30.607 Y269.375 Z-4.000
G1 X30.569 Y269.195 Z-4.000
G1 X30.558 Y269.016 Z-4.000
G1 X30.572 Y268.845 Z-4.000
G1 X30.607 Y268.684 Z-4.000
G1 X30.670 Y268.513 Z-4.000
G1 X30.762 Y268.346 Z-4.000
G1 X30.883 Y268.189 Z-4.000
G1 X31.032 Y268.050 Z-4.000
G1 X31.204 Y267.936 Z-4.000
G1 X31.392 Y267.851 Z-4.000
G1 X31.589 Y267.799 Z-4.000
G1 X31.787 Y267.780 Z-4.000
G1 X31.977 Y267.791 Z-4.000
G1 X32.155 Y267.829 Z-4.000
G1 X32.310 Y267.885 Z-4.000
G1 X32.462 Y267.965 Z-4.000
G1 X32.608 Y268.069 Z-4.000
G1 X32.740 Y268.197 Z-4.000
G1 X32.854 Y268.345 Z-4.000
G1 X32.945 Y268.510 Z-4.000
G1 X33.010 Y268.685 Z-4.000
G1 X33.047 Y268.865 Z-4.000
G1 X33.058 Y269.043 Z-4.000
G1 X33.045 Y269.215 Z-4.000
G1 X33.009 Y269.376 Z-4.000
G0 X33.009 Y269.376
G0 Z6.000
G1 X33.009 Y269.376 Z-5.000 F635.0
G1 X32.947 Y269.547 Z-5.000 F180.0
G1 X32.855 Y269.714 Z-5.000
G1 X32.733 Y269.871 Z-5.000
G1 X32.585 Y270.010 Z-5.000
G1 X32.413 Y270.124 Z-5.000
G1 X32.224 Y270.209 Z-5.000
G1 X32.028 Y270.261 Z-5.000
G1 X31.830 Y270.280 Z-5.000
G1 X31.640 Y270.269 Z-5.000
G1 X31.462 Y270.231 Z-5.000
G1 X31.307 Y270.175 Z-5.000
G1 X31.154 Y270.095 Z-5.000
G1 X31.009 Y269.991 Z-5.000
G1 X30.877 Y269.863 Z-5.000
G1 X30.763 Y269.715 Z-5.000
G1 X30.672 Y269.550 Z-5.000
G1 X30.607 Y269.375 Z-5.000
G1 X30.569 Y269.195 Z-5.000
G1 X30.558 Y269.016 Z-5.000
G1 X30.572 Y268.845 Z-5.000
G1 X30.607 Y268.684 Z-5.000
G1 X30.670 Y268.513 Z-5.000
G1 X30.762 Y268.346 Z-5.000
G1 X30.883 Y268.189 Z-5.000
G1 X31.032 Y268.050 Z-5.000
G1 X31.204 Y267.936 Z-5.000
G1 X31.392 Y267.851 Z-5.000
G1 X31.589 Y267.799 Z-5.000
G1 X31.787 Y267.780 Z-5.000
G1 X31.977 Y267.791 Z-5.000
G1 X32.155 Y267.829 Z-5.000
G1 X32.310 Y267.885 Z-5.000
G1 X32.462 Y267.965 Z-5.000
G1 X32.608 Y268.069 Z-5.000
G1 X32.740 Y268.197 Z-5.000
G1 X32.854 Y268.345 Z-5.000
G1 X32.945 Y268.510 Z-5.000
G1 X33.010 Y268.685 Z-5.000
G1 X33.047 Y268.865 Z-5.000
G1 X33.058 Y269.043 Z-5.000
G1 X33.045 Y269.215 Z-5.000
G1 X33.009 Y269.376 Z-5.000
G0 X33.009 Y269.376
G0 Z6.000
G1 X33.009 Y269.376 Z-6.000 F635.0
G1 X32.947 Y269.547 Z-6.000 F180.0
G1 X32.855 Y269.714 Z-6.000
G1 X32.733 Y269.871 Z-6.000
G1 X32.585 Y270.010 Z-6.000
G1 X32.413 Y270.124 Z-6.000
G1 X32.224 Y270.209 Z-6.000
G1 X32.028 Y270.261 Z-6.000
G1 X31.830 Y270.280 Z-6.000
G1 X31.640 Y270.269 Z-6.000
G1 X31.462 Y270.231 Z-6.000
G1 X31.307 Y270.175 Z-6.000
G1 X31.154 Y270.095 Z-6.000
G1 X31.009 Y269.991 Z-6.000
G1 X30.877 Y269.863 Z-6.000
G1 X30.763 Y269.715 Z-6.000
G1 X30.672 Y269.550 Z-6.000
G1 X30.607 Y269.375 Z-6.000
G1 X30.569 Y269.195 Z-6.000
G1 X30.558 Y269.016 Z-6.000
G1 X30.572 Y268.845 Z-6.000
G1 X30.607 Y268.684 Z-6.000
G1 X30.670 Y268.513 Z-6.000
G1 X30.762 Y268.346 Z-6.000
G1 X30.883 Y268.189 Z-6.000
G1 X31.032 Y268.050 Z-6.000
G1 X31.204 Y267.936 Z-6.000
G1 X31.392 Y267.851 Z-6.000
G1 X31.589 Y267.799 Z-6.000
G1 X31.787 Y267.780 Z-6.000
G1 X31.977 Y267.791 Z-6.000
G1 X32.155 Y267.829 Z-6.000
G1 X32.310 Y267.885 Z-6.000
G1 X32.462 Y267.965 Z-6.000
G1 X32.608 Y268.069 Z-6.000
G1 X32.740 Y268.197 Z-6.000
G1 X32.854 Y268.345 Z-6.000
G1 X32.945 Y268.510 Z-6.000
G1 X33.010 Y268.685 Z-6.000
G1 X33.047 Y268.865 Z-6.000
G1 X33.058 Y269.043 Z-6.000
G1 X33.045 Y269.215 Z-6.000
G1 X33.009 Y269.376 Z-6.000
G0 X33.009 Y269.376
G0 Z6.000
G1 X33.009 Y269.376 Z-7.000 F635.0
G1 X32.947 Y269.547 Z-7.000 F180.0
G1 X32.855 Y269.714 Z-7.000
G1 X32.733 Y269.871 Z-7.000
G1 X32.585 Y270.010 Z-7.000
G1 X32.413 Y270.124 Z-7.000
G1 X32.224 Y270.209 Z-7.000
G1 X32.028 Y270.261 Z-7.000
G1 X31.830 Y270.280 Z-7.000
G1 X31.640 Y270.269 Z-7.000
G1 X31.462 Y270.231 Z-7.000
G1 X31.307 Y270.175 Z-7.000
G1 X31.154 Y270.095 Z-7.000
G1 X31.009 Y269.991 Z-7.000
G1 X30.877 Y269.863 Z-7.000
G1 X30.763 Y269.715 Z-7.000
G1 X30.672 Y269.550 Z-7.000
G1 X30.607 Y269.375 Z-7.000
G1 X30.569 Y269.195 Z-7.000
G1 X30.558 Y269.016 Z-7.000
G1 X30.572 Y268.845 Z-7.000
G1 X30.607 Y268.684 Z-7.000
G1 X30.670 Y268.513 Z-7.000
G1 X30.762 Y268.346 Z-7.000
G1 X30.883 Y268.189 Z-7.000
G1 X31.032 Y268.050 Z-7.000
G1 X31.204 Y267.936 Z-7.000
G1 X31.392 Y267.851 Z-7.000
G1 X31.589 Y267.799 Z-7.000
G1 X31.787 Y267.780 Z-7.000
G1 X31.977 Y267.791 Z-7.000
G1 X32.155 Y267.829 Z-7.000
G1 X32.310 Y267.885 Z-7.000
G1 X32.462 Y267.965 Z-7.000
G1 X32.608 Y268.069 Z-7.000
G1 X32.740 Y268.197 Z-7.000
G1 X32.854 Y268.345 Z-7.000
G1 X32.945 Y268.510 Z-7.000
G1 X33.010 Y268.685 Z-7.000
G1 X33.047 Y268.865 Z-7.000
G1 X33.058 Y269.043 Z-7.000
G1 X33.045 Y269.215 Z-7.000
G1 X33.009 Y269.376 Z-7.000
G0 X33.009 Y269.376
G0 Z6.000
G1 X33.009 Y269.376 Z-8.000 F635.0
G1 X32.947 Y269.547 Z-8.000 F180.0
G1 X32.855 Y269.714 Z-8.000
G1 X32.733 Y269.871 Z-8.000
G1 X32.585 Y270.010 Z-8.000
G1 X32.413 Y270.124 Z-8.000
G1 X32.224 Y270.209 Z-8.000
G1 X32.028 Y270.261 Z-8.000
G1 X31.830 Y270.280 Z-8.000
G1 X31.640 Y270.269 Z-8.000
G1 X31.462 Y270.231 Z-8.000
G1 X31.307 Y270.175 Z-8.000
G1 X31.154 Y270.095 Z-8.000
G1 X31.009 Y269.991 Z-8.000
G1 X30.877 Y269.863 Z-8.000
G1 X30.763 Y269.715 Z-8.000
G1 X30.672 Y269.550 Z-8.000
G1 X30.607 Y269.375 Z-8.000
G1 X30.569 Y269.195 Z-8.000
G1 X30.558 Y269.016 Z-8.000
G1 X30.572 Y268.845 Z-8.000
G1 X30.607 Y268.684 Z-8.000
G1 X30.670 Y268.513 Z-8.000
G1 X30.762 Y268.346 Z-8.000
G1 X30.883 Y268.189 Z-8.000
G1 X31.032 Y268.050 Z-8.000
G1 X31.204 Y267.936 Z-8.000
G1 X31.392 Y267.851 Z-8.000
G1 X31.589 Y267.799 Z-8.000
G1 X31.787 Y267.780 Z-8.000
G1 X31.977 Y267.791 Z-8.000
G1 X32.155 Y267.829 Z-8.000
G1 X32.310 Y267.885 Z-8.000
G1 X32.462 Y267.965 Z-8.000
G1 X32.608 Y268.069 Z-8.000
G1 X32.740 Y268.197 Z-8.000
G1 X32.854 Y268.345 Z-8.000
G1 X32.945 Y268.510 Z-8.000
G1 X33.010 Y268.685 Z-8.000
G1 X33.047 Y268.865 Z-8.000
G1 X33.058 Y269.043 Z-8.000
G1 X33.045 Y269.215 Z-8.000
G1 X33.009 Y269.376 Z-8.000
G0 X33.009 Y269.376
G0 Z6.000
G1 X33.009 Y269.376 Z-9.000 F635.0
G1 X32.947 Y269.547 Z-9.000 F180.0
G1 X32.855 Y269.714 Z-9.000
G1 X32.733 Y269.871 Z-9.000
G1 X32.585 Y270.010 Z-9.000
G1 X32.413 Y270.124 Z-9.000
G1 X32.224 Y270.209 Z-9.000
G1 X32.028 Y270.261 Z-9.000
G1 X31.830 Y270.280 Z-9.000
G1 X31.640 Y270.269 Z-9.000
G1 X31.462 Y270.231 Z-9.000
G1 X31.307 Y270.175 Z-9.000
G1 X31.154 Y270.095 Z-9.000
G1 X31.009 Y269.991 Z-9.000
G1 X30.877 Y269.863 Z-9.000
G1 X30.763 Y269.715 Z-9.000
G1 X30.672 Y269.550 Z-9.000
G1 X30.607 Y269.375 Z-9.000
G1 X30.569 Y269.195 Z-9.000
G1 X30.558 Y269.016 Z-9.000
G1 X30.572 Y268.845 Z-9.000
G1 X30.607 Y268.684 Z-9.000
G1 X30.670 Y268.513 Z-9.000
G1 X30.762 Y268.346 Z-9.000
G1 X30.883 Y268.189 Z-9.000
G1 X31.032 Y268.050 Z-9.000
G1 X31.204 Y267.936 Z-9.000
G1 X31.392 Y267.851 Z-9.000
G1 X31.589 Y267.799 Z-9.000
G1 X31.787 Y267.780 Z-9.000
G1 X31.977 Y267.791 Z-9.000
G1 X32.155 Y267.829 Z-9.000
G1 X32.310 Y267.885 Z-9.000
G1 X32.462 Y267.965 Z-9.000
G1 X32.608 Y268.069 Z-9.000
G1 X32.740 Y268.197 Z-9.000
G1 X32.854 Y268.345 Z-9.000
G1 X32.945 Y268.510 Z-9.000
G1 X33.010 Y268.685 Z-9.000
G1 X33.047 Y268.865 Z-9.000
G1 X33.058 Y269.043 Z-9.000
G1 X33.045 Y269.215 Z-9.000
G1 X33.009 Y269.376 Z-9.000
G0 X33.009 Y269.376
G0 Z6.000
G1 X33.009 Y269.376 Z-10.000 F635.0
G1 X32.947 Y269.547 Z-10.000 F180.0
G1 X32.855 Y269.714 Z-10.000
G1 X32.733 Y269.871 Z-10.000
G1 X32.585 Y270.010 Z-10.000
G1 X32.413 Y270.124 Z-10.000
G1 X32.224 Y270.209 Z-10.000
G1 X32.028 Y270.261 Z-10.000
G1 X31.830 Y270.280 Z-10.000
G1 X31.640 Y270.269 Z-10.000
G1 X31.462 Y270.231 Z-10.000
G1 X31.307 Y270.175 Z-10.000
G1 X31.154 Y270.095 Z-10.000
G1 X31.009 Y269.991 Z-10.000
G1 X30.877 Y269.863 Z-10.000
G1 X30.763 Y269.715 Z-10.000
G1 X30.672 Y269.550 Z-10.000
G1 X30.607 Y269.375 Z-10.000
G1 X30.569 Y269.195 Z-10.000
G1 X30.558 Y269.016 Z-10.000
G1 X30.572 Y268.845 Z-10.000
G1 X30.607 Y268.684 Z-10.000
G1 X30.670 Y268.513 Z-10.000
G1 X30.762 Y268.346 Z-10.000
G1 X30.883 Y268.189 Z-10.000
G1 X31.032 Y268.050 Z-10.000
G1 X31.204 Y267.936 Z-10.000
G1 X31.392 Y267.851 Z-10.000
G1 X31.589 Y267.799 Z-10.000
G1 X31.787 Y267.780 Z-10.000
G1 X31.977 Y267.791 Z-10.000
G1 X32.155 Y267.829 Z-10.000
G1 X32.310 Y267.885 Z-10.000
G1 X32.462 Y267.965 Z-10.000
G1 X32.608 Y268.069 Z-10.000
G1 X32.740 Y268.197 Z-10.000
G1 X32.854 Y268.345 Z-10.000
G1 X32.945 Y268.510 Z-10.000
G1 X33.010 Y268.685 Z-10.000
G1 X33.047 Y268.865 Z-10.000
G1 X33.058 Y269.043 Z-10.000
G1 X33.045 Y269.215 Z-10.000
G1 X33.009 Y269.376 Z-10.000
G0 X33.009 Y269.376
G0 Z6.000
G1 X33.009 Y269.376 Z-11.000 F635.0
G1 X32.947 Y269.547 Z-11.000 F180.0
G1 X32.855 Y269.714 Z-11.000
G1 X32.733 Y269.871 Z-11.000
G1 X32.585 Y270.010 Z-11.000
G1 X32.413 Y270.124 Z-11.000
G1 X32.224 Y270.209 Z-11.000
G1 X32.028 Y270.261 Z-11.000
G1 X31.830 Y270.280 Z-11.000
G1 X31.640 Y270.269 Z-11.000
G1 X31.462 Y270.231 Z-11.000
G1 X31.307 Y270.175 Z-11.000
G1 X31.154 Y270.095 Z-11.000
G1 X31.009 Y269.991 Z-11.000
G1 X30.877 Y269.863 Z-11.000
G1 X30.763 Y269.715 Z-11.000
G1 X30.672 Y269.550 Z-11.000
G1 X30.607 Y269.375 Z-11.000
G1 X30.569 Y269.195 Z-11.000
G1 X30.558 Y269.016 Z-11.000
G1 X30.572 Y268.845 Z-11.000
G1 X30.607 Y268.684 Z-11.000
G1 X30.670 Y268.513 Z-11.000
G1 X30.762 Y268.346 Z-11.000
G1 X30.883 Y268.189 Z-11.000
G1 X31.032 Y268.050 Z-11.000
G1 X31.204 Y267.936 Z-11.000
G1 X31.392 Y267.851 Z-11.000
G1 X31.589 Y267.799 Z-11.000
G1 X31.787 Y267.780 Z-11.000
G1 X31.977 Y267.791 Z-11.000
G1 X32.155 Y267.829 Z-11.000
G1 X32.310 Y267.885 Z-11.000
G1 X32.462 Y267.965 Z-11.000
G1 X32.608 Y268.069 Z-11.000
G1 X32.740 Y268.197 Z-11.000
G1 X32.854 Y268.345 Z-11.000
G1 X32.945 Y268.510 Z-11.000
G1 X33.010 Y268.685 Z-11.000
G1 X33.047 Y268.865 Z-11.000
G1 X33.058 Y269.043 Z-11.000
G1 X33.045 Y269.215 Z-11.000
G1 X33.009 Y269.376 Z-11.000
G0 X33.009 Y269.376
G0 Z6.000
G1 X33.009 Y269.376 Z-12.000 F635.0
G1 X32.947 Y269.547 Z-12.000 F180.0
G1 X32.855 Y269.714 Z-12.000
G1 X32.733 Y269.871 Z-12.000
G1 X32.585 Y270.010 Z-12.000
G1 X32.413 Y270.124 Z-12.000
G1 X32.224 Y270.209 Z-12.000
G1 X32.028 Y270.261 Z-12.000
G1 X31.830 Y270.280 Z-12.000
G1 X31.640 Y270.269 Z-12.000
G1 X31.462 Y270.231 Z-12.000
G1 X31.307 Y270.175 Z-12.000
G1 X31.154 Y270.095 Z-12.000
G1 X31.009 Y269.991 Z-12.000
G1 X30.877 Y269.863 Z-12.000
G1 X30.763 Y269.715 Z-12.000
G1 X30.672 Y269.550 Z-12.000
G1 X30.607 Y269.375 Z-12.000
G1 X30.569 Y269.195 Z-12.000
G1 X30.558 Y269.016 Z-12.000
G1 X30.572 Y268.845 Z-12.000
G1 X30.607 Y268.684 Z-12.000
G1 X30.670 Y268.513 Z-12.000
G1 X30.762 Y268.346 Z-12.000
G1 X30.883 Y268.189 Z-12.000
G1 X31.032 Y268.050 Z-12.000
G1 X31.204 Y267.936 Z-12.000
G1 X31.392 Y267.851 Z-12.000
G1 X31.589 Y267.799 Z-12.000
G1 X31.787 Y267.780 Z-12.000
G1 X31.977 Y267.791 Z-12.000
G1 X32.155 Y267.829 Z-12.000
G1 X32.310 Y267.885 Z-12.000
G1 X32.462 Y267.965 Z-12.000
G1 X32.608 Y268.069 Z-12.000
G1 X32.740 Y268.197 Z-12.000
G1 X32.854 Y268.345 Z-12.000
G1 X32.945 Y268.510 Z-12.000
G1 X33.010 Y268.685 Z-12.000
G1 X33.047 Y268.865 Z-12.000
G1 X33.058 Y269.043 Z-12.000
G1 X33.045 Y269.215 Z-12.000
G1 X33.009 Y269.376 Z-12.000
G0 X33.009 Y269.376
G0 Z6.000
G0 X116.339 Y270.672
G0 Z6.000
G1 X116.339 Y270.672 Z-1.000 F635.0
G1 X116.402 Y270.502 Z-1.000 F180.0
G1 X116.494 Y270.335 Z-1.000
G1 X116.615 Y270.178 Z-1.000
G1 X116.764 Y270.039 Z-1.000
G1 X116.935 Y269.924 Z-1.000
G1 X117.124 Y269.840 Z-1.000
G1 X117.321 Y269.788 Z-1.000
G1 X117.518 Y269.769 Z-1.000
G1 X117.708 Y269.780 Z-1.000
G1 X117.886 Y269.817 Z-1.000
G1 X118.057 Y269.880 Z-1.000
G1 X118.224 Y269.972 Z-1.000
G1 X118.381 Y270.094 Z-1.000
G1 X118.520 Y270.242 Z-1.000
G1 X118.634 Y270.414 Z-1.000
G1 X118.719 Y270.602 Z-1.000
G1 X118.770 Y270.799 Z-1.000
G1 X118.790 Y270.997 Z-1.000
G1 X118.778 Y271.187 Z-1.000
G1 X118.741 Y271.365 Z-1.000
G1 X118.685 Y271.520 Z-1.000
G1 X118.605 Y271.673 Z-1.000
G1 X118.501 Y271.818 Z-1.000
G1 X118.373 Y271.950 Z-1.000
G1 X118.225 Y272.064 Z-1.000
G1 X118.060 Y272.155 Z-1.000
G1 X117.885 Y272.220 Z-1.000
G1 X117.705 Y272.258 Z-1.000
G1 X117.526 Y272.268 Z-1.000
G1 X117.354 Y272.255 Z-1.000
G1 X117.193 Y272.220 Z-1.000
G1 X117.039 Y272.164 Z-1.000
G1 X116.886 Y272.084 Z-1.000
G1 X116.740 Y271.979 Z-1.000
G1 X116.608 Y271.852 Z-1.000
G1 X116.494 Y271.703 Z-1.000
G1 X116.403 Y271.539 Z-1.000
G1 X116.338 Y271.364 Z-1.000
G1 X116.301 Y271.184 Z-1.000
G1 X116.290 Y271.005 Z-1.000
G1 X116.304 Y270.833 Z-1.000
G1 X116.339 Y270.672 Z-1.000
G0 X116.339 Y270.672
G0 Z6.000
G1 X116.339 Y270.672 Z-2.000 F635.0
G1 X116.402 Y270.502 Z-2.000 F180.0
G1 X116.494 Y270.335 Z-2.000
G1 X116.615 Y270.178 Z-2.000
G1 X116.764 Y270.039 Z-2.000
G1 X116.935 Y269.924 Z-2.000
G1 X117.124 Y269.840 Z-2.000
G1 X117.321 Y269.788 Z-2.000
G1 X117.518 Y269.769 Z-2.000
G1 X117.708 Y269.780 Z-2.000
G1 X117.886 Y269.817 Z-2.000
G1 X118.057 Y269.880 Z-2.000
G1 X118.224 Y269.972 Z-2.000
G1 X118.381 Y270.094 Z-2.000
G1 X118.520 Y270.242 Z-2.000
G1 X118.634 Y270.414 Z-2.000
G1 X118.719 Y270.602 Z-2.000
G1 X118.770 Y270.799 Z-2.000
G1 X118.790 Y270.997 Z-2.000
G1 X118.778 Y271.187 Z-2.000
G1 X118.741 Y271.365 Z-2.000
G1 X118.685 Y271.520 Z-2.000
G1 X118.605 Y271.673 Z-2.000
G1 X118.501 Y271.818 Z-2.000
G1 X118.373 Y271.950 Z-2.000
G1 X118.225 Y272.064 Z-2.000
G1 X118.060 Y272.155 Z-2.000
G1 X117.885 Y272.220 Z-2.000
G1 X117.705 Y272.258 Z-2.000
G1 X117.526 Y272.268 Z-2.000
G1 X117.354 Y272.255 Z-2.000
G1 X117.193 Y272.220 Z-2.000
G1 X117.039 Y272.164 Z-2.000
G1 X116.886 Y272.084 Z-2.000
G1 X116.740 Y271.979 Z-2.000
G1 X116.608 Y271.852 Z-2.000
G1 X116.494 Y271.703 Z-2.000
G1 X116.403 Y271.539 Z-2.000
G1 X116.338 Y271.364 Z-2.000
G1 X116.301 Y271.184 Z-2.000
G1 X116.290 Y271.005 Z-2.000
G1 X116.304 Y270.833 Z-2.000
G1 X116.339 Y270.672 Z-2.000
G0 X116.339 Y270.672
G0 Z6.000
G1 X116.339 Y270.672 Z-3.000 F635.0
G1 X116.402 Y270.502 Z-3.000 F180.0
G1 X116.494 Y270.335 Z-3.000
G1 X116.615 Y270.178 Z-3.000
G1 X116.764 Y270.039 Z-3.000
G1 X116.935 Y269.924 Z-3.000
G1 X117.124 Y269.840 Z-3.000
G1 X117.321 Y269.788 Z-3.000
G1 X117.518 Y269.769 Z-3.000
G1 X117.708 Y269.780 Z-3.000
G1 X117.886 Y269.817 Z-3.000
G1 X118.057 Y269.880 Z-3.000
G1 X118.224 Y269.972 Z-3.000
G1 X118.381 Y270.094 Z-3.000
G1 X118.520 Y270.242 Z-3.000
G1 X118.634 Y270.414 Z-3.000
G1 X118.719 Y270.602 Z-3.000
G1 X118.770 Y270.799 Z-3.000
G1 X118.790 Y270.997 Z-3.000
G1 X118.778 Y271.187 Z-3.000
G1 X118.741 Y271.365 Z-3.000
G1 X118.685 Y271.520 Z-3.000
G1 X118.605 Y271.673 Z-3.000
G1 X118.501 Y271.818 Z-3.000
G1 X118.373 Y271.950 Z-3.000
G1 X118.225 Y272.064 Z-3.000
G1 X118.060 Y272.155 Z-3.000
G1 X117.885 Y272.220 Z-3.000
G1 X117.705 Y272.258 Z-3.000
G1 X117.526 Y272.268 Z-3.000
G1 X117.354 Y272.255 Z-3.000
G1 X117.193 Y272.220 Z-3.000
G1 X117.039 Y272.164 Z-3.000
G1 X116.886 Y272.084 Z-3.000
G1 X116.740 Y271.979 Z-3.000
G1 X116.608 Y271.852 Z-3.000
G1 X116.494 Y271.703 Z-3.000
G1 X116.403 Y271.539 Z-3.000
G1 X116.338 Y271.364 Z-3.000
G1 X116.301 Y271.184 Z-3.000
G1 X116.290 Y271.005 Z-3.000
G1 X116.304 Y270.833 Z-3.000
G1 X116.339 Y270.672 Z-3.000
G0 X116.339 Y270.672
G0 Z6.000
G1 X116.339 Y270.672 Z-4.000 F635.0
G1 X116.402 Y270.502 Z-4.000 F180.0
G1 X116.494 Y270.335 Z-4.000
G1 X116.615 Y270.178 Z-4.000
G1 X116.764 Y270.039 Z-4.000
G1 X116.935 Y269.924 Z-4.000
G1 X117.124 Y269.840 Z-4.000
G1 X117.321 Y269.788 Z-4.000
G1 X117.518 Y269.769 Z-4.000
G1 X117.708 Y269.780 Z-4.000
G1 X117.886 Y269.817 Z-4.000
G1 X118.057 Y269.880 Z-4.000
G1 X118.224 Y269.972 Z-4.000
G1 X118.381 Y270.094 Z-4.000
G1 X118.520 Y270.242 Z-4.000
G1 X118.634 Y270.414 Z-4.000
G1 X118.719 Y270.602 Z-4.000
G1 X118.770 Y270.799 Z-4.000
G1 X118.790 Y270.997 Z-4.000
G1 X118.778 Y271.187 Z-4.000
G1 X118.741 Y271.365 Z-4.000
G1 X118.685 Y271.520 Z-4.000
G1 X118.605 Y271.673 Z-4.000
G1 X118.501 Y271.818 Z-4.000
G1 X118.373 Y271.950 Z-4.000
G1 X118.225 Y272.064 Z-4.000
G1 X118.060 Y272.155 Z-4.000
G1 X117.885 Y272.220 Z-4.000
G1 X117.705 Y272.258 Z-4.000
G1 X117.526 Y272.268 Z-4.000
G1 X117.354 Y272.255 Z-4.000
G1 X117.193 Y272.220 Z-4.000
G1 X117.039 Y272.164 Z-4.000
G1 X116.886 Y272.084 Z-4.000
G1 X116.740 Y271.979 Z-4.000
G1 X116.608 Y271.852 Z-4.000
G1 X116.494 Y271.703 Z-4.000
G1 X116.403 Y271.539 Z-4.000
G1 X116.338 Y271.364 Z-4.000
G1 X116.301 Y271.184 Z-4.000
G1 X116.290 Y271.005 Z-4.000
G1 X116.304 Y270.833 Z-4.000
G1 X116.339 Y270.672 Z-4.000
G0 X116.339 Y270.672
G0 Z6.000
G1 X116.339 Y270.672 Z-5.000 F635.0
G1 X116.402 Y270.502 Z-5.000 F180.0
G1 X116.494 Y270.335 Z-5.000
G1 X116.615 Y270.178 Z-5.000
G1 X116.764 Y270.039 Z-5.000
G1 X116.935 Y269.924 Z-5.000
G1 X117.124 Y269.840 Z-5.000
G1 X117.321 Y269.788 Z-5.000
G1 X117.518 Y269.769 Z-5.000
G1 X117.708 Y269.780 Z-5.000
G1 X117.886 Y269.817 Z-5.000
G1 X118.057 Y269.880 Z-5.000
G1 X118.224 Y269.972 Z-5.000
G1 X118.381 Y270.094 Z-5.000
G1 X118.520 Y270.242 Z-5.000
G1 X118.634 Y270.414 Z-5.000
G1 X118.719 Y270.602 Z-5.000
G1 X118.770 Y270.799 Z-5.000
G1 X118.790 Y270.997 Z-5.000
G1 X118.778 Y271.187 Z-5.000
G1 X118.741 Y271.365 Z-5.000
G1 X118.685 Y271.520 Z-5.000
G1 X118.605 Y271.673 Z-5.000
G1 X118.501 Y271.818 Z-5.000
G1 X118.373 Y271.950 Z-5.000
G1 X118.225 Y272.064 Z-5.000
G1 X118.060 Y272.155 Z-5.000
G1 X117.885 Y272.220 Z-5.000
G1 X117.705 Y272.258 Z-5.000
G1 X117.526 Y272.268 Z-5.000
G1 X117.354 Y272.255 Z-5.000
G1 X117.193 Y272.220 Z-5.000
G1 X117.039 Y272.164 Z-5.000
G1 X116.886 Y272.084 Z-5.000
G1 X116.740 Y271.979 Z-5.000
G1 X116.608 Y271.852 Z-5.000
G1 X116.494 Y271.703 Z-5.000
G1 X116.403 Y271.539 Z-5.000
G1 X116.338 Y271.364 Z-5.000
G1 X116.301 Y271.184 Z-5.000
G1 X116.290 Y271.005 Z-5.000
G1 X116.304 Y270.833 Z-5.000
G1 X116.339 Y270.672 Z-5.000
G0 X116.339 Y270.672
G0 Z6.000
G1 X116.339 Y270.672 Z-6.000 F635.0
G1 X116.402 Y270.502 Z-6.000 F180.0
G1 X116.494 Y270.335 Z-6.000
G1 X116.615 Y270.178 Z-6.000
G1 X116.764 Y270.039 Z-6.000
G1 X116.935 Y269.924 Z-6.000
G1 X117.124 Y269.840 Z-6.000
G1 X117.321 Y269.788 Z-6.000
G1 X117.518 Y269.769 Z-6.000
G1 X117.708 Y269.780 Z-6.000
G1 X117.886 Y269.817 Z-6.000
G1 X118.057 Y269.880 Z-6.000
G1 X118.224 Y269.972 Z-6.000
G1 X118.381 Y270.094 Z-6.000
G1 X118.520 Y270.242 Z-6.000
G1 X118.634 Y270.414 Z-6.000
G1 X118.719 Y270.602 Z-6.000
G1 X118.770 Y270.799 Z-6.000
G1 X118.790 Y270.997 Z-6.000
G1 X118.778 Y271.187 Z-6.000
G1 X118.741 Y271.365 Z-6.000
G1 X118.685 Y271.520 Z-6.000
G1 X118.605 Y271.673 Z-6.000
G1 X118.501 Y271.818 Z-6.000
G1 X118.373 Y271.950 Z-6.000
G1 X118.225 Y272.064 Z-6.000
G1 X118.060 Y272.155 Z-6.000
G1 X117.885 Y272.220 Z-6.000
G1 X117.705 Y272.258 Z-6.000
G1 X117.526 Y272.268 Z-6.000
G1 X117.354 Y272.255 Z-6.000
G1 X117.193 Y272.220 Z-6.000
G1 X117.039 Y272.164 Z-6.000
G1 X116.886 Y272.084 Z-6.000
G1 X116.740 Y271.979 Z-6.000
G1 X116.608 Y271.852 Z-6.000
G1 X116.494 Y271.703 Z-6.000
G1 X116.403 Y271.539 Z-6.000
G1 X116.338 Y271.364 Z-6.000
G1 X116.301 Y271.184 Z-6.000
G1 X116.290 Y271.005 Z-6.000
G1 X116.304 Y270.833 Z-6.000
G1 X116.339 Y270.672 Z-6.000
G0 X116.339 Y270.672
G0 Z6.000
G1 X116.339 Y270.672 Z-7.000 F635.0
G1 X116.402 Y270.502 Z-7.000 F180.0
G1 X116.494 Y270.335 Z-7.000
G1 X116.615 Y270.178 Z-7.000
G1 X116.764 Y270.039 Z-7.000
G1 X116.935 Y269.924 Z-7.000
G1 X117.124 Y269.840 Z-7.000
G1 X117.321 Y269.788 Z-7.000
G1 X117.518 Y269.769 Z-7.000
G1 X117.708 Y269.780 Z-7.000
G1 X117.886 Y269.817 Z-7.000
G1 X118.057 Y269.880 Z-7.000
G1 X118.224 Y269.972 Z-7.000
G1 X118.381 Y270.094 Z-7.000
G1 X118.520 Y270.242 Z-7.000
G1 X118.634 Y270.414 Z-7.000
G1 X118.719 Y270.602 Z-7.000
G1 X118.770 Y270.799 Z-7.000
G1 X118.790 Y270.997 Z-7.000
G1 X118.778 Y271.187 Z-7.000
G1 X118.741 Y271.365 Z-7.000
G1 X118.685 Y271.520 Z-7.000
G1 X118.605 Y271.673 Z-7.000
G1 X118.501 Y271.818 Z-7.000
G1 X118.373 Y271.950 Z-7.000
G1 X118.225 Y272.064 Z-7.000
G1 X118.060 Y272.155 Z-7.000
G1 X117.885 Y272.220 Z-7.000
G1 X117.705 Y272.258 Z-7.000
G1 X117.526 Y272.268 Z-7.000
G1 X117.354 Y272.255 Z-7.000
G1 X117.193 Y272.220 Z-7.000
G1 X117.039 Y272.164 Z-7.000
G1 X116.886 Y272.084 Z-7.000
G1 X116.740 Y271.979 Z-7.000
G1 X116.608 Y271.852 Z-7.000
G1 X116.494 Y271.703 Z-7.000
G1 X116.403 Y271.539 Z-7.000
G1 X116.338 Y271.364 Z-7.000
G1 X116.301 Y271.184 Z-7.000
G1 X116.290 Y271.005 Z-7.000
G1 X116.304 Y270.833 Z-7.000
G1 X116.339 Y270.672 Z-7.000
G0 X116.339 Y270.672
G0 Z6.000
G1 X116.339 Y270.672 Z-8.000 F635.0
G1 X116.402 Y270.502 Z-8.000 F180.0
G1 X116.494 Y270.335 Z-8.000
G1 X116.615 Y270.178 Z-8.000
G1 X116.764 Y270.039 Z-8.000
G1 X116.935 Y269.924 Z-8.000
G1 X117.124 Y269.840 Z-8.000
G1 X117.321 Y269.788 Z-8.000
G1 X117.518 Y269.769 Z-8.000
G1 X117.708 Y269.780 Z-8.000
G1 X117.886 Y269.817 Z-8.000
G1 X118.057 Y269.880 Z-8.000
G1 X118.224 Y269.972 Z-8.000
G1 X118.381 Y270.094 Z-8.000
G1 X118.520 Y270.242 Z-8.000
G1 X118.634 Y270.414 Z-8.000
G1 X118.719 Y270.602 Z-8.000
G1 X118.770 Y270.799 Z-8.000
G1 X118.790 Y270.997 Z-8.000
G1 X118.778 Y271.187 Z-8.000
G1 X118.741 Y271.365 Z-8.000
G1 X118.685 Y271.520 Z-8.000
G1 X118.605 Y271.673 Z-8.000
G1 X118.501 Y271.818 Z-8.000
G1 X118.373 Y271.950 Z-8.000
G1 X118.225 Y272.064 Z-8.000
G1 X118.060 Y272.155 Z-8.000
G1 X117.885 Y272.220 Z-8.000
G1 X117.705 Y272.258 Z-8.000
G1 X117.526 Y272.268 Z-8.000
G1 X117.354 Y272.255 Z-8.000
G1 X117.193 Y272.220 Z-8.000
G1 X117.039 Y272.164 Z-8.000
G1 X116.886 Y272.084 Z-8.000
G1 X116.740 Y271.979 Z-8.000
G1 X116.608 Y271.852 Z-8.000
G1 X116.494 Y271.703 Z-8.000
G1 X116.403 Y271.539 Z-8.000
G1 X116.338 Y271.364 Z-8.000
G1 X116.301 Y271.184 Z-8.000
G1 X116.290 Y271.005 Z-8.000
G1 X116.304 Y270.833 Z-8.000
G1 X116.339 Y270.672 Z-8.000
G0 X116.339 Y270.672
G0 Z6.000
G1 X116.339 Y270.672 Z-9.000 F635.0
G1 X116.402 Y270.502 Z-9.000 F180.0
G1 X116.494 Y270.335 Z-9.000
G1 X116.615 Y270.178 Z-9.000
G1 X116.764 Y270.039 Z-9.000
G1 X116.935 Y269.924 Z-9.000
G1 X117.124 Y269.840 Z-9.000
G1 X117.321 Y269.788 Z-9.000
G1 X117.518 Y269.769 Z-9.000
G1 X117.708 Y269.780 Z-9.000
G1 X117.886 Y269.817 Z-9.000
G1 X118.057 Y269.880 Z-9.000
G1 X118.224 Y269.972 Z-9.000
G1 X118.381 Y270.094 Z-9.000
G1 X118.520 Y270.242 Z-9.000
G1 X118.634 Y270.414 Z-9.000
G1 X118.719 Y270.602 Z-9.000
G1 X118.770 Y270.799 Z-9.000
G1 X118.790 Y270.997 Z-9.000
G1 X118.778 Y271.187 Z-9.000
G1 X118.741 Y271.365 Z-9.000
G1 X118.685 Y271.520 Z-9.000
G1 X118.605 Y271.673 Z-9.000
G1 X118.501 Y271.818 Z-9.000
G1 X118.373 Y271.950 Z-9.000
G1 X118.225 Y272.064 Z-9.000
G1 X118.060 Y272.155 Z-9.000
G1 X117.885 Y272.220 Z-9.000
G1 X117.705 Y272.258 Z-9.000
G1 X117.526 Y272.268 Z-9.000
G1 X117.354 Y272.255 Z-9.000
G1 X117.193 Y272.220 Z-9.000
G1 X117.039 Y272.164 Z-9.000
G1 X116.886 Y272.084 Z-9.000
G1 X116.740 Y271.979 Z-9.000
G1 X116.608 Y271.852 Z-9.000
G1 X116.494 Y271.703 Z-9.000
G1 X116.403 Y271.539 Z-9.000
G1 X116.338 Y271.364 Z-9.000
G1 X116.301 Y271.184 Z-9.000
G1 X116.290 Y271.005 Z-9.000
G1 X116.304 Y270.833 Z-9.000
G1 X116.339 Y270.672 Z-9.000
G0 X116.339 Y270.672
G0 Z6.000
G1 X116.339 Y270.672 Z-10.000 F635.0
G1 X116.402 Y270.502 Z-10.000 F180.0
G1 X116.494 Y270.335 Z-10.000
G1 X116.615 Y270.178 Z-10.000
G1 X116.764 Y270.039 Z-10.000
G1 X116.935 Y269.924 Z-10.000
G1 X117.124 Y269.840 Z-10.000
G1 X117.321 Y269.788 Z-10.000
G1 X117.518 Y269.769 Z-10.000
G1 X117.708 Y269.780 Z-10.000
G1 X117.886 Y269.817 Z-10.000
G1 X118.057 Y269.880 Z-10.000
G1 X118.224 Y269.972 Z-10.000
G1 X118.381 Y270.094 Z-10.000
G1 X118.520 Y270.242 Z-10.000
G1 X118.634 Y270.414 Z-10.000
G1 X118.719 Y270.602 Z-10.000
G1 X118.770 Y270.799 Z-10.000
G1 X118.790 Y270.997 Z-10.000
G1 X118.778 Y271.187 Z-10.000
G1 X118.741 Y271.365 Z-10.000
G1 X118.685 Y271.520 Z-10.000
G1 X118.605 Y271.673 Z-10.000
G1 X118.501 Y271.818 Z-10.000
G1 X118.373 Y271.950 Z-10.000
G1 X118.225 Y272.064 Z-10.000
G1 X118.060 Y272.155 Z-10.000
G1 X117.885 Y272.220 Z-10.000
G1 X117.705 Y272.258 Z-10.000
G1 X117.526 Y272.268 Z-10.000
G1 X117.354 Y272.255 Z-10.000
G1 X117.193 Y272.220 Z-10.000
G1 X117.039 Y272.164 Z-10.000
G1 X116.886 Y272.084 Z-10.000
G1 X116.740 Y271.979 Z-10.000
G1 X116.608 Y271.852 Z-10.000
G1 X116.494 Y271.703 Z-10.000
G1 X116.403 Y271.539 Z-10.000
G1 X116.338 Y271.364 Z-10.000
G1 X116.301 Y271.184 Z-10.000
G1 X116.290 Y271.005 Z-10.000
G1 X116.304 Y270.833 Z-10.000
G1 X116.339 Y270.672 Z-10.000
G0 X116.339 Y270.672
G0 Z6.000
G1 X116.339 Y270.672 Z-11.000 F635.0
G1 X116.402 Y270.502 Z-11.000 F180.0
G1 X116.494 Y270.335 Z-11.000
G1 X116.615 Y270.178 Z-11.000
G1 X116.764 Y270.039 Z-11.000
G1 X116.935 Y269.924 Z-11.000
G1 X117.124 Y269.840 Z-11.000
G1 X117.321 Y269.788 Z-11.000
G1 X117.518 Y269.769 Z-11.000
G1 X117.708 Y269.780 Z-11.000
G1 X117.886 Y269.817 Z-11.000
G1 X118.057 Y269.880 Z-11.000
G1 X118.224 Y269.972 Z-11.000
G1 X118.381 Y270.094 Z-11.000
G1 X118.520 Y270.242 Z-11.000
G1 X118.634 Y270.414 Z-11.000
G1 X118.719 Y270.602 Z-11.000
G1 X118.770 Y270.799 Z-11.000
G1 X118.790 Y270.997 Z-11.000
G1 X118.778 Y271.187 Z-11.000
G1 X118.741 Y271.365 Z-11.000
G1 X118.685 Y271.520 Z-11.000
G1 X118.605 Y271.673 Z-11.000
G1 X118.501 Y271.818 Z-11.000
G1 X118.373 Y271.950 Z-11.000
G1 X118.225 Y272.064 Z-11.000
G1 X118.060 Y272.155 Z-11.000
G1 X117.885 Y272.220 Z-11.000
G1 X117.705 Y272.258 Z-11.000
G1 X117.526 Y272.268 Z-11.000
G1 X117.354 Y272.255 Z-11.000
G1 X117.193 Y272.220 Z-11.000
G1 X117.039 Y272.164 Z-11.000
G1 X116.886 Y272.084 Z-11.000
G1 X116.740 Y271.979 Z-11.000
G1 X116.608 Y271.852 Z-11.000
G1 X116.494 Y271.703 Z-11.000
G1 X116.403 Y271.539 Z-11.000
G1 X116.338 Y271.364 Z-11.000
G1 X116.301 Y271.184 Z-11.000
G1 X116.290 Y271.005 Z-11.000
G1 X116.304 Y270.833 Z-11.000
G1 X116.339 Y270.672 Z-11.000
G0 X116.339 Y270.672
G0 Z6.000
G1 X116.339 Y270.672 Z-12.000 F635.0
G1 X116.402 Y270.502 Z-12.000 F180.0
G1 X116.494 Y270.335 Z-12.000
G1 X116.615 Y270.178 Z-12.000
G1 X116.764 Y270.039 Z-12.000
G1 X116.935 Y269.924 Z-12.000
G1 X117.124 Y269.840 Z-12.000
G1 X117.321 Y269.788 Z-12.000
G1 X117.518 Y269.769 Z-12.000
G1 X117.708 Y269.780 Z-12.000
G1 X117.886 Y269.817 Z-12.000
G1 X118.057 Y269.880 Z-12.000
G1 X118.224 Y269.972 Z-12.000
G1 X118.381 Y270.094 Z-12.000
G1 X118.520 Y270.242 Z-12.000
G1 X118.634 Y270.414 Z-12.000
G1 X118.719 Y270.602 Z-12.000
G1 X118.770 Y270.799 Z-12.000
G1 X118.790 Y270.997 Z-12.000
G1 X118.778 Y271.187 Z-12.000
G1 X118.741 Y271.365 Z-12.000
G1 X118.685 Y271.520 Z-12.000
G1 X118.605 Y271.673 Z-12.000
G1 X118.501 Y271.818 Z-12.000
G1 X118.373 Y271.950 Z-12.000
G1 X118.225 Y272.064 Z-12.000
G1 X118.060 Y272.155 Z-12.000
G1 X117.885 Y272.220 Z-12.000
G1 X117.705 Y272.258 Z-12.000
G1 X117.526 Y272.268 Z-12.000
G1 X117.354 Y272.255 Z-12.000
G1 X117.193 Y272.220 Z-12.000
G1 X117.039 Y272.164 Z-12.000
G1 X116.886 Y272.084 Z-12.000
G1 X116.740 Y271.979 Z-12.000
G1 X116.608 Y271.852 Z-12.000
G1 X116.494 Y271.703 Z-12.000
G1 X116.403 Y271.539 Z-12.000
G1 X116.338 Y271.364 Z-12.000
G1 X116.301 Y271.184 Z-12.000
G1 X116.290 Y271.005 Z-12.000
G1 X116.304 Y270.833 Z-12.000
G1 X116.339 Y270.672 Z-12.000
G0 X116.339 Y270.672
G0 Z6.000
G0 X44.332 Y240.399
G0 Z6.000
G1 X44.332 Y240.399 Z-1.000 F635.0
G1 X42.916 Y240.691 Z-1.000 F180.0
G1 X41.521 Y241.012 Z-1.000
G1 X40.148 Y241.361 Z-1.000
G1 X38.799 Y241.739 Z-1.000
G1 X37.474 Y242.146 Z-1.000
G1 X36.173 Y242.582 Z-1.000
G1 X34.898 Y243.048 Z-1.000
G1 X33.649 Y243.544 Z-1.000
G1 X32.427 Y244.069 Z-1.000
G1 X31.233 Y244.625 Z-1.000
G1 X30.067 Y245.211 Z-1.000
G1 X28.931 Y245.828 Z-1.000
G1 X27.826 Y246.476 Z-1.000
G1 X26.752 Y247.155 Z-1.000
G1 X25.710 Y247.866 Z-1.000
G1 X24.704 Y248.606 Z-1.000
G1 X23.900 Y249.239 Z-1.000
G1 X23.130 Y249.887 Z-1.000
G1 X22.390 Y250.549 Z-1.000
G1 X21.681 Y251.227 Z-1.000
G1 X21.606 Y251.304 Z-1.000
G1 X21.003 Y251.920 Z-1.000
G1 X20.357 Y252.626 Z-1.000
G1 X19.741 Y253.348 Z-1.000
G1 X19.156 Y254.083 Z-1.000
G1 X18.603 Y254.831 Z-1.000
G1 X18.081 Y255.592 Z-1.000
G1 X17.590 Y256.366 Z-1.000
G1 X17.131 Y257.153 Z-1.000
G1 X16.703 Y257.951 Z-1.000
G1 X16.307 Y258.760 Z-1.000
G1 X15.943 Y259.580 Z-1.000
G1 X15.610 Y260.411 Z-1.000
G1 X15.309 Y261.251 Z-1.000
G1 X15.039 Y262.101 Z-1.000
G1 X14.801 Y262.959 Z-1.000
G1 X14.594 Y263.825 Z-1.000
G1 X14.418 Y264.699 Z-1.000
G1 X14.328 Y265.249 Z-1.000
G1 X14.273 Y265.581 Z-1.000
G1 X14.160 Y266.469 Z-1.000
G1 X14.077 Y267.364 Z-1.000
G1 X14.024 Y268.264 Z-1.000
G1 X14.002 Y269.170 Z-1.000
G1 X14.010 Y270.080 Z-1.000
G1 X14.048 Y270.995 Z-1.000
G1 X14.115 Y271.915 Z-1.000
G1 X14.212 Y272.838 Z-1.000
G1 X14.338 Y273.764 Z-1.000
G1 X14.512 Y274.810 Z-1.000
G1 X14.934 Y276.120 Z-1.000
G1 X15.383 Y277.326 Z-1.000
G1 X15.890 Y278.526 Z-1.000
G1 X16.451 Y279.719 Z-1.000
G1 X17.068 Y280.903 Z-1.000
G1 X17.738 Y282.078 Z-1.000
G1 X18.460 Y283.243 Z-1.000
G1 X19.404 Y284.652 Z-1.000
G1 X19.924 Y285.042 Z-1.000
G1 X20.242 Y285.248 Z-1.000
G1 X20.572 Y285.431 Z-1.000
G1 X20.914 Y285.590 Z-1.000
G1 X21.264 Y285.725 Z-1.000
G1 X21.624 Y285.837 Z-1.000
G1 X21.991 Y285.923 Z-1.000
G1 X22.458 Y286.000 Z-1.000
G1 X83.966 Y285.917 Z-1.000
G1 X99.966 Y285.896 Z-1.000
G1 X121.117 Y285.867 Z-1.000
G1 X122.802 Y285.630 Z-1.000
G1 X124.317 Y285.374 Z-1.000
G1 X125.775 Y285.084 Z-1.000
G1 X127.173 Y284.760 Z-1.000
G1 X128.511 Y284.401 Z-1.000
G1 X129.786 Y284.006 Z-1.000
G1 X130.997 Y283.573 Z-1.000
G1 X132.130 Y283.107 Z-1.000
G1 X132.689 Y282.852 Z-1.000
G1 X133.219 Y282.590 Z-1.000
G1 X133.733 Y282.318 Z-1.000
G1 X134.229 Y282.035 Z-1.000
G1 X134.707 Y281.741 Z-1.000
G1 X135.167 Y281.434 Z-1.000
G1 X135.609 Y281.114 Z-1.000
G1 X136.032 Y280.782 Z-1.000
G1 X136.435 Y280.435 Z-1.000
G1 X136.817 Y280.075 Z-1.000
G1 X137.179 Y279.700 Z-1.000
G1 X137.518 Y279.309 Z-1.000
G1 X137.833 Y278.904 Z-1.000
G1 X138.124 Y278.482 Z-1.000
G1 X138.389 Y278.046 Z-1.000
G1 X138.626 Y277.593 Z-1.000
G1 X138.835 Y277.121 Z-1.000
G1 X139.012 Y276.642 Z-1.000
G1 X139.155 Y276.158 Z-1.000
G1 X139.265 Y275.671 Z-1.000
G1 X139.343 Y275.184 Z-1.000
G1 X139.391 Y274.698 Z-1.000
G1 X139.409 Y274.214 Z-1.000
G1 X139.399 Y273.734 Z-1.000
G1 X139.363 Y273.259 Z-1.000
G1 X139.302 Y272.791 Z-1.000
G1 X139.217 Y272.328 Z-1.000
G1 X139.110 Y271.873 Z-1.000
G1 X138.982 Y271.426 Z-1.000
G1 X138.835 Y270.987 Z-1.000
G1 X138.670 Y270.556 Z-1.000
G1 X138.479 Y270.116 Z-1.000
G1 X138.076 Y269.317 Z-1.000
G1 X137.607 Y268.538 Z-1.000
G1 X137.088 Y267.797 Z-1.000
G1 X136.525 Y267.098 Z-1.000
G1 X135.924 Y266.443 Z-1.000
G1 X135.289 Y265.835 Z-1.000
G1 X134.624 Y265.276 Z-1.000
G1 X134.087 Y264.883 Z-1.000
G1 X133.915 Y264.722 Z-1.000
G1 X133.550 Y264.410 Z-1.000
G1 X132.685 Y263.725 Z-1.000
G1 X131.587 Y262.910 Z-1.000
G1 X130.288 Y261.989 Z-1.000
G1 X128.814 Y260.981 Z-1.000
G1 X127.198 Y259.912 Z-1.000
G1 X125.469 Y258.807 Z-1.000
G1 X123.663 Y257.692 Z-1.000
G1 X122.059 Y256.737 Z-1.000
G1 X120.442 Y255.806 Z-1.000
G1 X118.813 Y254.900 Z-1.000
G1 X117.171 Y254.018 Z-1.000
G1 X115.518 Y253.161 Z-1.000
G1 X113.855 Y252.328 Z-1.000
G1 X112.182 Y251.520 Z-1.000
G1 X110.500 Y250.736 Z-1.000
G1 X109.521 Y250.297 Z-1.000
G1 X108.810 Y249.977 Z-1.000
G1 X107.112 Y249.243 Z-1.000
G1 X105.407 Y248.534 Z-1.000
G1 X103.697 Y247.850 Z-1.000
G1 X101.981 Y247.190 Z-1.000
G1 X100.260 Y246.556 Z-1.000
G1 X98.536 Y245.947 Z-1.000
G1 X96.809 Y245.363 Z-1.000
G1 X95.079 Y244.804 Z-1.000
G1 X94.563 Y244.644 Z-1.000
G1 X93.348 Y244.270 Z-1.000
G1 X91.616 Y243.762 Z-1.000
G1 X89.884 Y243.279 Z-1.000
G1 X88.153 Y242.821 Z-1.000
G1 X86.423 Y242.389 Z-1.000
G1 X84.695 Y241.983 Z-1.000
G1 X82.970 Y241.602 Z-1.000
G1 X81.249 Y241.248 Z-1.000
G1 X79.532 Y240.919 Z-1.000
G1 X77.820 Y240.616 Z-1.000
G1 X76.114 Y240.338 Z-1.000
G1 X74.415 Y240.087 Z-1.000
G1 X72.722 Y239.863 Z-1.000
G1 X71.038 Y239.664 Z-1.000
G1 X69.363 Y239.492 Z-1.000
G1 X67.697 Y239.346 Z-1.000
G1 X66.041 Y239.227 Z-1.000
G1 X64.396 Y239.134 Z-1.000
G1 X62.763 Y239.068 Z-1.000
G1 X61.142 Y239.029 Z-1.000
G1 X59.534 Y239.017 Z-1.000
G1 X57.940 Y239.031 Z-1.000
G1 X56.360 Y239.073 Z-1.000
G1 X54.796 Y239.142 Z-1.000
G1 X53.248 Y239.239 Z-1.000
G1 X51.716 Y239.363 Z-1.000
G1 X50.201 Y239.514 Z-1.000
G1 X48.705 Y239.694 Z-1.000
G1 X47.228 Y239.901 Z-1.000
G1 X45.770 Y240.136 Z-1.000
G1 X44.332 Y240.399 Z-1.000
G1 X44.332 Y240.399 Z-2.000 F635.0
G1 X42.916 Y240.691 Z-2.000 F180.0
G1 X41.521 Y241.012 Z-2.000
G1 X40.148 Y241.361 Z-2.000
G1 X38.799 Y241.739 Z-2.000
G1 X37.474 Y242.146 Z-2.000
G1 X36.173 Y242.582 Z-2.000
G1 X34.898 Y243.048 Z-2.000
G1 X33.649 Y243.544 Z-2.000
G1 X32.427 Y244.069 Z-2.000
G1 X31.233 Y244.625 Z-2.000
G1 X30.067 Y245.211 Z-2.000
G1 X28.931 Y245.828 Z-2.000
G1 X27.826 Y246.476 Z-2.000
G1 X26.752 Y247.155 Z-2.000
G1 X25.710 Y247.866 Z-2.000
G1 X24.704 Y248.606 Z-2.000
G1 X23.900 Y249.239 Z-2.000
G1 X23.130 Y249.887 Z-2.000
G1 X22.390 Y250.549 Z-2.000
G1 X21.681 Y251.227 Z-2.000
G1 X21.606 Y251.304 Z-2.000
G1 X21.003 Y251.920 Z-2.000
G1 X20.357 Y252.626 Z-2.000
G1 X19.741 Y253.348 Z-2.000
G1 X19.156 Y254.083 Z-2.000
G1 X18.603 Y254.831 Z-2.000
G1 X18.081 Y255.592 Z-2.000
G1 X17.590 Y256.366 Z-2.000
G1 X17.131 Y257.153 Z-2.000
G1 X16.703 Y257.951 Z-2.000
G1 X16.307 Y258.760 Z-2.000
G1 X15.943 Y259.580 Z-2.000
G1 X15.610 Y260.411 Z-2.000
G1 X15.309 Y261.251 Z-2.000
G1 X15.039 Y262.101 Z-2.000
G1 X14.801 Y262.959 Z-2.000
G1 X14.594 Y263.825 Z-2.000
G1 X14.418 Y264.699 Z-2.000
G1 X14.328 Y265.249 Z-2.000
G1 X14.273 Y265.581 Z-2.000
G1 X14.160 Y266.469 Z-2.000
G1 X14.077 Y267.364 Z-2.000
G1 X14.024 Y268.264 Z-2.000
G1 X14.002 Y269.170 Z-2.000
G1 X14.010 Y270.080 Z-2.000
G1 X14.048 Y270.995 Z-2.000
G1 X14.115 Y271.915 Z-2.000
G1 X14.212 Y272.838 Z-2.000
G1 X14.338 Y273.764 Z-2.000
G1 X14.512 Y274.810 Z-2.000
G1 X14.934 Y276.120 Z-2.000
G1 X15.383 Y277.326 Z-2.000
G1 X15.890 Y278.526 Z-2.000
G1 X16.451 Y279.719 Z-2.000
G1 X17.068 Y280.903 Z-2.000
G1 X17.738 Y282.078 Z-2.000
G1 X18.460 Y283.243 Z-2.000
G1 X19.404 Y284.652 Z-2.000
G1 X19.924 Y285.042 Z-2.000
G1 X20.242 Y285.248 Z-2.000
G1 X20.572 Y285.431 Z-2.000
G1 X20.914 Y285.590 Z-2.000
G1 X21.264 Y285.725 Z-2.000
G1 X21.624 Y285.837 Z-2.000
G1 X21.991 Y285.923 Z-2.000
G1 X22.458 Y286.000 Z-2.000
G1 X83.966 Y285.917 Z-2.000
G1 X99.966 Y285.896 Z-2.000
G1 X121.117 Y285.867 Z-2.000
G1 X122.802 Y285.630 Z-2.000
G1 X124.317 Y285.374 Z-2.000
G1 X125.775 Y285.084 Z-2.000
G1 X127.173 Y284.760 Z-2.000
G1 X128.511 Y284.401 Z-2.000
G1 X129.786 Y284.006 Z-2.000
G1 X130.997 Y283.573 Z-2.000
G1 X132.130 Y283.107 Z-2.000
G1 X132.689 Y282.852 Z-2.000
G1 X133.219 Y282.590 Z-2.000
G1 X133.733 Y282.318 Z-2.000
G1 X134.229 Y282.035 Z-2.000
G1 X134.707 Y281.741 Z-2.000
G1 X135.167 Y281.434 Z-2.000
G1 X135.609 Y281.114 Z-2.000
G1 X136.032 Y280.782 Z-2.000
G1 X136.435 Y280.435 Z-2.000
G1 X136.817 Y280.075 Z-2.000
G1 X137.179 Y279.700 Z-2.000
G1 X137.518 Y279.309 Z-2.000
G1 X137.833 Y278.904 Z-2.000
G1 X138.124 Y278.482 Z-2.000
G1 X138.389 Y278.046 Z-2.000
G1 X138.626 Y277.593 Z-2.000
G1 X138.835 Y277.121 Z-2.000
G1 X139.012 Y276.642 Z-2.000
G1 X139.155 Y276.158 Z-2.000
G1 X139.265 Y275.671 Z-2.000
G1 X139.343 Y275.184 Z-2.000
G1 X139.391 Y274.698 Z-2.000
G1 X139.409 Y274.214 Z-2.000
G1 X139.399 Y273.734 Z-2.000
G1 X139.363 Y273.259 Z-2.000
G1 X139.302 Y272.791 Z-2.000
G1 X139.217 Y272.328 Z-2.000
G1 X139.110 Y271.873 Z-2.000
G1 X138.982 Y271.426 Z-2.000
G1 X138.835 Y270.987 Z-2.000
G1 X138.670 Y270.556 Z-2.000
G1 X138.479 Y270.116 Z-2.000
G1 X138.076 Y269.317 Z-2.000
G1 X137.607 Y268.538 Z-2.000
G1 X137.088 Y267.797 Z-2.000
G1 X136.525 Y267.098 Z-2.000
G1 X135.924 Y266.443 Z-2.000
G1 X135.289 Y265.835 Z-2.000
G1 X134.624 Y265.276 Z-2.000
G1 X134.087 Y264.883 Z-2.000
G1 X133.915 Y264.722 Z-2.000
G1 X133.550 Y264.410 Z-2.000
G1 X132.685 Y263.725 Z-2.000
G1 X131.587 Y262.910 Z-2.000
G1 X130.288 Y261.989 Z-2.000
G1 X128.814 Y260.981 Z-2.000
G1 X127.198 Y259.912 Z-2.000
G1 X125.469 Y258.807 Z-2.000
G1 X123.663 Y257.692 Z-2.000
G1 X122.059 Y256.737 Z-2.000
G1 X120.442 Y255.806 Z-2.000
G1 X118.813 Y254.900 Z-2.000
G1 X117.171 Y254.018 Z-2.000
G1 X115.518 Y253.161 Z-2.000
G1 X113.855 Y252.328 Z-2.000
G1 X112.182 Y251.520 Z-2.000
G1 X110.500 Y250.736 Z-2.000
G1 X109.521 Y250.297 Z-2.000
G1 X108.810 Y249.977 Z-2.000
G1 X107.112 Y249.243 Z-2.000
G1 X105.407 Y248.534 Z-2.000
G1 X103.697 Y247.850 Z-2.000
G1 X101.981 Y247.190 Z-2.000
G1 X100.260 Y246.556 Z-2.000
G1 X98.536 Y245.947 Z-2.000
G1 X96.809 Y245.363 Z-2.000
G1 X95.079 Y244.804 Z-2.000
G1 X94.563 Y244.644 Z-2.000
G1 X93.348 Y244.270 Z-2.000
G1 X91.616 Y243.762 Z-2.000
G1 X89.884 Y243.279 Z-2.000
G1 X88.153 Y242.821 Z-2.000
G1 X86.423 Y242.389 Z-2.000
G1 X84.695 Y241.983 Z-2.000
G1 X82.970 Y241.602 Z-2.000
G1 X81.249 Y241.248 Z-2.000
G1 X79.532 Y240.919 Z-2.000
G1 X77.820 Y240.616 Z-2.000
G1 X76.114 Y240.338 Z-2.000
G1 X74.415 Y240.087 Z-2.000
G1 X72.722 Y239.863 Z-2.000
G1 X71.038 Y239.664 Z-2.000
G1 X69.363 Y239.492 Z-2.000
G1 X67.697 Y239.346 Z-2.000
G1 X66.041 Y239.227 Z-2.000
G1 X64.396 Y239.134 Z-2.000
G1 X62.763 Y239.068 Z-2.000
G1 X61.142 Y239.029 Z-2.000
G1 X59.534 Y239.017 Z-2.000
G1 X57.940 Y239.031 Z-2.000
G1 X56.360 Y239.073 Z-2.000
G1 X54.796 Y239.142 Z-2.000
G1 X53.248 Y239.239 Z-2.000
G1 X51.716 Y239.363 Z-2.000
G1 X50.201 Y239.514 Z-2.000
G1 X48.705 Y239.694 Z-2.000
G1 X47.228 Y239.901 Z-2.000
G1 X45.770 Y240.136 Z-2.000
G1 X44.332 Y240.399 Z-2.000
G1 X44.332 Y240.399 Z-3.000 F635.0
G1 X42.916 Y240.691 Z-3.000 F180.0
G1 X41.521 Y241.012 Z-3.000
G1 X40.148 Y241.361 Z-3.000
G1 X38.799 Y241.739 Z-3.000
G1 X37.474 Y242.146 Z-3.000
G1 X36.173 Y242.582 Z-3.000
G1 X34.898 Y243.048 Z-3.000
G1 X33.649 Y243.544 Z-3.000
G1 X32.427 Y244.069 Z-3.000
G1 X31.233 Y244.625 Z-3.000
G1 X30.067 Y245.211 Z-3.000
G1 X28.931 Y245.828 Z-3.000
G1 X27.826 Y246.476 Z-3.000
G1 X26.752 Y247.155 Z-3.000
G1 X25.710 Y247.866 Z-3.000
G1 X24.704 Y248.606 Z-3.000
G1 X23.900 Y249.239 Z-3.000
G1 X23.130 Y249.887 Z-3.000
G1 X22.390 Y250.549 Z-3.000
G1 X21.681 Y251.227 Z-3.000
G1 X21.606 Y251.304 Z-3.000
G1 X21.003 Y251.920 Z-3.000
G1 X20.357 Y252.626 Z-3.000
G1 X19.741 Y253.348 Z-3.000
G1 X19.156 Y254.083 Z-3.000
G1 X18.603 Y254.831 Z-3.000
G1 X18.081 Y255.592 Z-3.000
G1 X17.590 Y256.366 Z-3.000
G1 X17.131 Y257.153 Z-3.000
G1 X16.703 Y257.951 Z-3.000
G1 X16.307 Y258.760 Z-3.000
G1 X15.943 Y259.580 Z-3.000
G1 X15.610 Y260.411 Z-3.000
G1 X15.309 Y261.251 Z-3.000
G1 X15.039 Y262.101 Z-3.000
G1 X14.801 Y262.959 Z-3.000
G1 X14.594 Y263.825 Z-3.000
G1 X14.418 Y264.699 Z-3.000
G1 X14.328 Y265.249 Z-3.000
G1 X14.273 Y265.581 Z-3.000
G1 X14.160 Y266.469 Z-3.000
G1 X14.077 Y267.364 Z-3.000
G1 X14.024 Y268.264 Z-3.000
G1 X14.002 Y269.170 Z-3.000
G1 X14.010 Y270.080 Z-3.000
G1 X14.048 Y270.995 Z-3.000
G1 X14.115 Y271.915 Z-3.000
G1 X14.212 Y272.838 Z-3.000
G1 X14.338 Y273.764 Z-3.000
G1 X14.512 Y274.810 Z-3.000
G1 X14.934 Y276.120 Z-3.000
G1 X15.383 Y277.326 Z-3.000
G1 X15.890 Y278.526 Z-3.000
G1 X16.451 Y279.719 Z-3.000
G1 X17.068 Y280.903 Z-3.000
G1 X17.738 Y282.078 Z-3.000
G1 X18.460 Y283.243 Z-3.000
G1 X19.404 Y284.652 Z-3.000
G1 X19.924 Y285.042 Z-3.000
G1 X20.242 Y285.248 Z-3.000
G1 X20.572 Y285.431 Z-3.000
G1 X20.914 Y285.590 Z-3.000
G1 X21.264 Y285.725 Z-3.000
G1 X21.624 Y285.837 Z-3.000
G1 X21.991 Y285.923 Z-3.000
G1 X22.458 Y286.000 Z-3.000
G1 X83.966 Y285.917 Z-3.000
G1 X99.966 Y285.896 Z-3.000
G1 X121.117 Y285.867 Z-3.000
G1 X122.802 Y285.630 Z-3.000
G1 X124.317 Y285.374 Z-3.000
G1 X125.775 Y285.084 Z-3.000
G1 X127.173 Y284.760 Z-3.000
G1 X128.511 Y284.401 Z-3.000
G1 X129.786 Y284.006 Z-3.000
G1 X130.997 Y283.573 Z-3.000
G1 X132.130 Y283.107 Z-3.000
G1 X132.689 Y282.852 Z-3.000
G1 X133.219 Y282.590 Z-3.000
G1 X133.733 Y282.318 Z-3.000
G1 X134.229 Y282.035 Z-3.000
G1 X134.707 Y281.741 Z-3.000
G1 X135.167 Y281.434 Z-3.000
G1 X135.609 Y281.114 Z-3.000
G1 X136.032 Y280.782 Z-3.000
G1 X136.435 Y280.435 Z-3.000
G1 X136.817 Y280.075 Z-3.000
G1 X137.179 Y279.700 Z-3.000
G1 X137.518 Y279.309 Z-3.000
G1 X137.833 Y278.904 Z-3.000
G1 X138.124 Y278.482 Z-3.000
G1 X138.389 Y278.046 Z-3.000
G1 X138.626 Y277.593 Z-3.000
G1 X138.835 Y277.121 Z-3.000
G1 X139.012 Y276.642 Z-3.000
G1 X139.155 Y276.158 Z-3.000
G1 X139.265 Y275.671 Z-3.000
G1 X139.343 Y275.184 Z-3.000
G1 X139.391 Y274.698 Z-3.000
G1 X139.409 Y274.214 Z-3.000
G1 X139.399 Y273.734 Z-3.000
G1 X139.363 Y273.259 Z-3.000
G1 X139.302 Y272.791 Z-3.000
G1 X139.217 Y272.328 Z-3.000
G1 X139.110 Y271.873 Z-3.000
G1 X138.982 Y271.426 Z-3.000
G1 X138.835 Y270.987 Z-3.000
G1 X138.670 Y270.556 Z-3.000
G1 X138.479 Y270.116 Z-3.000
G1 X138.076 Y269.317 Z-3.000
G1 X137.607 Y268.538 Z-3.000
G1 X137.088 Y267.797 Z-3.000
G1 X136.525 Y267.098 Z-3.000
G1 X135.924 Y266.443 Z-3.000
G1 X135.289 Y265.835 Z-3.000
G1 X134.624 Y265.276 Z-3.000
G1 X134.087 Y264.883 Z-3.000
G1 X133.915 Y264.722 Z-3.000
G1 X133.550 Y264.410 Z-3.000
G1 X132.685 Y263.725 Z-3.000
G1 X131.587 Y262.910 Z-3.000
G1 X130.288 Y261.989 Z-3.000
G1 X128.814 Y260.981 Z-3.000
G1 X127.198 Y259.912 Z-3.000
G1 X125.469 Y258.807 Z-3.000
G1 X123.663 Y257.692 Z-3.000
G1 X122.059 Y256.737 Z-3.000
G1 X120.442 Y255.806 Z-3.000
G1 X118.813 Y254.900 Z-3.000
G1 X117.171 Y254.018 Z-3.000
G1 X115.518 Y253.161 Z-3.000
G1 X113.855 Y252.328 Z-3.000
G1 X112.182 Y251.520 Z-3.000
G1 X110.500 Y250.736 Z-3.000
G1 X109.521 Y250.297 Z-3.000
G1 X108.810 Y249.977 Z-3.000
G1 X107.112 Y249.243 Z-3.000
G1 X105.407 Y248.534 Z-3.000
G1 X103.697 Y247.850 Z-3.000
G1 X101.981 Y247.190 Z-3.000
G1 X100.260 Y246.556 Z-3.000
G1 X98.536 Y245.947 Z-3.000
G1 X96.809 Y245.363 Z-3.000
G1 X95.079 Y244.804 Z-3.000
G1 X94.563 Y244.644 Z-3.000
G1 X93.348 Y244.270 Z-3.000
G1 X91.616 Y243.762 Z-3.000
G1 X89.884 Y243.279 Z-3.000
G1 X88.153 Y242.821 Z-3.000
G1 X86.423 Y242.389 Z-3.000
G1 X84.695 Y241.983 Z-3.000
G1 X82.970 Y241.602 Z-3.000
G1 X81.249 Y241.248 Z-3.000
G1 X79.532 Y240.919 Z-3.000
G1 X77.820 Y240.616 Z-3.000
G1 X76.114 Y240.338 Z-3.000
G1 X74.415 Y240.087 Z-3.000
G1 X72.722 Y239.863 Z-3.000
G1 X71.038 Y239.664 Z-3.000
G1 X69.363 Y239.492 Z-3.000
G1 X67.697 Y239.346 Z-3.000
G1 X66.041 Y239.227 Z-3.000
G1 X64.396 Y239.134 Z-3.000
G1 X62.763 Y239.068 Z-3.000
G1 X61.142 Y239.029 Z-3.000
G1 X59.534 Y239.017 Z-3.000
G1 X57.940 Y239.031 Z-3.000
G1 X56.360 Y239.073 Z-3.000
G1 X54.796 Y239.142 Z-3.000
G1 X53.248 Y239.239 Z-3.000
G1 X51.716 Y239.363 Z-3.000
G1 X50.201 Y239.514 Z-3.000
G1 X48.705 Y239.694 Z-3.000
G1 X47.228 Y239.901 Z-3.000
G1 X45.770 Y240.136 Z-3.000
G1 X44.332 Y240.399 Z-3.000
G1 X44.332 Y240.399 Z-4.000 F635.0
G1 X42.916 Y240.691 Z-4.000 F180.0
G1 X41.521 Y241.012 Z-4.000
G1 X40.148 Y241.361 Z-4.000
G1 X38.799 Y241.739 Z-4.000
G1 X37.474 Y242.146 Z-4.000
G1 X36.173 Y242.582 Z-4.000
G1 X34.898 Y243.048 Z-4.000
G1 X33.649 Y243.544 Z-4.000
G1 X32.427 Y244.069 Z-4.000
G1 X31.233 Y244.625 Z-4.000
G1 X30.067 Y245.211 Z-4.000
G1 X28.931 Y245.828 Z-4.000
G1 X27.826 Y246.476 Z-4.000
G1 X26.752 Y247.155 Z-4.000
G1 X25.710 Y247.866 Z-4.000
G1 X24.704 Y248.606 Z-4.000
G1 X23.900 Y249.239 Z-4.000
G1 X23.130 Y249.887 Z-4.000
G1 X22.390 Y250.549 Z-4.000
G1 X21.681 Y251.227 Z-4.000
G1 X21.606 Y251.304 Z-4.000
G1 X21.003 Y251.920 Z-4.000
G1 X20.357 Y252.626 Z-4.000
G1 X19.741 Y253.348 Z-4.000
G1 X19.156 Y254.083 Z-4.000
G1 X18.603 Y254.831 Z-4.000
G1 X18.081 Y255.592 Z-4.000
G1 X17.590 Y256.366 Z-4.000
G1 X17.131 Y257.153 Z-4.000
G1 X16.703 Y257.951 Z-4.000
G1 X16.307 Y258.760 Z-4.000
G1 X15.943 Y259.580 Z-4.000
G1 X15.610 Y260.411 Z-4.000
G1 X15.309 Y261.251 Z-4.000
G1 X15.039 Y262.101 Z-4.000
G1 X14.801 Y262.959 Z-4.000
G1 X14.594 Y263.825 Z-4.000
G1 X14.418 Y264.699 Z-4.000
G1 X14.328 Y265.249 Z-4.000
G1 X14.273 Y265.581 Z-4.000
G1 X14.160 Y266.469 Z-4.000
G1 X14.077 Y267.364 Z-4.000
G1 X14.024 Y268.264 Z-4.000
G1 X14.002 Y269.170 Z-4.000
G1 X14.010 Y270.080 Z-4.000
G1 X14.048 Y270.995 Z-4.000
G1 X14.115 Y271.915 Z-4.000
G1 X14.212 Y272.838 Z-4.000
G1 X14.338 Y273.764 Z-4.000
G1 X14.512 Y274.810 Z-4.000
G1 X14.934 Y276.120 Z-4.000
G1 X15.383 Y277.326 Z-4.000
G1 X15.890 Y278.526 Z-4.000
G1 X16.451 Y279.719 Z-4.000
G1 X17.068 Y280.903 Z-4.000
G1 X17.738 Y282.078 Z-4.000
G1 X18.460 Y283.243 Z-4.000
G1 X19.404 Y284.652 Z-4.000
G1 X19.924 Y285.042 Z-4.000
G1 X20.242 Y285.248 Z-4.000
G1 X20.572 Y285.431 Z-4.000
G1 X20.914 Y285.590 Z-4.000
G1 X21.264 Y285.725 Z-4.000
G1 X21.624 Y285.837 Z-4.000
G1 X21.991 Y285.923 Z-4.000
G1 X22.458 Y286.000 Z-4.000
G1 X83.966 Y285.917 Z-4.000
G1 X99.966 Y285.896 Z-4.000
G1 X121.117 Y285.867 Z-4.000
G1 X122.802 Y285.630 Z-4.000
G1 X124.317 Y285.374 Z-4.000
G1 X125.775 Y285.084 Z-4.000
G1 X127.173 Y284.760 Z-4.000
G1 X128.511 Y284.401 Z-4.000
G1 X129.786 Y284.006 Z-4.000
G1 X130.997 Y283.573 Z-4.000
G1 X132.130 Y283.107 Z-4.000
G1 X132.689 Y282.852 Z-4.000
G1 X133.219 Y282.590 Z-4.000
G1 X133.733 Y282.318 Z-4.000
G1 X134.229 Y282.035 Z-4.000
G1 X134.707 Y281.741 Z-4.000
G1 X135.167 Y281.434 Z-4.000
G1 X135.609 Y281.114 Z-4.000
G1 X136.032 Y280.782 Z-4.000
G1 X136.435 Y280.435 Z-4.000
G1 X136.817 Y280.075 Z-4.000
G1 X137.179 Y279.700 Z-4.000
G1 X137.518 Y279.309 Z-4.000
G1 X137.833 Y278.904 Z-4.000
G1 X138.124 Y278.482 Z-4.000
G1 X138.389 Y278.046 Z-4.000
G1 X138.626 Y277.593 Z-4.000
G1 X138.835 Y277.121 Z-4.000
G1 X139.012 Y276.642 Z-4.000
G1 X139.155 Y276.158 Z-4.000
G1 X139.265 Y275.671 Z-4.000
G1 X139.343 Y275.184 Z-4.000
G1 X139.391 Y274.698 Z-4.000
G1 X139.409 Y274.214 Z-4.000
G1 X139.399 Y273.734 Z-4.000
G1 X139.363 Y273.259 Z-4.000
G1 X139.302 Y272.791 Z-4.000
G1 X139.217 Y272.328 Z-4.000
G1 X139.110 Y271.873 Z-4.000
G1 X138.982 Y271.426 Z-4.000
G1 X138.835 Y270.987 Z-4.000
G1 X138.670 Y270.556 Z-4.000
G1 X138.479 Y270.116 Z-4.000
G1 X138.076 Y269.317 Z-4.000
G1 X137.607 Y268.538 Z-4.000
G1 X137.088 Y267.797 Z-4.000
G1 X136.525 Y267.098 Z-4.000
G1 X135.924 Y266.443 Z-4.000
G1 X135.289 Y265.835 Z-4.000
G1 X134.624 Y265.276 Z-4.000
G1 X134.087 Y264.883 Z-4.000
G1 X133.915 Y264.722 Z-4.000
G1 X133.550 Y264.410 Z-4.000
G1 X132.685 Y263.725 Z-4.000
G1 X131.587 Y262.910 Z-4.000
G1 X130.288 Y261.989 Z-4.000
G1 X128.814 Y260.981 Z-4.000
G1 X127.198 Y259.912 Z-4.000
G1 X125.469 Y258.807 Z-4.000
G1 X123.663 Y257.692 Z-4.000
G1 X122.059 Y256.737 Z-4.000
G1 X120.442 Y255.806 Z-4.000
G1 X118.813 Y254.900 Z-4.000
G1 X117.171 Y254.018 Z-4.000
G1 X115.518 Y253.161 Z-4.000
G1 X113.855 Y252.328 Z-4.000
G1 X112.182 Y251.520 Z-4.000
G1 X110.500 Y250.736 Z-4.000
G1 X109.521 Y250.297 Z-4.000
G1 X108.810 Y249.977 Z-4.000
G1 X107.112 Y249.243 Z-4.000
G1 X105.407 Y248.534 Z-4.000
G1 X103.697 Y247.850 Z-4.000
G1 X101.981 Y247.190 Z-4.000
G1 X100.260 Y246.556 Z-4.000
G1 X98.536 Y245.947 Z-4.000
G1 X96.809 Y245.363 Z-4.000
G1 X95.079 Y244.804 Z-4.000
G1 X94.563 Y244.644 Z-4.000
G1 X93.348 Y244.270 Z-4.000
G1 X91.616 Y243.762 Z-4.000
G1 X89.884 Y243.279 Z-4.000
G1 X88.153 Y242.821 Z-4.000
G1 X86.423 Y242.389 Z-4.000
G1 X84.695 Y241.983 Z-4.000
G1 X82.970 Y241.602 Z-4.000
G1 X81.249 Y241.248 Z-4.000
G1 X79.532 Y240.919 Z-4.000
G1 X77.820 Y240.616 Z-4.000
G1 X76.114 Y240.338 Z-4.000
G1 X74.415 Y240.087 Z-4.000
G1 X72.722 Y239.863 Z-4.000
G1 X71.038 Y239.664 Z-4.000
G1 X69.363 Y239.492 Z-4.000
G1 X67.697 Y239.346 Z-4.000
G1 X66.041 Y239.227 Z-4.000
G1 X64.396 Y239.134 Z-4.000
G1 X62.763 Y239.068 Z-4.000
G1 X61.142 Y239.029 Z-4.000
G1 X59.534 Y239.017 Z-4.000
G1 X57.940 Y239.031 Z-4.000
G1 X56.360 Y239.073 Z-4.000
G1 X54.796 Y239.142 Z-4.000
G1 X53.248 Y239.239 Z-4.000
G1 X51.716 Y239.363 Z-4.000
G1 X50.201 Y239.514 Z-4.000
G1 X48.705 Y239.694 Z-4.000
G1 X47.228 Y239.901 Z-4.000
G1 X45.770 Y240.136 Z-4.000
G1 X44.332 Y240.399 Z-4.000
G1 X44.332 Y240.399 Z-5.000 F635.0
G1 X42.916 Y240.691 Z-5.000 F180.0
G1 X41.521 Y241.012 Z-5.000
G1 X40.148 Y241.361 Z-5.000
G1 X38.799 Y241.739 Z-5.000
G1 X37.474 Y242.146 Z-5.000
G1 X36.173 Y242.582 Z-5.000
G1 X34.898 Y243.048 Z-5.000
G1 X33.649 Y243.544 Z-5.000
G1 X32.427 Y244.069 Z-5.000
G1 X31.233 Y244.625 Z-5.000
G1 X30.067 Y245.211 Z-5.000
G1 X28.931 Y245.828 Z-5.000
G1 X27.826 Y246.476 Z-5.000
G1 X26.752 Y247.155 Z-5.000
G1 X25.710 Y247.866 Z-5.000
G1 X24.704 Y248.606 Z-5.000
G1 X23.900 Y249.239 Z-5.000
G1 X23.130 Y249.887 Z-5.000
G1 X22.390 Y250.549 Z-5.000
G1 X21.681 Y251.227 Z-5.000
G1 X21.606 Y251.304 Z-5.000
G1 X21.003 Y251.920 Z-5.000
G1 X20.357 Y252.626 Z-5.000
G1 X19.741 Y253.348 Z-5.000
G1 X19.156 Y254.083 Z-5.000
G1 X18.603 Y254.831 Z-5.000
G1 X18.081 Y255.592 Z-5.000
G1 X17.590 Y256.366 Z-5.000
G1 X17.131 Y257.153 Z-5.000
G1 X16.703 Y257.951 Z-5.000
G1 X16.307 Y258.760 Z-5.000
G1 X15.943 Y259.580 Z-5.000
G1 X15.610 Y260.411 Z-5.000
G1 X15.309 Y261.251 Z-5.000
G1 X15.039 Y262.101 Z-5.000
G1 X14.801 Y262.959 Z-5.000
G1 X14.594 Y263.825 Z-5.000
G1 X14.418 Y264.699 Z-5.000
G1 X14.328 Y265.249 Z-5.000
G1 X14.273 Y265.581 Z-5.000
G1 X14.160 Y266.469 Z-5.000
G1 X14.077 Y267.364 Z-5.000
G1 X14.024 Y268.264 Z-5.000
G1 X14.002 Y269.170 Z-5.000
G1 X14.010 Y270.080 Z-5.000
G1 X14.048 Y270.995 Z-5.000
G1 X14.115 Y271.915 Z-5.000
G1 X14.212 Y272.838 Z-5.000
G1 X14.338 Y273.764 Z-5.000
G1 X14.512 Y274.810 Z-5.000
G1 X14.934 Y276.120 Z-5.000
G1 X15.383 Y277.326 Z-5.000
G1 X15.890 Y278.526 Z-5.000
G1 X16.451 Y279.719 Z-5.000
G1 X17.068 Y280.903 Z-5.000
G1 X17.738 Y282.078 Z-5.000
G1 X18.460 Y283.243 Z-5.000
G1 X19.404 Y284.652 Z-5.000
G1 X19.924 Y285.042 Z-5.000
G1 X20.242 Y285.248 Z-5.000
G1 X20.572 Y285.431 Z-5.000
G1 X20.914 Y285.590 Z-5.000
G1 X21.264 Y285.725 Z-5.000
G1 X21.624 Y285.837 Z-5.000
G1 X21.991 Y285.923 Z-5.000
G1 X22.458 Y286.000 Z-5.000
G1 X83.966 Y285.917 Z-5.000
G1 X99.966 Y285.896 Z-5.000
G1 X121.117 Y285.867 Z-5.000
G1 X122.802 Y285.630 Z-5.000
G1 X124.317 Y285.374 Z-5.000
G1 X125.775 Y285.084 Z-5.000
G1 X127.173 Y284.760 Z-5.000
G1 X128.511 Y284.401 Z-5.000
G1 X129.786 Y284.006 Z-5.000
G1 X130.997 Y283.573 Z-5.000
G1 X132.130 Y283.107 Z-5.000
G1 X132.689 Y282.852 Z-5.000
G1 X133.219 Y282.590 Z-5.000
G1 X133.733 Y282.318 Z-5.000
G1 X134.229 Y282.035 Z-5.000
G1 X134.707 Y281.741 Z-5.000
G1 X135.167 Y281.434 Z-5.000
G1 X135.609 Y281.114 Z-5.000
G1 X136.032 Y280.782 Z-5.000
G1 X136.435 Y280.435 Z-5.000
G1 X136.817 Y280.075 Z-5.000
G1 X137.179 Y279.700 Z-5.000
G1 X137.518 Y279.309 Z-5.000
G1 X137.833 Y278.904 Z-5.000
G1 X138.124 Y278.482 Z-5.000
G1 X138.389 Y278.046 Z-5.000
G1 X138.626 Y277.593 Z-5.000
G1 X138.835 Y277.121 Z-5.000
G1 X139.012 Y276.642 Z-5.000
G1 X139.155 Y276.158 Z-5.000
G1 X139.265 Y275.671 Z-5.000
G1 X139.343 Y275.184 Z-5.000
G1 X139.391 Y274.698 Z-5.000
G1 X139.409 Y274.214 Z-5.000
G1 X139.399 Y273.734 Z-5.000
G1 X139.363 Y273.259 Z-5.000
G1 X139.302 Y272.791 Z-5.000
G1 X139.217 Y272.328 Z-5.000
G1 X139.110 Y271.873 Z-5.000
G1 X138.982 Y271.426 Z-5.000
G1 X138.835 Y270.987 Z-5.000
G1 X138.670 Y270.556 Z-5.000
G1 X138.479 Y270.116 Z-5.000
G1 X138.076 Y269.317 Z-5.000
G1 X137.607 Y268.538 Z-5.000
G1 X137.088 Y267.797 Z-5.000
G1 X136.525 Y267.098 Z-5.000
G1 X135.924 Y266.443 Z-5.000
G1 X135.289 Y265.835 Z-5.000
G1 X134.624 Y265.276 Z-5.000
G1 X134.087 Y264.883 Z-5.000
G1 X133.915 Y264.722 Z-5.000
G1 X133.550 Y264.410 Z-5.000
G1 X132.685 Y263.725 Z-5.000
G1 X131.587 Y262.910 Z-5.000
G1 X130.288 Y261.989 Z-5.000
G1 X128.814 Y260.981 Z-5.000
G1 X127.198 Y259.912 Z-5.000
G1 X125.469 Y258.807 Z-5.000
G1 X123.663 Y257.692 Z-5.000
G1 X122.059 Y256.737 Z-5.000
G1 X120.442 Y255.806 Z-5.000
G1 X118.813 Y254.900 Z-5.000
G1 X117.171 Y254.018 Z-5.000
G1 X115.518 Y253.161 Z-5.000
G1 X113.855 Y252.328 Z-5.000
G1 X112.182 Y251.520 Z-5.000
G1 X110.500 Y250.736 Z-5.000
G1 X109.521 Y250.297 Z-5.000
G1 X108.810 Y249.977 Z-5.000
G1 X107.112 Y249.243 Z-5.000
G1 X105.407 Y248.534 Z-5.000
G1 X103.697 Y247.850 Z-5.000
G1 X101.981 Y247.190 Z-5.000
G1 X100.260 Y246.556 Z-5.000
G1 X98.536 Y245.947 Z-5.000
G1 X96.809 Y245.363 Z-5.000
G1 X95.079 Y244.804 Z-5.000
G1 X94.563 Y244.644 Z-5.000
G1 X93.348 Y244.270 Z-5.000
G1 X91.616 Y243.762 Z-5.000
G1 X89.884 Y243.279 Z-5.000
G1 X88.153 Y242.821 Z-5.000
G1 X86.423 Y242.389 Z-5.000
G1 X84.695 Y241.983 Z-5.000
G1 X82.970 Y241.602 Z-5.000
G1 X81.249 Y241.248 Z-5.000
G1 X79.532 Y240.919 Z-5.000
G1 X77.820 Y240.616 Z-5.000
G1 X76.114 Y240.338 Z-5.000
G1 X74.415 Y240.087 Z-5.000
G1 X72.722 Y239.863 Z-5.000
G1 X71.038 Y239.664 Z-5.000
G1 X69.363 Y239.492 Z-5.000
G1 X67.697 Y239.346 Z-5.000
G1 X66.041 Y239.227 Z-5.000
G1 X64.396 Y239.134 Z-5.000
G1 X62.763 Y239.068 Z-5.000
G1 X61.142 Y239.029 Z-5.000
G1 X59.534 Y239.017 Z-5.000
G1 X57.940 Y239.031 Z-5.000
G1 X56.360 Y239.073 Z-5.000
G1 X54.796 Y239.142 Z-5.000
G1 X53.248 Y239.239 Z-5.000
G1 X51.716 Y239.363 Z-5.000
G1 X50.201 Y239.514 Z-5.000
G1 X48.705 Y239.694 Z-5.000
G1 X47.228 Y239.901 Z-5.000
G1 X45.770 Y240.136 Z-5.000
G1 X44.332 Y240.399 Z-5.000
G1 X44.332 Y240.399 Z-6.000 F635.0
G1 X42.916 Y240.691 Z-6.000 F180.0
G1 X41.521 Y241.012 Z-6.000
G1 X40.148 Y241.361 Z-6.000
G1 X38.799 Y241.739 Z-6.000
G1 X37.474 Y242.146 Z-6.000
G1 X36.173 Y242.582 Z-6.000
G1 X34.898 Y243.048 Z-6.000
G1 X33.649 Y243.544 Z-6.000
G1 X32.427 Y244.069 Z-6.000
G1 X31.233 Y244.625 Z-6.000
G1 X30.067 Y245.211 Z-6.000
G1 X28.931 Y245.828 Z-6.000
G1 X27.826 Y246.476 Z-6.000
G1 X26.752 Y247.155 Z-6.000
G1 X25.710 Y247.866 Z-6.000
G1 X24.704 Y248.606 Z-6.000
G1 X23.900 Y249.239 Z-6.000
G1 X23.130 Y249.887 Z-6.000
G1 X22.390 Y250.549 Z-6.000
G1 X21.681 Y251.227 Z-6.000
G1 X21.606 Y251.304 Z-6.000
G1 X21.003 Y251.920 Z-6.000
G1 X20.357 Y252.626 Z-6.000
G1 X19.741 Y253.348 Z-6.000
G1 X19.156 Y254.083 Z-6.000
G1 X18.603 Y254.831 Z-6.000
G1 X18.081 Y255.592 Z-6.000
G1 X17.590 Y256.366 Z-6.000
G1 X17.131 Y257.153 Z-6.000
G1 X16.703 Y257.951 Z-6.000
G1 X16.307 Y258.760 Z-6.000
G1 X15.943 Y259.580 Z-6.000
G1 X15.610 Y260.411 Z-6.000
G1 X15.309 Y261.251 Z-6.000
G1 X15.039 Y262.101 Z-6.000
G1 X14.801 Y262.959 Z-6.000
G1 X14.594 Y263.825 Z-6.000
G1 X14.418 Y264.699 Z-6.000
G1 X14.328 Y265.249 Z-6.000
G1 X14.273 Y265.581 Z-6.000
G1 X14.160 Y266.469 Z-6.000
G1 X14.077 Y267.364 Z-6.000
G1 X14.024 Y268.264 Z-6.000
G1 X14.002 Y269.170 Z-6.000
G1 X14.010 Y270.080 Z-6.000
G1 X14.048 Y270.995 Z-6.000
G1 X14.115 Y271.915 Z-6.000
G1 X14.212 Y272.838 Z-6.000
G1 X14.338 Y273.764 Z-6.000
G1 X14.512 Y274.810 Z-6.000
G1 X14.934 Y276.120 Z-6.000
G1 X15.383 Y277.326 Z-6.000
G1 X15.890 Y278.526 Z-6.000
G1 X16.451 Y279.719 Z-6.000
G1 X17.068 Y280.903 Z-6.000
G1 X17.738 Y282.078 Z-6.000
G1 X18.460 Y283.243 Z-6.000
G1 X19.404 Y284.652 Z-6.000
G1 X19.924 Y285.042 Z-6.000
G1 X20.242 Y285.248 Z-6.000
G1 X20.572 Y285.431 Z-6.000
G1 X20.914 Y285.590 Z-6.000
G1 X21.264 Y285.725 Z-6.000
G1 X21.624 Y285.837 Z-6.000
G1 X21.991 Y285.923 Z-6.000
G1 X22.458 Y286.000 Z-6.000
G1 X83.966 Y285.917 Z-6.000
G1 X99.966 Y285.896 Z-6.000
G1 X121.117 Y285.867 Z-6.000
G1 X122.802 Y285.630 Z-6.000
G1 X124.317 Y285.374 Z-6.000
G1 X125.775 Y285.084 Z-6.000
G1 X127.173 Y284.760 Z-6.000
G1 X128.511 Y284.401 Z-6.000
G1 X129.786 Y284.006 Z-6.000
G1 X130.997 Y283.573 Z-6.000
G1 X132.130 Y283.107 Z-6.000
G1 X132.689 Y282.852 Z-6.000
G1 X133.219 Y282.590 Z-6.000
G1 X133.733 Y282.318 Z-6.000
G1 X134.229 Y282.035 Z-6.000
G1 X134.707 Y281.741 Z-6.000
G1 X135.167 Y281.434 Z-6.000
G1 X135.609 Y281.114 Z-6.000
G1 X136.032 Y280.782 Z-6.000
G1 X136.435 Y280.435 Z-6.000
G1 X136.817 Y280.075 Z-6.000
G1 X137.179 Y279.700 Z-6.000
G1 X137.518 Y279.309 Z-6.000
G1 X137.833 Y278.904 Z-6.000
G1 X138.124 Y278.482 Z-6.000
G1 X138.389 Y278.046 Z-6.000
G1 X138.626 Y277.593 Z-6.000
G1 X138.835 Y277.121 Z-6.000
G1 X139.012 Y276.642 Z-6.000
G1 X139.155 Y276.158 Z-6.000
G1 X139.265 Y275.671 Z-6.000
G1 X139.343 Y275.184 Z-6.000
G1 X139.391 Y274.698 Z-6.000
G1 X139.409 Y274.214 Z-6.000
G1 X139.399 Y273.734 Z-6.000
G1 X139.363 Y273.259 Z-6.000
G1 X139.302 Y272.791 Z-6.000
G1 X139.217 Y272.328 Z-6.000
G1 X139.110 Y271.873 Z-6.000
G1 X138.982 Y271.426 Z-6.000
G1 X138.835 Y270.987 Z-6.000
G1 X138.670 Y270.556 Z-6.000
G1 X138.479 Y270.116 Z-6.000
G1 X138.076 Y269.317 Z-6.000
G1 X137.607 Y268.538 Z-6.000
G1 X137.088 Y267.797 Z-6.000
G1 X136.525 Y267.098 Z-6.000
G1 X135.924 Y266.443 Z-6.000
G1 X135.289 Y265.835 Z-6.000
G1 X134.624 Y265.276 Z-6.000
G1 X134.087 Y264.883 Z-6.000
G1 X133.915 Y264.722 Z-6.000
G1 X133.550 Y264.410 Z-6.000
G1 X132.685 Y263.725 Z-6.000
G1 X131.587 Y262.910 Z-6.000
G1 X130.288 Y261.989 Z-6.000
G1 X128.814 Y260.981 Z-6.000
G1 X127.198 Y259.912 Z-6.000
G1 X125.469 Y258.807 Z-6.000
G1 X123.663 Y257.692 Z-6.000
G1 X122.059 Y256.737 Z-6.000
G1 X120.442 Y255.806 Z-6.000
G1 X118.813 Y254.900 Z-6.000
G1 X117.171 Y254.018 Z-6.000
G1 X115.518 Y253.161 Z-6.000
G1 X113.855 Y252.328 Z-6.000
G1 X112.182 Y251.520 Z-6.000
G1 X110.500 Y250.736 Z-6.000
G1 X109.521 Y250.297 Z-6.000
G1 X108.810 Y249.977 Z-6.000
G1 X107.112 Y249.243 Z-6.000
G1 X105.407 Y248.534 Z-6.000
G1 X103.697 Y247.850 Z-6.000
G1 X101.981 Y247.190 Z-6.000
G1 X100.260 Y246.556 Z-6.000
G1 X98.536 Y245.947 Z-6.000
G1 X96.809 Y245.363 Z-6.000
G1 X95.079 Y244.804 Z-6.000
G1 X94.563 Y244.644 Z-6.000
G1 X93.348 Y244.270 Z-6.000
G1 X91.616 Y243.762 Z-6.000
G1 X89.884 Y243.279 Z-6.000
G1 X88.153 Y242.821 Z-6.000
G1 X86.423 Y242.389 Z-6.000
G1 X84.695 Y241.983 Z-6.000
G1 X82.970 Y241.602 Z-6.000
G1 X81.249 Y241.248 Z-6.000
G1 X79.532 Y240.919 Z-6.000
G1 X77.820 Y240.616 Z-6.000
G1 X76.114 Y240.338 Z-6.000
G1 X74.415 Y240.087 Z-6.000
G1 X72.722 Y239.863 Z-6.000
G1 X71.038 Y239.664 Z-6.000
G1 X69.363 Y239.492 Z-6.000
G1 X67.697 Y239.346 Z-6.000
G1 X66.041 Y239.227 Z-6.000
G1 X64.396 Y239.134 Z-6.000
G1 X62.763 Y239.068 Z-6.000
G1 X61.142 Y239.029 Z-6.000
G1 X59.534 Y239.017 Z-6.000
G1 X57.940 Y239.031 Z-6.000
G1 X56.360 Y239.073 Z-6.000
G1 X54.796 Y239.142 Z-6.000
G1 X53.248 Y239.239 Z-6.000
G1 X51.716 Y239.363 Z-6.000
G1 X50.201 Y239.514 Z-6.000
G1 X48.705 Y239.694 Z-6.000
G1 X47.228 Y239.901 Z-6.000
G1 X45.770 Y240.136 Z-6.000
G1 X44.332 Y240.399 Z-6.000
G1 X44.332 Y240.399 Z-7.000 F635.0
G1 X42.916 Y240.691 Z-7.000 F180.0
G1 X41.521 Y241.012 Z-7.000
G1 X40.148 Y241.361 Z-7.000
G1 X38.799 Y241.739 Z-7.000
G1 X37.474 Y242.146 Z-7.000
G1 X36.173 Y242.582 Z-7.000
G1 X34.898 Y243.048 Z-7.000
G1 X33.649 Y243.544 Z-7.000
G1 X32.427 Y244.069 Z-7.000
G1 X31.233 Y244.625 Z-7.000
G1 X30.067 Y245.211 Z-7.000
G1 X28.931 Y245.828 Z-7.000
G1 X27.826 Y246.476 Z-7.000
G1 X26.752 Y247.155 Z-7.000
G1 X25.710 Y247.866 Z-7.000
G1 X24.704 Y248.606 Z-7.000
G1 X23.900 Y249.239 Z-7.000
G1 X23.130 Y249.887 Z-7.000
G1 X22.390 Y250.549 Z-7.000
G1 X21.681 Y251.227 Z-7.000
G1 X21.606 Y251.304 Z-7.000
G1 X21.003 Y251.920 Z-7.000
G1 X20.357 Y252.626 Z-7.000
G1 X19.741 Y253.348 Z-7.000
G1 X19.156 Y254.083 Z-7.000
G1 X18.603 Y254.831 Z-7.000
G1 X18.081 Y255.592 Z-7.000
G1 X17.590 Y256.366 Z-7.000
G1 X17.131 Y257.153 Z-7.000
G1 X16.703 Y257.951 Z-7.000
G1 X16.307 Y258.760 Z-7.000
G1 X15.943 Y259.580 Z-7.000
G1 X15.610 Y260.411 Z-7.000
G1 X15.309 Y261.251 Z-7.000
G1 X15.039 Y262.101 Z-7.000
G1 X14.801 Y262.959 Z-7.000
G1 X14.594 Y263.825 Z-7.000
G1 X14.418 Y264.699 Z-7.000
G1 X14.328 Y265.249 Z-7.000
G1 X14.273 Y265.581 Z-7.000
G1 X14.160 Y266.469 Z-7.000
G1 X14.077 Y267.364 Z-7.000
G1 X14.024 Y268.264 Z-7.000
G1 X14.002 Y269.170 Z-7.000
G1 X14.010 Y270.080 Z-7.000
G1 X14.048 Y270.995 Z-7.000
G1 X14.115 Y271.915 Z-7.000
G1 X14.212 Y272.838 Z-7.000
G1 X14.338 Y273.764 Z-7.000
G1 X14.512 Y274.810 Z-7.000
G1 X14.934 Y276.120 Z-7.000
G1 X15.383 Y277.326 Z-7.000
G1 X15.890 Y278.526 Z-7.000
G1 X16.451 Y279.719 Z-7.000
G1 X17.068 Y280.903 Z-7.000
G1 X17.738 Y282.078 Z-7.000
G1 X18.460 Y283.243 Z-7.000
G1 X19.404 Y284.652 Z-7.000
G1 X19.924 Y285.042 Z-7.000
G1 X20.242 Y285.248 Z-7.000
G1 X20.572 Y285.431 Z-7.000
G1 X20.914 Y285.590 Z-7.000
G1 X21.264 Y285.725 Z-7.000
G1 X21.624 Y285.837 Z-7.000
G1 X21.991 Y285.923 Z-7.000
G1 X22.458 Y286.000 Z-7.000
G1 X83.966 Y285.917 Z-7.000
G1 X99.966 Y285.896 Z-7.000
G1 X121.117 Y285.867 Z-7.000
G1 X122.802 Y285.630 Z-7.000
G1 X124.317 Y285.374 Z-7.000
G1 X125.775 Y285.084 Z-7.000
G1 X127.173 Y284.760 Z-7.000
G1 X128.511 Y284.401 Z-7.000
G1 X129.786 Y284.006 Z-7.000
G1 X130.997 Y283.573 Z-7.000
G1 X132.130 Y283.107 Z-7.000
G1 X132.689 Y282.852 Z-7.000
G1 X133.219 Y282.590 Z-7.000
G1 X133.733 Y282.318 Z-7.000
G1 X134.229 Y282.035 Z-7.000
G1 X134.707 Y281.741 Z-7.000
G1 X135.167 Y281.434 Z-7.000
G1 X135.609 Y281.114 Z-7.000
G1 X136.032 Y280.782 Z-7.000
G1 X136.435 Y280.435 Z-7.000
G1 X136.817 Y280.075 Z-7.000
G1 X137.179 Y279.700 Z-7.000
G1 X137.518 Y279.309 Z-7.000
G1 X137.833 Y278.904 Z-7.000
G1 X138.124 Y278.482 Z-7.000
G1 X138.389 Y278.046 Z-7.000
G1 X138.626 Y277.593 Z-7.000
G1 X138.835 Y277.121 Z-7.000
G1 X139.012 Y276.642 Z-7.000
G1 X139.155 Y276.158 Z-7.000
G1 X139.265 Y275.671 Z-7.000
G1 X139.343 Y275.184 Z-7.000
G1 X139.391 Y274.698 Z-7.000
G1 X139.409 Y274.214 Z-7.000
G1 X139.399 Y273.734 Z-7.000
G1 X139.363 Y273.259 Z-7.000
G1 X139.302 Y272.791 Z-7.000
G1 X139.217 Y272.328 Z-7.000
G1 X139.110 Y271.873 Z-7.000
G1 X138.982 Y271.426 Z-7.000
G1 X138.835 Y270.987 Z-7.000
G1 X138.670 Y270.556 Z-7.000
G1 X138.479 Y270.116 Z-7.000
G1 X138.076 Y269.317 Z-7.000
G1 X137.607 Y268.538 Z-7.000
G1 X137.088 Y267.797 Z-7.000
G1 X136.525 Y267.098 Z-7.000
G1 X135.924 Y266.443 Z-7.000
G1 X135.289 Y265.835 Z-7.000
G1 X134.624 Y265.276 Z-7.000
G1 X134.087 Y264.883 Z-7.000
G1 X133.915 Y264.722 Z-7.000
G1 X133.550 Y264.410 Z-7.000
G1 X132.685 Y263.725 Z-7.000
G1 X131.587 Y262.910 Z-7.000
G1 X130.288 Y261.989 Z-7.000
G1 X128.814 Y260.981 Z-7.000
G1 X127.198 Y259.912 Z-7.000
G1 X125.469 Y258.807 Z-7.000
G1 X123.663 Y257.692 Z-7.000
G1 X122.059 Y256.737 Z-7.000
G1 X120.442 Y255.806 Z-7.000
G1 X118.813 Y254.900 Z-7.000
G1 X117.171 Y254.018 Z-7.000
G1 X115.518 Y253.161 Z-7.000
G1 X113.855 Y252.328 Z-7.000
G1 X112.182 Y251.520 Z-7.000
G1 X110.500 Y250.736 Z-7.000
G1 X109.521 Y250.297 Z-7.000
G1 X108.810 Y249.977 Z-7.000
G1 X107.112 Y249.243 Z-7.000
G1 X105.407 Y248.534 Z-7.000
G1 X103.697 Y247.850 Z-7.000
G1 X101.981 Y247.190 Z-7.000
G1 X100.260 Y246.556 Z-7.000
G1 X98.536 Y245.947 Z-7.000
G1 X96.809 Y245.363 Z-7.000
G1 X95.079 Y244.804 Z-7.000
G1 X94.563 Y244.644 Z-7.000
G1 X93.348 Y244.270 Z-7.000
G1 X91.616 Y243.762 Z-7.000
G1 X89.884 Y243.279 Z-7.000
G1 X88.153 Y242.821 Z-7.000
G1 X86.423 Y242.389 Z-7.000
G1 X84.695 Y241.983 Z-7.000
G1 X82.970 Y241.602 Z-7.000
G1 X81.249 Y241.248 Z-7.000
G1 X79.532 Y240.919 Z-7.000
G1 X77.820 Y240.616 Z-7.000
G1 X76.114 Y240.338 Z-7.000
G1 X74.415 Y240.087 Z-7.000
G1 X72.722 Y239.863 Z-7.000
G1 X71.038 Y239.664 Z-7.000
G1 X69.363 Y239.492 Z-7.000
G1 X67.697 Y239.346 Z-7.000
G1 X66.041 Y239.227 Z-7.000
G1 X64.396 Y239.134 Z-7.000
G1 X62.763 Y239.068 Z-7.000
G1 X61.142 Y239.029 Z-7.000
G1 X59.534 Y239.017 Z-7.000
G1 X57.940 Y239.031 Z-7.000
G1 X56.360 Y239.073 Z-7.000
G1 X54.796 Y239.142 Z-7.000
G1 X53.248 Y239.239 Z-7.000
G1 X51.716 Y239.363 Z-7.000
G1 X50.201 Y239.514 Z-7.000
G1 X48.705 Y239.694 Z-7.000
G1 X47.228 Y239.901 Z-7.000
G1 X45.770 Y240.136 Z-7.000
G1 X44.332 Y240.399 Z-7.000
G1 X44.332 Y240.399 Z-8.000 F635.0
G1 X42.916 Y240.691 Z-8.000 F180.0
G1 X41.521 Y241.012 Z-8.000
G1 X40.148 Y241.361 Z-8.000
G1 X38.799 Y241.739 Z-8.000
G1 X37.474 Y242.146 Z-8.000
G1 X36.173 Y242.582 Z-8.000
G1 X34.898 Y243.048 Z-8.000
G1 X33.649 Y243.544 Z-8.000
G1 X32.427 Y244.069 Z-8.000
G1 X31.233 Y244.625 Z-8.000
G1 X30.067 Y245.211 Z-8.000
G1 X28.931 Y245.828 Z-8.000
G1 X27.826 Y246.476 Z-8.000
G1 X26.752 Y247.155 Z-8.000
G1 X25.710 Y247.866 Z-8.000
G1 X24.704 Y248.606 Z-8.000
G1 X23.900 Y249.239 Z-8.000
G1 X23.130 Y249.887 Z-8.000
G1 X22.390 Y250.549 Z-8.000
G1 X21.681 Y251.227 Z-8.000
G1 X21.606 Y251.304 Z-8.000
G1 X21.003 Y251.920 Z-8.000
G1 X20.357 Y252.626 Z-8.000
G1 X19.741 Y253.348 Z-8.000
G1 X19.156 Y254.083 Z-8.000
G1 X18.603 Y254.831 Z-8.000
G1 X18.081 Y255.592 Z-8.000
G1 X17.590 Y256.366 Z-8.000
G1 X17.131 Y257.153 Z-8.000
G1 X16.703 Y257.951 Z-8.000
G1 X16.307 Y258.760 Z-8.000
G1 X15.943 Y259.580 Z-8.000
G1 X15.610 Y260.411 Z-8.000
G1 X15.309 Y261.251 Z-8.000
G1 X15.039 Y262.101 Z-8.000
G1 X14.801 Y262.959 Z-8.000
G1 X14.594 Y263.825 Z-8.000
G1 X14.418 Y264.699 Z-8.000
G1 X14.328 Y265.249 Z-8.000
G1 X14.273 Y265.581 Z-8.000
G1 X14.160 Y266.469 Z-8.000
G1 X14.077 Y267.364 Z-8.000
G1 X14.024 Y268.264 Z-8.000
G1 X14.002 Y269.170 Z-8.000
G1 X14.010 Y270.080 Z-8.000
G1 X14.048 Y270.995 Z-8.000
G1 X14.115 Y271.915 Z-8.000
G1 X14.212 Y272.838 Z-8.000
G1 X14.338 Y273.764 Z-8.000
G1 X14.512 Y274.810 Z-8.000
G1 X14.934 Y276.120 Z-8.000
G1 X15.383 Y277.326 Z-8.000
G1 X15.890 Y278.526 Z-8.000
G1 X16.451 Y279.719 Z-8.000
G1 X17.068 Y280.903 Z-8.000
G1 X17.738 Y282.078 Z-8.000
G1 X18.460 Y283.243 Z-8.000
G1 X19.404 Y284.652 Z-8.000
G1 X19.924 Y285.042 Z-8.000
G1 X20.242 Y285.248 Z-8.000
G1 X20.572 Y285.431 Z-8.000
G1 X20.914 Y285.590 Z-8.000
G1 X21.264 Y285.725 Z-8.000
G1 X21.624 Y285.837 Z-8.000
G1 X21.991 Y285.923 Z-8.000
G1 X22.458 Y286.000 Z-8.000
G1 X83.966 Y285.917 Z-8.000
G1 X99.966 Y285.896 Z-8.000
G1 X121.117 Y285.867 Z-8.000
G1 X122.802 Y285.630 Z-8.000
G1 X124.317 Y285.374 Z-8.000
G1 X125.775 Y285.084 Z-8.000
G1 X127.173 Y284.760 Z-8.000
G1 X128.511 Y284.401 Z-8.000
G1 X129.786 Y284.006 Z-8.000
G1 X130.997 Y283.573 Z-8.000
G1 X132.130 Y283.107 Z-8.000
G1 X132.689 Y282.852 Z-8.000
G1 X133.219 Y282.590 Z-8.000
G1 X133.733 Y282.318 Z-8.000
G1 X134.229 Y282.035 Z-8.000
G1 X134.707 Y281.741 Z-8.000
G1 X135.167 Y281.434 Z-8.000
G1 X135.609 Y281.114 Z-8.000
G1 X136.032 Y280.782 Z-8.000
G1 X136.435 Y280.435 Z-8.000
G1 X136.817 Y280.075 Z-8.000
G1 X137.179 Y279.700 Z-8.000
G1 X137.518 Y279.309 Z-8.000
G1 X137.833 Y278.904 Z-8.000
G1 X138.124 Y278.482 Z-8.000
G1 X138.389 Y278.046 Z-8.000
G1 X138.626 Y277.593 Z-8.000
G1 X138.835 Y277.121 Z-8.000
G1 X139.012 Y276.642 Z-8.000
G1 X139.155 Y276.158 Z-8.000
G1 X139.265 Y275.671 Z-8.000
G1 X139.343 Y275.184 Z-8.000
G1 X139.391 Y274.698 Z-8.000
G1 X139.409 Y274.214 Z-8.000
G1 X139.399 Y273.734 Z-8.000
G1 X139.363 Y273.259 Z-8.000
G1 X139.302 Y272.791 Z-8.000
G1 X139.217 Y272.328 Z-8.000
G1 X139.110 Y271.873 Z-8.000
G1 X138.982 Y271.426 Z-8.000
G1 X138.835 Y270.987 Z-8.000
G1 X138.670 Y270.556 Z-8.000
G1 X138.479 Y270.116 Z-8.000
G1 X138.076 Y269.317 Z-8.000
G1 X137.607 Y268.538 Z-8.000
G1 X137.088 Y267.797 Z-8.000
G1 X136.525 Y267.098 Z-8.000
G1 X135.924 Y266.443 Z-8.000
G1 X135.289 Y265.835 Z-8.000
G1 X134.624 Y265.276 Z-8.000
G1 X134.087 Y264.883 Z-8.000
G1 X133.915 Y264.722 Z-8.000
G1 X133.550 Y264.410 Z-8.000
G1 X132.685 Y263.725 Z-8.000
G1 X131.587 Y262.910 Z-8.000
G1 X130.288 Y261.989 Z-8.000
G1 X128.814 Y260.981 Z-8.000
G1 X127.198 Y259.912 Z-8.000
G1 X125.469 Y258.807 Z-8.000
G1 X123.663 Y257.692 Z-8.000
G1 X122.059 Y256.737 Z-8.000
G1 X120.442 Y255.806 Z-8.000
G1 X118.813 Y254.900 Z-8.000
G1 X117.171 Y254.018 Z-8.000
G1 X115.518 Y253.161 Z-8.000
G1 X113.855 Y252.328 Z-8.000
G1 X112.182 Y251.520 Z-8.000
G1 X110.500 Y250.736 Z-8.000
G1 X109.521 Y250.297 Z-8.000
G1 X108.810 Y249.977 Z-8.000
G1 X107.112 Y249.243 Z-8.000
G1 X105.407 Y248.534 Z-8.000
G1 X103.697 Y247.850 Z-8.000
G1 X101.981 Y247.190 Z-8.000
G1 X100.260 Y246.556 Z-8.000
G1 X98.536 Y245.947 Z-8.000
G1 X96.809 Y245.363 Z-8.000
G1 X95.079 Y244.804 Z-8.000
G1 X94.563 Y244.644 Z-8.000
G1 X93.348 Y244.270 Z-8.000
G1 X91.616 Y243.762 Z-8.000
G1 X89.884 Y243.279 Z-8.000
G1 X88.153 Y242.821 Z-8.000
G1 X86.423 Y242.389 Z-8.000
G1 X84.695 Y241.983 Z-8.000
G1 X82.970 Y241.602 Z-8.000
G1 X81.249 Y241.248 Z-8.000
G1 X79.532 Y240.919 Z-8.000
G1 X77.820 Y240.616 Z-8.000
G1 X76.114 Y240.338 Z-8.000
G1 X74.415 Y240.087 Z-8.000
G1 X72.722 Y239.863 Z-8.000
G1 X71.038 Y239.664 Z-8.000
G1 X69.363 Y239.492 Z-8.000
G1 X67.697 Y239.346 Z-8.000
G1 X66.041 Y239.227 Z-8.000
G1 X64.396 Y239.134 Z-8.000
G1 X62.763 Y239.068 Z-8.000
G1 X61.142 Y239.029 Z-8.000
G1 X59.534 Y239.017 Z-8.000
G1 X57.940 Y239.031 Z-8.000
G1 X56.360 Y239.073 Z-8.000
G1 X54.796 Y239.142 Z-8.000
G1 X53.248 Y239.239 Z-8.000
G1 X51.716 Y239.363 Z-8.000
G1 X50.201 Y239.514 Z-8.000
G1 X48.705 Y239.694 Z-8.000
G1 X47.228 Y239.901 Z-8.000
G1 X45.770 Y240.136 Z-8.000
G1 X44.332 Y240.399 Z-8.000
G1 X44.332 Y240.399 Z-9.000 F635.0
G1 X42.916 Y240.691 Z-9.000 F180.0
G1 X41.521 Y241.012 Z-9.000
G1 X40.148 Y241.361 Z-9.000
G1 X38.799 Y241.739 Z-9.000
G1 X37.474 Y242.146 Z-9.000
G1 X36.173 Y242.582 Z-9.000
G1 X34.898 Y243.048 Z-9.000
G1 X33.649 Y243.544 Z-9.000
G1 X32.427 Y244.069 Z-9.000
G1 X31.233 Y244.625 Z-9.000
G1 X30.067 Y245.211 Z-9.000
G1 X28.931 Y245.828 Z-9.000
G1 X27.826 Y246.476 Z-9.000
G1 X26.752 Y247.155 Z-9.000
G1 X25.710 Y247.866 Z-9.000
G1 X24.704 Y248.606 Z-9.000
G1 X23.900 Y249.239 Z-9.000
G1 X23.130 Y249.887 Z-9.000
G1 X22.390 Y250.549 Z-9.000
G1 X21.681 Y251.227 Z-9.000
G1 X21.606 Y251.304 Z-9.000
G1 X21.003 Y251.920 Z-9.000
G1 X20.357 Y252.626 Z-9.000
G1 X19.741 Y253.348 Z-9.000
G1 X19.156 Y254.083 Z-9.000
G1 X18.603 Y254.831 Z-9.000
G1 X18.081 Y255.592 Z-9.000
G1 X17.590 Y256.366 Z-9.000
G1 X17.131 Y257.153 Z-9.000
G1 X16.703 Y257.951 Z-9.000
G1 X16.307 Y258.760 Z-9.000
G1 X15.943 Y259.580 Z-9.000
G1 X15.610 Y260.411 Z-9.000
G1 X15.309 Y261.251 Z-9.000
G1 X15.039 Y262.101 Z-9.000
G1 X14.801 Y262.959 Z-9.000
G1 X14.594 Y263.825 Z-9.000
G1 X14.418 Y264.699 Z-9.000
G1 X14.328 Y265.249 Z-9.000
G1 X14.273 Y265.581 Z-9.000
G1 X14.160 Y266.469 Z-9.000
G1 X14.077 Y267.364 Z-9.000
G1 X14.024 Y268.264 Z-9.000
G1 X14.002 Y269.170 Z-9.000
G1 X14.010 Y270.080 Z-9.000
G1 X14.048 Y270.995 Z-9.000
G1 X14.115 Y271.915 Z-9.000
G1 X14.212 Y272.838 Z-9.000
G1 X14.338 Y273.764 Z-9.000
G1 X14.512 Y274.810 Z-9.000
G1 X14.934 Y276.120 Z-9.000
G1 X15.383 Y277.326 Z-9.000
G1 X15.890 Y278.526 Z-9.000
G1 X16.451 Y279.719 Z-9.000
G1 X17.068 Y280.903 Z-9.000
G1 X17.738 Y282.078 Z-9.000
G1 X18.460 Y283.243 Z-9.000
G1 X19.404 Y284.652 Z-9.000
G1 X19.924 Y285.042 Z-9.000
G1 X20.242 Y285.248 Z-9.000
G1 X20.572 Y285.431 Z-9.000
G1 X20.914 Y285.590 Z-9.000
G1 X21.264 Y285.725 Z-9.000
G1 X21.624 Y285.837 Z-9.000
G1 X21.991 Y285.923 Z-9.000
G1 X22.458 Y286.000 Z-9.000
G1 X83.966 Y285.917 Z-9.000
G1 X99.966 Y285.896 Z-9.000
G1 X121.117 Y285.867 Z-9.000
G1 X122.802 Y285.630 Z-9.000
G1 X124.317 Y285.374 Z-9.000
G1 X125.775 Y285.084 Z-9.000
G1 X127.173 Y284.760 Z-9.000
G1 X128.511 Y284.401 Z-9.000
G1 X129.786 Y284.006 Z-9.000
G1 X130.997 Y283.573 Z-9.000
G1 X132.130 Y283.107 Z-9.000
G1 X132.689 Y282.852 Z-9.000
G1 X133.219 Y282.590 Z-9.000
G1 X133.733 Y282.318 Z-9.000
G1 X134.229 Y282.035 Z-9.000
G1 X134.707 Y281.741 Z-9.000
G1 X135.167 Y281.434 Z-9.000
G1 X135.609 Y281.114 Z-9.000
G1 X136.032 Y280.782 Z-9.000
G1 X136.435 Y280.435 Z-9.000
G1 X136.817 Y280.075 Z-9.000
G1 X137.179 Y279.700 Z-9.000
G1 X137.518 Y279.309 Z-9.000
G1 X137.833 Y278.904 Z-9.000
G1 X138.124 Y278.482 Z-9.000
G1 X138.389 Y278.046 Z-9.000
G1 X138.626 Y277.593 Z-9.000
G1 X138.835 Y277.121 Z-9.000
G1 X139.012 Y276.642 Z-9.000
G1 X139.155 Y276.158 Z-9.000
G1 X139.265 Y275.671 Z-9.000
G1 X139.343 Y275.184 Z-9.000
G1 X139.391 Y274.698 Z-9.000
G1 X139.409 Y274.214 Z-9.000
G1 X139.399 Y273.734 Z-9.000
G1 X139.363 Y273.259 Z-9.000
G1 X139.302 Y272.791 Z-9.000
G1 X139.217 Y272.328 Z-9.000
G1 X139.110 Y271.873 Z-9.000
G1 X138.982 Y271.426 Z-9.000
G1 X138.835 Y270.987 Z-9.000
G1 X138.670 Y270.556 Z-9.000
G1 X138.479 Y270.116 Z-9.000
G1 X138.076 Y269.317 Z-9.000
G1 X137.607 Y268.538 Z-9.000
G1 X137.088 Y267.797 Z-9.000
G1 X136.525 Y267.098 Z-9.000
G1 X135.924 Y266.443 Z-9.000
G1 X135.289 Y265.835 Z-9.000
G1 X134.624 Y265.276 Z-9.000
G1 X134.087 Y264.883 Z-9.000
G1 X133.915 Y264.722 Z-9.000
G1 X133.550 Y264.410 Z-9.000
G1 X132.685 Y263.725 Z-9.000
G1 X131.587 Y262.910 Z-9.000
G1 X130.288 Y261.989 Z-9.000
G1 X128.814 Y260.981 Z-9.000
G1 X127.198 Y259.912 Z-9.000
G1 X125.469 Y258.807 Z-9.000
G1 X123.663 Y257.692 Z-9.000
G1 X122.059 Y256.737 Z-9.000
G1 X120.442 Y255.806 Z-9.000
G1 X118.813 Y254.900 Z-9.000
G1 X117.171 Y254.018 Z-9.000
G1 X115.518 Y253.161 Z-9.000
G1 X113.855 Y252.328 Z-9.000
G1 X112.182 Y251.520 Z-9.000
G1 X110.500 Y250.736 Z-9.000
G1 X109.521 Y250.297 Z-9.000
G1 X108.810 Y249.977 Z-9.000
G1 X107.112 Y249.243 Z-9.000
G1 X105.407 Y248.534 Z-9.000
G1 X103.697 Y247.850 Z-9.000
G1 X101.981 Y247.190 Z-9.000
G1 X100.260 Y246.556 Z-9.000
G1 X98.536 Y245.947 Z-9.000
G1 X96.809 Y245.363 Z-9.000
G1 X95.079 Y244.804 Z-9.000
G1 X94.563 Y244.644 Z-9.000
G1 X93.348 Y244.270 Z-9.000
G1 X91.616 Y243.762 Z-9.000
G1 X89.884 Y243.279 Z-9.000
G1 X88.153 Y242.821 Z-9.000
G1 X86.423 Y242.389 Z-9.000
G1 X84.695 Y241.983 Z-9.000
G1 X82.970 Y241.602 Z-9.000
G1 X81.249 Y241.248 Z-9.000
G1 X79.532 Y240.919 Z-9.000
G1 X77.820 Y240.616 Z-9.000
G1 X76.114 Y240.338 Z-9.000
G1 X74.415 Y240.087 Z-9.000
G1 X72.722 Y239.863 Z-9.000
G1 X71.038 Y239.664 Z-9.000
G1 X69.363 Y239.492 Z-9.000
G1 X67.697 Y239.346 Z-9.000
G1 X66.041 Y239.227 Z-9.000
G1 X64.396 Y239.134 Z-9.000
G1 X62.763 Y239.068 Z-9.000
G1 X61.142 Y239.029 Z-9.000
G1 X59.534 Y239.017 Z-9.000
G1 X57.940 Y239.031 Z-9.000
G1 X56.360 Y239.073 Z-9.000
G1 X54.796 Y239.142 Z-9.000
G1 X53.248 Y239.239 Z-9.000
G1 X51.716 Y239.363 Z-9.000
G1 X50.201 Y239.514 Z-9.000
G1 X48.705 Y239.694 Z-9.000
G1 X47.228 Y239.901 Z-9.000
G1 X45.770 Y240.136 Z-9.000
G1 X44.332 Y240.399 Z-9.000
G1 X44.332 Y240.399 Z-10.000 F635.0
G1 X42.916 Y240.691 Z-10.000 F180.0
G1 X41.521 Y241.012 Z-10.000
G1 X40.148 Y241.361 Z-10.000
G1 X38.799 Y241.739 Z-10.000
G1 X37.474 Y242.146 Z-10.000
G1 X36.173 Y242.582 Z-10.000
G1 X34.898 Y243.048 Z-10.000
G1 X33.649 Y243.544 Z-10.000
G1 X32.427 Y244.069 Z-10.000
G1 X31.233 Y244.625 Z-10.000
G1 X30.067 Y245.211 Z-10.000
G1 X28.931 Y245.828 Z-10.000
G1 X27.826 Y246.476 Z-10.000
G1 X26.752 Y247.155 Z-10.000
G1 X25.710 Y247.866 Z-10.000
G1 X24.704 Y248.606 Z-10.000
G1 X23.900 Y249.239 Z-10.000
G1 X23.130 Y249.887 Z-10.000
G1 X22.390 Y250.549 Z-10.000
G1 X21.681 Y251.227 Z-10.000
G1 X21.606 Y251.304 Z-10.000
G1 X21.003 Y251.920 Z-10.000
G1 X20.357 Y252.626 Z-10.000
G1 X19.741 Y253.348 Z-10.000
G1 X19.156 Y254.083 Z-10.000
G1 X18.603 Y254.831 Z-10.000
G1 X18.081 Y255.592 Z-10.000
G1 X17.590 Y256.366 Z-10.000
G1 X17.131 Y257.153 Z-10.000
G1 X16.703 Y257.951 Z-10.000
G1 X16.307 Y258.760 Z-10.000
G1 X15.943 Y259.580 Z-10.000
G1 X15.610 Y260.411 Z-10.000
G1 X15.309 Y261.251 Z-10.000
G1 X15.039 Y262.101 Z-10.000
G1 X14.801 Y262.959 Z-10.000
G1 X14.594 Y263.825 Z-10.000
G1 X14.418 Y264.699 Z-10.000
G1 X14.328 Y265.249 Z-10.000
G1 X14.273 Y265.581 Z-10.000
G1 X14.160 Y266.469 Z-10.000
G1 X14.077 Y267.364 Z-10.000
G1 X14.024 Y268.264 Z-10.000
G1 X14.002 Y269.170 Z-10.000
G1 X14.010 Y270.080 Z-10.000
G1 X14.048 Y270.995 Z-10.000
G1 X14.115 Y271.915 Z-10.000
G1 X14.212 Y272.838 Z-10.000
G1 X14.338 Y273.764 Z-10.000
G1 X14.512 Y274.810 Z-10.000
G1 X14.934 Y276.120 Z-10.000
G1 X15.383 Y277.326 Z-10.000
G1 X15.890 Y278.526 Z-10.000
G1 X16.451 Y279.719 Z-10.000
G1 X17.068 Y280.903 Z-10.000
G1 X17.738 Y282.078 Z-10.000
G1 X18.460 Y283.243 Z-10.000
G1 X19.404 Y284.652 Z-10.000
G1 X19.924 Y285.042 Z-10.000
G1 X20.242 Y285.248 Z-10.000
G1 X20.572 Y285.431 Z-10.000
G1 X20.914 Y285.590 Z-10.000
G1 X21.264 Y285.725 Z-10.000
G1 X21.624 Y285.837 Z-10.000
G1 X21.991 Y285.923 Z-10.000
G1 X22.458 Y286.000 Z-10.000
G1 X83.966 Y285.917 Z-10.000
G1 X99.966 Y285.896 Z-10.000
G1 X121.117 Y285.867 Z-10.000
G1 X122.802 Y285.630 Z-10.000
G1 X124.317 Y285.374 Z-10.000
G1 X125.775 Y285.084 Z-10.000
G1 X127.173 Y284.760 Z-10.000
G1 X128.511 Y284.401 Z-10.000
G1 X129.786 Y284.006 Z-10.000
G1 X130.997 Y283.573 Z-10.000
G1 X132.130 Y283.107 Z-10.000
G1 X132.689 Y282.852 Z-10.000
G1 X133.219 Y282.590 Z-10.000
G1 X133.733 Y282.318 Z-10.000
G1 X134.229 Y282.035 Z-10.000
G1 X134.707 Y281.741 Z-10.000
G1 X135.167 Y281.434 Z-10.000
G1 X135.609 Y281.114 Z-10.000
G1 X136.032 Y280.782 Z-10.000
G1 X136.435 Y280.435 Z-10.000
G1 X136.817 Y280.075 Z-10.000
G1 X137.179 Y279.700 Z-10.000
G1 X137.518 Y279.309 Z-10.000
G1 X137.833 Y278.904 Z-10.000
G1 X138.124 Y278.482 Z-10.000
G1 X138.389 Y278.046 Z-10.000
G1 X138.626 Y277.593 Z-10.000
G1 X138.835 Y277.121 Z-10.000
G1 X139.012 Y276.642 Z-10.000
G1 X139.155 Y276.158 Z-10.000
G1 X139.265 Y275.671 Z-10.000
G1 X139.343 Y275.184 Z-10.000
G1 X139.391 Y274.698 Z-10.000
G1 X139.409 Y274.214 Z-10.000
G1 X139.399 Y273.734 Z-10.000
G1 X139.363 Y273.259 Z-10.000
G1 X139.302 Y272.791 Z-10.000
G1 X139.217 Y272.328 Z-10.000
G1 X139.110 Y271.873 Z-10.000
G1 X138.982 Y271.426 Z-10.000
G1 X138.835 Y270.987 Z-10.000
G1 X138.670 Y270.556 Z-10.000
G1 X138.479 Y270.116 Z-10.000
G1 X138.076 Y269.317 Z-10.000
G1 X137.607 Y268.538 Z-10.000
G1 X137.088 Y267.797 Z-10.000
G1 X136.525 Y267.098 Z-10.000
G1 X135.924 Y266.443 Z-10.000
G1 X135.289 Y265.835 Z-10.000
G1 X134.624 Y265.276 Z-10.000
G1 X134.087 Y264.883 Z-10.000
G1 X133.915 Y264.722 Z-10.000
G1 X133.550 Y264.410 Z-10.000
G1 X132.685 Y263.725 Z-10.000
G1 X131.587 Y262.910 Z-10.000
G1 X130.288 Y261.989 Z-10.000
G1 X128.814 Y260.981 Z-10.000
G1 X127.198 Y259.912 Z-10.000
G1 X125.469 Y258.807 Z-10.000
G1 X123.663 Y257.692 Z-10.000
G1 X122.059 Y256.737 Z-10.000
G1 X120.442 Y255.806 Z-10.000
G1 X118.813 Y254.900 Z-10.000
G1 X117.171 Y254.018 Z-10.000
G1 X115.518 Y253.161 Z-10.000
G1 X113.855 Y252.328 Z-10.000
G1 X112.182 Y251.520 Z-10.000
G1 X110.500 Y250.736 Z-10.000
G1 X109.521 Y250.297 Z-10.000
G1 X108.810 Y249.977 Z-10.000
G1 X107.112 Y249.243 Z-10.000
G1 X105.407 Y248.534 Z-10.000
G1 X103.697 Y247.850 Z-10.000
G1 X101.981 Y247.190 Z-10.000
G1 X100.260 Y246.556 Z-10.000
G1 X98.536 Y245.947 Z-10.000
G1 X96.809 Y245.363 Z-10.000
G1 X95.079 Y244.804 Z-10.000
G1 X94.563 Y244.644 Z-10.000
G1 X93.348 Y244.270 Z-10.000
G1 X91.616 Y243.762 Z-10.000
G1 X89.884 Y243.279 Z-10.000
G1 X88.153 Y242.821 Z-10.000
G1 X86.423 Y242.389 Z-10.000
G1 X84.695 Y241.983 Z-10.000
G1 X82.970 Y241.602 Z-10.000
G1 X81.249 Y241.248 Z-10.000
G1 X79.532 Y240.919 Z-10.000
G1 X77.820 Y240.616 Z-10.000
G1 X76.114 Y240.338 Z-10.000
G1 X74.415 Y240.087 Z-10.000
G1 X72.722 Y239.863 Z-10.000
G1 X71.038 Y239.664 Z-10.000
G1 X69.363 Y239.492 Z-10.000
G1 X67.697 Y239.346 Z-10.000
G1 X66.041 Y239.227 Z-10.000
G1 X64.396 Y239.134 Z-10.000
G1 X62.763 Y239.068 Z-10.000
G1 X61.142 Y239.029 Z-10.000
G1 X59.534 Y239.017 Z-10.000
G1 X57.940 Y239.031 Z-10.000
G1 X56.360 Y239.073 Z-10.000
G1 X54.796 Y239.142 Z-10.000
G1 X53.248 Y239.239 Z-10.000
G1 X51.716 Y239.363 Z-10.000
G1 X50.201 Y239.514 Z-10.000
G1 X48.705 Y239.694 Z-10.000
G1 X47.228 Y239.901 Z-10.000
G1 X45.770 Y240.136 Z-10.000
G1 X44.332 Y240.399 Z-10.000
G1 X44.332 Y240.399 Z-11.000 F635.0
G1 X42.916 Y240.691 Z-11.000 F180.0
G1 X41.521 Y241.012 Z-11.000
G1 X40.148 Y241.361 Z-11.000
G1 X38.799 Y241.739 Z-11.000
G1 X37.474 Y242.146 Z-11.000
G1 X36.173 Y242.582 Z-11.000
G1 X34.898 Y243.048 Z-11.000
G1 X33.649 Y243.544 Z-11.000
G1 X32.427 Y244.069 Z-11.000
G1 X31.233 Y244.625 Z-11.000
G1 X30.067 Y245.211 Z-11.000
G1 X28.931 Y245.828 Z-11.000
G1 X27.826 Y246.476 Z-11.000
G1 X26.752 Y247.155 Z-11.000
G1 X25.710 Y247.866 Z-11.000
G1 X24.704 Y248.606 Z-11.000
G1 X23.900 Y249.239 Z-11.000
G1 X23.130 Y249.887 Z-11.000
G1 X22.390 Y250.549 Z-11.000
G1 X21.681 Y251.227 Z-11.000
G1 X21.606 Y251.304 Z-11.000
G1 X21.606 Y251.304 Z-10.500
G1 X21.003 Y251.920 Z-10.500
G1 X20.357 Y252.626 Z-10.500
G1 X19.741 Y253.348 Z-10.500
G1 X19.156 Y254.083 Z-10.500
G1 X18.603 Y254.831 Z-10.500
G1 X18.081 Y255.592 Z-10.500
G1 X17.590 Y256.366 Z-10.500
G1 X17.131 Y257.153 Z-10.500
G1 X16.703 Y257.951 Z-10.500
G1 X16.307 Y258.760 Z-10.500
G1 X15.943 Y259.580 Z-10.500
G1 X15.610 Y260.411 Z-10.500
G1 X15.309 Y261.251 Z-10.500
G1 X15.039 Y262.101 Z-10.500
G1 X14.801 Y262.959 Z-10.500
G1 X14.594 Y263.825 Z-10.500
G1 X14.418 Y264.699 Z-10.500
G1 X14.328 Y265.249 Z-10.500
G1 X14.328 Y265.249 Z-11.000 F635.0
G1 X14.273 Y265.581 Z-11.000 F180.0
G1 X14.160 Y266.469 Z-11.000
G1 X14.077 Y267.364 Z-11.000
G1 X14.024 Y268.264 Z-11.000
G1 X14.002 Y269.170 Z-11.000
G1 X14.010 Y270.080 Z-11.000
G1 X14.048 Y270.995 Z-11.000
G1 X14.115 Y271.915 Z-11.000
G1 X14.212 Y272.838 Z-11.000
G1 X14.338 Y273.764 Z-11.000
G1 X14.512 Y274.810 Z-11.000
G1 X14.934 Y276.120 Z-11.000
G1 X15.383 Y277.326 Z-11.000
G1 X15.890 Y278.526 Z-11.000
G1 X16.451 Y279.719 Z-11.000
G1 X17.068 Y280.903 Z-11.000
G1 X17.738 Y282.078 Z-11.000
G1 X18.460 Y283.243 Z-11.000
G1 X19.404 Y284.652 Z-11.000
G1 X19.924 Y285.042 Z-11.000
G1 X20.242 Y285.248 Z-11.000
G1 X20.572 Y285.431 Z-11.000
G1 X20.914 Y285.590 Z-11.000
G1 X21.264 Y285.725 Z-11.000
G1 X21.624 Y285.837 Z-11.000
G1 X21.991 Y285.923 Z-11.000
G1 X22.458 Y286.000 Z-11.000
G1 X83.966 Y285.917 Z-11.000
G1 X83.966 Y285.917 Z-10.500
G1 X99.966 Y285.896 Z-10.500
G1 X99.966 Y285.896 Z-11.000 F635.0
G1 X121.117 Y285.867 Z-11.000 F180.0
G1 X122.802 Y285.630 Z-11.000
G1 X124.317 Y285.374 Z-11.000
G1 X125.775 Y285.084 Z-11.000
G1 X127.173 Y284.760 Z-11.000
G1 X128.511 Y284.401 Z-11.000
G1 X129.786 Y284.006 Z-11.000
G1 X130.997 Y283.573 Z-11.000
G1 X132.130 Y283.107 Z-11.000
G1 X132.689 Y282.852 Z-11.000
G1 X133.219 Y282.590 Z-11.000
G1 X133.733 Y282.318 Z-11.000
G1 X134.229 Y282.035 Z-11.000
G1 X134.707 Y281.741 Z-11.000
G1 X135.167 Y281.434 Z-11.000
G1 X135.609 Y281.114 Z-11.000
G1 X136.032 Y280.782 Z-11.000
G1 X136.435 Y280.435 Z-11.000
G1 X136.817 Y280.075 Z-11.000
G1 X137.179 Y279.700 Z-11.000
G1 X137.518 Y279.309 Z-11.000
G1 X137.833 Y278.904 Z-11.000
G1 X138.124 Y278.482 Z-11.000
G1 X138.389 Y278.046 Z-11.000
G1 X138.626 Y277.593 Z-11.000
G1 X138.835 Y277.121 Z-11.000
G1 X139.012 Y276.642 Z-11.000
G1 X139.155 Y276.158 Z-11.000
G1 X139.265 Y275.671 Z-11.000
G1 X139.343 Y275.184 Z-11.000
G1 X139.391 Y274.698 Z-11.000
G1 X139.409 Y274.214 Z-11.000
G1 X139.399 Y273.734 Z-11.000
G1 X139.363 Y273.259 Z-11.000
G1 X139.302 Y272.791 Z-11.000
G1 X139.217 Y272.328 Z-11.000
G1 X139.110 Y271.873 Z-11.000
G1 X138.982 Y271.426 Z-11.000
G1 X138.835 Y270.987 Z-11.000
G1 X138.670 Y270.556 Z-11.000
G1 X138.479 Y270.116 Z-11.000
G1 X138.076 Y269.317 Z-11.000
G1 X137.607 Y268.538 Z-11.000
G1 X137.088 Y267.797 Z-11.000
G1 X136.525 Y267.098 Z-11.000
G1 X135.924 Y266.443 Z-11.000
G1 X135.289 Y265.835 Z-11.000
G1 X134.624 Y265.276 Z-11.000
G1 X134.087 Y264.883 Z-11.000
G1 X133.915 Y264.722 Z-11.000
G1 X133.550 Y264.410 Z-11.000
G1 X132.685 Y263.725 Z-11.000
G1 X131.587 Y262.910 Z-11.000
G1 X130.288 Y261.989 Z-11.000
G1 X128.814 Y260.981 Z-11.000
G1 X127.198 Y259.912 Z-11.000
G1 X125.469 Y258.807 Z-11.000
G1 X123.663 Y257.692 Z-11.000
G1 X122.059 Y256.737 Z-11.000
G1 X120.442 Y255.806 Z-11.000
G1 X118.813 Y254.900 Z-11.000
G1 X117.171 Y254.018 Z-11.000
G1 X115.518 Y253.161 Z-11.000
G1 X113.855 Y252.328 Z-11.000
G1 X112.182 Y251.520 Z-11.000
G1 X110.500 Y250.736 Z-11.000
G1 X109.521 Y250.297 Z-11.000
G1 X109.521 Y250.297 Z-10.500
G1 X108.810 Y249.977 Z-10.500
G1 X107.112 Y249.243 Z-10.500
G1 X105.407 Y248.534 Z-10.500
G1 X103.697 Y247.850 Z-10.500
G1 X101.981 Y247.190 Z-10.500
G1 X100.260 Y246.556 Z-10.500
G1 X98.536 Y245.947 Z-10.500
G1 X96.809 Y245.363 Z-10.500
G1 X95.079 Y244.804 Z-10.500
G1 X94.563 Y244.644 Z-10.500
G1 X94.563 Y244.644 Z-11.000 F635.0
G1 X93.348 Y244.270 Z-11.000 F180.0
G1 X91.616 Y243.762 Z-11.000
G1 X89.884 Y243.279 Z-11.000
G1 X88.153 Y242.821 Z-11.000
G1 X86.423 Y242.389 Z-11.000
G1 X84.695 Y241.983 Z-11.000
G1 X82.970 Y241.602 Z-11.000
G1 X81.249 Y241.248 Z-11.000
G1 X79.532 Y240.919 Z-11.000
G1 X77.820 Y240.616 Z-11.000
G1 X76.114 Y240.338 Z-11.000
G1 X74.415 Y240.087 Z-11.000
G1 X72.722 Y239.863 Z-11.000
G1 X71.038 Y239.664 Z-11.000
G1 X69.363 Y239.492 Z-11.000
G1 X67.697 Y239.346 Z-11.000
G1 X66.041 Y239.227 Z-11.000
G1 X64.396 Y239.134 Z-11.000
G1 X62.763 Y239.068 Z-11.000
G1 X61.142 Y239.029 Z-11.000
G1 X59.534 Y239.017 Z-11.000
G1 X57.940 Y239.031 Z-11.000
G1 X56.360 Y239.073 Z-11.000
G1 X54.796 Y239.142 Z-11.000
G1 X53.248 Y239.239 Z-11.000
G1 X51.716 Y239.363 Z-11.000
G1 X50.201 Y239.514 Z-11.000
G1 X48.705 Y239.694 Z-11.000
G1 X47.228 Y239.901 Z-11.000
G1 X45.770 Y240.136 Z-11.000
G1 X44.332 Y240.399 Z-11.000
G1 X44.332 Y240.399 Z-12.000 F635.0
G1 X42.916 Y240.691 Z-12.000 F180.0
G1 X41.521 Y241.012 Z-12.000
G1 X40.148 Y241.361 Z-12.000
G1 X38.799 Y241.739 Z-12.000
G1 X37.474 Y242.146 Z-12.000
G1 X36.173 Y242.582 Z-12.000
G1 X34.898 Y243.048 Z-12.000
G1 X33.649 Y243.544 Z-12.000
G1 X32.427 Y244.069 Z-12.000
G1 X31.233 Y244.625 Z-12.000
G1 X30.067 Y245.211 Z-12.000
G1 X28.931 Y245.828 Z-12.000
G1 X27.826 Y246.476 Z-12.000
G1 X26.752 Y247.155 Z-12.000
G1 X25.710 Y247.866 Z-12.000
G1 X24.704 Y248.606 Z-12.000
G1 X23.900 Y249.239 Z-12.000
G1 X23.130 Y249.887 Z-12.000
G1 X22.390 Y250.549 Z-12.000
G1 X21.681 Y251.227 Z-12.000
G1 X21.606 Y251.304 Z-12.000
G1 X21.606 Y251.304 Z-10.500
G1 X21.003 Y251.920 Z-10.500
G1 X20.357 Y252.626 Z-10.500
G1 X19.741 Y253.348 Z-10.500
G1 X19.156 Y254.083 Z-10.500
G1 X18.603 Y254.831 Z-10.500
G1 X18.081 Y255.592 Z-10.500
G1 X17.590 Y256.366 Z-10.500
G1 X17.131 Y257.153 Z-10.500
G1 X16.703 Y257.951 Z-10.500
G1 X16.307 Y258.760 Z-10.500
G1 X15.943 Y259.580 Z-10.500
G1 X15.610 Y260.411 Z-10.500
G1 X15.309 Y261.251 Z-10.500
G1 X15.039 Y262.101 Z-10.500
G1 X14.801 Y262.959 Z-10.500
G1 X14.594 Y263.825 Z-10.500
G1 X14.418 Y264.699 Z-10.500
G1 X14.328 Y265.249 Z-10.500
G1 X14.328 Y265.249 Z-12.000 F635.0
G1 X14.273 Y265.581 Z-12.000 F180.0
G1 X14.160 Y266.469 Z-12.000
G1 X14.077 Y267.364 Z-12.000
G1 X14.024 Y268.264 Z-12.000
G1 X14.002 Y269.170 Z-12.000
G1 X14.010 Y270.080 Z-12.000
G1 X14.048 Y270.995 Z-12.000
G1 X14.115 Y271.915 Z-12.000
G1 X14.212 Y272.838 Z-12.000
G1 X14.338 Y273.764 Z-12.000
G1 X14.512 Y274.810 Z-12.000
G1 X14.934 Y276.120 Z-12.000
G1 X15.383 Y277.326 Z-12.000
G1 X15.890 Y278.526 Z-12.000
G1 X16.451 Y279.719 Z-12.000
G1 X17.068 Y280.903 Z-12.000
G1 X17.738 Y282.078 Z-12.000
G1 X18.460 Y283.243 Z-12.000
G1 X19.404 Y284.652 Z-12.000
G1 X19.924 Y285.042 Z-12.000
G1 X20.242 Y285.248 Z-12.000
G1 X20.572 Y285.431 Z-12.000
G1 X20.914 Y285.590 Z-12.000
G1 X21.264 Y285.725 Z-12.000
G1 X21.624 Y285.837 Z-12.000
G1 X21.991 Y285.923 Z-12.000
G1 X22.458 Y286.000 Z-12.000
G1 X83.966 Y285.917 Z-12.000
G1 X83.966 Y285.917 Z-10.500
G1 X99.966 Y285.896 Z-10.500
G1 X99.966 Y285.896 Z-12.000 F635.0
G1 X121.117 Y285.867 Z-12.000 F180.0
G1 X122.802 Y285.630 Z-12.000
G1 X124.317 Y285.374 Z-12.000
G1 X125.775 Y285.084 Z-12.000
G1 X127.173 Y284.760 Z-12.000
G1 X128.511 Y284.401 Z-12.000
G1 X129.786 Y284.006 Z-12.000
G1 X130.997 Y283.573 Z-12.000
G1 X132.130 Y283.107 Z-12.000
G1 X132.689 Y282.852 Z-12.000
G1 X133.219 Y282.590 Z-12.000
G1 X133.733 Y282.318 Z-12.000
G1 X134.229 Y282.035 Z-12.000
G1 X134.707 Y281.741 Z-12.000
G1 X135.167 Y281.434 Z-12.000
G1 X135.609 Y281.114 Z-12.000
G1 X136.032 Y280.782 Z-12.000
G1 X136.435 Y280.435 Z-12.000
G1 X136.817 Y280.075 Z-12.000
G1 X137.179 Y279.700 Z-12.000
G1 X137.518 Y279.309 Z-12.000
G1 X137.833 Y278.904 Z-12.000
G1 X138.124 Y278.482 Z-12.000
G1 X138.389 Y278.046 Z-12.000
G1 X138.626 Y277.593 Z-12.000
G1 X138.835 Y277.121 Z-12.000
G1 X139.012 Y276.642 Z-12.000
G1 X139.155 Y276.158 Z-12.000
G1 X139.265 Y275.671 Z-12.000
G1 X139.343 Y275.184 Z-12.000
G1 X139.391 Y274.698 Z-12.000
G1 X139.409 Y274.214 Z-12.000
G1 X139.399 Y273.734 Z-12.000
G1 X139.363 Y273.259 Z-12.000
G1 X139.302 Y272.791 Z-12.000
G1 X139.217 Y272.328 Z-12.000
G1 X139.110 Y271.873 Z-12.000
G1 X138.982 Y271.426 Z-12.000
G1 X138.835 Y270.987 Z-12.000
G1 X138.670 Y270.556 Z-12.000
G1 X138.479 Y270.116 Z-12.000
G1 X138.076 Y269.317 Z-12.000
G1 X137.607 Y268.538 Z-12.000
G1 X137.088 Y267.797 Z-12.000
G1 X136.525 Y267.098 Z-12.000
G1 X135.924 Y266.443 Z-12.000
G1 X135.289 Y265.835 Z-12.000
G1 X134.624 Y265.276 Z-12.000
G1 X134.087 Y264.883 Z-12.000
G1 X133.915 Y264.722 Z-12.000
G1 X133.550 Y264.410 Z-12.000
G1 X132.685 Y263.725 Z-12.000
G1 X131.587 Y262.910 Z-12.000
G1 X130.288 Y261.989 Z-12.000
G1 X128.814 Y260.981 Z-12.000
G1 X127.198 Y259.912 Z-12.000
G1 X125.469 Y258.807 Z-12.000
G1 X123.663 Y257.692 Z-12.000
G1 X122.059 Y256.737 Z-12.000
G1 X120.442 Y255.806 Z-12.000
G1 X118.813 Y254.900 Z-12.000
G1 X117.171 Y254.018 Z-12.000
G1 X115.518 Y253.161 Z-12.000
G1 X113.855 Y252.328 Z-12.000
G1 X112.182 Y251.520 Z-12.000
G1 X110.500 Y250.736 Z-12.000
G1 X109.521 Y250.297 Z-12.000
G1 X109.521 Y250.297 Z-10.500
G1 X108.810 Y249.977 Z-10.500
G1 X107.112 Y249.243 Z-10.500
G1 X105.407 Y248.534 Z-10.500
G1 X103.697 Y247.850 Z-10.500
G1 X101.981 Y247.190 Z-10.500
G1 X100.260 Y246.556 Z-10.500
G1 X98.536 Y245.947 Z-10.500
G1 X96.809 Y245.363 Z-10.500
G1 X95.079 Y244.804 Z-10.500
G1 X94.563 Y244.644 Z-10.500
G1 X94.563 Y244.644 Z-12.000 F635.0
G1 X93.348 Y244.270 Z-12.000 F180.0
G1 X91.616 Y243.762 Z-12.000
G1 X89.884 Y243.279 Z-12.000
G1 X88.153 Y242.821 Z-12.000
G1 X86.423 Y242.389 Z-12.000
G1 X84.695 Y241.983 Z-12.000
G1 X82.970 Y241.602 Z-12.000
G1 X81.249 Y241.248 Z-12.000
G1 X79.532 Y240.919 Z-12.000
G1 X77.820 Y240.616 Z-12.000
G1 X76.114 Y240.338 Z-12.000
G1 X74.415 Y240.087 Z-12.000
G1 X72.722 Y239.863 Z-12.000
G1 X71.038 Y239.664 Z-12.000
G1 X69.363 Y239.492 Z-12.000
G1 X67.697 Y239.346 Z-12.000
G1 X66.041 Y239.227 Z-12.000
G1 X64.396 Y239.134 Z-12.000
G1 X62.763 Y239.068 Z-12.000
G1 X61.142 Y239.029 Z-12.000
G1 X59.534 Y239.017 Z-12.000
G1 X57.940 Y239.031 Z-12.000
G1 X56.360 Y239.073 Z-12.000
G1 X54.796 Y239.142 Z-12.000
G1 X53.248 Y239.239 Z-12.000
G1 X51.716 Y239.363 Z-12.000
G1 X50.201 Y239.514 Z-12.000
G1 X48.705 Y239.694 Z-12.000
G1 X47.228 Y239.901 Z-12.000
G1 X45.770 Y240.136 Z-12.000
G1 X44.332 Y240.399 Z-12.000
G0 X44.332 Y240.399
G0 Z6.000
M9 (Khlung aus)
M5 (Spindel aus)
G0 Z20.000
G28
M30 (Programmende)
