(VECTRIC POST REVISION)
(AE8C5706166A14C0DE23454C54EBD95B)
%
G21
G40
G94
G97
G64
G90
T3 M6
M8
M3 S17000
G0 X461.547 Y93.172
G0 Z6.000
G1 X461.547 Y93.172 Z-0.750 F254.0
G1 X461.498 Y93.154 Z-0.750 F177.8
G1 X461.450 Y93.129 Z-0.750
G1 X461.405 Y93.096 Z-0.750
G1 X461.363 Y93.056 Z-0.750
G1 X461.327 Y93.009 Z-0.750
G1 X461.299 Y92.957 Z-0.750
G1 X461.279 Y92.902 Z-0.750
G1 X461.267 Y92.846 Z-0.750
G1 X461.264 Y92.790 Z-0.750
G1 X461.268 Y92.736 Z-0.750
G1 X461.279 Y92.685 Z-0.750
G1 X461.299 Y92.632 Z-0.750
G1 X461.328 Y92.579 Z-0.750
G1 X461.366 Y92.530 Z-0.750
G1 X461.413 Y92.486 Z-0.750
G1 X461.467 Y92.451 Z-0.750
G1 X461.527 Y92.424 Z-0.750
G1 X461.588 Y92.408 Z-0.750
G1 X461.650 Y92.402 Z-0.750
G1 X461.710 Y92.406 Z-0.750
G1 X461.766 Y92.418 Z-0.750
G1 X461.819 Y92.438 Z-0.750
G1 X461.872 Y92.467 Z-0.750
G1 X461.921 Y92.505 Z-0.750
G1 X461.965 Y92.552 Z-0.750
G1 X462.000 Y92.606 Z-0.750
G1 X462.027 Y92.665 Z-0.750
G1 X462.043 Y92.727 Z-0.750
G1 X462.049 Y92.789 Z-0.750
G1 X462.045 Y92.849 Z-0.750
G1 X462.033 Y92.904 Z-0.750
G1 X462.013 Y92.958 Z-0.750
G1 X461.984 Y93.010 Z-0.750
G1 X461.946 Y93.059 Z-0.750
G1 X461.899 Y93.103 Z-0.750
G1 X461.845 Y93.139 Z-0.750
G1 X461.786 Y93.165 Z-0.750
G1 X461.724 Y93.181 Z-0.750
G1 X461.662 Y93.187 Z-0.750
G1 X461.602 Y93.184 Z-0.750
G1 X461.547 Y93.172 Z-0.750
G1 X461.192 Y94.391 Z-0.750
G1 X460.965 Y94.307 Z-0.750
G1 X460.743 Y94.184 Z-0.750
G1 X460.535 Y94.022 Z-0.750
G1 X460.351 Y93.824 Z-0.750
G1 X460.199 Y93.595 Z-0.750
G1 X460.087 Y93.344 Z-0.750
G1 X460.019 Y93.082 Z-0.750
G1 X459.994 Y92.820 Z-0.750
G1 X460.010 Y92.567 Z-0.750
G1 X460.060 Y92.330 Z-0.750
G1 X460.144 Y92.104 Z-0.750
G1 X460.267 Y91.882 Z-0.750
G1 X460.429 Y91.674 Z-0.750
G1 X460.627 Y91.489 Z-0.750
G1 X460.856 Y91.338 Z-0.750
G1 X461.107 Y91.226 Z-0.750
G1 X461.369 Y91.157 Z-0.750
G1 X461.631 Y91.132 Z-0.750
G1 X461.884 Y91.148 Z-0.750
G1 X462.121 Y91.198 Z-0.750
G1 X462.347 Y91.283 Z-0.750
G1 X462.569 Y91.405 Z-0.750
G1 X462.777 Y91.567 Z-0.750
G1 X462.962 Y91.765 Z-0.750
G1 X463.113 Y91.994 Z-0.750
G1 X463.225 Y92.245 Z-0.750
G1 X463.294 Y92.507 Z-0.750
G1 X463.319 Y92.770 Z-0.750
G1 X463.303 Y93.023 Z-0.750
G1 X463.253 Y93.259 Z-0.750
G1 X463.168 Y93.486 Z-0.750
G1 X463.046 Y93.708 Z-0.750
G1 X462.884 Y93.916 Z-0.750
G1 X462.686 Y94.100 Z-0.750
G1 X462.457 Y94.252 Z-0.750
G1 X462.206 Y94.364 Z-0.750
G1 X461.944 Y94.432 Z-0.750
G1 X461.681 Y94.457 Z-0.750
G1 X461.428 Y94.441 Z-0.750
G1 X461.192 Y94.391 Z-0.750
G0 X461.192 Y94.391
G0 Z6.000
G0 X461.547 Y93.172
G0 Z6.000
G1 X461.547 Y93.172 Z-1.500 F254.0
G1 X461.498 Y93.154 Z-1.500 F177.8
G1 X461.450 Y93.129 Z-1.500
G1 X461.405 Y93.096 Z-1.500
G1 X461.363 Y93.056 Z-1.500
G1 X461.327 Y93.009 Z-1.500
G1 X461.299 Y92.957 Z-1.500
G1 X461.279 Y92.902 Z-1.500
G1 X461.267 Y92.846 Z-1.500
G1 X461.264 Y92.790 Z-1.500
G1 X461.268 Y92.736 Z-1.500
G1 X461.279 Y92.685 Z-1.500
G1 X461.299 Y92.632 Z-1.500
G1 X461.328 Y92.579 Z-1.500
G1 X461.366 Y92.530 Z-1.500
G1 X461.413 Y92.486 Z-1.500
G1 X461.467 Y92.451 Z-1.500
G1 X461.527 Y92.424 Z-1.500
G1 X461.588 Y92.408 Z-1.500
G1 X461.650 Y92.402 Z-1.500
G1 X461.710 Y92.406 Z-1.500
G1 X461.766 Y92.418 Z-1.500
G1 X461.819 Y92.438 Z-1.500
G1 X461.872 Y92.467 Z-1.500
G1 X461.921 Y92.505 Z-1.500
G1 X461.965 Y92.552 Z-1.500
G1 X462.000 Y92.606 Z-1.500
G1 X462.027 Y92.665 Z-1.500
G1 X462.043 Y92.727 Z-1.500
G1 X462.049 Y92.789 Z-1.500
G1 X462.045 Y92.849 Z-1.500
G1 X462.033 Y92.904 Z-1.500
G1 X462.013 Y92.958 Z-1.500
G1 X461.984 Y93.010 Z-1.500
G1 X461.946 Y93.059 Z-1.500
G1 X461.899 Y93.103 Z-1.500
G1 X461.845 Y93.139 Z-1.500
G1 X461.786 Y93.165 Z-1.500
G1 X461.724 Y93.181 Z-1.500
G1 X461.662 Y93.187 Z-1.500
G1 X461.602 Y93.184 Z-1.500
G1 X461.547 Y93.172 Z-1.500
G1 X461.192 Y94.391 Z-1.500
G1 X460.965 Y94.307 Z-1.500
G1 X460.743 Y94.184 Z-1.500
G1 X460.535 Y94.022 Z-1.500
G1 X460.351 Y93.824 Z-1.500
G1 X460.199 Y93.595 Z-1.500
G1 X460.087 Y93.344 Z-1.500
G1 X460.019 Y93.082 Z-1.500
G1 X459.994 Y92.820 Z-1.500
G1 X460.010 Y92.567 Z-1.500
G1 X460.060 Y92.330 Z-1.500
G1 X460.144 Y92.104 Z-1.500
G1 X460.267 Y91.882 Z-1.500
G1 X460.429 Y91.674 Z-1.500
G1 X460.627 Y91.489 Z-1.500
G1 X460.856 Y91.338 Z-1.500
G1 X461.107 Y91.226 Z-1.500
G1 X461.369 Y91.157 Z-1.500
G1 X461.631 Y91.132 Z-1.500
G1 X461.884 Y91.148 Z-1.500
G1 X462.121 Y91.198 Z-1.500
G1 X462.347 Y91.283 Z-1.500
G1 X462.569 Y91.405 Z-1.500
G1 X462.777 Y91.567 Z-1.500
G1 X462.962 Y91.765 Z-1.500
G1 X463.113 Y91.994 Z-1.500
G1 X463.225 Y92.245 Z-1.500
G1 X463.294 Y92.507 Z-1.500
G1 X463.319 Y92.770 Z-1.500
G1 X463.303 Y93.023 Z-1.500
G1 X463.253 Y93.259 Z-1.500
G1 X463.168 Y93.486 Z-1.500
G1 X463.046 Y93.708 Z-1.500
G1 X462.884 Y93.916 Z-1.500
G1 X462.686 Y94.100 Z-1.500
G1 X462.457 Y94.252 Z-1.500
G1 X462.206 Y94.364 Z-1.500
G1 X461.944 Y94.432 Z-1.500
G1 X461.681 Y94.457 Z-1.500
G1 X461.428 Y94.441 Z-1.500
G1 X461.192 Y94.391 Z-1.500
G0 X461.192 Y94.391
G0 Z6.000
G0 X461.547 Y93.172
G0 Z6.000
G1 X461.547 Y93.172 Z-2.250 F254.0
G1 X461.498 Y93.154 Z-2.250 F177.8
G1 X461.450 Y93.129 Z-2.250
G1 X461.405 Y93.096 Z-2.250
G1 X461.363 Y93.056 Z-2.250
G1 X461.327 Y93.009 Z-2.250
G1 X461.299 Y92.957 Z-2.250
G1 X461.279 Y92.902 Z-2.250
G1 X461.267 Y92.846 Z-2.250
G1 X461.264 Y92.790 Z-2.250
G1 X461.268 Y92.736 Z-2.250
G1 X461.279 Y92.685 Z-2.250
G1 X461.299 Y92.632 Z-2.250
G1 X461.328 Y92.579 Z-2.250
G1 X461.366 Y92.530 Z-2.250
G1 X461.413 Y92.486 Z-2.250
G1 X461.467 Y92.451 Z-2.250
G1 X461.527 Y92.424 Z-2.250
G1 X461.588 Y92.408 Z-2.250
G1 X461.650 Y92.402 Z-2.250
G1 X461.710 Y92.406 Z-2.250
G1 X461.766 Y92.418 Z-2.250
G1 X461.819 Y92.438 Z-2.250
G1 X461.872 Y92.467 Z-2.250
G1 X461.921 Y92.505 Z-2.250
G1 X461.965 Y92.552 Z-2.250
G1 X462.000 Y92.606 Z-2.250
G1 X462.027 Y92.665 Z-2.250
G1 X462.043 Y92.727 Z-2.250
G1 X462.049 Y92.789 Z-2.250
G1 X462.045 Y92.849 Z-2.250
G1 X462.033 Y92.904 Z-2.250
G1 X462.013 Y92.958 Z-2.250
G1 X461.984 Y93.010 Z-2.250
G1 X461.946 Y93.059 Z-2.250
G1 X461.899 Y93.103 Z-2.250
G1 X461.845 Y93.139 Z-2.250
G1 X461.786 Y93.165 Z-2.250
G1 X461.724 Y93.181 Z-2.250
G1 X461.662 Y93.187 Z-2.250
G1 X461.602 Y93.184 Z-2.250
G1 X461.547 Y93.172 Z-2.250
G1 X461.192 Y94.391 Z-2.250
G1 X460.965 Y94.307 Z-2.250
G1 X460.743 Y94.184 Z-2.250
G1 X460.535 Y94.022 Z-2.250
G1 X460.351 Y93.824 Z-2.250
G1 X460.199 Y93.595 Z-2.250
G1 X460.087 Y93.344 Z-2.250
G1 X460.019 Y93.082 Z-2.250
G1 X459.994 Y92.820 Z-2.250
G1 X460.010 Y92.567 Z-2.250
G1 X460.060 Y92.330 Z-2.250
G1 X460.144 Y92.104 Z-2.250
G1 X460.267 Y91.882 Z-2.250
G1 X460.429 Y91.674 Z-2.250
G1 X460.627 Y91.489 Z-2.250
G1 X460.856 Y91.338 Z-2.250
G1 X461.107 Y91.226 Z-2.250
G1 X461.369 Y91.157 Z-2.250
G1 X461.631 Y91.132 Z-2.250
G1 X461.884 Y91.148 Z-2.250
G1 X462.121 Y91.198 Z-2.250
G1 X462.347 Y91.283 Z-2.250
G1 X462.569 Y91.405 Z-2.250
G1 X462.777 Y91.567 Z-2.250
G1 X462.962 Y91.765 Z-2.250
G1 X463.113 Y91.994 Z-2.250
G1 X463.225 Y92.245 Z-2.250
G1 X463.294 Y92.507 Z-2.250
G1 X463.319 Y92.770 Z-2.250
G1 X463.303 Y93.023 Z-2.250
G1 X463.253 Y93.259 Z-2.250
G1 X463.168 Y93.486 Z-2.250
G1 X463.046 Y93.708 Z-2.250
G1 X462.884 Y93.916 Z-2.250
G1 X462.686 Y94.100 Z-2.250
G1 X462.457 Y94.252 Z-2.250
G1 X462.206 Y94.364 Z-2.250
G1 X461.944 Y94.432 Z-2.250
G1 X461.681 Y94.457 Z-2.250
G1 X461.428 Y94.441 Z-2.250
G1 X461.192 Y94.391 Z-2.250
G0 X461.192 Y94.391
G0 Z6.000
G0 X461.547 Y93.172
G0 Z6.000
G1 X461.547 Y93.172 Z-3.000 F254.0
G1 X461.498 Y93.154 Z-3.000 F177.8
G1 X461.450 Y93.129 Z-3.000
G1 X461.405 Y93.096 Z-3.000
G1 X461.363 Y93.056 Z-3.000
G1 X461.327 Y93.009 Z-3.000
G1 X461.299 Y92.957 Z-3.000
G1 X461.279 Y92.902 Z-3.000
G1 X461.267 Y92.846 Z-3.000
G1 X461.264 Y92.790 Z-3.000
G1 X461.268 Y92.736 Z-3.000
G1 X461.279 Y92.685 Z-3.000
G1 X461.299 Y92.632 Z-3.000
G1 X461.328 Y92.579 Z-3.000
G1 X461.366 Y92.530 Z-3.000
G1 X461.413 Y92.486 Z-3.000
G1 X461.467 Y92.451 Z-3.000
G1 X461.527 Y92.424 Z-3.000
G1 X461.588 Y92.408 Z-3.000
G1 X461.650 Y92.402 Z-3.000
G1 X461.710 Y92.406 Z-3.000
G1 X461.766 Y92.418 Z-3.000
G1 X461.819 Y92.438 Z-3.000
G1 X461.872 Y92.467 Z-3.000
G1 X461.921 Y92.505 Z-3.000
G1 X461.965 Y92.552 Z-3.000
G1 X462.000 Y92.606 Z-3.000
G1 X462.027 Y92.665 Z-3.000
G1 X462.043 Y92.727 Z-3.000
G1 X462.049 Y92.789 Z-3.000
G1 X462.045 Y92.849 Z-3.000
G1 X462.033 Y92.904 Z-3.000
G1 X462.013 Y92.958 Z-3.000
G1 X461.984 Y93.010 Z-3.000
G1 X461.946 Y93.059 Z-3.000
G1 X461.899 Y93.103 Z-3.000
G1 X461.845 Y93.139 Z-3.000
G1 X461.786 Y93.165 Z-3.000
G1 X461.724 Y93.181 Z-3.000
G1 X461.662 Y93.187 Z-3.000
G1 X461.602 Y93.184 Z-3.000
G1 X461.547 Y93.172 Z-3.000
G1 X461.192 Y94.391 Z-3.000
G1 X460.965 Y94.307 Z-3.000
G1 X460.743 Y94.184 Z-3.000
G1 X460.535 Y94.022 Z-3.000
G1 X460.351 Y93.824 Z-3.000
G1 X460.199 Y93.595 Z-3.000
G1 X460.087 Y93.344 Z-3.000
G1 X460.019 Y93.082 Z-3.000
G1 X459.994 Y92.820 Z-3.000
G1 X460.010 Y92.567 Z-3.000
G1 X460.060 Y92.330 Z-3.000
G1 X460.144 Y92.104 Z-3.000
G1 X460.267 Y91.882 Z-3.000
G1 X460.429 Y91.674 Z-3.000
G1 X460.627 Y91.489 Z-3.000
G1 X460.856 Y91.338 Z-3.000
G1 X461.107 Y91.226 Z-3.000
G1 X461.369 Y91.157 Z-3.000
G1 X461.631 Y91.132 Z-3.000
G1 X461.884 Y91.148 Z-3.000
G1 X462.121 Y91.198 Z-3.000
G1 X462.347 Y91.283 Z-3.000
G1 X462.569 Y91.405 Z-3.000
G1 X462.777 Y91.567 Z-3.000
G1 X462.962 Y91.765 Z-3.000
G1 X463.113 Y91.994 Z-3.000
G1 X463.225 Y92.245 Z-3.000
G1 X463.294 Y92.507 Z-3.000
G1 X463.319 Y92.770 Z-3.000
G1 X463.303 Y93.023 Z-3.000
G1 X463.253 Y93.259 Z-3.000
G1 X463.168 Y93.486 Z-3.000
G1 X463.046 Y93.708 Z-3.000
G1 X462.884 Y93.916 Z-3.000
G1 X462.686 Y94.100 Z-3.000
G1 X462.457 Y94.252 Z-3.000
G1 X462.206 Y94.364 Z-3.000
G1 X461.944 Y94.432 Z-3.000
G1 X461.681 Y94.457 Z-3.000
G1 X461.428 Y94.441 Z-3.000
G1 X461.192 Y94.391 Z-3.000
G0 X461.192 Y94.391
G0 Z6.000
G0 X461.547 Y93.172
G0 Z6.000
G1 X461.547 Y93.172 Z-3.750 F254.0
G1 X461.498 Y93.154 Z-3.750 F177.8
G1 X461.450 Y93.129 Z-3.750
G1 X461.405 Y93.096 Z-3.750
G1 X461.363 Y93.056 Z-3.750
G1 X461.327 Y93.009 Z-3.750
G1 X461.299 Y92.957 Z-3.750
G1 X461.279 Y92.902 Z-3.750
G1 X461.267 Y92.846 Z-3.750
G1 X461.264 Y92.790 Z-3.750
G1 X461.268 Y92.736 Z-3.750
G1 X461.279 Y92.685 Z-3.750
G1 X461.299 Y92.632 Z-3.750
G1 X461.328 Y92.579 Z-3.750
G1 X461.366 Y92.530 Z-3.750
G1 X461.413 Y92.486 Z-3.750
G1 X461.467 Y92.451 Z-3.750
G1 X461.527 Y92.424 Z-3.750
G1 X461.588 Y92.408 Z-3.750
G1 X461.650 Y92.402 Z-3.750
G1 X461.710 Y92.406 Z-3.750
G1 X461.766 Y92.418 Z-3.750
G1 X461.819 Y92.438 Z-3.750
G1 X461.872 Y92.467 Z-3.750
G1 X461.921 Y92.505 Z-3.750
G1 X461.965 Y92.552 Z-3.750
G1 X462.000 Y92.606 Z-3.750
G1 X462.027 Y92.665 Z-3.750
G1 X462.043 Y92.727 Z-3.750
G1 X462.049 Y92.789 Z-3.750
G1 X462.045 Y92.849 Z-3.750
G1 X462.033 Y92.904 Z-3.750
G1 X462.013 Y92.958 Z-3.750
G1 X461.984 Y93.010 Z-3.750
G1 X461.946 Y93.059 Z-3.750
G1 X461.899 Y93.103 Z-3.750
G1 X461.845 Y93.139 Z-3.750
G1 X461.786 Y93.165 Z-3.750
G1 X461.724 Y93.181 Z-3.750
G1 X461.662 Y93.187 Z-3.750
G1 X461.602 Y93.184 Z-3.750
G1 X461.547 Y93.172 Z-3.750
G1 X461.192 Y94.391 Z-3.750
G1 X460.965 Y94.307 Z-3.750
G1 X460.743 Y94.184 Z-3.750
G1 X460.535 Y94.022 Z-3.750
G1 X460.351 Y93.824 Z-3.750
G1 X460.199 Y93.595 Z-3.750
G1 X460.087 Y93.344 Z-3.750
G1 X460.019 Y93.082 Z-3.750
G1 X459.994 Y92.820 Z-3.750
G1 X460.010 Y92.567 Z-3.750
G1 X460.060 Y92.330 Z-3.750
G1 X460.144 Y92.104 Z-3.750
G1 X460.267 Y91.882 Z-3.750
G1 X460.429 Y91.674 Z-3.750
G1 X460.627 Y91.489 Z-3.750
G1 X460.856 Y91.338 Z-3.750
G1 X461.107 Y91.226 Z-3.750
G1 X461.369 Y91.157 Z-3.750
G1 X461.631 Y91.132 Z-3.750
G1 X461.884 Y91.148 Z-3.750
G1 X462.121 Y91.198 Z-3.750
G1 X462.347 Y91.283 Z-3.750
G1 X462.569 Y91.405 Z-3.750
G1 X462.777 Y91.567 Z-3.750
G1 X462.962 Y91.765 Z-3.750
G1 X463.113 Y91.994 Z-3.750
G1 X463.225 Y92.245 Z-3.750
G1 X463.294 Y92.507 Z-3.750
G1 X463.319 Y92.770 Z-3.750
G1 X463.303 Y93.023 Z-3.750
G1 X463.253 Y93.259 Z-3.750
G1 X463.168 Y93.486 Z-3.750
G1 X463.046 Y93.708 Z-3.750
G1 X462.884 Y93.916 Z-3.750
G1 X462.686 Y94.100 Z-3.750
G1 X462.457 Y94.252 Z-3.750
G1 X462.206 Y94.364 Z-3.750
G1 X461.944 Y94.432 Z-3.750
G1 X461.681 Y94.457 Z-3.750
G1 X461.428 Y94.441 Z-3.750
G1 X461.192 Y94.391 Z-3.750
G0 X461.192 Y94.391
G0 Z6.000
G0 X461.547 Y93.172
G0 Z6.000
G1 X461.547 Y93.172 Z-4.500 F254.0
G1 X461.498 Y93.154 Z-4.500 F177.8
G1 X461.450 Y93.129 Z-4.500
G1 X461.405 Y93.096 Z-4.500
G1 X461.363 Y93.056 Z-4.500
G1 X461.327 Y93.009 Z-4.500
G1 X461.299 Y92.957 Z-4.500
G1 X461.279 Y92.902 Z-4.500
G1 X461.267 Y92.846 Z-4.500
G1 X461.264 Y92.790 Z-4.500
G1 X461.268 Y92.736 Z-4.500
G1 X461.279 Y92.685 Z-4.500
G1 X461.299 Y92.632 Z-4.500
G1 X461.328 Y92.579 Z-4.500
G1 X461.366 Y92.530 Z-4.500
G1 X461.413 Y92.486 Z-4.500
G1 X461.467 Y92.451 Z-4.500
G1 X461.527 Y92.424 Z-4.500
G1 X461.588 Y92.408 Z-4.500
G1 X461.650 Y92.402 Z-4.500
G1 X461.710 Y92.406 Z-4.500
G1 X461.766 Y92.418 Z-4.500
G1 X461.819 Y92.438 Z-4.500
G1 X461.872 Y92.467 Z-4.500
G1 X461.921 Y92.505 Z-4.500
G1 X461.965 Y92.552 Z-4.500
G1 X462.000 Y92.606 Z-4.500
G1 X462.027 Y92.665 Z-4.500
G1 X462.043 Y92.727 Z-4.500
G1 X462.049 Y92.789 Z-4.500
G1 X462.045 Y92.849 Z-4.500
G1 X462.033 Y92.904 Z-4.500
G1 X462.013 Y92.958 Z-4.500
G1 X461.984 Y93.010 Z-4.500
G1 X461.946 Y93.059 Z-4.500
G1 X461.899 Y93.103 Z-4.500
G1 X461.845 Y93.139 Z-4.500
G1 X461.786 Y93.165 Z-4.500
G1 X461.724 Y93.181 Z-4.500
G1 X461.662 Y93.187 Z-4.500
G1 X461.602 Y93.184 Z-4.500
G1 X461.547 Y93.172 Z-4.500
G1 X461.192 Y94.391 Z-4.500
G1 X460.965 Y94.307 Z-4.500
G1 X460.743 Y94.184 Z-4.500
G1 X460.535 Y94.022 Z-4.500
G1 X460.351 Y93.824 Z-4.500
G1 X460.199 Y93.595 Z-4.500
G1 X460.087 Y93.344 Z-4.500
G1 X460.019 Y93.082 Z-4.500
G1 X459.994 Y92.820 Z-4.500
G1 X460.010 Y92.567 Z-4.500
G1 X460.060 Y92.330 Z-4.500
G1 X460.144 Y92.104 Z-4.500
G1 X460.267 Y91.882 Z-4.500
G1 X460.429 Y91.674 Z-4.500
G1 X460.627 Y91.489 Z-4.500
G1 X460.856 Y91.338 Z-4.500
G1 X461.107 Y91.226 Z-4.500
G1 X461.369 Y91.157 Z-4.500
G1 X461.631 Y91.132 Z-4.500
G1 X461.884 Y91.148 Z-4.500
G1 X462.121 Y91.198 Z-4.500
G1 X462.347 Y91.283 Z-4.500
G1 X462.569 Y91.405 Z-4.500
G1 X462.777 Y91.567 Z-4.500
G1 X462.962 Y91.765 Z-4.500
G1 X463.113 Y91.994 Z-4.500
G1 X463.225 Y92.245 Z-4.500
G1 X463.294 Y92.507 Z-4.500
G1 X463.319 Y92.770 Z-4.500
G1 X463.303 Y93.023 Z-4.500
G1 X463.253 Y93.259 Z-4.500
G1 X463.168 Y93.486 Z-4.500
G1 X463.046 Y93.708 Z-4.500
G1 X462.884 Y93.916 Z-4.500
G1 X462.686 Y94.100 Z-4.500
G1 X462.457 Y94.252 Z-4.500
G1 X462.206 Y94.364 Z-4.500
G1 X461.944 Y94.432 Z-4.500
G1 X461.681 Y94.457 Z-4.500
G1 X461.428 Y94.441 Z-4.500
G1 X461.192 Y94.391 Z-4.500
G0 X461.192 Y94.391
G0 Z6.000
G0 X461.547 Y93.172
G0 Z6.000
G1 X461.547 Y93.172 Z-5.250 F254.0
G1 X461.498 Y93.154 Z-5.250 F177.8
G1 X461.450 Y93.129 Z-5.250
G1 X461.405 Y93.096 Z-5.250
G1 X461.363 Y93.056 Z-5.250
G1 X461.327 Y93.009 Z-5.250
G1 X461.299 Y92.957 Z-5.250
G1 X461.279 Y92.902 Z-5.250
G1 X461.267 Y92.846 Z-5.250
G1 X461.264 Y92.790 Z-5.250
G1 X461.268 Y92.736 Z-5.250
G1 X461.279 Y92.685 Z-5.250
G1 X461.299 Y92.632 Z-5.250
G1 X461.328 Y92.579 Z-5.250
G1 X461.366 Y92.530 Z-5.250
G1 X461.413 Y92.486 Z-5.250
G1 X461.467 Y92.451 Z-5.250
G1 X461.527 Y92.424 Z-5.250
G1 X461.588 Y92.408 Z-5.250
G1 X461.650 Y92.402 Z-5.250
G1 X461.710 Y92.406 Z-5.250
G1 X461.766 Y92.418 Z-5.250
G1 X461.819 Y92.438 Z-5.250
G1 X461.872 Y92.467 Z-5.250
G1 X461.921 Y92.505 Z-5.250
G1 X461.965 Y92.552 Z-5.250
G1 X462.000 Y92.606 Z-5.250
G1 X462.027 Y92.665 Z-5.250
G1 X462.043 Y92.727 Z-5.250
G1 X462.049 Y92.789 Z-5.250
G1 X462.045 Y92.849 Z-5.250
G1 X462.033 Y92.904 Z-5.250
G1 X462.013 Y92.958 Z-5.250
G1 X461.984 Y93.010 Z-5.250
G1 X461.946 Y93.059 Z-5.250
G1 X461.899 Y93.103 Z-5.250
G1 X461.845 Y93.139 Z-5.250
G1 X461.786 Y93.165 Z-5.250
G1 X461.724 Y93.181 Z-5.250
G1 X461.662 Y93.187 Z-5.250
G1 X461.602 Y93.184 Z-5.250
G1 X461.547 Y93.172 Z-5.250
G1 X461.192 Y94.391 Z-5.250
G1 X460.965 Y94.307 Z-5.250
G1 X460.743 Y94.184 Z-5.250
G1 X460.535 Y94.022 Z-5.250
G1 X460.351 Y93.824 Z-5.250
G1 X460.199 Y93.595 Z-5.250
G1 X460.087 Y93.344 Z-5.250
G1 X460.019 Y93.082 Z-5.250
G1 X459.994 Y92.820 Z-5.250
G1 X460.010 Y92.567 Z-5.250
G1 X460.060 Y92.330 Z-5.250
G1 X460.144 Y92.104 Z-5.250
G1 X460.267 Y91.882 Z-5.250
G1 X460.429 Y91.674 Z-5.250
G1 X460.627 Y91.489 Z-5.250
G1 X460.856 Y91.338 Z-5.250
G1 X461.107 Y91.226 Z-5.250
G1 X461.369 Y91.157 Z-5.250
G1 X461.631 Y91.132 Z-5.250
G1 X461.884 Y91.148 Z-5.250
G1 X462.121 Y91.198 Z-5.250
G1 X462.347 Y91.283 Z-5.250
G1 X462.569 Y91.405 Z-5.250
G1 X462.777 Y91.567 Z-5.250
G1 X462.962 Y91.765 Z-5.250
G1 X463.113 Y91.994 Z-5.250
G1 X463.225 Y92.245 Z-5.250
G1 X463.294 Y92.507 Z-5.250
G1 X463.319 Y92.770 Z-5.250
G1 X463.303 Y93.023 Z-5.250
G1 X463.253 Y93.259 Z-5.250
G1 X463.168 Y93.486 Z-5.250
G1 X463.046 Y93.708 Z-5.250
G1 X462.884 Y93.916 Z-5.250
G1 X462.686 Y94.100 Z-5.250
G1 X462.457 Y94.252 Z-5.250
G1 X462.206 Y94.364 Z-5.250
G1 X461.944 Y94.432 Z-5.250
G1 X461.681 Y94.457 Z-5.250
G1 X461.428 Y94.441 Z-5.250
G1 X461.192 Y94.391 Z-5.250
G0 X461.192 Y94.391
G0 Z6.000
G0 X461.547 Y93.172
G0 Z6.000
G1 X461.547 Y93.172 Z-6.000 F254.0
G1 X461.498 Y93.154 Z-6.000 F177.8
G1 X461.450 Y93.129 Z-6.000
G1 X461.405 Y93.096 Z-6.000
G1 X461.363 Y93.056 Z-6.000
G1 X461.327 Y93.009 Z-6.000
G1 X461.299 Y92.957 Z-6.000
G1 X461.279 Y92.902 Z-6.000
G1 X461.267 Y92.846 Z-6.000
G1 X461.264 Y92.790 Z-6.000
G1 X461.268 Y92.736 Z-6.000
G1 X461.279 Y92.685 Z-6.000
G1 X461.299 Y92.632 Z-6.000
G1 X461.328 Y92.579 Z-6.000
G1 X461.366 Y92.530 Z-6.000
G1 X461.413 Y92.486 Z-6.000
G1 X461.467 Y92.451 Z-6.000
G1 X461.527 Y92.424 Z-6.000
G1 X461.588 Y92.408 Z-6.000
G1 X461.650 Y92.402 Z-6.000
G1 X461.710 Y92.406 Z-6.000
G1 X461.766 Y92.418 Z-6.000
G1 X461.819 Y92.438 Z-6.000
G1 X461.872 Y92.467 Z-6.000
G1 X461.921 Y92.505 Z-6.000
G1 X461.965 Y92.552 Z-6.000
G1 X462.000 Y92.606 Z-6.000
G1 X462.027 Y92.665 Z-6.000
G1 X462.043 Y92.727 Z-6.000
G1 X462.049 Y92.789 Z-6.000
G1 X462.045 Y92.849 Z-6.000
G1 X462.033 Y92.904 Z-6.000
G1 X462.013 Y92.958 Z-6.000
G1 X461.984 Y93.010 Z-6.000
G1 X461.946 Y93.059 Z-6.000
G1 X461.899 Y93.103 Z-6.000
G1 X461.845 Y93.139 Z-6.000
G1 X461.786 Y93.165 Z-6.000
G1 X461.724 Y93.181 Z-6.000
G1 X461.662 Y93.187 Z-6.000
G1 X461.602 Y93.184 Z-6.000
G1 X461.547 Y93.172 Z-6.000
G1 X461.192 Y94.391 Z-6.000
G1 X460.965 Y94.307 Z-6.000
G1 X460.743 Y94.184 Z-6.000
G1 X460.535 Y94.022 Z-6.000
G1 X460.351 Y93.824 Z-6.000
G1 X460.199 Y93.595 Z-6.000
G1 X460.087 Y93.344 Z-6.000
G1 X460.019 Y93.082 Z-6.000
G1 X459.994 Y92.820 Z-6.000
G1 X460.010 Y92.567 Z-6.000
G1 X460.060 Y92.330 Z-6.000
G1 X460.144 Y92.104 Z-6.000
G1 X460.267 Y91.882 Z-6.000
G1 X460.429 Y91.674 Z-6.000
G1 X460.627 Y91.489 Z-6.000
G1 X460.856 Y91.338 Z-6.000
G1 X461.107 Y91.226 Z-6.000
G1 X461.369 Y91.157 Z-6.000
G1 X461.631 Y91.132 Z-6.000
G1 X461.884 Y91.148 Z-6.000
G1 X462.121 Y91.198 Z-6.000
G1 X462.347 Y91.283 Z-6.000
G1 X462.569 Y91.405 Z-6.000
G1 X462.777 Y91.567 Z-6.000
G1 X462.962 Y91.765 Z-6.000
G1 X463.113 Y91.994 Z-6.000
G1 X463.225 Y92.245 Z-6.000
G1 X463.294 Y92.507 Z-6.000
G1 X463.319 Y92.770 Z-6.000
G1 X463.303 Y93.023 Z-6.000
G1 X463.253 Y93.259 Z-6.000
G1 X463.168 Y93.486 Z-6.000
G1 X463.046 Y93.708 Z-6.000
G1 X462.884 Y93.916 Z-6.000
G1 X462.686 Y94.100 Z-6.000
G1 X462.457 Y94.252 Z-6.000
G1 X462.206 Y94.364 Z-6.000
G1 X461.944 Y94.432 Z-6.000
G1 X461.681 Y94.457 Z-6.000
G1 X461.428 Y94.441 Z-6.000
G1 X461.192 Y94.391 Z-6.000
G0 X461.192 Y94.391
G0 Z6.000
G0 X461.547 Y93.172
G0 Z6.000
G1 X461.547 Y93.172 Z-6.750 F254.0
G1 X461.498 Y93.154 Z-6.750 F177.8
G1 X461.450 Y93.129 Z-6.750
G1 X461.405 Y93.096 Z-6.750
G1 X461.363 Y93.056 Z-6.750
G1 X461.327 Y93.009 Z-6.750
G1 X461.299 Y92.957 Z-6.750
G1 X461.279 Y92.902 Z-6.750
G1 X461.267 Y92.846 Z-6.750
G1 X461.264 Y92.790 Z-6.750
G1 X461.268 Y92.736 Z-6.750
G1 X461.279 Y92.685 Z-6.750
G1 X461.299 Y92.632 Z-6.750
G1 X461.328 Y92.579 Z-6.750
G1 X461.366 Y92.530 Z-6.750
G1 X461.413 Y92.486 Z-6.750
G1 X461.467 Y92.451 Z-6.750
G1 X461.527 Y92.424 Z-6.750
G1 X461.588 Y92.408 Z-6.750
G1 X461.650 Y92.402 Z-6.750
G1 X461.710 Y92.406 Z-6.750
G1 X461.766 Y92.418 Z-6.750
G1 X461.819 Y92.438 Z-6.750
G1 X461.872 Y92.467 Z-6.750
G1 X461.921 Y92.505 Z-6.750
G1 X461.965 Y92.552 Z-6.750
G1 X462.000 Y92.606 Z-6.750
G1 X462.027 Y92.665 Z-6.750
G1 X462.043 Y92.727 Z-6.750
G1 X462.049 Y92.789 Z-6.750
G1 X462.045 Y92.849 Z-6.750
G1 X462.033 Y92.904 Z-6.750
G1 X462.013 Y92.958 Z-6.750
G1 X461.984 Y93.010 Z-6.750
G1 X461.946 Y93.059 Z-6.750
G1 X461.899 Y93.103 Z-6.750
G1 X461.845 Y93.139 Z-6.750
G1 X461.786 Y93.165 Z-6.750
G1 X461.724 Y93.181 Z-6.750
G1 X461.662 Y93.187 Z-6.750
G1 X461.602 Y93.184 Z-6.750
G1 X461.547 Y93.172 Z-6.750
G1 X461.192 Y94.391 Z-6.750
G1 X460.965 Y94.307 Z-6.750
G1 X460.743 Y94.184 Z-6.750
G1 X460.535 Y94.022 Z-6.750
G1 X460.351 Y93.824 Z-6.750
G1 X460.199 Y93.595 Z-6.750
G1 X460.087 Y93.344 Z-6.750
G1 X460.019 Y93.082 Z-6.750
G1 X459.994 Y92.820 Z-6.750
G1 X460.010 Y92.567 Z-6.750
G1 X460.060 Y92.330 Z-6.750
G1 X460.144 Y92.104 Z-6.750
G1 X460.267 Y91.882 Z-6.750
G1 X460.429 Y91.674 Z-6.750
G1 X460.627 Y91.489 Z-6.750
G1 X460.856 Y91.338 Z-6.750
G1 X461.107 Y91.226 Z-6.750
G1 X461.369 Y91.157 Z-6.750
G1 X461.631 Y91.132 Z-6.750
G1 X461.884 Y91.148 Z-6.750
G1 X462.121 Y91.198 Z-6.750
G1 X462.347 Y91.283 Z-6.750
G1 X462.569 Y91.405 Z-6.750
G1 X462.777 Y91.567 Z-6.750
G1 X462.962 Y91.765 Z-6.750
G1 X463.113 Y91.994 Z-6.750
G1 X463.225 Y92.245 Z-6.750
G1 X463.294 Y92.507 Z-6.750
G1 X463.319 Y92.770 Z-6.750
G1 X463.303 Y93.023 Z-6.750
G1 X463.253 Y93.259 Z-6.750
G1 X463.168 Y93.486 Z-6.750
G1 X463.046 Y93.708 Z-6.750
G1 X462.884 Y93.916 Z-6.750
G1 X462.686 Y94.100 Z-6.750
G1 X462.457 Y94.252 Z-6.750
G1 X462.206 Y94.364 Z-6.750
G1 X461.944 Y94.432 Z-6.750
G1 X461.681 Y94.457 Z-6.750
G1 X461.428 Y94.441 Z-6.750
G1 X461.192 Y94.391 Z-6.750
G0 X461.192 Y94.391
G0 Z6.000
G0 X461.547 Y93.172
G0 Z6.000
G1 X461.547 Y93.172 Z-7.500 F254.0
G1 X461.498 Y93.154 Z-7.500 F177.8
G1 X461.450 Y93.129 Z-7.500
G1 X461.405 Y93.096 Z-7.500
G1 X461.363 Y93.056 Z-7.500
G1 X461.327 Y93.009 Z-7.500
G1 X461.299 Y92.957 Z-7.500
G1 X461.279 Y92.902 Z-7.500
G1 X461.267 Y92.846 Z-7.500
G1 X461.264 Y92.790 Z-7.500
G1 X461.268 Y92.736 Z-7.500
G1 X461.279 Y92.685 Z-7.500
G1 X461.299 Y92.632 Z-7.500
G1 X461.328 Y92.579 Z-7.500
G1 X461.366 Y92.530 Z-7.500
G1 X461.413 Y92.486 Z-7.500
G1 X461.467 Y92.451 Z-7.500
G1 X461.527 Y92.424 Z-7.500
G1 X461.588 Y92.408 Z-7.500
G1 X461.650 Y92.402 Z-7.500
G1 X461.710 Y92.406 Z-7.500
G1 X461.766 Y92.418 Z-7.500
G1 X461.819 Y92.438 Z-7.500
G1 X461.872 Y92.467 Z-7.500
G1 X461.921 Y92.505 Z-7.500
G1 X461.965 Y92.552 Z-7.500
G1 X462.000 Y92.606 Z-7.500
G1 X462.027 Y92.665 Z-7.500
G1 X462.043 Y92.727 Z-7.500
G1 X462.049 Y92.789 Z-7.500
G1 X462.045 Y92.849 Z-7.500
G1 X462.033 Y92.904 Z-7.500
G1 X462.013 Y92.958 Z-7.500
G1 X461.984 Y93.010 Z-7.500
G1 X461.946 Y93.059 Z-7.500
G1 X461.899 Y93.103 Z-7.500
G1 X461.845 Y93.139 Z-7.500
G1 X461.786 Y93.165 Z-7.500
G1 X461.724 Y93.181 Z-7.500
G1 X461.662 Y93.187 Z-7.500
G1 X461.602 Y93.184 Z-7.500
G1 X461.547 Y93.172 Z-7.500
G1 X461.192 Y94.391 Z-7.500
G1 X460.965 Y94.307 Z-7.500
G1 X460.743 Y94.184 Z-7.500
G1 X460.535 Y94.022 Z-7.500
G1 X460.351 Y93.824 Z-7.500
G1 X460.199 Y93.595 Z-7.500
G1 X460.087 Y93.344 Z-7.500
G1 X460.019 Y93.082 Z-7.500
G1 X459.994 Y92.820 Z-7.500
G1 X460.010 Y92.567 Z-7.500
G1 X460.060 Y92.330 Z-7.500
G1 X460.144 Y92.104 Z-7.500
G1 X460.267 Y91.882 Z-7.500
G1 X460.429 Y91.674 Z-7.500
G1 X460.627 Y91.489 Z-7.500
G1 X460.856 Y91.338 Z-7.500
G1 X461.107 Y91.226 Z-7.500
G1 X461.369 Y91.157 Z-7.500
G1 X461.631 Y91.132 Z-7.500
G1 X461.884 Y91.148 Z-7.500
G1 X462.121 Y91.198 Z-7.500
G1 X462.347 Y91.283 Z-7.500
G1 X462.569 Y91.405 Z-7.500
G1 X462.777 Y91.567 Z-7.500
G1 X462.962 Y91.765 Z-7.500
G1 X463.113 Y91.994 Z-7.500
G1 X463.225 Y92.245 Z-7.500
G1 X463.294 Y92.507 Z-7.500
G1 X463.319 Y92.770 Z-7.500
G1 X463.303 Y93.023 Z-7.500
G1 X463.253 Y93.259 Z-7.500
G1 X463.168 Y93.486 Z-7.500
G1 X463.046 Y93.708 Z-7.500
G1 X462.884 Y93.916 Z-7.500
G1 X462.686 Y94.100 Z-7.500
G1 X462.457 Y94.252 Z-7.500
G1 X462.206 Y94.364 Z-7.500
G1 X461.944 Y94.432 Z-7.500
G1 X461.681 Y94.457 Z-7.500
G1 X461.428 Y94.441 Z-7.500
G1 X461.192 Y94.391 Z-7.500
G0 X461.192 Y94.391
G0 Z6.000
G0 X461.547 Y93.172
G0 Z6.000
G1 X461.547 Y93.172 Z-8.250 F254.0
G1 X461.498 Y93.154 Z-8.250 F177.8
G1 X461.450 Y93.129 Z-8.250
G1 X461.405 Y93.096 Z-8.250
G1 X461.363 Y93.056 Z-8.250
G1 X461.327 Y93.009 Z-8.250
G1 X461.299 Y92.957 Z-8.250
G1 X461.279 Y92.902 Z-8.250
G1 X461.267 Y92.846 Z-8.250
G1 X461.264 Y92.790 Z-8.250
G1 X461.268 Y92.736 Z-8.250
G1 X461.279 Y92.685 Z-8.250
G1 X461.299 Y92.632 Z-8.250
G1 X461.328 Y92.579 Z-8.250
G1 X461.366 Y92.530 Z-8.250
G1 X461.413 Y92.486 Z-8.250
G1 X461.467 Y92.451 Z-8.250
G1 X461.527 Y92.424 Z-8.250
G1 X461.588 Y92.408 Z-8.250
G1 X461.650 Y92.402 Z-8.250
G1 X461.710 Y92.406 Z-8.250
G1 X461.766 Y92.418 Z-8.250
G1 X461.819 Y92.438 Z-8.250
G1 X461.872 Y92.467 Z-8.250
G1 X461.921 Y92.505 Z-8.250
G1 X461.965 Y92.552 Z-8.250
G1 X462.000 Y92.606 Z-8.250
G1 X462.027 Y92.665 Z-8.250
G1 X462.043 Y92.727 Z-8.250
G1 X462.049 Y92.789 Z-8.250
G1 X462.045 Y92.849 Z-8.250
G1 X462.033 Y92.904 Z-8.250
G1 X462.013 Y92.958 Z-8.250
G1 X461.984 Y93.010 Z-8.250
G1 X461.946 Y93.059 Z-8.250
G1 X461.899 Y93.103 Z-8.250
G1 X461.845 Y93.139 Z-8.250
G1 X461.786 Y93.165 Z-8.250
G1 X461.724 Y93.181 Z-8.250
G1 X461.662 Y93.187 Z-8.250
G1 X461.602 Y93.184 Z-8.250
G1 X461.547 Y93.172 Z-8.250
G1 X461.192 Y94.391 Z-8.250
G1 X460.965 Y94.307 Z-8.250
G1 X460.743 Y94.184 Z-8.250
G1 X460.535 Y94.022 Z-8.250
G1 X460.351 Y93.824 Z-8.250
G1 X460.199 Y93.595 Z-8.250
G1 X460.087 Y93.344 Z-8.250
G1 X460.019 Y93.082 Z-8.250
G1 X459.994 Y92.820 Z-8.250
G1 X460.010 Y92.567 Z-8.250
G1 X460.060 Y92.330 Z-8.250
G1 X460.144 Y92.104 Z-8.250
G1 X460.267 Y91.882 Z-8.250
G1 X460.429 Y91.674 Z-8.250
G1 X460.627 Y91.489 Z-8.250
G1 X460.856 Y91.338 Z-8.250
G1 X461.107 Y91.226 Z-8.250
G1 X461.369 Y91.157 Z-8.250
G1 X461.631 Y91.132 Z-8.250
G1 X461.884 Y91.148 Z-8.250
G1 X462.121 Y91.198 Z-8.250
G1 X462.347 Y91.283 Z-8.250
G1 X462.569 Y91.405 Z-8.250
G1 X462.777 Y91.567 Z-8.250
G1 X462.962 Y91.765 Z-8.250
G1 X463.113 Y91.994 Z-8.250
G1 X463.225 Y92.245 Z-8.250
G1 X463.294 Y92.507 Z-8.250
G1 X463.319 Y92.770 Z-8.250
G1 X463.303 Y93.023 Z-8.250
G1 X463.253 Y93.259 Z-8.250
G1 X463.168 Y93.486 Z-8.250
G1 X463.046 Y93.708 Z-8.250
G1 X462.884 Y93.916 Z-8.250
G1 X462.686 Y94.100 Z-8.250
G1 X462.457 Y94.252 Z-8.250
G1 X462.206 Y94.364 Z-8.250
G1 X461.944 Y94.432 Z-8.250
G1 X461.681 Y94.457 Z-8.250
G1 X461.428 Y94.441 Z-8.250
G1 X461.192 Y94.391 Z-8.250
G0 X461.192 Y94.391
G0 Z6.000
G0 X461.547 Y93.172
G0 Z6.000
G1 X461.547 Y93.172 Z-9.000 F254.0
G1 X461.498 Y93.154 Z-9.000 F177.8
G1 X461.450 Y93.129 Z-9.000
G1 X461.405 Y93.096 Z-9.000
G1 X461.363 Y93.056 Z-9.000
G1 X461.327 Y93.009 Z-9.000
G1 X461.299 Y92.957 Z-9.000
G1 X461.279 Y92.902 Z-9.000
G1 X461.267 Y92.846 Z-9.000
G1 X461.264 Y92.790 Z-9.000
G1 X461.268 Y92.736 Z-9.000
G1 X461.279 Y92.685 Z-9.000
G1 X461.299 Y92.632 Z-9.000
G1 X461.328 Y92.579 Z-9.000
G1 X461.366 Y92.530 Z-9.000
G1 X461.413 Y92.486 Z-9.000
G1 X461.467 Y92.451 Z-9.000
G1 X461.527 Y92.424 Z-9.000
G1 X461.588 Y92.408 Z-9.000
G1 X461.650 Y92.402 Z-9.000
G1 X461.710 Y92.406 Z-9.000
G1 X461.766 Y92.418 Z-9.000
G1 X461.819 Y92.438 Z-9.000
G1 X461.872 Y92.467 Z-9.000
G1 X461.921 Y92.505 Z-9.000
G1 X461.965 Y92.552 Z-9.000
G1 X462.000 Y92.606 Z-9.000
G1 X462.027 Y92.665 Z-9.000
G1 X462.043 Y92.727 Z-9.000
G1 X462.049 Y92.789 Z-9.000
G1 X462.045 Y92.849 Z-9.000
G1 X462.033 Y92.904 Z-9.000
G1 X462.013 Y92.958 Z-9.000
G1 X461.984 Y93.010 Z-9.000
G1 X461.946 Y93.059 Z-9.000
G1 X461.899 Y93.103 Z-9.000
G1 X461.845 Y93.139 Z-9.000
G1 X461.786 Y93.165 Z-9.000
G1 X461.724 Y93.181 Z-9.000
G1 X461.662 Y93.187 Z-9.000
G1 X461.602 Y93.184 Z-9.000
G1 X461.547 Y93.172 Z-9.000
G1 X461.192 Y94.391 Z-9.000
G1 X460.965 Y94.307 Z-9.000
G1 X460.743 Y94.184 Z-9.000
G1 X460.535 Y94.022 Z-9.000
G1 X460.351 Y93.824 Z-9.000
G1 X460.199 Y93.595 Z-9.000
G1 X460.087 Y93.344 Z-9.000
G1 X460.019 Y93.082 Z-9.000
G1 X459.994 Y92.820 Z-9.000
G1 X460.010 Y92.567 Z-9.000
G1 X460.060 Y92.330 Z-9.000
G1 X460.144 Y92.104 Z-9.000
G1 X460.267 Y91.882 Z-9.000
G1 X460.429 Y91.674 Z-9.000
G1 X460.627 Y91.489 Z-9.000
G1 X460.856 Y91.338 Z-9.000
G1 X461.107 Y91.226 Z-9.000
G1 X461.369 Y91.157 Z-9.000
G1 X461.631 Y91.132 Z-9.000
G1 X461.884 Y91.148 Z-9.000
G1 X462.121 Y91.198 Z-9.000
G1 X462.347 Y91.283 Z-9.000
G1 X462.569 Y91.405 Z-9.000
G1 X462.777 Y91.567 Z-9.000
G1 X462.962 Y91.765 Z-9.000
G1 X463.113 Y91.994 Z-9.000
G1 X463.225 Y92.245 Z-9.000
G1 X463.294 Y92.507 Z-9.000
G1 X463.319 Y92.770 Z-9.000
G1 X463.303 Y93.023 Z-9.000
G1 X463.253 Y93.259 Z-9.000
G1 X463.168 Y93.486 Z-9.000
G1 X463.046 Y93.708 Z-9.000
G1 X462.884 Y93.916 Z-9.000
G1 X462.686 Y94.100 Z-9.000
G1 X462.457 Y94.252 Z-9.000
G1 X462.206 Y94.364 Z-9.000
G1 X461.944 Y94.432 Z-9.000
G1 X461.681 Y94.457 Z-9.000
G1 X461.428 Y94.441 Z-9.000
G1 X461.192 Y94.391 Z-9.000
G0 X461.192 Y94.391
G0 Z6.000
G0 X461.547 Y93.172
G0 Z6.000
G1 X461.547 Y93.172 Z-9.750 F254.0
G1 X461.498 Y93.154 Z-9.750 F177.8
G1 X461.450 Y93.129 Z-9.750
G1 X461.405 Y93.096 Z-9.750
G1 X461.363 Y93.056 Z-9.750
G1 X461.327 Y93.009 Z-9.750
G1 X461.299 Y92.957 Z-9.750
G1 X461.279 Y92.902 Z-9.750
G1 X461.267 Y92.846 Z-9.750
G1 X461.264 Y92.790 Z-9.750
G1 X461.268 Y92.736 Z-9.750
G1 X461.279 Y92.685 Z-9.750
G1 X461.299 Y92.632 Z-9.750
G1 X461.328 Y92.579 Z-9.750
G1 X461.366 Y92.530 Z-9.750
G1 X461.413 Y92.486 Z-9.750
G1 X461.467 Y92.451 Z-9.750
G1 X461.527 Y92.424 Z-9.750
G1 X461.588 Y92.408 Z-9.750
G1 X461.650 Y92.402 Z-9.750
G1 X461.710 Y92.406 Z-9.750
G1 X461.766 Y92.418 Z-9.750
G1 X461.819 Y92.438 Z-9.750
G1 X461.872 Y92.467 Z-9.750
G1 X461.921 Y92.505 Z-9.750
G1 X461.965 Y92.552 Z-9.750
G1 X462.000 Y92.606 Z-9.750
G1 X462.027 Y92.665 Z-9.750
G1 X462.043 Y92.727 Z-9.750
G1 X462.049 Y92.789 Z-9.750
G1 X462.045 Y92.849 Z-9.750
G1 X462.033 Y92.904 Z-9.750
G1 X462.013 Y92.958 Z-9.750
G1 X461.984 Y93.010 Z-9.750
G1 X461.946 Y93.059 Z-9.750
G1 X461.899 Y93.103 Z-9.750
G1 X461.845 Y93.139 Z-9.750
G1 X461.786 Y93.165 Z-9.750
G1 X461.724 Y93.181 Z-9.750
G1 X461.662 Y93.187 Z-9.750
G1 X461.602 Y93.184 Z-9.750
G1 X461.547 Y93.172 Z-9.750
G1 X461.192 Y94.391 Z-9.750
G1 X460.965 Y94.307 Z-9.750
G1 X460.743 Y94.184 Z-9.750
G1 X460.535 Y94.022 Z-9.750
G1 X460.351 Y93.824 Z-9.750
G1 X460.199 Y93.595 Z-9.750
G1 X460.087 Y93.344 Z-9.750
G1 X460.019 Y93.082 Z-9.750
G1 X459.994 Y92.820 Z-9.750
G1 X460.010 Y92.567 Z-9.750
G1 X460.060 Y92.330 Z-9.750
G1 X460.144 Y92.104 Z-9.750
G1 X460.267 Y91.882 Z-9.750
G1 X460.429 Y91.674 Z-9.750
G1 X460.627 Y91.489 Z-9.750
G1 X460.856 Y91.338 Z-9.750
G1 X461.107 Y91.226 Z-9.750
G1 X461.369 Y91.157 Z-9.750
G1 X461.631 Y91.132 Z-9.750
G1 X461.884 Y91.148 Z-9.750
G1 X462.121 Y91.198 Z-9.750
G1 X462.347 Y91.283 Z-9.750
G1 X462.569 Y91.405 Z-9.750
G1 X462.777 Y91.567 Z-9.750
G1 X462.962 Y91.765 Z-9.750
G1 X463.113 Y91.994 Z-9.750
G1 X463.225 Y92.245 Z-9.750
G1 X463.294 Y92.507 Z-9.750
G1 X463.319 Y92.770 Z-9.750
G1 X463.303 Y93.023 Z-9.750
G1 X463.253 Y93.259 Z-9.750
G1 X463.168 Y93.486 Z-9.750
G1 X463.046 Y93.708 Z-9.750
G1 X462.884 Y93.916 Z-9.750
G1 X462.686 Y94.100 Z-9.750
G1 X462.457 Y94.252 Z-9.750
G1 X462.206 Y94.364 Z-9.750
G1 X461.944 Y94.432 Z-9.750
G1 X461.681 Y94.457 Z-9.750
G1 X461.428 Y94.441 Z-9.750
G1 X461.192 Y94.391 Z-9.750
G0 X461.192 Y94.391
G0 Z6.000
G0 X461.547 Y93.172
G0 Z6.000
G1 X461.547 Y93.172 Z-10.500 F254.0
G1 X461.498 Y93.154 Z-10.500 F177.8
G1 X461.450 Y93.129 Z-10.500
G1 X461.405 Y93.096 Z-10.500
G1 X461.363 Y93.056 Z-10.500
G1 X461.327 Y93.009 Z-10.500
G1 X461.299 Y92.957 Z-10.500
G1 X461.279 Y92.902 Z-10.500
G1 X461.267 Y92.846 Z-10.500
G1 X461.264 Y92.790 Z-10.500
G1 X461.268 Y92.736 Z-10.500
G1 X461.279 Y92.685 Z-10.500
G1 X461.299 Y92.632 Z-10.500
G1 X461.328 Y92.579 Z-10.500
G1 X461.366 Y92.530 Z-10.500
G1 X461.413 Y92.486 Z-10.500
G1 X461.467 Y92.451 Z-10.500
G1 X461.527 Y92.424 Z-10.500
G1 X461.588 Y92.408 Z-10.500
G1 X461.650 Y92.402 Z-10.500
G1 X461.710 Y92.406 Z-10.500
G1 X461.766 Y92.418 Z-10.500
G1 X461.819 Y92.438 Z-10.500
G1 X461.872 Y92.467 Z-10.500
G1 X461.921 Y92.505 Z-10.500
G1 X461.965 Y92.552 Z-10.500
G1 X462.000 Y92.606 Z-10.500
G1 X462.027 Y92.665 Z-10.500
G1 X462.043 Y92.727 Z-10.500
G1 X462.049 Y92.789 Z-10.500
G1 X462.045 Y92.849 Z-10.500
G1 X462.033 Y92.904 Z-10.500
G1 X462.013 Y92.958 Z-10.500
G1 X461.984 Y93.010 Z-10.500
G1 X461.946 Y93.059 Z-10.500
G1 X461.899 Y93.103 Z-10.500
G1 X461.845 Y93.139 Z-10.500
G1 X461.786 Y93.165 Z-10.500
G1 X461.724 Y93.181 Z-10.500
G1 X461.662 Y93.187 Z-10.500
G1 X461.602 Y93.184 Z-10.500
G1 X461.547 Y93.172 Z-10.500
G1 X461.192 Y94.391 Z-10.500
G1 X460.965 Y94.307 Z-10.500
G1 X460.743 Y94.184 Z-10.500
G1 X460.535 Y94.022 Z-10.500
G1 X460.351 Y93.824 Z-10.500
G1 X460.199 Y93.595 Z-10.500
G1 X460.087 Y93.344 Z-10.500
G1 X460.019 Y93.082 Z-10.500
G1 X459.994 Y92.820 Z-10.500
G1 X460.010 Y92.567 Z-10.500
G1 X460.060 Y92.330 Z-10.500
G1 X460.144 Y92.104 Z-10.500
G1 X460.267 Y91.882 Z-10.500
G1 X460.429 Y91.674 Z-10.500
G1 X460.627 Y91.489 Z-10.500
G1 X460.856 Y91.338 Z-10.500
G1 X461.107 Y91.226 Z-10.500
G1 X461.369 Y91.157 Z-10.500
G1 X461.631 Y91.132 Z-10.500
G1 X461.884 Y91.148 Z-10.500
G1 X462.121 Y91.198 Z-10.500
G1 X462.347 Y91.283 Z-10.500
G1 X462.569 Y91.405 Z-10.500
G1 X462.777 Y91.567 Z-10.500
G1 X462.962 Y91.765 Z-10.500
G1 X463.113 Y91.994 Z-10.500
G1 X463.225 Y92.245 Z-10.500
G1 X463.294 Y92.507 Z-10.500
G1 X463.319 Y92.770 Z-10.500
G1 X463.303 Y93.023 Z-10.500
G1 X463.253 Y93.259 Z-10.500
G1 X463.168 Y93.486 Z-10.500
G1 X463.046 Y93.708 Z-10.500
G1 X462.884 Y93.916 Z-10.500
G1 X462.686 Y94.100 Z-10.500
G1 X462.457 Y94.252 Z-10.500
G1 X462.206 Y94.364 Z-10.500
G1 X461.944 Y94.432 Z-10.500
G1 X461.681 Y94.457 Z-10.500
G1 X461.428 Y94.441 Z-10.500
G1 X461.192 Y94.391 Z-10.500
G0 X461.192 Y94.391
G0 Z6.000
G0 X461.547 Y93.172
G0 Z6.000
G1 X461.547 Y93.172 Z-11.250 F254.0
G1 X461.498 Y93.154 Z-11.250 F177.8
G1 X461.450 Y93.129 Z-11.250
G1 X461.405 Y93.096 Z-11.250
G1 X461.363 Y93.056 Z-11.250
G1 X461.327 Y93.009 Z-11.250
G1 X461.299 Y92.957 Z-11.250
G1 X461.279 Y92.902 Z-11.250
G1 X461.267 Y92.846 Z-11.250
G1 X461.264 Y92.790 Z-11.250
G1 X461.268 Y92.736 Z-11.250
G1 X461.279 Y92.685 Z-11.250
G1 X461.299 Y92.632 Z-11.250
G1 X461.328 Y92.579 Z-11.250
G1 X461.366 Y92.530 Z-11.250
G1 X461.413 Y92.486 Z-11.250
G1 X461.467 Y92.451 Z-11.250
G1 X461.527 Y92.424 Z-11.250
G1 X461.588 Y92.408 Z-11.250
G1 X461.650 Y92.402 Z-11.250
G1 X461.710 Y92.406 Z-11.250
G1 X461.766 Y92.418 Z-11.250
G1 X461.819 Y92.438 Z-11.250
G1 X461.872 Y92.467 Z-11.250
G1 X461.921 Y92.505 Z-11.250
G1 X461.965 Y92.552 Z-11.250
G1 X462.000 Y92.606 Z-11.250
G1 X462.027 Y92.665 Z-11.250
G1 X462.043 Y92.727 Z-11.250
G1 X462.049 Y92.789 Z-11.250
G1 X462.045 Y92.849 Z-11.250
G1 X462.033 Y92.904 Z-11.250
G1 X462.013 Y92.958 Z-11.250
G1 X461.984 Y93.010 Z-11.250
G1 X461.946 Y93.059 Z-11.250
G1 X461.899 Y93.103 Z-11.250
G1 X461.845 Y93.139 Z-11.250
G1 X461.786 Y93.165 Z-11.250
G1 X461.724 Y93.181 Z-11.250
G1 X461.662 Y93.187 Z-11.250
G1 X461.602 Y93.184 Z-11.250
G1 X461.547 Y93.172 Z-11.250
G1 X461.192 Y94.391 Z-11.250
G1 X460.965 Y94.307 Z-11.250
G1 X460.743 Y94.184 Z-11.250
G1 X460.535 Y94.022 Z-11.250
G1 X460.351 Y93.824 Z-11.250
G1 X460.199 Y93.595 Z-11.250
G1 X460.087 Y93.344 Z-11.250
G1 X460.019 Y93.082 Z-11.250
G1 X459.994 Y92.820 Z-11.250
G1 X460.010 Y92.567 Z-11.250
G1 X460.060 Y92.330 Z-11.250
G1 X460.144 Y92.104 Z-11.250
G1 X460.267 Y91.882 Z-11.250
G1 X460.429 Y91.674 Z-11.250
G1 X460.627 Y91.489 Z-11.250
G1 X460.856 Y91.338 Z-11.250
G1 X461.107 Y91.226 Z-11.250
G1 X461.369 Y91.157 Z-11.250
G1 X461.631 Y91.132 Z-11.250
G1 X461.884 Y91.148 Z-11.250
G1 X462.121 Y91.198 Z-11.250
G1 X462.347 Y91.283 Z-11.250
G1 X462.569 Y91.405 Z-11.250
G1 X462.777 Y91.567 Z-11.250
G1 X462.962 Y91.765 Z-11.250
G1 X463.113 Y91.994 Z-11.250
G1 X463.225 Y92.245 Z-11.250
G1 X463.294 Y92.507 Z-11.250
G1 X463.319 Y92.770 Z-11.250
G1 X463.303 Y93.023 Z-11.250
G1 X463.253 Y93.259 Z-11.250
G1 X463.168 Y93.486 Z-11.250
G1 X463.046 Y93.708 Z-11.250
G1 X462.884 Y93.916 Z-11.250
G1 X462.686 Y94.100 Z-11.250
G1 X462.457 Y94.252 Z-11.250
G1 X462.206 Y94.364 Z-11.250
G1 X461.944 Y94.432 Z-11.250
G1 X461.681 Y94.457 Z-11.250
G1 X461.428 Y94.441 Z-11.250
G1 X461.192 Y94.391 Z-11.250
G0 X461.192 Y94.391
G0 Z6.000
G0 X461.547 Y93.172
G0 Z6.000
G1 X461.547 Y93.172 Z-12.000 F254.0
G1 X461.498 Y93.154 Z-12.000 F177.8
G1 X461.450 Y93.129 Z-12.000
G1 X461.405 Y93.096 Z-12.000
G1 X461.363 Y93.056 Z-12.000
G1 X461.327 Y93.009 Z-12.000
G1 X461.299 Y92.957 Z-12.000
G1 X461.279 Y92.902 Z-12.000
G1 X461.267 Y92.846 Z-12.000
G1 X461.264 Y92.790 Z-12.000
G1 X461.268 Y92.736 Z-12.000
G1 X461.279 Y92.685 Z-12.000
G1 X461.299 Y92.632 Z-12.000
G1 X461.328 Y92.579 Z-12.000
G1 X461.366 Y92.530 Z-12.000
G1 X461.413 Y92.486 Z-12.000
G1 X461.467 Y92.451 Z-12.000
G1 X461.527 Y92.424 Z-12.000
G1 X461.588 Y92.408 Z-12.000
G1 X461.650 Y92.402 Z-12.000
G1 X461.710 Y92.406 Z-12.000
G1 X461.766 Y92.418 Z-12.000
G1 X461.819 Y92.438 Z-12.000
G1 X461.872 Y92.467 Z-12.000
G1 X461.921 Y92.505 Z-12.000
G1 X461.965 Y92.552 Z-12.000
G1 X462.000 Y92.606 Z-12.000
G1 X462.027 Y92.665 Z-12.000
G1 X462.043 Y92.727 Z-12.000
G1 X462.049 Y92.789 Z-12.000
G1 X462.045 Y92.849 Z-12.000
G1 X462.033 Y92.904 Z-12.000
G1 X462.013 Y92.958 Z-12.000
G1 X461.984 Y93.010 Z-12.000
G1 X461.946 Y93.059 Z-12.000
G1 X461.899 Y93.103 Z-12.000
G1 X461.845 Y93.139 Z-12.000
G1 X461.786 Y93.165 Z-12.000
G1 X461.724 Y93.181 Z-12.000
G1 X461.662 Y93.187 Z-12.000
G1 X461.602 Y93.184 Z-12.000
G1 X461.547 Y93.172 Z-12.000
G1 X461.192 Y94.391 Z-12.000
G1 X460.965 Y94.307 Z-12.000
G1 X460.743 Y94.184 Z-12.000
G1 X460.535 Y94.022 Z-12.000
G1 X460.351 Y93.824 Z-12.000
G1 X460.199 Y93.595 Z-12.000
G1 X460.087 Y93.344 Z-12.000
G1 X460.019 Y93.082 Z-12.000
G1 X459.994 Y92.820 Z-12.000
G1 X460.010 Y92.567 Z-12.000
G1 X460.060 Y92.330 Z-12.000
G1 X460.144 Y92.104 Z-12.000
G1 X460.267 Y91.882 Z-12.000
G1 X460.429 Y91.674 Z-12.000
G1 X460.627 Y91.489 Z-12.000
G1 X460.856 Y91.338 Z-12.000
G1 X461.107 Y91.226 Z-12.000
G1 X461.369 Y91.157 Z-12.000
G1 X461.631 Y91.132 Z-12.000
G1 X461.884 Y91.148 Z-12.000
G1 X462.121 Y91.198 Z-12.000
G1 X462.347 Y91.283 Z-12.000
G1 X462.569 Y91.405 Z-12.000
G1 X462.777 Y91.567 Z-12.000
G1 X462.962 Y91.765 Z-12.000
G1 X463.113 Y91.994 Z-12.000
G1 X463.225 Y92.245 Z-12.000
G1 X463.294 Y92.507 Z-12.000
G1 X463.319 Y92.770 Z-12.000
G1 X463.303 Y93.023 Z-12.000
G1 X463.253 Y93.259 Z-12.000
G1 X463.168 Y93.486 Z-12.000
G1 X463.046 Y93.708 Z-12.000
G1 X462.884 Y93.916 Z-12.000
G1 X462.686 Y94.100 Z-12.000
G1 X462.457 Y94.252 Z-12.000
G1 X462.206 Y94.364 Z-12.000
G1 X461.944 Y94.432 Z-12.000
G1 X461.681 Y94.457 Z-12.000
G1 X461.428 Y94.441 Z-12.000
G1 X461.192 Y94.391 Z-12.000
G0 X461.192 Y94.391
G0 Z6.000
G0 X547.273 Y95.363
G0 Z6.000
G1 X547.273 Y95.363 Z-0.750 F254.0
G1 X547.220 Y95.343 Z-0.750 F177.8
G1 X547.167 Y95.314 Z-0.750
G1 X547.118 Y95.276 Z-0.750
G1 X547.075 Y95.229 Z-0.750
G1 X547.039 Y95.175 Z-0.750
G1 X547.012 Y95.116 Z-0.750
G1 X546.996 Y95.054 Z-0.750
G1 X546.990 Y94.992 Z-0.750
G1 X546.994 Y94.933 Z-0.750
G1 X547.006 Y94.877 Z-0.750
G1 X547.024 Y94.828 Z-0.750
G1 X547.049 Y94.780 Z-0.750
G1 X547.082 Y94.735 Z-0.750
G1 X547.122 Y94.693 Z-0.750
G1 X547.169 Y94.658 Z-0.750
G1 X547.220 Y94.629 Z-0.750
G1 X547.275 Y94.609 Z-0.750
G1 X547.332 Y94.597 Z-0.750
G1 X547.388 Y94.594 Z-0.750
G1 X547.442 Y94.598 Z-0.750
G1 X547.492 Y94.610 Z-0.750
G1 X547.541 Y94.627 Z-0.750
G1 X547.589 Y94.652 Z-0.750
G1 X547.635 Y94.685 Z-0.750
G1 X547.676 Y94.725 Z-0.750
G1 X547.712 Y94.772 Z-0.750
G1 X547.740 Y94.824 Z-0.750
G1 X547.760 Y94.879 Z-0.750
G1 X547.772 Y94.936 Z-0.750
G1 X547.775 Y94.992 Z-0.750
G1 X547.771 Y95.046 Z-0.750
G1 X547.760 Y95.096 Z-0.750
G1 X547.742 Y95.145 Z-0.750
G1 X547.717 Y95.193 Z-0.750
G1 X547.684 Y95.238 Z-0.750
G1 X547.644 Y95.280 Z-0.750
G1 X547.597 Y95.315 Z-0.750
G1 X547.545 Y95.344 Z-0.750
G1 X547.490 Y95.364 Z-0.750
G1 X547.434 Y95.376 Z-0.750
G1 X547.378 Y95.379 Z-0.750
G1 X547.324 Y95.374 Z-0.750
G1 X547.273 Y95.363 Z-0.750
G1 X546.918 Y96.583 Z-0.750
G1 X546.713 Y96.508 Z-0.750
G1 X546.510 Y96.401 Z-0.750
G1 X546.316 Y96.262 Z-0.750
G1 X546.141 Y96.092 Z-0.750
G1 X545.990 Y95.894 Z-0.750
G1 X545.870 Y95.675 Z-0.750
G1 X545.784 Y95.442 Z-0.750
G1 X545.734 Y95.202 Z-0.750
G1 X545.720 Y94.965 Z-0.750
G1 X545.739 Y94.736 Z-0.750
G1 X545.786 Y94.522 Z-0.750
G1 X545.871 Y94.296 Z-0.750
G1 X545.993 Y94.073 Z-0.750
G1 X546.155 Y93.865 Z-0.750
G1 X546.354 Y93.681 Z-0.750
G1 X546.582 Y93.529 Z-0.750
G1 X546.833 Y93.417 Z-0.750
G1 X547.095 Y93.349 Z-0.750
G1 X547.358 Y93.324 Z-0.750
G1 X547.611 Y93.340 Z-0.750
G1 X547.847 Y93.390 Z-0.750
G1 X548.053 Y93.465 Z-0.750
G1 X548.256 Y93.572 Z-0.750
G1 X548.449 Y93.711 Z-0.750
G1 X548.625 Y93.881 Z-0.750
G1 X548.776 Y94.079 Z-0.750
G1 X548.896 Y94.298 Z-0.750
G1 X548.982 Y94.531 Z-0.750
G1 X549.031 Y94.771 Z-0.750
G1 X549.045 Y95.008 Z-0.750
G1 X549.026 Y95.237 Z-0.750
G1 X548.979 Y95.451 Z-0.750
G1 X548.895 Y95.677 Z-0.750
G1 X548.772 Y95.899 Z-0.750
G1 X548.610 Y96.108 Z-0.750
G1 X548.412 Y96.292 Z-0.750
G1 X548.183 Y96.444 Z-0.750
G1 X547.932 Y96.555 Z-0.750
G1 X547.670 Y96.624 Z-0.750
G1 X547.408 Y96.649 Z-0.750
G1 X547.155 Y96.633 Z-0.750
G1 X546.918 Y96.583 Z-0.750
G0 X546.918 Y96.583
G0 Z6.000
G0 X547.273 Y95.363
G0 Z6.000
G1 X547.273 Y95.363 Z-1.500 F254.0
G1 X547.220 Y95.343 Z-1.500 F177.8
G1 X547.167 Y95.314 Z-1.500
G1 X547.118 Y95.276 Z-1.500
G1 X547.075 Y95.229 Z-1.500
G1 X547.039 Y95.175 Z-1.500
G1 X547.012 Y95.116 Z-1.500
G1 X546.996 Y95.054 Z-1.500
G1 X546.990 Y94.992 Z-1.500
G1 X546.994 Y94.933 Z-1.500
G1 X547.006 Y94.877 Z-1.500
G1 X547.024 Y94.828 Z-1.500
G1 X547.049 Y94.780 Z-1.500
G1 X547.082 Y94.735 Z-1.500
G1 X547.122 Y94.693 Z-1.500
G1 X547.169 Y94.658 Z-1.500
G1 X547.220 Y94.629 Z-1.500
G1 X547.275 Y94.609 Z-1.500
G1 X547.332 Y94.597 Z-1.500
G1 X547.388 Y94.594 Z-1.500
G1 X547.442 Y94.598 Z-1.500
G1 X547.492 Y94.610 Z-1.500
G1 X547.541 Y94.627 Z-1.500
G1 X547.589 Y94.652 Z-1.500
G1 X547.635 Y94.685 Z-1.500
G1 X547.676 Y94.725 Z-1.500
G1 X547.712 Y94.772 Z-1.500
G1 X547.740 Y94.824 Z-1.500
G1 X547.760 Y94.879 Z-1.500
G1 X547.772 Y94.936 Z-1.500
G1 X547.775 Y94.992 Z-1.500
G1 X547.771 Y95.046 Z-1.500
G1 X547.760 Y95.096 Z-1.500
G1 X547.742 Y95.145 Z-1.500
G1 X547.717 Y95.193 Z-1.500
G1 X547.684 Y95.238 Z-1.500
G1 X547.644 Y95.280 Z-1.500
G1 X547.597 Y95.315 Z-1.500
G1 X547.545 Y95.344 Z-1.500
G1 X547.490 Y95.364 Z-1.500
G1 X547.434 Y95.376 Z-1.500
G1 X547.378 Y95.379 Z-1.500
G1 X547.324 Y95.374 Z-1.500
G1 X547.273 Y95.363 Z-1.500
G1 X546.918 Y96.583 Z-1.500
G1 X546.713 Y96.508 Z-1.500
G1 X546.510 Y96.401 Z-1.500
G1 X546.316 Y96.262 Z-1.500
G1 X546.141 Y96.092 Z-1.500
G1 X545.990 Y95.894 Z-1.500
G1 X545.870 Y95.675 Z-1.500
G1 X545.784 Y95.442 Z-1.500
G1 X545.734 Y95.202 Z-1.500
G1 X545.720 Y94.965 Z-1.500
G1 X545.739 Y94.736 Z-1.500
G1 X545.786 Y94.522 Z-1.500
G1 X545.871 Y94.296 Z-1.500
G1 X545.993 Y94.073 Z-1.500
G1 X546.155 Y93.865 Z-1.500
G1 X546.354 Y93.681 Z-1.500
G1 X546.582 Y93.529 Z-1.500
G1 X546.833 Y93.417 Z-1.500
G1 X547.095 Y93.349 Z-1.500
G1 X547.358 Y93.324 Z-1.500
G1 X547.611 Y93.340 Z-1.500
G1 X547.847 Y93.390 Z-1.500
G1 X548.053 Y93.465 Z-1.500
G1 X548.256 Y93.572 Z-1.500
G1 X548.449 Y93.711 Z-1.500
G1 X548.625 Y93.881 Z-1.500
G1 X548.776 Y94.079 Z-1.500
G1 X548.896 Y94.298 Z-1.500
G1 X548.982 Y94.531 Z-1.500
G1 X549.031 Y94.771 Z-1.500
G1 X549.045 Y95.008 Z-1.500
G1 X549.026 Y95.237 Z-1.500
G1 X548.979 Y95.451 Z-1.500
G1 X548.895 Y95.677 Z-1.500
G1 X548.772 Y95.899 Z-1.500
G1 X548.610 Y96.108 Z-1.500
G1 X548.412 Y96.292 Z-1.500
G1 X548.183 Y96.444 Z-1.500
G1 X547.932 Y96.555 Z-1.500
G1 X547.670 Y96.624 Z-1.500
G1 X547.408 Y96.649 Z-1.500
G1 X547.155 Y96.633 Z-1.500
G1 X546.918 Y96.583 Z-1.500
G0 X546.918 Y96.583
G0 Z6.000
G0 X547.273 Y95.363
G0 Z6.000
G1 X547.273 Y95.363 Z-2.250 F254.0
G1 X547.220 Y95.343 Z-2.250 F177.8
G1 X547.167 Y95.314 Z-2.250
G1 X547.118 Y95.276 Z-2.250
G1 X547.075 Y95.229 Z-2.250
G1 X547.039 Y95.175 Z-2.250
G1 X547.012 Y95.116 Z-2.250
G1 X546.996 Y95.054 Z-2.250
G1 X546.990 Y94.992 Z-2.250
G1 X546.994 Y94.933 Z-2.250
G1 X547.006 Y94.877 Z-2.250
G1 X547.024 Y94.828 Z-2.250
G1 X547.049 Y94.780 Z-2.250
G1 X547.082 Y94.735 Z-2.250
G1 X547.122 Y94.693 Z-2.250
G1 X547.169 Y94.658 Z-2.250
G1 X547.220 Y94.629 Z-2.250
G1 X547.275 Y94.609 Z-2.250
G1 X547.332 Y94.597 Z-2.250
G1 X547.388 Y94.594 Z-2.250
G1 X547.442 Y94.598 Z-2.250
G1 X547.492 Y94.610 Z-2.250
G1 X547.541 Y94.627 Z-2.250
G1 X547.589 Y94.652 Z-2.250
G1 X547.635 Y94.685 Z-2.250
G1 X547.676 Y94.725 Z-2.250
G1 X547.712 Y94.772 Z-2.250
G1 X547.740 Y94.824 Z-2.250
G1 X547.760 Y94.879 Z-2.250
G1 X547.772 Y94.936 Z-2.250
G1 X547.775 Y94.992 Z-2.250
G1 X547.771 Y95.046 Z-2.250
G1 X547.760 Y95.096 Z-2.250
G1 X547.742 Y95.145 Z-2.250
G1 X547.717 Y95.193 Z-2.250
G1 X547.684 Y95.238 Z-2.250
G1 X547.644 Y95.280 Z-2.250
G1 X547.597 Y95.315 Z-2.250
G1 X547.545 Y95.344 Z-2.250
G1 X547.490 Y95.364 Z-2.250
G1 X547.434 Y95.376 Z-2.250
G1 X547.378 Y95.379 Z-2.250
G1 X547.324 Y95.374 Z-2.250
G1 X547.273 Y95.363 Z-2.250
G1 X546.918 Y96.583 Z-2.250
G1 X546.713 Y96.508 Z-2.250
G1 X546.510 Y96.401 Z-2.250
G1 X546.316 Y96.262 Z-2.250
G1 X546.141 Y96.092 Z-2.250
G1 X545.990 Y95.894 Z-2.250
G1 X545.870 Y95.675 Z-2.250
G1 X545.784 Y95.442 Z-2.250
G1 X545.734 Y95.202 Z-2.250
G1 X545.720 Y94.965 Z-2.250
G1 X545.739 Y94.736 Z-2.250
G1 X545.786 Y94.522 Z-2.250
G1 X545.871 Y94.296 Z-2.250
G1 X545.993 Y94.073 Z-2.250
G1 X546.155 Y93.865 Z-2.250
G1 X546.354 Y93.681 Z-2.250
G1 X546.582 Y93.529 Z-2.250
G1 X546.833 Y93.417 Z-2.250
G1 X547.095 Y93.349 Z-2.250
G1 X547.358 Y93.324 Z-2.250
G1 X547.611 Y93.340 Z-2.250
G1 X547.847 Y93.390 Z-2.250
G1 X548.053 Y93.465 Z-2.250
G1 X548.256 Y93.572 Z-2.250
G1 X548.449 Y93.711 Z-2.250
G1 X548.625 Y93.881 Z-2.250
G1 X548.776 Y94.079 Z-2.250
G1 X548.896 Y94.298 Z-2.250
G1 X548.982 Y94.531 Z-2.250
G1 X549.031 Y94.771 Z-2.250
G1 X549.045 Y95.008 Z-2.250
G1 X549.026 Y95.237 Z-2.250
G1 X548.979 Y95.451 Z-2.250
G1 X548.895 Y95.677 Z-2.250
G1 X548.772 Y95.899 Z-2.250
G1 X548.610 Y96.108 Z-2.250
G1 X548.412 Y96.292 Z-2.250
G1 X548.183 Y96.444 Z-2.250
G1 X547.932 Y96.555 Z-2.250
G1 X547.670 Y96.624 Z-2.250
G1 X547.408 Y96.649 Z-2.250
G1 X547.155 Y96.633 Z-2.250
G1 X546.918 Y96.583 Z-2.250
G0 X546.918 Y96.583
G0 Z6.000
G0 X547.273 Y95.363
G0 Z6.000
G1 X547.273 Y95.363 Z-3.000 F254.0
G1 X547.220 Y95.343 Z-3.000 F177.8
G1 X547.167 Y95.314 Z-3.000
G1 X547.118 Y95.276 Z-3.000
G1 X547.075 Y95.229 Z-3.000
G1 X547.039 Y95.175 Z-3.000
G1 X547.012 Y95.116 Z-3.000
G1 X546.996 Y95.054 Z-3.000
G1 X546.990 Y94.992 Z-3.000
G1 X546.994 Y94.933 Z-3.000
G1 X547.006 Y94.877 Z-3.000
G1 X547.024 Y94.828 Z-3.000
G1 X547.049 Y94.780 Z-3.000
G1 X547.082 Y94.735 Z-3.000
G1 X547.122 Y94.693 Z-3.000
G1 X547.169 Y94.658 Z-3.000
G1 X547.220 Y94.629 Z-3.000
G1 X547.275 Y94.609 Z-3.000
G1 X547.332 Y94.597 Z-3.000
G1 X547.388 Y94.594 Z-3.000
G1 X547.442 Y94.598 Z-3.000
G1 X547.492 Y94.610 Z-3.000
G1 X547.541 Y94.627 Z-3.000
G1 X547.589 Y94.652 Z-3.000
G1 X547.635 Y94.685 Z-3.000
G1 X547.676 Y94.725 Z-3.000
G1 X547.712 Y94.772 Z-3.000
G1 X547.740 Y94.824 Z-3.000
G1 X547.760 Y94.879 Z-3.000
G1 X547.772 Y94.936 Z-3.000
G1 X547.775 Y94.992 Z-3.000
G1 X547.771 Y95.046 Z-3.000
G1 X547.760 Y95.096 Z-3.000
G1 X547.742 Y95.145 Z-3.000
G1 X547.717 Y95.193 Z-3.000
G1 X547.684 Y95.238 Z-3.000
G1 X547.644 Y95.280 Z-3.000
G1 X547.597 Y95.315 Z-3.000
G1 X547.545 Y95.344 Z-3.000
G1 X547.490 Y95.364 Z-3.000
G1 X547.434 Y95.376 Z-3.000
G1 X547.378 Y95.379 Z-3.000
G1 X547.324 Y95.374 Z-3.000
G1 X547.273 Y95.363 Z-3.000
G1 X546.918 Y96.583 Z-3.000
G1 X546.713 Y96.508 Z-3.000
G1 X546.510 Y96.401 Z-3.000
G1 X546.316 Y96.262 Z-3.000
G1 X546.141 Y96.092 Z-3.000
G1 X545.990 Y95.894 Z-3.000
G1 X545.870 Y95.675 Z-3.000
G1 X545.784 Y95.442 Z-3.000
G1 X545.734 Y95.202 Z-3.000
G1 X545.720 Y94.965 Z-3.000
G1 X545.739 Y94.736 Z-3.000
G1 X545.786 Y94.522 Z-3.000
G1 X545.871 Y94.296 Z-3.000
G1 X545.993 Y94.073 Z-3.000
G1 X546.155 Y93.865 Z-3.000
G1 X546.354 Y93.681 Z-3.000
G1 X546.582 Y93.529 Z-3.000
G1 X546.833 Y93.417 Z-3.000
G1 X547.095 Y93.349 Z-3.000
G1 X547.358 Y93.324 Z-3.000
G1 X547.611 Y93.340 Z-3.000
G1 X547.847 Y93.390 Z-3.000
G1 X548.053 Y93.465 Z-3.000
G1 X548.256 Y93.572 Z-3.000
G1 X548.449 Y93.711 Z-3.000
G1 X548.625 Y93.881 Z-3.000
G1 X548.776 Y94.079 Z-3.000
G1 X548.896 Y94.298 Z-3.000
G1 X548.982 Y94.531 Z-3.000
G1 X549.031 Y94.771 Z-3.000
G1 X549.045 Y95.008 Z-3.000
G1 X549.026 Y95.237 Z-3.000
G1 X548.979 Y95.451 Z-3.000
G1 X548.895 Y95.677 Z-3.000
G1 X548.772 Y95.899 Z-3.000
G1 X548.610 Y96.108 Z-3.000
G1 X548.412 Y96.292 Z-3.000
G1 X548.183 Y96.444 Z-3.000
G1 X547.932 Y96.555 Z-3.000
G1 X547.670 Y96.624 Z-3.000
G1 X547.408 Y96.649 Z-3.000
G1 X547.155 Y96.633 Z-3.000
G1 X546.918 Y96.583 Z-3.000
G0 X546.918 Y96.583
G0 Z6.000
G0 X547.273 Y95.363
G0 Z6.000
G1 X547.273 Y95.363 Z-3.750 F254.0
G1 X547.220 Y95.343 Z-3.750 F177.8
G1 X547.167 Y95.314 Z-3.750
G1 X547.118 Y95.276 Z-3.750
G1 X547.075 Y95.229 Z-3.750
G1 X547.039 Y95.175 Z-3.750
G1 X547.012 Y95.116 Z-3.750
G1 X546.996 Y95.054 Z-3.750
G1 X546.990 Y94.992 Z-3.750
G1 X546.994 Y94.933 Z-3.750
G1 X547.006 Y94.877 Z-3.750
G1 X547.024 Y94.828 Z-3.750
G1 X547.049 Y94.780 Z-3.750
G1 X547.082 Y94.735 Z-3.750
G1 X547.122 Y94.693 Z-3.750
G1 X547.169 Y94.658 Z-3.750
G1 X547.220 Y94.629 Z-3.750
G1 X547.275 Y94.609 Z-3.750
G1 X547.332 Y94.597 Z-3.750
G1 X547.388 Y94.594 Z-3.750
G1 X547.442 Y94.598 Z-3.750
G1 X547.492 Y94.610 Z-3.750
G1 X547.541 Y94.627 Z-3.750
G1 X547.589 Y94.652 Z-3.750
G1 X547.635 Y94.685 Z-3.750
G1 X547.676 Y94.725 Z-3.750
G1 X547.712 Y94.772 Z-3.750
G1 X547.740 Y94.824 Z-3.750
G1 X547.760 Y94.879 Z-3.750
G1 X547.772 Y94.936 Z-3.750
G1 X547.775 Y94.992 Z-3.750
G1 X547.771 Y95.046 Z-3.750
G1 X547.760 Y95.096 Z-3.750
G1 X547.742 Y95.145 Z-3.750
G1 X547.717 Y95.193 Z-3.750
G1 X547.684 Y95.238 Z-3.750
G1 X547.644 Y95.280 Z-3.750
G1 X547.597 Y95.315 Z-3.750
G1 X547.545 Y95.344 Z-3.750
G1 X547.490 Y95.364 Z-3.750
G1 X547.434 Y95.376 Z-3.750
G1 X547.378 Y95.379 Z-3.750
G1 X547.324 Y95.374 Z-3.750
G1 X547.273 Y95.363 Z-3.750
G1 X546.918 Y96.583 Z-3.750
G1 X546.713 Y96.508 Z-3.750
G1 X546.510 Y96.401 Z-3.750
G1 X546.316 Y96.262 Z-3.750
G1 X546.141 Y96.092 Z-3.750
G1 X545.990 Y95.894 Z-3.750
G1 X545.870 Y95.675 Z-3.750
G1 X545.784 Y95.442 Z-3.750
G1 X545.734 Y95.202 Z-3.750
G1 X545.720 Y94.965 Z-3.750
G1 X545.739 Y94.736 Z-3.750
G1 X545.786 Y94.522 Z-3.750
G1 X545.871 Y94.296 Z-3.750
G1 X545.993 Y94.073 Z-3.750
G1 X546.155 Y93.865 Z-3.750
G1 X546.354 Y93.681 Z-3.750
G1 X546.582 Y93.529 Z-3.750
G1 X546.833 Y93.417 Z-3.750
G1 X547.095 Y93.349 Z-3.750
G1 X547.358 Y93.324 Z-3.750
G1 X547.611 Y93.340 Z-3.750
G1 X547.847 Y93.390 Z-3.750
G1 X548.053 Y93.465 Z-3.750
G1 X548.256 Y93.572 Z-3.750
G1 X548.449 Y93.711 Z-3.750
G1 X548.625 Y93.881 Z-3.750
G1 X548.776 Y94.079 Z-3.750
G1 X548.896 Y94.298 Z-3.750
G1 X548.982 Y94.531 Z-3.750
G1 X549.031 Y94.771 Z-3.750
G1 X549.045 Y95.008 Z-3.750
G1 X549.026 Y95.237 Z-3.750
G1 X548.979 Y95.451 Z-3.750
G1 X548.895 Y95.677 Z-3.750
G1 X548.772 Y95.899 Z-3.750
G1 X548.610 Y96.108 Z-3.750
G1 X548.412 Y96.292 Z-3.750
G1 X548.183 Y96.444 Z-3.750
G1 X547.932 Y96.555 Z-3.750
G1 X547.670 Y96.624 Z-3.750
G1 X547.408 Y96.649 Z-3.750
G1 X547.155 Y96.633 Z-3.750
G1 X546.918 Y96.583 Z-3.750
G0 X546.918 Y96.583
G0 Z6.000
G0 X547.273 Y95.363
G0 Z6.000
G1 X547.273 Y95.363 Z-4.500 F254.0
G1 X547.220 Y95.343 Z-4.500 F177.8
G1 X547.167 Y95.314 Z-4.500
G1 X547.118 Y95.276 Z-4.500
G1 X547.075 Y95.229 Z-4.500
G1 X547.039 Y95.175 Z-4.500
G1 X547.012 Y95.116 Z-4.500
G1 X546.996 Y95.054 Z-4.500
G1 X546.990 Y94.992 Z-4.500
G1 X546.994 Y94.933 Z-4.500
G1 X547.006 Y94.877 Z-4.500
G1 X547.024 Y94.828 Z-4.500
G1 X547.049 Y94.780 Z-4.500
G1 X547.082 Y94.735 Z-4.500
G1 X547.122 Y94.693 Z-4.500
G1 X547.169 Y94.658 Z-4.500
G1 X547.220 Y94.629 Z-4.500
G1 X547.275 Y94.609 Z-4.500
G1 X547.332 Y94.597 Z-4.500
G1 X547.388 Y94.594 Z-4.500
G1 X547.442 Y94.598 Z-4.500
G1 X547.492 Y94.610 Z-4.500
G1 X547.541 Y94.627 Z-4.500
G1 X547.589 Y94.652 Z-4.500
G1 X547.635 Y94.685 Z-4.500
G1 X547.676 Y94.725 Z-4.500
G1 X547.712 Y94.772 Z-4.500
G1 X547.740 Y94.824 Z-4.500
G1 X547.760 Y94.879 Z-4.500
G1 X547.772 Y94.936 Z-4.500
G1 X547.775 Y94.992 Z-4.500
G1 X547.771 Y95.046 Z-4.500
G1 X547.760 Y95.096 Z-4.500
G1 X547.742 Y95.145 Z-4.500
G1 X547.717 Y95.193 Z-4.500
G1 X547.684 Y95.238 Z-4.500
G1 X547.644 Y95.280 Z-4.500
G1 X547.597 Y95.315 Z-4.500
G1 X547.545 Y95.344 Z-4.500
G1 X547.490 Y95.364 Z-4.500
G1 X547.434 Y95.376 Z-4.500
G1 X547.378 Y95.379 Z-4.500
G1 X547.324 Y95.374 Z-4.500
G1 X547.273 Y95.363 Z-4.500
G1 X546.918 Y96.583 Z-4.500
G1 X546.713 Y96.508 Z-4.500
G1 X546.510 Y96.401 Z-4.500
G1 X546.316 Y96.262 Z-4.500
G1 X546.141 Y96.092 Z-4.500
G1 X545.990 Y95.894 Z-4.500
G1 X545.870 Y95.675 Z-4.500
G1 X545.784 Y95.442 Z-4.500
G1 X545.734 Y95.202 Z-4.500
G1 X545.720 Y94.965 Z-4.500
G1 X545.739 Y94.736 Z-4.500
G1 X545.786 Y94.522 Z-4.500
G1 X545.871 Y94.296 Z-4.500
G1 X545.993 Y94.073 Z-4.500
G1 X546.155 Y93.865 Z-4.500
G1 X546.354 Y93.681 Z-4.500
G1 X546.582 Y93.529 Z-4.500
G1 X546.833 Y93.417 Z-4.500
G1 X547.095 Y93.349 Z-4.500
G1 X547.358 Y93.324 Z-4.500
G1 X547.611 Y93.340 Z-4.500
G1 X547.847 Y93.390 Z-4.500
G1 X548.053 Y93.465 Z-4.500
G1 X548.256 Y93.572 Z-4.500
G1 X548.449 Y93.711 Z-4.500
G1 X548.625 Y93.881 Z-4.500
G1 X548.776 Y94.079 Z-4.500
G1 X548.896 Y94.298 Z-4.500
G1 X548.982 Y94.531 Z-4.500
G1 X549.031 Y94.771 Z-4.500
G1 X549.045 Y95.008 Z-4.500
G1 X549.026 Y95.237 Z-4.500
G1 X548.979 Y95.451 Z-4.500
G1 X548.895 Y95.677 Z-4.500
G1 X548.772 Y95.899 Z-4.500
G1 X548.610 Y96.108 Z-4.500
G1 X548.412 Y96.292 Z-4.500
G1 X548.183 Y96.444 Z-4.500
G1 X547.932 Y96.555 Z-4.500
G1 X547.670 Y96.624 Z-4.500
G1 X547.408 Y96.649 Z-4.500
G1 X547.155 Y96.633 Z-4.500
G1 X546.918 Y96.583 Z-4.500
G0 X546.918 Y96.583
G0 Z6.000
G0 X547.273 Y95.363
G0 Z6.000
G1 X547.273 Y95.363 Z-5.250 F254.0
G1 X547.220 Y95.343 Z-5.250 F177.8
G1 X547.167 Y95.314 Z-5.250
G1 X547.118 Y95.276 Z-5.250
G1 X547.075 Y95.229 Z-5.250
G1 X547.039 Y95.175 Z-5.250
G1 X547.012 Y95.116 Z-5.250
G1 X546.996 Y95.054 Z-5.250
G1 X546.990 Y94.992 Z-5.250
G1 X546.994 Y94.933 Z-5.250
G1 X547.006 Y94.877 Z-5.250
G1 X547.024 Y94.828 Z-5.250
G1 X547.049 Y94.780 Z-5.250
G1 X547.082 Y94.735 Z-5.250
G1 X547.122 Y94.693 Z-5.250
G1 X547.169 Y94.658 Z-5.250
G1 X547.220 Y94.629 Z-5.250
G1 X547.275 Y94.609 Z-5.250
G1 X547.332 Y94.597 Z-5.250
G1 X547.388 Y94.594 Z-5.250
G1 X547.442 Y94.598 Z-5.250
G1 X547.492 Y94.610 Z-5.250
G1 X547.541 Y94.627 Z-5.250
G1 X547.589 Y94.652 Z-5.250
G1 X547.635 Y94.685 Z-5.250
G1 X547.676 Y94.725 Z-5.250
G1 X547.712 Y94.772 Z-5.250
G1 X547.740 Y94.824 Z-5.250
G1 X547.760 Y94.879 Z-5.250
G1 X547.772 Y94.936 Z-5.250
G1 X547.775 Y94.992 Z-5.250
G1 X547.771 Y95.046 Z-5.250
G1 X547.760 Y95.096 Z-5.250
G1 X547.742 Y95.145 Z-5.250
G1 X547.717 Y95.193 Z-5.250
G1 X547.684 Y95.238 Z-5.250
G1 X547.644 Y95.280 Z-5.250
G1 X547.597 Y95.315 Z-5.250
G1 X547.545 Y95.344 Z-5.250
G1 X547.490 Y95.364 Z-5.250
G1 X547.434 Y95.376 Z-5.250
G1 X547.378 Y95.379 Z-5.250
G1 X547.324 Y95.374 Z-5.250
G1 X547.273 Y95.363 Z-5.250
G1 X546.918 Y96.583 Z-5.250
G1 X546.713 Y96.508 Z-5.250
G1 X546.510 Y96.401 Z-5.250
G1 X546.316 Y96.262 Z-5.250
G1 X546.141 Y96.092 Z-5.250
G1 X545.990 Y95.894 Z-5.250
G1 X545.870 Y95.675 Z-5.250
G1 X545.784 Y95.442 Z-5.250
G1 X545.734 Y95.202 Z-5.250
G1 X545.720 Y94.965 Z-5.250
G1 X545.739 Y94.736 Z-5.250
G1 X545.786 Y94.522 Z-5.250
G1 X545.871 Y94.296 Z-5.250
G1 X545.993 Y94.073 Z-5.250
G1 X546.155 Y93.865 Z-5.250
G1 X546.354 Y93.681 Z-5.250
G1 X546.582 Y93.529 Z-5.250
G1 X546.833 Y93.417 Z-5.250
G1 X547.095 Y93.349 Z-5.250
G1 X547.358 Y93.324 Z-5.250
G1 X547.611 Y93.340 Z-5.250
G1 X547.847 Y93.390 Z-5.250
G1 X548.053 Y93.465 Z-5.250
G1 X548.256 Y93.572 Z-5.250
G1 X548.449 Y93.711 Z-5.250
G1 X548.625 Y93.881 Z-5.250
G1 X548.776 Y94.079 Z-5.250
G1 X548.896 Y94.298 Z-5.250
G1 X548.982 Y94.531 Z-5.250
G1 X549.031 Y94.771 Z-5.250
G1 X549.045 Y95.008 Z-5.250
G1 X549.026 Y95.237 Z-5.250
G1 X548.979 Y95.451 Z-5.250
G1 X548.895 Y95.677 Z-5.250
G1 X548.772 Y95.899 Z-5.250
G1 X548.610 Y96.108 Z-5.250
G1 X548.412 Y96.292 Z-5.250
G1 X548.183 Y96.444 Z-5.250
G1 X547.932 Y96.555 Z-5.250
G1 X547.670 Y96.624 Z-5.250
G1 X547.408 Y96.649 Z-5.250
G1 X547.155 Y96.633 Z-5.250
G1 X546.918 Y96.583 Z-5.250
G0 X546.918 Y96.583
G0 Z6.000
G0 X547.273 Y95.363
G0 Z6.000
G1 X547.273 Y95.363 Z-6.000 F254.0
G1 X547.220 Y95.343 Z-6.000 F177.8
G1 X547.167 Y95.314 Z-6.000
G1 X547.118 Y95.276 Z-6.000
G1 X547.075 Y95.229 Z-6.000
G1 X547.039 Y95.175 Z-6.000
G1 X547.012 Y95.116 Z-6.000
G1 X546.996 Y95.054 Z-6.000
G1 X546.990 Y94.992 Z-6.000
G1 X546.994 Y94.933 Z-6.000
G1 X547.006 Y94.877 Z-6.000
G1 X547.024 Y94.828 Z-6.000
G1 X547.049 Y94.780 Z-6.000
G1 X547.082 Y94.735 Z-6.000
G1 X547.122 Y94.693 Z-6.000
G1 X547.169 Y94.658 Z-6.000
G1 X547.220 Y94.629 Z-6.000
G1 X547.275 Y94.609 Z-6.000
G1 X547.332 Y94.597 Z-6.000
G1 X547.388 Y94.594 Z-6.000
G1 X547.442 Y94.598 Z-6.000
G1 X547.492 Y94.610 Z-6.000
G1 X547.541 Y94.627 Z-6.000
G1 X547.589 Y94.652 Z-6.000
G1 X547.635 Y94.685 Z-6.000
G1 X547.676 Y94.725 Z-6.000
G1 X547.712 Y94.772 Z-6.000
G1 X547.740 Y94.824 Z-6.000
G1 X547.760 Y94.879 Z-6.000
G1 X547.772 Y94.936 Z-6.000
G1 X547.775 Y94.992 Z-6.000
G1 X547.771 Y95.046 Z-6.000
G1 X547.760 Y95.096 Z-6.000
G1 X547.742 Y95.145 Z-6.000
G1 X547.717 Y95.193 Z-6.000
G1 X547.684 Y95.238 Z-6.000
G1 X547.644 Y95.280 Z-6.000
G1 X547.597 Y95.315 Z-6.000
G1 X547.545 Y95.344 Z-6.000
G1 X547.490 Y95.364 Z-6.000
G1 X547.434 Y95.376 Z-6.000
G1 X547.378 Y95.379 Z-6.000
G1 X547.324 Y95.374 Z-6.000
G1 X547.273 Y95.363 Z-6.000
G1 X546.918 Y96.583 Z-6.000
G1 X546.713 Y96.508 Z-6.000
G1 X546.510 Y96.401 Z-6.000
G1 X546.316 Y96.262 Z-6.000
G1 X546.141 Y96.092 Z-6.000
G1 X545.990 Y95.894 Z-6.000
G1 X545.870 Y95.675 Z-6.000
G1 X545.784 Y95.442 Z-6.000
G1 X545.734 Y95.202 Z-6.000
G1 X545.720 Y94.965 Z-6.000
G1 X545.739 Y94.736 Z-6.000
G1 X545.786 Y94.522 Z-6.000
G1 X545.871 Y94.296 Z-6.000
G1 X545.993 Y94.073 Z-6.000
G1 X546.155 Y93.865 Z-6.000
G1 X546.354 Y93.681 Z-6.000
G1 X546.582 Y93.529 Z-6.000
G1 X546.833 Y93.417 Z-6.000
G1 X547.095 Y93.349 Z-6.000
G1 X547.358 Y93.324 Z-6.000
G1 X547.611 Y93.340 Z-6.000
G1 X547.847 Y93.390 Z-6.000
G1 X548.053 Y93.465 Z-6.000
G1 X548.256 Y93.572 Z-6.000
G1 X548.449 Y93.711 Z-6.000
G1 X548.625 Y93.881 Z-6.000
G1 X548.776 Y94.079 Z-6.000
G1 X548.896 Y94.298 Z-6.000
G1 X548.982 Y94.531 Z-6.000
G1 X549.031 Y94.771 Z-6.000
G1 X549.045 Y95.008 Z-6.000
G1 X549.026 Y95.237 Z-6.000
G1 X548.979 Y95.451 Z-6.000
G1 X548.895 Y95.677 Z-6.000
G1 X548.772 Y95.899 Z-6.000
G1 X548.610 Y96.108 Z-6.000
G1 X548.412 Y96.292 Z-6.000
G1 X548.183 Y96.444 Z-6.000
G1 X547.932 Y96.555 Z-6.000
G1 X547.670 Y96.624 Z-6.000
G1 X547.408 Y96.649 Z-6.000
G1 X547.155 Y96.633 Z-6.000
G1 X546.918 Y96.583 Z-6.000
G0 X546.918 Y96.583
G0 Z6.000
G0 X547.273 Y95.363
G0 Z6.000
G1 X547.273 Y95.363 Z-6.750 F254.0
G1 X547.220 Y95.343 Z-6.750 F177.8
G1 X547.167 Y95.314 Z-6.750
G1 X547.118 Y95.276 Z-6.750
G1 X547.075 Y95.229 Z-6.750
G1 X547.039 Y95.175 Z-6.750
G1 X547.012 Y95.116 Z-6.750
G1 X546.996 Y95.054 Z-6.750
G1 X546.990 Y94.992 Z-6.750
G1 X546.994 Y94.933 Z-6.750
G1 X547.006 Y94.877 Z-6.750
G1 X547.024 Y94.828 Z-6.750
G1 X547.049 Y94.780 Z-6.750
G1 X547.082 Y94.735 Z-6.750
G1 X547.122 Y94.693 Z-6.750
G1 X547.169 Y94.658 Z-6.750
G1 X547.220 Y94.629 Z-6.750
G1 X547.275 Y94.609 Z-6.750
G1 X547.332 Y94.597 Z-6.750
G1 X547.388 Y94.594 Z-6.750
G1 X547.442 Y94.598 Z-6.750
G1 X547.492 Y94.610 Z-6.750
G1 X547.541 Y94.627 Z-6.750
G1 X547.589 Y94.652 Z-6.750
G1 X547.635 Y94.685 Z-6.750
G1 X547.676 Y94.725 Z-6.750
G1 X547.712 Y94.772 Z-6.750
G1 X547.740 Y94.824 Z-6.750
G1 X547.760 Y94.879 Z-6.750
G1 X547.772 Y94.936 Z-6.750
G1 X547.775 Y94.992 Z-6.750
G1 X547.771 Y95.046 Z-6.750
G1 X547.760 Y95.096 Z-6.750
G1 X547.742 Y95.145 Z-6.750
G1 X547.717 Y95.193 Z-6.750
G1 X547.684 Y95.238 Z-6.750
G1 X547.644 Y95.280 Z-6.750
G1 X547.597 Y95.315 Z-6.750
G1 X547.545 Y95.344 Z-6.750
G1 X547.490 Y95.364 Z-6.750
G1 X547.434 Y95.376 Z-6.750
G1 X547.378 Y95.379 Z-6.750
G1 X547.324 Y95.374 Z-6.750
G1 X547.273 Y95.363 Z-6.750
G1 X546.918 Y96.583 Z-6.750
G1 X546.713 Y96.508 Z-6.750
G1 X546.510 Y96.401 Z-6.750
G1 X546.316 Y96.262 Z-6.750
G1 X546.141 Y96.092 Z-6.750
G1 X545.990 Y95.894 Z-6.750
G1 X545.870 Y95.675 Z-6.750
G1 X545.784 Y95.442 Z-6.750
G1 X545.734 Y95.202 Z-6.750
G1 X545.720 Y94.965 Z-6.750
G1 X545.739 Y94.736 Z-6.750
G1 X545.786 Y94.522 Z-6.750
G1 X545.871 Y94.296 Z-6.750
G1 X545.993 Y94.073 Z-6.750
G1 X546.155 Y93.865 Z-6.750
G1 X546.354 Y93.681 Z-6.750
G1 X546.582 Y93.529 Z-6.750
G1 X546.833 Y93.417 Z-6.750
G1 X547.095 Y93.349 Z-6.750
G1 X547.358 Y93.324 Z-6.750
G1 X547.611 Y93.340 Z-6.750
G1 X547.847 Y93.390 Z-6.750
G1 X548.053 Y93.465 Z-6.750
G1 X548.256 Y93.572 Z-6.750
G1 X548.449 Y93.711 Z-6.750
G1 X548.625 Y93.881 Z-6.750
G1 X548.776 Y94.079 Z-6.750
G1 X548.896 Y94.298 Z-6.750
G1 X548.982 Y94.531 Z-6.750
G1 X549.031 Y94.771 Z-6.750
G1 X549.045 Y95.008 Z-6.750
G1 X549.026 Y95.237 Z-6.750
G1 X548.979 Y95.451 Z-6.750
G1 X548.895 Y95.677 Z-6.750
G1 X548.772 Y95.899 Z-6.750
G1 X548.610 Y96.108 Z-6.750
G1 X548.412 Y96.292 Z-6.750
G1 X548.183 Y96.444 Z-6.750
G1 X547.932 Y96.555 Z-6.750
G1 X547.670 Y96.624 Z-6.750
G1 X547.408 Y96.649 Z-6.750
G1 X547.155 Y96.633 Z-6.750
G1 X546.918 Y96.583 Z-6.750
G0 X546.918 Y96.583
G0 Z6.000
G0 X547.273 Y95.363
G0 Z6.000
G1 X547.273 Y95.363 Z-7.500 F254.0
G1 X547.220 Y95.343 Z-7.500 F177.8
G1 X547.167 Y95.314 Z-7.500
G1 X547.118 Y95.276 Z-7.500
G1 X547.075 Y95.229 Z-7.500
G1 X547.039 Y95.175 Z-7.500
G1 X547.012 Y95.116 Z-7.500
G1 X546.996 Y95.054 Z-7.500
G1 X546.990 Y94.992 Z-7.500
G1 X546.994 Y94.933 Z-7.500
G1 X547.006 Y94.877 Z-7.500
G1 X547.024 Y94.828 Z-7.500
G1 X547.049 Y94.780 Z-7.500
G1 X547.082 Y94.735 Z-7.500
G1 X547.122 Y94.693 Z-7.500
G1 X547.169 Y94.658 Z-7.500
G1 X547.220 Y94.629 Z-7.500
G1 X547.275 Y94.609 Z-7.500
G1 X547.332 Y94.597 Z-7.500
G1 X547.388 Y94.594 Z-7.500
G1 X547.442 Y94.598 Z-7.500
G1 X547.492 Y94.610 Z-7.500
G1 X547.541 Y94.627 Z-7.500
G1 X547.589 Y94.652 Z-7.500
G1 X547.635 Y94.685 Z-7.500
G1 X547.676 Y94.725 Z-7.500
G1 X547.712 Y94.772 Z-7.500
G1 X547.740 Y94.824 Z-7.500
G1 X547.760 Y94.879 Z-7.500
G1 X547.772 Y94.936 Z-7.500
G1 X547.775 Y94.992 Z-7.500
G1 X547.771 Y95.046 Z-7.500
G1 X547.760 Y95.096 Z-7.500
G1 X547.742 Y95.145 Z-7.500
G1 X547.717 Y95.193 Z-7.500
G1 X547.684 Y95.238 Z-7.500
G1 X547.644 Y95.280 Z-7.500
G1 X547.597 Y95.315 Z-7.500
G1 X547.545 Y95.344 Z-7.500
G1 X547.490 Y95.364 Z-7.500
G1 X547.434 Y95.376 Z-7.500
G1 X547.378 Y95.379 Z-7.500
G1 X547.324 Y95.374 Z-7.500
G1 X547.273 Y95.363 Z-7.500
G1 X546.918 Y96.583 Z-7.500
G1 X546.713 Y96.508 Z-7.500
G1 X546.510 Y96.401 Z-7.500
G1 X546.316 Y96.262 Z-7.500
G1 X546.141 Y96.092 Z-7.500
G1 X545.990 Y95.894 Z-7.500
G1 X545.870 Y95.675 Z-7.500
G1 X545.784 Y95.442 Z-7.500
G1 X545.734 Y95.202 Z-7.500
G1 X545.720 Y94.965 Z-7.500
G1 X545.739 Y94.736 Z-7.500
G1 X545.786 Y94.522 Z-7.500
G1 X545.871 Y94.296 Z-7.500
G1 X545.993 Y94.073 Z-7.500
G1 X546.155 Y93.865 Z-7.500
G1 X546.354 Y93.681 Z-7.500
G1 X546.582 Y93.529 Z-7.500
G1 X546.833 Y93.417 Z-7.500
G1 X547.095 Y93.349 Z-7.500
G1 X547.358 Y93.324 Z-7.500
G1 X547.611 Y93.340 Z-7.500
G1 X547.847 Y93.390 Z-7.500
G1 X548.053 Y93.465 Z-7.500
G1 X548.256 Y93.572 Z-7.500
G1 X548.449 Y93.711 Z-7.500
G1 X548.625 Y93.881 Z-7.500
G1 X548.776 Y94.079 Z-7.500
G1 X548.896 Y94.298 Z-7.500
G1 X548.982 Y94.531 Z-7.500
G1 X549.031 Y94.771 Z-7.500
G1 X549.045 Y95.008 Z-7.500
G1 X549.026 Y95.237 Z-7.500
G1 X548.979 Y95.451 Z-7.500
G1 X548.895 Y95.677 Z-7.500
G1 X548.772 Y95.899 Z-7.500
G1 X548.610 Y96.108 Z-7.500
G1 X548.412 Y96.292 Z-7.500
G1 X548.183 Y96.444 Z-7.500
G1 X547.932 Y96.555 Z-7.500
G1 X547.670 Y96.624 Z-7.500
G1 X547.408 Y96.649 Z-7.500
G1 X547.155 Y96.633 Z-7.500
G1 X546.918 Y96.583 Z-7.500
G0 X546.918 Y96.583
G0 Z6.000
G0 X547.273 Y95.363
G0 Z6.000
G1 X547.273 Y95.363 Z-8.250 F254.0
G1 X547.220 Y95.343 Z-8.250 F177.8
G1 X547.167 Y95.314 Z-8.250
G1 X547.118 Y95.276 Z-8.250
G1 X547.075 Y95.229 Z-8.250
G1 X547.039 Y95.175 Z-8.250
G1 X547.012 Y95.116 Z-8.250
G1 X546.996 Y95.054 Z-8.250
G1 X546.990 Y94.992 Z-8.250
G1 X546.994 Y94.933 Z-8.250
G1 X547.006 Y94.877 Z-8.250
G1 X547.024 Y94.828 Z-8.250
G1 X547.049 Y94.780 Z-8.250
G1 X547.082 Y94.735 Z-8.250
G1 X547.122 Y94.693 Z-8.250
G1 X547.169 Y94.658 Z-8.250
G1 X547.220 Y94.629 Z-8.250
G1 X547.275 Y94.609 Z-8.250
G1 X547.332 Y94.597 Z-8.250
G1 X547.388 Y94.594 Z-8.250
G1 X547.442 Y94.598 Z-8.250
G1 X547.492 Y94.610 Z-8.250
G1 X547.541 Y94.627 Z-8.250
G1 X547.589 Y94.652 Z-8.250
G1 X547.635 Y94.685 Z-8.250
G1 X547.676 Y94.725 Z-8.250
G1 X547.712 Y94.772 Z-8.250
G1 X547.740 Y94.824 Z-8.250
G1 X547.760 Y94.879 Z-8.250
G1 X547.772 Y94.936 Z-8.250
G1 X547.775 Y94.992 Z-8.250
G1 X547.771 Y95.046 Z-8.250
G1 X547.760 Y95.096 Z-8.250
G1 X547.742 Y95.145 Z-8.250
G1 X547.717 Y95.193 Z-8.250
G1 X547.684 Y95.238 Z-8.250
G1 X547.644 Y95.280 Z-8.250
G1 X547.597 Y95.315 Z-8.250
G1 X547.545 Y95.344 Z-8.250
G1 X547.490 Y95.364 Z-8.250
G1 X547.434 Y95.376 Z-8.250
G1 X547.378 Y95.379 Z-8.250
G1 X547.324 Y95.374 Z-8.250
G1 X547.273 Y95.363 Z-8.250
G1 X546.918 Y96.583 Z-8.250
G1 X546.713 Y96.508 Z-8.250
G1 X546.510 Y96.401 Z-8.250
G1 X546.316 Y96.262 Z-8.250
G1 X546.141 Y96.092 Z-8.250
G1 X545.990 Y95.894 Z-8.250
G1 X545.870 Y95.675 Z-8.250
G1 X545.784 Y95.442 Z-8.250
G1 X545.734 Y95.202 Z-8.250
G1 X545.720 Y94.965 Z-8.250
G1 X545.739 Y94.736 Z-8.250
G1 X545.786 Y94.522 Z-8.250
G1 X545.871 Y94.296 Z-8.250
G1 X545.993 Y94.073 Z-8.250
G1 X546.155 Y93.865 Z-8.250
G1 X546.354 Y93.681 Z-8.250
G1 X546.582 Y93.529 Z-8.250
G1 X546.833 Y93.417 Z-8.250
G1 X547.095 Y93.349 Z-8.250
G1 X547.358 Y93.324 Z-8.250
G1 X547.611 Y93.340 Z-8.250
G1 X547.847 Y93.390 Z-8.250
G1 X548.053 Y93.465 Z-8.250
G1 X548.256 Y93.572 Z-8.250
G1 X548.449 Y93.711 Z-8.250
G1 X548.625 Y93.881 Z-8.250
G1 X548.776 Y94.079 Z-8.250
G1 X548.896 Y94.298 Z-8.250
G1 X548.982 Y94.531 Z-8.250
G1 X549.031 Y94.771 Z-8.250
G1 X549.045 Y95.008 Z-8.250
G1 X549.026 Y95.237 Z-8.250
G1 X548.979 Y95.451 Z-8.250
G1 X548.895 Y95.677 Z-8.250
G1 X548.772 Y95.899 Z-8.250
G1 X548.610 Y96.108 Z-8.250
G1 X548.412 Y96.292 Z-8.250
G1 X548.183 Y96.444 Z-8.250
G1 X547.932 Y96.555 Z-8.250
G1 X547.670 Y96.624 Z-8.250
G1 X547.408 Y96.649 Z-8.250
G1 X547.155 Y96.633 Z-8.250
G1 X546.918 Y96.583 Z-8.250
G0 X546.918 Y96.583
G0 Z6.000
G0 X547.273 Y95.363
G0 Z6.000
G1 X547.273 Y95.363 Z-9.000 F254.0
G1 X547.220 Y95.343 Z-9.000 F177.8
G1 X547.167 Y95.314 Z-9.000
G1 X547.118 Y95.276 Z-9.000
G1 X547.075 Y95.229 Z-9.000
G1 X547.039 Y95.175 Z-9.000
G1 X547.012 Y95.116 Z-9.000
G1 X546.996 Y95.054 Z-9.000
G1 X546.990 Y94.992 Z-9.000
G1 X546.994 Y94.933 Z-9.000
G1 X547.006 Y94.877 Z-9.000
G1 X547.024 Y94.828 Z-9.000
G1 X547.049 Y94.780 Z-9.000
G1 X547.082 Y94.735 Z-9.000
G1 X547.122 Y94.693 Z-9.000
G1 X547.169 Y94.658 Z-9.000
G1 X547.220 Y94.629 Z-9.000
G1 X547.275 Y94.609 Z-9.000
G1 X547.332 Y94.597 Z-9.000
G1 X547.388 Y94.594 Z-9.000
G1 X547.442 Y94.598 Z-9.000
G1 X547.492 Y94.610 Z-9.000
G1 X547.541 Y94.627 Z-9.000
G1 X547.589 Y94.652 Z-9.000
G1 X547.635 Y94.685 Z-9.000
G1 X547.676 Y94.725 Z-9.000
G1 X547.712 Y94.772 Z-9.000
G1 X547.740 Y94.824 Z-9.000
G1 X547.760 Y94.879 Z-9.000
G1 X547.772 Y94.936 Z-9.000
G1 X547.775 Y94.992 Z-9.000
G1 X547.771 Y95.046 Z-9.000
G1 X547.760 Y95.096 Z-9.000
G1 X547.742 Y95.145 Z-9.000
G1 X547.717 Y95.193 Z-9.000
G1 X547.684 Y95.238 Z-9.000
G1 X547.644 Y95.280 Z-9.000
G1 X547.597 Y95.315 Z-9.000
G1 X547.545 Y95.344 Z-9.000
G1 X547.490 Y95.364 Z-9.000
G1 X547.434 Y95.376 Z-9.000
G1 X547.378 Y95.379 Z-9.000
G1 X547.324 Y95.374 Z-9.000
G1 X547.273 Y95.363 Z-9.000
G1 X546.918 Y96.583 Z-9.000
G1 X546.713 Y96.508 Z-9.000
G1 X546.510 Y96.401 Z-9.000
G1 X546.316 Y96.262 Z-9.000
G1 X546.141 Y96.092 Z-9.000
G1 X545.990 Y95.894 Z-9.000
G1 X545.870 Y95.675 Z-9.000
G1 X545.784 Y95.442 Z-9.000
G1 X545.734 Y95.202 Z-9.000
G1 X545.720 Y94.965 Z-9.000
G1 X545.739 Y94.736 Z-9.000
G1 X545.786 Y94.522 Z-9.000
G1 X545.871 Y94.296 Z-9.000
G1 X545.993 Y94.073 Z-9.000
G1 X546.155 Y93.865 Z-9.000
G1 X546.354 Y93.681 Z-9.000
G1 X546.582 Y93.529 Z-9.000
G1 X546.833 Y93.417 Z-9.000
G1 X547.095 Y93.349 Z-9.000
G1 X547.358 Y93.324 Z-9.000
G1 X547.611 Y93.340 Z-9.000
G1 X547.847 Y93.390 Z-9.000
G1 X548.053 Y93.465 Z-9.000
G1 X548.256 Y93.572 Z-9.000
G1 X548.449 Y93.711 Z-9.000
G1 X548.625 Y93.881 Z-9.000
G1 X548.776 Y94.079 Z-9.000
G1 X548.896 Y94.298 Z-9.000
G1 X548.982 Y94.531 Z-9.000
G1 X549.031 Y94.771 Z-9.000
G1 X549.045 Y95.008 Z-9.000
G1 X549.026 Y95.237 Z-9.000
G1 X548.979 Y95.451 Z-9.000
G1 X548.895 Y95.677 Z-9.000
G1 X548.772 Y95.899 Z-9.000
G1 X548.610 Y96.108 Z-9.000
G1 X548.412 Y96.292 Z-9.000
G1 X548.183 Y96.444 Z-9.000
G1 X547.932 Y96.555 Z-9.000
G1 X547.670 Y96.624 Z-9.000
G1 X547.408 Y96.649 Z-9.000
G1 X547.155 Y96.633 Z-9.000
G1 X546.918 Y96.583 Z-9.000
G0 X546.918 Y96.583
G0 Z6.000
G0 X547.273 Y95.363
G0 Z6.000
G1 X547.273 Y95.363 Z-9.750 F254.0
G1 X547.220 Y95.343 Z-9.750 F177.8
G1 X547.167 Y95.314 Z-9.750
G1 X547.118 Y95.276 Z-9.750
G1 X547.075 Y95.229 Z-9.750
G1 X547.039 Y95.175 Z-9.750
G1 X547.012 Y95.116 Z-9.750
G1 X546.996 Y95.054 Z-9.750
G1 X546.990 Y94.992 Z-9.750
G1 X546.994 Y94.933 Z-9.750
G1 X547.006 Y94.877 Z-9.750
G1 X547.024 Y94.828 Z-9.750
G1 X547.049 Y94.780 Z-9.750
G1 X547.082 Y94.735 Z-9.750
G1 X547.122 Y94.693 Z-9.750
G1 X547.169 Y94.658 Z-9.750
G1 X547.220 Y94.629 Z-9.750
G1 X547.275 Y94.609 Z-9.750
G1 X547.332 Y94.597 Z-9.750
G1 X547.388 Y94.594 Z-9.750
G1 X547.442 Y94.598 Z-9.750
G1 X547.492 Y94.610 Z-9.750
G1 X547.541 Y94.627 Z-9.750
G1 X547.589 Y94.652 Z-9.750
G1 X547.635 Y94.685 Z-9.750
G1 X547.676 Y94.725 Z-9.750
G1 X547.712 Y94.772 Z-9.750
G1 X547.740 Y94.824 Z-9.750
G1 X547.760 Y94.879 Z-9.750
G1 X547.772 Y94.936 Z-9.750
G1 X547.775 Y94.992 Z-9.750
G1 X547.771 Y95.046 Z-9.750
G1 X547.760 Y95.096 Z-9.750
G1 X547.742 Y95.145 Z-9.750
G1 X547.717 Y95.193 Z-9.750
G1 X547.684 Y95.238 Z-9.750
G1 X547.644 Y95.280 Z-9.750
G1 X547.597 Y95.315 Z-9.750
G1 X547.545 Y95.344 Z-9.750
G1 X547.490 Y95.364 Z-9.750
G1 X547.434 Y95.376 Z-9.750
G1 X547.378 Y95.379 Z-9.750
G1 X547.324 Y95.374 Z-9.750
G1 X547.273 Y95.363 Z-9.750
G1 X546.918 Y96.583 Z-9.750
G1 X546.713 Y96.508 Z-9.750
G1 X546.510 Y96.401 Z-9.750
G1 X546.316 Y96.262 Z-9.750
G1 X546.141 Y96.092 Z-9.750
G1 X545.990 Y95.894 Z-9.750
G1 X545.870 Y95.675 Z-9.750
G1 X545.784 Y95.442 Z-9.750
G1 X545.734 Y95.202 Z-9.750
G1 X545.720 Y94.965 Z-9.750
G1 X545.739 Y94.736 Z-9.750
G1 X545.786 Y94.522 Z-9.750
G1 X545.871 Y94.296 Z-9.750
G1 X545.993 Y94.073 Z-9.750
G1 X546.155 Y93.865 Z-9.750
G1 X546.354 Y93.681 Z-9.750
G1 X546.582 Y93.529 Z-9.750
G1 X546.833 Y93.417 Z-9.750
G1 X547.095 Y93.349 Z-9.750
G1 X547.358 Y93.324 Z-9.750
G1 X547.611 Y93.340 Z-9.750
G1 X547.847 Y93.390 Z-9.750
G1 X548.053 Y93.465 Z-9.750
G1 X548.256 Y93.572 Z-9.750
G1 X548.449 Y93.711 Z-9.750
G1 X548.625 Y93.881 Z-9.750
G1 X548.776 Y94.079 Z-9.750
G1 X548.896 Y94.298 Z-9.750
G1 X548.982 Y94.531 Z-9.750
G1 X549.031 Y94.771 Z-9.750
G1 X549.045 Y95.008 Z-9.750
G1 X549.026 Y95.237 Z-9.750
G1 X548.979 Y95.451 Z-9.750
G1 X548.895 Y95.677 Z-9.750
G1 X548.772 Y95.899 Z-9.750
G1 X548.610 Y96.108 Z-9.750
G1 X548.412 Y96.292 Z-9.750
G1 X548.183 Y96.444 Z-9.750
G1 X547.932 Y96.555 Z-9.750
G1 X547.670 Y96.624 Z-9.750
G1 X547.408 Y96.649 Z-9.750
G1 X547.155 Y96.633 Z-9.750
G1 X546.918 Y96.583 Z-9.750
G0 X546.918 Y96.583
G0 Z6.000
G0 X547.273 Y95.363
G0 Z6.000
G1 X547.273 Y95.363 Z-10.500 F254.0
G1 X547.220 Y95.343 Z-10.500 F177.8
G1 X547.167 Y95.314 Z-10.500
G1 X547.118 Y95.276 Z-10.500
G1 X547.075 Y95.229 Z-10.500
G1 X547.039 Y95.175 Z-10.500
G1 X547.012 Y95.116 Z-10.500
G1 X546.996 Y95.054 Z-10.500
G1 X546.990 Y94.992 Z-10.500
G1 X546.994 Y94.933 Z-10.500
G1 X547.006 Y94.877 Z-10.500
G1 X547.024 Y94.828 Z-10.500
G1 X547.049 Y94.780 Z-10.500
G1 X547.082 Y94.735 Z-10.500
G1 X547.122 Y94.693 Z-10.500
G1 X547.169 Y94.658 Z-10.500
G1 X547.220 Y94.629 Z-10.500
G1 X547.275 Y94.609 Z-10.500
G1 X547.332 Y94.597 Z-10.500
G1 X547.388 Y94.594 Z-10.500
G1 X547.442 Y94.598 Z-10.500
G1 X547.492 Y94.610 Z-10.500
G1 X547.541 Y94.627 Z-10.500
G1 X547.589 Y94.652 Z-10.500
G1 X547.635 Y94.685 Z-10.500
G1 X547.676 Y94.725 Z-10.500
G1 X547.712 Y94.772 Z-10.500
G1 X547.740 Y94.824 Z-10.500
G1 X547.760 Y94.879 Z-10.500
G1 X547.772 Y94.936 Z-10.500
G1 X547.775 Y94.992 Z-10.500
G1 X547.771 Y95.046 Z-10.500
G1 X547.760 Y95.096 Z-10.500
G1 X547.742 Y95.145 Z-10.500
G1 X547.717 Y95.193 Z-10.500
G1 X547.684 Y95.238 Z-10.500
G1 X547.644 Y95.280 Z-10.500
G1 X547.597 Y95.315 Z-10.500
G1 X547.545 Y95.344 Z-10.500
G1 X547.490 Y95.364 Z-10.500
G1 X547.434 Y95.376 Z-10.500
G1 X547.378 Y95.379 Z-10.500
G1 X547.324 Y95.374 Z-10.500
G1 X547.273 Y95.363 Z-10.500
G1 X546.918 Y96.583 Z-10.500
G1 X546.713 Y96.508 Z-10.500
G1 X546.510 Y96.401 Z-10.500
G1 X546.316 Y96.262 Z-10.500
G1 X546.141 Y96.092 Z-10.500
G1 X545.990 Y95.894 Z-10.500
G1 X545.870 Y95.675 Z-10.500
G1 X545.784 Y95.442 Z-10.500
G1 X545.734 Y95.202 Z-10.500
G1 X545.720 Y94.965 Z-10.500
G1 X545.739 Y94.736 Z-10.500
G1 X545.786 Y94.522 Z-10.500
G1 X545.871 Y94.296 Z-10.500
G1 X545.993 Y94.073 Z-10.500
G1 X546.155 Y93.865 Z-10.500
G1 X546.354 Y93.681 Z-10.500
G1 X546.582 Y93.529 Z-10.500
G1 X546.833 Y93.417 Z-10.500
G1 X547.095 Y93.349 Z-10.500
G1 X547.358 Y93.324 Z-10.500
G1 X547.611 Y93.340 Z-10.500
G1 X547.847 Y93.390 Z-10.500
G1 X548.053 Y93.465 Z-10.500
G1 X548.256 Y93.572 Z-10.500
G1 X548.449 Y93.711 Z-10.500
G1 X548.625 Y93.881 Z-10.500
G1 X548.776 Y94.079 Z-10.500
G1 X548.896 Y94.298 Z-10.500
G1 X548.982 Y94.531 Z-10.500
G1 X549.031 Y94.771 Z-10.500
G1 X549.045 Y95.008 Z-10.500
G1 X549.026 Y95.237 Z-10.500
G1 X548.979 Y95.451 Z-10.500
G1 X548.895 Y95.677 Z-10.500
G1 X548.772 Y95.899 Z-10.500
G1 X548.610 Y96.108 Z-10.500
G1 X548.412 Y96.292 Z-10.500
G1 X548.183 Y96.444 Z-10.500
G1 X547.932 Y96.555 Z-10.500
G1 X547.670 Y96.624 Z-10.500
G1 X547.408 Y96.649 Z-10.500
G1 X547.155 Y96.633 Z-10.500
G1 X546.918 Y96.583 Z-10.500
G0 X546.918 Y96.583
G0 Z6.000
G0 X547.273 Y95.363
G0 Z6.000
G1 X547.273 Y95.363 Z-11.250 F254.0
G1 X547.220 Y95.343 Z-11.250 F177.8
G1 X547.167 Y95.314 Z-11.250
G1 X547.118 Y95.276 Z-11.250
G1 X547.075 Y95.229 Z-11.250
G1 X547.039 Y95.175 Z-11.250
G1 X547.012 Y95.116 Z-11.250
G1 X546.996 Y95.054 Z-11.250
G1 X546.990 Y94.992 Z-11.250
G1 X546.994 Y94.933 Z-11.250
G1 X547.006 Y94.877 Z-11.250
G1 X547.024 Y94.828 Z-11.250
G1 X547.049 Y94.780 Z-11.250
G1 X547.082 Y94.735 Z-11.250
G1 X547.122 Y94.693 Z-11.250
G1 X547.169 Y94.658 Z-11.250
G1 X547.220 Y94.629 Z-11.250
G1 X547.275 Y94.609 Z-11.250
G1 X547.332 Y94.597 Z-11.250
G1 X547.388 Y94.594 Z-11.250
G1 X547.442 Y94.598 Z-11.250
G1 X547.492 Y94.610 Z-11.250
G1 X547.541 Y94.627 Z-11.250
G1 X547.589 Y94.652 Z-11.250
G1 X547.635 Y94.685 Z-11.250
G1 X547.676 Y94.725 Z-11.250
G1 X547.712 Y94.772 Z-11.250
G1 X547.740 Y94.824 Z-11.250
G1 X547.760 Y94.879 Z-11.250
G1 X547.772 Y94.936 Z-11.250
G1 X547.775 Y94.992 Z-11.250
G1 X547.771 Y95.046 Z-11.250
G1 X547.760 Y95.096 Z-11.250
G1 X547.742 Y95.145 Z-11.250
G1 X547.717 Y95.193 Z-11.250
G1 X547.684 Y95.238 Z-11.250
G1 X547.644 Y95.280 Z-11.250
G1 X547.597 Y95.315 Z-11.250
G1 X547.545 Y95.344 Z-11.250
G1 X547.490 Y95.364 Z-11.250
G1 X547.434 Y95.376 Z-11.250
G1 X547.378 Y95.379 Z-11.250
G1 X547.324 Y95.374 Z-11.250
G1 X547.273 Y95.363 Z-11.250
G1 X546.918 Y96.583 Z-11.250
G1 X546.713 Y96.508 Z-11.250
G1 X546.510 Y96.401 Z-11.250
G1 X546.316 Y96.262 Z-11.250
G1 X546.141 Y96.092 Z-11.250
G1 X545.990 Y95.894 Z-11.250
G1 X545.870 Y95.675 Z-11.250
G1 X545.784 Y95.442 Z-11.250
G1 X545.734 Y95.202 Z-11.250
G1 X545.720 Y94.965 Z-11.250
G1 X545.739 Y94.736 Z-11.250
G1 X545.786 Y94.522 Z-11.250
G1 X545.871 Y94.296 Z-11.250
G1 X545.993 Y94.073 Z-11.250
G1 X546.155 Y93.865 Z-11.250
G1 X546.354 Y93.681 Z-11.250
G1 X546.582 Y93.529 Z-11.250
G1 X546.833 Y93.417 Z-11.250
G1 X547.095 Y93.349 Z-11.250
G1 X547.358 Y93.324 Z-11.250
G1 X547.611 Y93.340 Z-11.250
G1 X547.847 Y93.390 Z-11.250
G1 X548.053 Y93.465 Z-11.250
G1 X548.256 Y93.572 Z-11.250
G1 X548.449 Y93.711 Z-11.250
G1 X548.625 Y93.881 Z-11.250
G1 X548.776 Y94.079 Z-11.250
G1 X548.896 Y94.298 Z-11.250
G1 X548.982 Y94.531 Z-11.250
G1 X549.031 Y94.771 Z-11.250
G1 X549.045 Y95.008 Z-11.250
G1 X549.026 Y95.237 Z-11.250
G1 X548.979 Y95.451 Z-11.250
G1 X548.895 Y95.677 Z-11.250
G1 X548.772 Y95.899 Z-11.250
G1 X548.610 Y96.108 Z-11.250
G1 X548.412 Y96.292 Z-11.250
G1 X548.183 Y96.444 Z-11.250
G1 X547.932 Y96.555 Z-11.250
G1 X547.670 Y96.624 Z-11.250
G1 X547.408 Y96.649 Z-11.250
G1 X547.155 Y96.633 Z-11.250
G1 X546.918 Y96.583 Z-11.250
G0 X546.918 Y96.583
G0 Z6.000
G0 X547.273 Y95.363
G0 Z6.000
G1 X547.273 Y95.363 Z-12.000 F254.0
G1 X547.220 Y95.343 Z-12.000 F177.8
G1 X547.167 Y95.314 Z-12.000
G1 X547.118 Y95.276 Z-12.000
G1 X547.075 Y95.229 Z-12.000
G1 X547.039 Y95.175 Z-12.000
G1 X547.012 Y95.116 Z-12.000
G1 X546.996 Y95.054 Z-12.000
G1 X546.990 Y94.992 Z-12.000
G1 X546.994 Y94.933 Z-12.000
G1 X547.006 Y94.877 Z-12.000
G1 X547.024 Y94.828 Z-12.000
G1 X547.049 Y94.780 Z-12.000
G1 X547.082 Y94.735 Z-12.000
G1 X547.122 Y94.693 Z-12.000
G1 X547.169 Y94.658 Z-12.000
G1 X547.220 Y94.629 Z-12.000
G1 X547.275 Y94.609 Z-12.000
G1 X547.332 Y94.597 Z-12.000
G1 X547.388 Y94.594 Z-12.000
G1 X547.442 Y94.598 Z-12.000
G1 X547.492 Y94.610 Z-12.000
G1 X547.541 Y94.627 Z-12.000
G1 X547.589 Y94.652 Z-12.000
G1 X547.635 Y94.685 Z-12.000
G1 X547.676 Y94.725 Z-12.000
G1 X547.712 Y94.772 Z-12.000
G1 X547.740 Y94.824 Z-12.000
G1 X547.760 Y94.879 Z-12.000
G1 X547.772 Y94.936 Z-12.000
G1 X547.775 Y94.992 Z-12.000
G1 X547.771 Y95.046 Z-12.000
G1 X547.760 Y95.096 Z-12.000
G1 X547.742 Y95.145 Z-12.000
G1 X547.717 Y95.193 Z-12.000
G1 X547.684 Y95.238 Z-12.000
G1 X547.644 Y95.280 Z-12.000
G1 X547.597 Y95.315 Z-12.000
G1 X547.545 Y95.344 Z-12.000
G1 X547.490 Y95.364 Z-12.000
G1 X547.434 Y95.376 Z-12.000
G1 X547.378 Y95.379 Z-12.000
G1 X547.324 Y95.374 Z-12.000
G1 X547.273 Y95.363 Z-12.000
G1 X546.918 Y96.583 Z-12.000
G1 X546.713 Y96.508 Z-12.000
G1 X546.510 Y96.401 Z-12.000
G1 X546.316 Y96.262 Z-12.000
G1 X546.141 Y96.092 Z-12.000
G1 X545.990 Y95.894 Z-12.000
G1 X545.870 Y95.675 Z-12.000
G1 X545.784 Y95.442 Z-12.000
G1 X545.734 Y95.202 Z-12.000
G1 X545.720 Y94.965 Z-12.000
G1 X545.739 Y94.736 Z-12.000
G1 X545.786 Y94.522 Z-12.000
G1 X545.871 Y94.296 Z-12.000
G1 X545.993 Y94.073 Z-12.000
G1 X546.155 Y93.865 Z-12.000
G1 X546.354 Y93.681 Z-12.000
G1 X546.582 Y93.529 Z-12.000
G1 X546.833 Y93.417 Z-12.000
G1 X547.095 Y93.349 Z-12.000
G1 X547.358 Y93.324 Z-12.000
G1 X547.611 Y93.340 Z-12.000
G1 X547.847 Y93.390 Z-12.000
G1 X548.053 Y93.465 Z-12.000
G1 X548.256 Y93.572 Z-12.000
G1 X548.449 Y93.711 Z-12.000
G1 X548.625 Y93.881 Z-12.000
G1 X548.776 Y94.079 Z-12.000
G1 X548.896 Y94.298 Z-12.000
G1 X548.982 Y94.531 Z-12.000
G1 X549.031 Y94.771 Z-12.000
G1 X549.045 Y95.008 Z-12.000
G1 X549.026 Y95.237 Z-12.000
G1 X548.979 Y95.451 Z-12.000
G1 X548.895 Y95.677 Z-12.000
G1 X548.772 Y95.899 Z-12.000
G1 X548.610 Y96.108 Z-12.000
G1 X548.412 Y96.292 Z-12.000
G1 X548.183 Y96.444 Z-12.000
G1 X547.932 Y96.555 Z-12.000
G1 X547.670 Y96.624 Z-12.000
G1 X547.408 Y96.649 Z-12.000
G1 X547.155 Y96.633 Z-12.000
G1 X546.918 Y96.583 Z-12.000
G0 X546.918 Y96.583
G0 Z6.000
G0 X444.682 Y88.498
G0 Z6.000
G1 X444.682 Y88.498 Z-0.750 F254.0
G1 X444.538 Y89.365 Z-0.750 F177.8
G1 X444.424 Y90.238 Z-0.750
G1 X444.340 Y91.118 Z-0.750
G1 X444.286 Y92.005 Z-0.750
G1 X444.262 Y92.896 Z-0.750
G1 X444.268 Y93.793 Z-0.750
G1 X444.303 Y94.695 Z-0.750
G1 X444.367 Y95.602 Z-0.750
G1 X444.460 Y96.513 Z-0.750
G1 X444.583 Y97.427 Z-0.750
G1 X444.748 Y98.437 Z-0.750
G1 X445.156 Y99.710 Z-0.750
G1 X445.596 Y100.901 Z-0.750
G1 X446.092 Y102.086 Z-0.750
G1 X446.644 Y103.265 Z-0.750
G1 X447.250 Y104.436 Z-0.750
G1 X447.910 Y105.599 Z-0.750
G1 X448.622 Y106.754 Z-0.750
G1 X449.520 Y108.100 Z-0.750
G1 X449.971 Y108.441 Z-0.750
G1 X450.265 Y108.632 Z-0.750
G1 X450.570 Y108.802 Z-0.750
G1 X450.885 Y108.950 Z-0.750
G1 X451.209 Y109.076 Z-0.750
G1 X451.541 Y109.179 Z-0.750
G1 X451.881 Y109.260 Z-0.750
G1 X452.299 Y109.330 Z-0.750
G1 X456.413 Y109.335 Z-0.750
G1 X456.464 Y109.338 Z-0.750
G1 X456.516 Y109.348 Z-0.750
G1 X456.567 Y109.365 Z-0.750
G1 X456.616 Y109.389 Z-0.750
G1 X456.662 Y109.419 Z-0.750
G1 X456.703 Y109.455 Z-0.750
G1 X456.738 Y109.495 Z-0.750
G1 X456.768 Y109.539 Z-0.750
G1 X456.791 Y109.585 Z-0.750
G1 X456.792 Y109.588 Z-0.750
G1 X456.856 Y109.728 Z-0.750
G1 X456.925 Y109.868 Z-0.750
G1 X457.000 Y110.009 Z-0.750
G1 X457.083 Y110.150 Z-0.750
G1 X457.172 Y110.291 Z-0.750
G1 X457.267 Y110.431 Z-0.750
G1 X457.370 Y110.571 Z-0.750
G1 X457.480 Y110.708 Z-0.750
G1 X457.598 Y110.844 Z-0.750
G1 X457.722 Y110.978 Z-0.750
G1 X457.855 Y111.109 Z-0.750
G1 X457.994 Y111.236 Z-0.750
G1 X458.141 Y111.359 Z-0.750
G1 X458.296 Y111.478 Z-0.750
G1 X458.457 Y111.592 Z-0.750
G1 X458.625 Y111.700 Z-0.750
G1 X458.800 Y111.801 Z-0.750
G1 X458.982 Y111.897 Z-0.750
G1 X459.169 Y111.985 Z-0.750
G1 X459.362 Y112.065 Z-0.750
G1 X459.560 Y112.137 Z-0.750
G1 X459.762 Y112.200 Z-0.750
G1 X459.969 Y112.254 Z-0.750
G1 X460.179 Y112.299 Z-0.750
G1 X460.392 Y112.335 Z-0.750
G1 X460.607 Y112.360 Z-0.750
G1 X460.823 Y112.375 Z-0.750
G1 X461.040 Y112.380 Z-0.750
G1 X461.258 Y112.375 Z-0.750
G1 X461.474 Y112.360 Z-0.750
G1 X461.689 Y112.335 Z-0.750
G1 X461.902 Y112.300 Z-0.750
G1 X462.112 Y112.255 Z-0.750
G1 X462.319 Y112.201 Z-0.750
G1 X462.521 Y112.138 Z-0.750
G1 X462.719 Y112.066 Z-0.750
G1 X462.912 Y111.986 Z-0.750
G1 X463.100 Y111.898 Z-0.750
G1 X463.281 Y111.803 Z-0.750
G1 X463.456 Y111.701 Z-0.750
G1 X463.624 Y111.593 Z-0.750
G1 X463.786 Y111.480 Z-0.750
G1 X463.940 Y111.361 Z-0.750
G1 X464.087 Y111.238 Z-0.750
G1 X464.227 Y111.111 Z-0.750
G1 X464.359 Y110.980 Z-0.750
G1 X464.484 Y110.846 Z-0.750
G1 X464.602 Y110.711 Z-0.750
G1 X464.712 Y110.573 Z-0.750
G1 X464.815 Y110.434 Z-0.750
G1 X464.911 Y110.293 Z-0.750
G1 X464.999 Y110.153 Z-0.750
G1 X465.082 Y110.011 Z-0.750
G1 X465.157 Y109.871 Z-0.750
G1 X465.227 Y109.730 Z-0.750
G1 X465.290 Y109.590 Z-0.750
G1 X465.313 Y109.545 Z-0.750
G1 X465.342 Y109.502 Z-0.750
G1 X465.377 Y109.463 Z-0.750
G1 X465.417 Y109.427 Z-0.750
G1 X465.462 Y109.397 Z-0.750
G1 X465.510 Y109.373 Z-0.750
G1 X465.560 Y109.356 Z-0.750
G1 X465.611 Y109.346 Z-0.750
G1 X465.661 Y109.342 Z-0.750
G1 X493.573 Y109.371 Z-0.750
G1 X508.748 Y109.387 Z-0.750
G1 X550.897 Y109.431 Z-0.750
G1 X552.548 Y109.202 Z-0.750
G1 X554.053 Y108.952 Z-0.750
G1 X555.499 Y108.668 Z-0.750
G1 X556.885 Y108.350 Z-0.750
G1 X558.208 Y107.998 Z-0.750
G1 X559.468 Y107.611 Z-0.750
G1 X560.663 Y107.187 Z-0.750
G1 X561.780 Y106.731 Z-0.750
G1 X562.328 Y106.482 Z-0.750
G1 X562.848 Y106.228 Z-0.750
G1 X563.351 Y105.963 Z-0.750
G1 X563.836 Y105.687 Z-0.750
G1 X564.303 Y105.401 Z-0.750
G1 X564.751 Y105.104 Z-0.750
G1 X565.180 Y104.795 Z-0.750
G1 X565.590 Y104.474 Z-0.750
G1 X565.980 Y104.141 Z-0.750
G1 X566.349 Y103.794 Z-0.750
G1 X566.697 Y103.435 Z-0.750
G1 X567.023 Y103.062 Z-0.750
G1 X567.326 Y102.675 Z-0.750
G1 X567.604 Y102.274 Z-0.750
G1 X567.856 Y101.859 Z-0.750
G1 X568.082 Y101.431 Z-0.750
G1 X568.282 Y100.983 Z-0.750
G1 X568.450 Y100.530 Z-0.750
G1 X568.586 Y100.072 Z-0.750
G1 X568.692 Y99.611 Z-0.750
G1 X568.767 Y99.149 Z-0.750
G1 X568.813 Y98.688 Z-0.750
G1 X568.832 Y98.229 Z-0.750
G1 X568.824 Y97.773 Z-0.750
G1 X568.790 Y97.321 Z-0.750
G1 X568.733 Y96.873 Z-0.750
G1 X568.653 Y96.431 Z-0.750
G1 X568.551 Y95.995 Z-0.750
G1 X568.430 Y95.566 Z-0.750
G1 X568.289 Y95.144 Z-0.750
G1 X568.131 Y94.729 Z-0.750
G1 X567.950 Y94.308 Z-0.750
G1 X567.561 Y93.533 Z-0.750
G1 X567.109 Y92.777 Z-0.750
G1 X566.608 Y92.058 Z-0.750
G1 X566.064 Y91.379 Z-0.750
G1 X565.482 Y90.743 Z-0.750
G1 X564.867 Y90.151 Z-0.750
G1 X564.225 Y89.609 Z-0.750
G1 X563.680 Y89.208 Z-0.750
G1 X563.497 Y89.035 Z-0.750
G1 X563.146 Y88.733 Z-0.750
G1 X562.294 Y88.056 Z-0.750
G1 X561.206 Y87.245 Z-0.750
G1 X559.916 Y86.325 Z-0.750
G1 X558.450 Y85.318 Z-0.750
G1 X556.841 Y84.248 Z-0.750
G1 X555.121 Y83.143 Z-0.750
G1 X553.323 Y82.027 Z-0.750
G1 X551.727 Y81.071 Z-0.750
G1 X550.117 Y80.139 Z-0.750
G1 X548.495 Y79.232 Z-0.750
G1 X546.861 Y78.349 Z-0.750
G1 X545.216 Y77.491 Z-0.750
G1 X543.560 Y76.657 Z-0.750
G1 X541.894 Y75.847 Z-0.750
G1 X540.219 Y75.062 Z-0.750
G1 X538.535 Y74.302 Z-0.750
G1 X536.844 Y73.566 Z-0.750
G1 X535.147 Y72.855 Z-0.750
G1 X533.443 Y72.169 Z-0.750
G1 X531.734 Y71.507 Z-0.750
G1 X530.020 Y70.871 Z-0.750
G1 X528.303 Y70.259 Z-0.750
G1 X526.582 Y69.673 Z-0.750
G1 X524.859 Y69.111 Z-0.750
G1 X523.135 Y68.575 Z-0.750
G1 X521.409 Y68.064 Z-0.750
G1 X519.684 Y67.579 Z-0.750
G1 X517.959 Y67.119 Z-0.750
G1 X516.236 Y66.684 Z-0.750
G1 X514.514 Y66.275 Z-0.750
G1 X513.322 Y66.009 Z-0.750
G1 X512.796 Y65.892 Z-0.750
G1 X511.081 Y65.534 Z-0.750
G1 X509.371 Y65.202 Z-0.750
G1 X507.665 Y64.896 Z-0.750
G1 X505.966 Y64.616 Z-0.750
G1 X504.273 Y64.362 Z-0.750
G1 X502.587 Y64.134 Z-0.750
G1 X500.909 Y63.932 Z-0.750
G1 X499.240 Y63.756 Z-0.750
G1 X498.338 Y63.675 Z-0.750
G1 X497.581 Y63.607 Z-0.750
G1 X495.932 Y63.484 Z-0.750
G1 X494.294 Y63.388 Z-0.750
G1 X492.667 Y63.319 Z-0.750
G1 X491.053 Y63.276 Z-0.750
G1 X489.452 Y63.260 Z-0.750
G1 X487.865 Y63.271 Z-0.750
G1 X486.293 Y63.309 Z-0.750
G1 X484.736 Y63.374 Z-0.750
G1 X483.194 Y63.466 Z-0.750
G1 X481.670 Y63.586 Z-0.750
G1 X480.163 Y63.733 Z-0.750
G1 X478.675 Y63.908 Z-0.750
G1 X477.205 Y64.110 Z-0.750
G1 X475.755 Y64.341 Z-0.750
G1 X474.326 Y64.599 Z-0.750
G1 X472.918 Y64.886 Z-0.750
G1 X471.531 Y65.201 Z-0.750
G1 X470.167 Y65.544 Z-0.750
G1 X468.827 Y65.916 Z-0.750
G1 X467.511 Y66.317 Z-0.750
G1 X466.219 Y66.747 Z-0.750
G1 X464.953 Y67.206 Z-0.750
G1 X463.714 Y67.694 Z-0.750
G1 X462.502 Y68.212 Z-0.750
G1 X461.318 Y68.760 Z-0.750
G1 X460.162 Y69.338 Z-0.750
G1 X459.036 Y69.946 Z-0.750
G1 X457.941 Y70.584 Z-0.750
G1 X456.877 Y71.254 Z-0.750
G1 X455.845 Y71.953 Z-0.750
G1 X454.849 Y72.683 Z-0.750
G1 X454.055 Y73.306 Z-0.750
G1 X453.293 Y73.943 Z-0.750
G1 X452.561 Y74.595 Z-0.750
G1 X451.861 Y75.262 Z-0.750
G1 X451.191 Y75.943 Z-0.750
G1 X450.552 Y76.638 Z-0.750
G1 X449.944 Y77.347 Z-0.750
G1 X449.366 Y78.069 Z-0.750
G1 X448.820 Y78.805 Z-0.750
G1 X448.304 Y79.553 Z-0.750
G1 X447.820 Y80.313 Z-0.750
G1 X447.367 Y81.085 Z-0.750
G1 X446.944 Y81.869 Z-0.750
G1 X446.553 Y82.664 Z-0.750
G1 X446.193 Y83.469 Z-0.750
G1 X445.864 Y84.285 Z-0.750
G1 X445.566 Y85.110 Z-0.750
G1 X445.299 Y85.944 Z-0.750
G1 X445.062 Y86.787 Z-0.750
G1 X444.857 Y87.639 Z-0.750
G1 X444.682 Y88.498 Z-0.750
G1 X444.682 Y88.498 Z-1.500 F254.0
G1 X444.538 Y89.365 Z-1.500 F177.8
G1 X444.424 Y90.238 Z-1.500
G1 X444.340 Y91.118 Z-1.500
G1 X444.286 Y92.005 Z-1.500
G1 X444.262 Y92.896 Z-1.500
G1 X444.268 Y93.793 Z-1.500
G1 X444.303 Y94.695 Z-1.500
G1 X444.367 Y95.602 Z-1.500
G1 X444.460 Y96.513 Z-1.500
G1 X444.583 Y97.427 Z-1.500
G1 X444.748 Y98.437 Z-1.500
G1 X445.156 Y99.710 Z-1.500
G1 X445.596 Y100.901 Z-1.500
G1 X446.092 Y102.086 Z-1.500
G1 X446.644 Y103.265 Z-1.500
G1 X447.250 Y104.436 Z-1.500
G1 X447.910 Y105.599 Z-1.500
G1 X448.622 Y106.754 Z-1.500
G1 X449.520 Y108.100 Z-1.500
G1 X449.971 Y108.441 Z-1.500
G1 X450.265 Y108.632 Z-1.500
G1 X450.570 Y108.802 Z-1.500
G1 X450.885 Y108.950 Z-1.500
G1 X451.209 Y109.076 Z-1.500
G1 X451.541 Y109.179 Z-1.500
G1 X451.881 Y109.260 Z-1.500
G1 X452.299 Y109.330 Z-1.500
G1 X456.413 Y109.335 Z-1.500
G1 X456.464 Y109.338 Z-1.500
G1 X456.516 Y109.348 Z-1.500
G1 X456.567 Y109.365 Z-1.500
G1 X456.616 Y109.389 Z-1.500
G1 X456.662 Y109.419 Z-1.500
G1 X456.703 Y109.455 Z-1.500
G1 X456.738 Y109.495 Z-1.500
G1 X456.768 Y109.539 Z-1.500
G1 X456.791 Y109.585 Z-1.500
G1 X456.792 Y109.588 Z-1.500
G1 X456.856 Y109.728 Z-1.500
G1 X456.925 Y109.868 Z-1.500
G1 X457.000 Y110.009 Z-1.500
G1 X457.083 Y110.150 Z-1.500
G1 X457.172 Y110.291 Z-1.500
G1 X457.267 Y110.431 Z-1.500
G1 X457.370 Y110.571 Z-1.500
G1 X457.480 Y110.708 Z-1.500
G1 X457.598 Y110.844 Z-1.500
G1 X457.722 Y110.978 Z-1.500
G1 X457.855 Y111.109 Z-1.500
G1 X457.994 Y111.236 Z-1.500
G1 X458.141 Y111.359 Z-1.500
G1 X458.296 Y111.478 Z-1.500
G1 X458.457 Y111.592 Z-1.500
G1 X458.625 Y111.700 Z-1.500
G1 X458.800 Y111.801 Z-1.500
G1 X458.982 Y111.897 Z-1.500
G1 X459.169 Y111.985 Z-1.500
G1 X459.362 Y112.065 Z-1.500
G1 X459.560 Y112.137 Z-1.500
G1 X459.762 Y112.200 Z-1.500
G1 X459.969 Y112.254 Z-1.500
G1 X460.179 Y112.299 Z-1.500
G1 X460.392 Y112.335 Z-1.500
G1 X460.607 Y112.360 Z-1.500
G1 X460.823 Y112.375 Z-1.500
G1 X461.040 Y112.380 Z-1.500
G1 X461.258 Y112.375 Z-1.500
G1 X461.474 Y112.360 Z-1.500
G1 X461.689 Y112.335 Z-1.500
G1 X461.902 Y112.300 Z-1.500
G1 X462.112 Y112.255 Z-1.500
G1 X462.319 Y112.201 Z-1.500
G1 X462.521 Y112.138 Z-1.500
G1 X462.719 Y112.066 Z-1.500
G1 X462.912 Y111.986 Z-1.500
G1 X463.100 Y111.898 Z-1.500
G1 X463.281 Y111.803 Z-1.500
G1 X463.456 Y111.701 Z-1.500
G1 X463.624 Y111.593 Z-1.500
G1 X463.786 Y111.480 Z-1.500
G1 X463.940 Y111.361 Z-1.500
G1 X464.087 Y111.238 Z-1.500
G1 X464.227 Y111.111 Z-1.500
G1 X464.359 Y110.980 Z-1.500
G1 X464.484 Y110.846 Z-1.500
G1 X464.602 Y110.711 Z-1.500
G1 X464.712 Y110.573 Z-1.500
G1 X464.815 Y110.434 Z-1.500
G1 X464.911 Y110.293 Z-1.500
G1 X464.999 Y110.153 Z-1.500
G1 X465.082 Y110.011 Z-1.500
G1 X465.157 Y109.871 Z-1.500
G1 X465.227 Y109.730 Z-1.500
G1 X465.290 Y109.590 Z-1.500
G1 X465.313 Y109.545 Z-1.500
G1 X465.342 Y109.502 Z-1.500
G1 X465.377 Y109.463 Z-1.500
G1 X465.417 Y109.427 Z-1.500
G1 X465.462 Y109.397 Z-1.500
G1 X465.510 Y109.373 Z-1.500
G1 X465.560 Y109.356 Z-1.500
G1 X465.611 Y109.346 Z-1.500
G1 X465.661 Y109.342 Z-1.500
G1 X493.573 Y109.371 Z-1.500
G1 X508.748 Y109.387 Z-1.500
G1 X550.897 Y109.431 Z-1.500
G1 X552.548 Y109.202 Z-1.500
G1 X554.053 Y108.952 Z-1.500
G1 X555.499 Y108.668 Z-1.500
G1 X556.885 Y108.350 Z-1.500
G1 X558.208 Y107.998 Z-1.500
G1 X559.468 Y107.611 Z-1.500
G1 X560.663 Y107.187 Z-1.500
G1 X561.780 Y106.731 Z-1.500
G1 X562.328 Y106.482 Z-1.500
G1 X562.848 Y106.228 Z-1.500
G1 X563.351 Y105.963 Z-1.500
G1 X563.836 Y105.687 Z-1.500
G1 X564.303 Y105.401 Z-1.500
G1 X564.751 Y105.104 Z-1.500
G1 X565.180 Y104.795 Z-1.500
G1 X565.590 Y104.474 Z-1.500
G1 X565.980 Y104.141 Z-1.500
G1 X566.349 Y103.794 Z-1.500
G1 X566.697 Y103.435 Z-1.500
G1 X567.023 Y103.062 Z-1.500
G1 X567.326 Y102.675 Z-1.500
G1 X567.604 Y102.274 Z-1.500
G1 X567.856 Y101.859 Z-1.500
G1 X568.082 Y101.431 Z-1.500
G1 X568.282 Y100.983 Z-1.500
G1 X568.450 Y100.530 Z-1.500
G1 X568.586 Y100.072 Z-1.500
G1 X568.692 Y99.611 Z-1.500
G1 X568.767 Y99.149 Z-1.500
G1 X568.813 Y98.688 Z-1.500
G1 X568.832 Y98.229 Z-1.500
G1 X568.824 Y97.773 Z-1.500
G1 X568.790 Y97.321 Z-1.500
G1 X568.733 Y96.873 Z-1.500
G1 X568.653 Y96.431 Z-1.500
G1 X568.551 Y95.995 Z-1.500
G1 X568.430 Y95.566 Z-1.500
G1 X568.289 Y95.144 Z-1.500
G1 X568.131 Y94.729 Z-1.500
G1 X567.950 Y94.308 Z-1.500
G1 X567.561 Y93.533 Z-1.500
G1 X567.109 Y92.777 Z-1.500
G1 X566.608 Y92.058 Z-1.500
G1 X566.064 Y91.379 Z-1.500
G1 X565.482 Y90.743 Z-1.500
G1 X564.867 Y90.151 Z-1.500
G1 X564.225 Y89.609 Z-1.500
G1 X563.680 Y89.208 Z-1.500
G1 X563.497 Y89.035 Z-1.500
G1 X563.146 Y88.733 Z-1.500
G1 X562.294 Y88.056 Z-1.500
G1 X561.206 Y87.245 Z-1.500
G1 X559.916 Y86.325 Z-1.500
G1 X558.450 Y85.318 Z-1.500
G1 X556.841 Y84.248 Z-1.500
G1 X555.121 Y83.143 Z-1.500
G1 X553.323 Y82.027 Z-1.500
G1 X551.727 Y81.071 Z-1.500
G1 X550.117 Y80.139 Z-1.500
G1 X548.495 Y79.232 Z-1.500
G1 X546.861 Y78.349 Z-1.500
G1 X545.216 Y77.491 Z-1.500
G1 X543.560 Y76.657 Z-1.500
G1 X541.894 Y75.847 Z-1.500
G1 X540.219 Y75.062 Z-1.500
G1 X538.535 Y74.302 Z-1.500
G1 X536.844 Y73.566 Z-1.500
G1 X535.147 Y72.855 Z-1.500
G1 X533.443 Y72.169 Z-1.500
G1 X531.734 Y71.507 Z-1.500
G1 X530.020 Y70.871 Z-1.500
G1 X528.303 Y70.259 Z-1.500
G1 X526.582 Y69.673 Z-1.500
G1 X524.859 Y69.111 Z-1.500
G1 X523.135 Y68.575 Z-1.500
G1 X521.409 Y68.064 Z-1.500
G1 X519.684 Y67.579 Z-1.500
G1 X517.959 Y67.119 Z-1.500
G1 X516.236 Y66.684 Z-1.500
G1 X514.514 Y66.275 Z-1.500
G1 X513.322 Y66.009 Z-1.500
G1 X512.796 Y65.892 Z-1.500
G1 X511.081 Y65.534 Z-1.500
G1 X509.371 Y65.202 Z-1.500
G1 X507.665 Y64.896 Z-1.500
G1 X505.966 Y64.616 Z-1.500
G1 X504.273 Y64.362 Z-1.500
G1 X502.587 Y64.134 Z-1.500
G1 X500.909 Y63.932 Z-1.500
G1 X499.240 Y63.756 Z-1.500
G1 X498.338 Y63.675 Z-1.500
G1 X497.581 Y63.607 Z-1.500
G1 X495.932 Y63.484 Z-1.500
G1 X494.294 Y63.388 Z-1.500
G1 X492.667 Y63.319 Z-1.500
G1 X491.053 Y63.276 Z-1.500
G1 X489.452 Y63.260 Z-1.500
G1 X487.865 Y63.271 Z-1.500
G1 X486.293 Y63.309 Z-1.500
G1 X484.736 Y63.374 Z-1.500
G1 X483.194 Y63.466 Z-1.500
G1 X481.670 Y63.586 Z-1.500
G1 X480.163 Y63.733 Z-1.500
G1 X478.675 Y63.908 Z-1.500
G1 X477.205 Y64.110 Z-1.500
G1 X475.755 Y64.341 Z-1.500
G1 X474.326 Y64.599 Z-1.500
G1 X472.918 Y64.886 Z-1.500
G1 X471.531 Y65.201 Z-1.500
G1 X470.167 Y65.544 Z-1.500
G1 X468.827 Y65.916 Z-1.500
G1 X467.511 Y66.317 Z-1.500
G1 X466.219 Y66.747 Z-1.500
G1 X464.953 Y67.206 Z-1.500
G1 X463.714 Y67.694 Z-1.500
G1 X462.502 Y68.212 Z-1.500
G1 X461.318 Y68.760 Z-1.500
G1 X460.162 Y69.338 Z-1.500
G1 X459.036 Y69.946 Z-1.500
G1 X457.941 Y70.584 Z-1.500
G1 X456.877 Y71.254 Z-1.500
G1 X455.845 Y71.953 Z-1.500
G1 X454.849 Y72.683 Z-1.500
G1 X454.055 Y73.306 Z-1.500
G1 X453.293 Y73.943 Z-1.500
G1 X452.561 Y74.595 Z-1.500
G1 X451.861 Y75.262 Z-1.500
G1 X451.191 Y75.943 Z-1.500
G1 X450.552 Y76.638 Z-1.500
G1 X449.944 Y77.347 Z-1.500
G1 X449.366 Y78.069 Z-1.500
G1 X448.820 Y78.805 Z-1.500
G1 X448.304 Y79.553 Z-1.500
G1 X447.820 Y80.313 Z-1.500
G1 X447.367 Y81.085 Z-1.500
G1 X446.944 Y81.869 Z-1.500
G1 X446.553 Y82.664 Z-1.500
G1 X446.193 Y83.469 Z-1.500
G1 X445.864 Y84.285 Z-1.500
G1 X445.566 Y85.110 Z-1.500
G1 X445.299 Y85.944 Z-1.500
G1 X445.062 Y86.787 Z-1.500
G1 X444.857 Y87.639 Z-1.500
G1 X444.682 Y88.498 Z-1.500
G1 X444.682 Y88.498 Z-2.250 F254.0
G1 X444.538 Y89.365 Z-2.250 F177.8
G1 X444.424 Y90.238 Z-2.250
G1 X444.340 Y91.118 Z-2.250
G1 X444.286 Y92.005 Z-2.250
G1 X444.262 Y92.896 Z-2.250
G1 X444.268 Y93.793 Z-2.250
G1 X444.303 Y94.695 Z-2.250
G1 X444.367 Y95.602 Z-2.250
G1 X444.460 Y96.513 Z-2.250
G1 X444.583 Y97.427 Z-2.250
G1 X444.748 Y98.437 Z-2.250
G1 X445.156 Y99.710 Z-2.250
G1 X445.596 Y100.901 Z-2.250
G1 X446.092 Y102.086 Z-2.250
G1 X446.644 Y103.265 Z-2.250
G1 X447.250 Y104.436 Z-2.250
G1 X447.910 Y105.599 Z-2.250
G1 X448.622 Y106.754 Z-2.250
G1 X449.520 Y108.100 Z-2.250
G1 X449.971 Y108.441 Z-2.250
G1 X450.265 Y108.632 Z-2.250
G1 X450.570 Y108.802 Z-2.250
G1 X450.885 Y108.950 Z-2.250
G1 X451.209 Y109.076 Z-2.250
G1 X451.541 Y109.179 Z-2.250
G1 X451.881 Y109.260 Z-2.250
G1 X452.299 Y109.330 Z-2.250
G1 X456.413 Y109.335 Z-2.250
G1 X456.464 Y109.338 Z-2.250
G1 X456.516 Y109.348 Z-2.250
G1 X456.567 Y109.365 Z-2.250
G1 X456.616 Y109.389 Z-2.250
G1 X456.662 Y109.419 Z-2.250
G1 X456.703 Y109.455 Z-2.250
G1 X456.738 Y109.495 Z-2.250
G1 X456.768 Y109.539 Z-2.250
G1 X456.791 Y109.585 Z-2.250
G1 X456.792 Y109.588 Z-2.250
G1 X456.856 Y109.728 Z-2.250
G1 X456.925 Y109.868 Z-2.250
G1 X457.000 Y110.009 Z-2.250
G1 X457.083 Y110.150 Z-2.250
G1 X457.172 Y110.291 Z-2.250
G1 X457.267 Y110.431 Z-2.250
G1 X457.370 Y110.571 Z-2.250
G1 X457.480 Y110.708 Z-2.250
G1 X457.598 Y110.844 Z-2.250
G1 X457.722 Y110.978 Z-2.250
G1 X457.855 Y111.109 Z-2.250
G1 X457.994 Y111.236 Z-2.250
G1 X458.141 Y111.359 Z-2.250
G1 X458.296 Y111.478 Z-2.250
G1 X458.457 Y111.592 Z-2.250
G1 X458.625 Y111.700 Z-2.250
G1 X458.800 Y111.801 Z-2.250
G1 X458.982 Y111.897 Z-2.250
G1 X459.169 Y111.985 Z-2.250
G1 X459.362 Y112.065 Z-2.250
G1 X459.560 Y112.137 Z-2.250
G1 X459.762 Y112.200 Z-2.250
G1 X459.969 Y112.254 Z-2.250
G1 X460.179 Y112.299 Z-2.250
G1 X460.392 Y112.335 Z-2.250
G1 X460.607 Y112.360 Z-2.250
G1 X460.823 Y112.375 Z-2.250
G1 X461.040 Y112.380 Z-2.250
G1 X461.258 Y112.375 Z-2.250
G1 X461.474 Y112.360 Z-2.250
G1 X461.689 Y112.335 Z-2.250
G1 X461.902 Y112.300 Z-2.250
G1 X462.112 Y112.255 Z-2.250
G1 X462.319 Y112.201 Z-2.250
G1 X462.521 Y112.138 Z-2.250
G1 X462.719 Y112.066 Z-2.250
G1 X462.912 Y111.986 Z-2.250
G1 X463.100 Y111.898 Z-2.250
G1 X463.281 Y111.803 Z-2.250
G1 X463.456 Y111.701 Z-2.250
G1 X463.624 Y111.593 Z-2.250
G1 X463.786 Y111.480 Z-2.250
G1 X463.940 Y111.361 Z-2.250
G1 X464.087 Y111.238 Z-2.250
G1 X464.227 Y111.111 Z-2.250
G1 X464.359 Y110.980 Z-2.250
G1 X464.484 Y110.846 Z-2.250
G1 X464.602 Y110.711 Z-2.250
G1 X464.712 Y110.573 Z-2.250
G1 X464.815 Y110.434 Z-2.250
G1 X464.911 Y110.293 Z-2.250
G1 X464.999 Y110.153 Z-2.250
G1 X465.082 Y110.011 Z-2.250
G1 X465.157 Y109.871 Z-2.250
G1 X465.227 Y109.730 Z-2.250
G1 X465.290 Y109.590 Z-2.250
G1 X465.313 Y109.545 Z-2.250
G1 X465.342 Y109.502 Z-2.250
G1 X465.377 Y109.463 Z-2.250
G1 X465.417 Y109.427 Z-2.250
G1 X465.462 Y109.397 Z-2.250
G1 X465.510 Y109.373 Z-2.250
G1 X465.560 Y109.356 Z-2.250
G1 X465.611 Y109.346 Z-2.250
G1 X465.661 Y109.342 Z-2.250
G1 X493.573 Y109.371 Z-2.250
G1 X508.748 Y109.387 Z-2.250
G1 X550.897 Y109.431 Z-2.250
G1 X552.548 Y109.202 Z-2.250
G1 X554.053 Y108.952 Z-2.250
G1 X555.499 Y108.668 Z-2.250
G1 X556.885 Y108.350 Z-2.250
G1 X558.208 Y107.998 Z-2.250
G1 X559.468 Y107.611 Z-2.250
G1 X560.663 Y107.187 Z-2.250
G1 X561.780 Y106.731 Z-2.250
G1 X562.328 Y106.482 Z-2.250
G1 X562.848 Y106.228 Z-2.250
G1 X563.351 Y105.963 Z-2.250
G1 X563.836 Y105.687 Z-2.250
G1 X564.303 Y105.401 Z-2.250
G1 X564.751 Y105.104 Z-2.250
G1 X565.180 Y104.795 Z-2.250
G1 X565.590 Y104.474 Z-2.250
G1 X565.980 Y104.141 Z-2.250
G1 X566.349 Y103.794 Z-2.250
G1 X566.697 Y103.435 Z-2.250
G1 X567.023 Y103.062 Z-2.250
G1 X567.326 Y102.675 Z-2.250
G1 X567.604 Y102.274 Z-2.250
G1 X567.856 Y101.859 Z-2.250
G1 X568.082 Y101.431 Z-2.250
G1 X568.282 Y100.983 Z-2.250
G1 X568.450 Y100.530 Z-2.250
G1 X568.586 Y100.072 Z-2.250
G1 X568.692 Y99.611 Z-2.250
G1 X568.767 Y99.149 Z-2.250
G1 X568.813 Y98.688 Z-2.250
G1 X568.832 Y98.229 Z-2.250
G1 X568.824 Y97.773 Z-2.250
G1 X568.790 Y97.321 Z-2.250
G1 X568.733 Y96.873 Z-2.250
G1 X568.653 Y96.431 Z-2.250
G1 X568.551 Y95.995 Z-2.250
G1 X568.430 Y95.566 Z-2.250
G1 X568.289 Y95.144 Z-2.250
G1 X568.131 Y94.729 Z-2.250
G1 X567.950 Y94.308 Z-2.250
G1 X567.561 Y93.533 Z-2.250
G1 X567.109 Y92.777 Z-2.250
G1 X566.608 Y92.058 Z-2.250
G1 X566.064 Y91.379 Z-2.250
G1 X565.482 Y90.743 Z-2.250
G1 X564.867 Y90.151 Z-2.250
G1 X564.225 Y89.609 Z-2.250
G1 X563.680 Y89.208 Z-2.250
G1 X563.497 Y89.035 Z-2.250
G1 X563.146 Y88.733 Z-2.250
G1 X562.294 Y88.056 Z-2.250
G1 X561.206 Y87.245 Z-2.250
G1 X559.916 Y86.325 Z-2.250
G1 X558.450 Y85.318 Z-2.250
G1 X556.841 Y84.248 Z-2.250
G1 X555.121 Y83.143 Z-2.250
G1 X553.323 Y82.027 Z-2.250
G1 X551.727 Y81.071 Z-2.250
G1 X550.117 Y80.139 Z-2.250
G1 X548.495 Y79.232 Z-2.250
G1 X546.861 Y78.349 Z-2.250
G1 X545.216 Y77.491 Z-2.250
G1 X543.560 Y76.657 Z-2.250
G1 X541.894 Y75.847 Z-2.250
G1 X540.219 Y75.062 Z-2.250
G1 X538.535 Y74.302 Z-2.250
G1 X536.844 Y73.566 Z-2.250
G1 X535.147 Y72.855 Z-2.250
G1 X533.443 Y72.169 Z-2.250
G1 X531.734 Y71.507 Z-2.250
G1 X530.020 Y70.871 Z-2.250
G1 X528.303 Y70.259 Z-2.250
G1 X526.582 Y69.673 Z-2.250
G1 X524.859 Y69.111 Z-2.250
G1 X523.135 Y68.575 Z-2.250
G1 X521.409 Y68.064 Z-2.250
G1 X519.684 Y67.579 Z-2.250
G1 X517.959 Y67.119 Z-2.250
G1 X516.236 Y66.684 Z-2.250
G1 X514.514 Y66.275 Z-2.250
G1 X513.322 Y66.009 Z-2.250
G1 X512.796 Y65.892 Z-2.250
G1 X511.081 Y65.534 Z-2.250
G1 X509.371 Y65.202 Z-2.250
G1 X507.665 Y64.896 Z-2.250
G1 X505.966 Y64.616 Z-2.250
G1 X504.273 Y64.362 Z-2.250
G1 X502.587 Y64.134 Z-2.250
G1 X500.909 Y63.932 Z-2.250
G1 X499.240 Y63.756 Z-2.250
G1 X498.338 Y63.675 Z-2.250
G1 X497.581 Y63.607 Z-2.250
G1 X495.932 Y63.484 Z-2.250
G1 X494.294 Y63.388 Z-2.250
G1 X492.667 Y63.319 Z-2.250
G1 X491.053 Y63.276 Z-2.250
G1 X489.452 Y63.260 Z-2.250
G1 X487.865 Y63.271 Z-2.250
G1 X486.293 Y63.309 Z-2.250
G1 X484.736 Y63.374 Z-2.250
G1 X483.194 Y63.466 Z-2.250
G1 X481.670 Y63.586 Z-2.250
G1 X480.163 Y63.733 Z-2.250
G1 X478.675 Y63.908 Z-2.250
G1 X477.205 Y64.110 Z-2.250
G1 X475.755 Y64.341 Z-2.250
G1 X474.326 Y64.599 Z-2.250
G1 X472.918 Y64.886 Z-2.250
G1 X471.531 Y65.201 Z-2.250
G1 X470.167 Y65.544 Z-2.250
G1 X468.827 Y65.916 Z-2.250
G1 X467.511 Y66.317 Z-2.250
G1 X466.219 Y66.747 Z-2.250
G1 X464.953 Y67.206 Z-2.250
G1 X463.714 Y67.694 Z-2.250
G1 X462.502 Y68.212 Z-2.250
G1 X461.318 Y68.760 Z-2.250
G1 X460.162 Y69.338 Z-2.250
G1 X459.036 Y69.946 Z-2.250
G1 X457.941 Y70.584 Z-2.250
