(VECTRIC POST REVISION)
(AE8C5706166A14C0DE23454C54EBD95B)
%
G21
G40
G94
G97
G64
G90
T1 M6
M8
M3 S10000
G0 X358.070 Y184.071
G0 Z6.000
G1 X358.070 Y184.071 Z-1.000 F635.0
G1 X358.083 Y183.890 Z-1.000 F180.0
G1 X358.125 Y183.704 Z-1.000
G1 X358.198 Y183.519 Z-1.000
G1 X358.303 Y183.344 Z-1.000
G1 X358.436 Y183.187 Z-1.000
G1 X358.594 Y183.054 Z-1.000
G1 X358.768 Y182.949 Z-1.000
G1 X358.953 Y182.876 Z-1.000
G1 X359.139 Y182.834 Z-1.000
G1 X359.320 Y182.821 Z-1.000
G1 X359.501 Y182.834 Z-1.000
G1 X359.687 Y182.876 Z-1.000
G1 X359.872 Y182.949 Z-1.000
G1 X360.046 Y183.054 Z-1.000
G1 X360.204 Y183.187 Z-1.000
G1 X360.337 Y183.344 Z-1.000
G1 X360.442 Y183.519 Z-1.000
G1 X360.515 Y183.704 Z-1.000
G1 X360.557 Y183.890 Z-1.000
G1 X360.570 Y184.071 Z-1.000
G1 X360.557 Y184.252 Z-1.000
G1 X360.515 Y184.438 Z-1.000
G1 X360.442 Y184.622 Z-1.000
G1 X360.337 Y184.797 Z-1.000
G1 X360.204 Y184.955 Z-1.000
G1 X360.046 Y185.088 Z-1.000
G1 X359.872 Y185.193 Z-1.000
G1 X359.687 Y185.266 Z-1.000
G1 X359.501 Y185.308 Z-1.000
G1 X359.320 Y185.321 Z-1.000
G1 X359.156 Y185.310 Z-1.000
G1 X358.987 Y185.276 Z-1.000
G1 X358.818 Y185.216 Z-1.000
G1 X358.656 Y185.130 Z-1.000
G1 X358.505 Y185.019 Z-1.000
G1 X358.372 Y184.886 Z-1.000
G1 X358.261 Y184.735 Z-1.000
G1 X358.175 Y184.573 Z-1.000
G1 X358.115 Y184.404 Z-1.000
G1 X358.081 Y184.235 Z-1.000
G1 X358.070 Y184.071 Z-1.000
G0 X358.070 Y184.071
G0 Z6.000
G1 X358.070 Y184.071 Z-2.000 F635.0
G1 X358.083 Y183.890 Z-2.000 F180.0
G1 X358.125 Y183.704 Z-2.000
G1 X358.198 Y183.519 Z-2.000
G1 X358.303 Y183.344 Z-2.000
G1 X358.436 Y183.187 Z-2.000
G1 X358.594 Y183.054 Z-2.000
G1 X358.768 Y182.949 Z-2.000
G1 X358.953 Y182.876 Z-2.000
G1 X359.139 Y182.834 Z-2.000
G1 X359.320 Y182.821 Z-2.000
G1 X359.501 Y182.834 Z-2.000
G1 X359.687 Y182.876 Z-2.000
G1 X359.872 Y182.949 Z-2.000
G1 X360.046 Y183.054 Z-2.000
G1 X360.204 Y183.187 Z-2.000
G1 X360.337 Y183.344 Z-2.000
G1 X360.442 Y183.519 Z-2.000
G1 X360.515 Y183.704 Z-2.000
G1 X360.557 Y183.890 Z-2.000
G1 X360.570 Y184.071 Z-2.000
G1 X360.557 Y184.252 Z-2.000
G1 X360.515 Y184.438 Z-2.000
G1 X360.442 Y184.622 Z-2.000
G1 X360.337 Y184.797 Z-2.000
G1 X360.204 Y184.955 Z-2.000
G1 X360.046 Y185.088 Z-2.000
G1 X359.872 Y185.193 Z-2.000
G1 X359.687 Y185.266 Z-2.000
G1 X359.501 Y185.308 Z-2.000
G1 X359.320 Y185.321 Z-2.000
G1 X359.156 Y185.310 Z-2.000
G1 X358.987 Y185.276 Z-2.000
G1 X358.818 Y185.216 Z-2.000
G1 X358.656 Y185.130 Z-2.000
G1 X358.505 Y185.019 Z-2.000
G1 X358.372 Y184.886 Z-2.000
G1 X358.261 Y184.735 Z-2.000
G1 X358.175 Y184.573 Z-2.000
G1 X358.115 Y184.404 Z-2.000
G1 X358.081 Y184.235 Z-2.000
G1 X358.070 Y184.071 Z-2.000
G0 X358.070 Y184.071
G0 Z6.000
G1 X358.070 Y184.071 Z-3.000 F635.0
G1 X358.083 Y183.890 Z-3.000 F180.0
G1 X358.125 Y183.704 Z-3.000
G1 X358.198 Y183.519 Z-3.000
G1 X358.303 Y183.344 Z-3.000
G1 X358.436 Y183.187 Z-3.000
G1 X358.594 Y183.054 Z-3.000
G1 X358.768 Y182.949 Z-3.000
G1 X358.953 Y182.876 Z-3.000
G1 X359.139 Y182.834 Z-3.000
G1 X359.320 Y182.821 Z-3.000
G1 X359.501 Y182.834 Z-3.000
G1 X359.687 Y182.876 Z-3.000
G1 X359.872 Y182.949 Z-3.000
G1 X360.046 Y183.054 Z-3.000
G1 X360.204 Y183.187 Z-3.000
G1 X360.337 Y183.344 Z-3.000
G1 X360.442 Y183.519 Z-3.000
G1 X360.515 Y183.704 Z-3.000
G1 X360.557 Y183.890 Z-3.000
G1 X360.570 Y184.071 Z-3.000
G1 X360.557 Y184.252 Z-3.000
G1 X360.515 Y184.438 Z-3.000
G1 X360.442 Y184.622 Z-3.000
G1 X360.337 Y184.797 Z-3.000
G1 X360.204 Y184.955 Z-3.000
G1 X360.046 Y185.088 Z-3.000
G1 X359.872 Y185.193 Z-3.000
G1 X359.687 Y185.266 Z-3.000
G1 X359.501 Y185.308 Z-3.000
G1 X359.320 Y185.321 Z-3.000
G1 X359.156 Y185.310 Z-3.000
G1 X358.987 Y185.276 Z-3.000
G1 X358.818 Y185.216 Z-3.000
G1 X358.656 Y185.130 Z-3.000
G1 X358.505 Y185.019 Z-3.000
G1 X358.372 Y184.886 Z-3.000
G1 X358.261 Y184.735 Z-3.000
G1 X358.175 Y184.573 Z-3.000
G1 X358.115 Y184.404 Z-3.000
G1 X358.081 Y184.235 Z-3.000
G1 X358.070 Y184.071 Z-3.000
G0 X358.070 Y184.071
G0 Z6.000
G1 X358.070 Y184.071 Z-4.000 F635.0
G1 X358.083 Y183.890 Z-4.000 F180.0
G1 X358.125 Y183.704 Z-4.000
G1 X358.198 Y183.519 Z-4.000
G1 X358.303 Y183.344 Z-4.000
G1 X358.436 Y183.187 Z-4.000
G1 X358.594 Y183.054 Z-4.000
G1 X358.768 Y182.949 Z-4.000
G1 X358.953 Y182.876 Z-4.000
G1 X359.139 Y182.834 Z-4.000
G1 X359.320 Y182.821 Z-4.000
G1 X359.501 Y182.834 Z-4.000
G1 X359.687 Y182.876 Z-4.000
G1 X359.872 Y182.949 Z-4.000
G1 X360.046 Y183.054 Z-4.000
G1 X360.204 Y183.187 Z-4.000
G1 X360.337 Y183.344 Z-4.000
G1 X360.442 Y183.519 Z-4.000
G1 X360.515 Y183.704 Z-4.000
G1 X360.557 Y183.890 Z-4.000
G1 X360.570 Y184.071 Z-4.000
G1 X360.557 Y184.252 Z-4.000
G1 X360.515 Y184.438 Z-4.000
G1 X360.442 Y184.622 Z-4.000
G1 X360.337 Y184.797 Z-4.000
G1 X360.204 Y184.955 Z-4.000
G1 X360.046 Y185.088 Z-4.000
G1 X359.872 Y185.193 Z-4.000
G1 X359.687 Y185.266 Z-4.000
G1 X359.501 Y185.308 Z-4.000
G1 X359.320 Y185.321 Z-4.000
G1 X359.156 Y185.310 Z-4.000
G1 X358.987 Y185.276 Z-4.000
G1 X358.818 Y185.216 Z-4.000
G1 X358.656 Y185.130 Z-4.000
G1 X358.505 Y185.019 Z-4.000
G1 X358.372 Y184.886 Z-4.000
G1 X358.261 Y184.735 Z-4.000
G1 X358.175 Y184.573 Z-4.000
G1 X358.115 Y184.404 Z-4.000
G1 X358.081 Y184.235 Z-4.000
G1 X358.070 Y184.071 Z-4.000
G0 X358.070 Y184.071
G0 Z6.000
G1 X358.070 Y184.071 Z-5.000 F635.0
G1 X358.083 Y183.890 Z-5.000 F180.0
G1 X358.125 Y183.704 Z-5.000
G1 X358.198 Y183.519 Z-5.000
G1 X358.303 Y183.344 Z-5.000
G1 X358.436 Y183.187 Z-5.000
G1 X358.594 Y183.054 Z-5.000
G1 X358.768 Y182.949 Z-5.000
G1 X358.953 Y182.876 Z-5.000
G1 X359.139 Y182.834 Z-5.000
G1 X359.320 Y182.821 Z-5.000
G1 X359.501 Y182.834 Z-5.000
G1 X359.687 Y182.876 Z-5.000
G1 X359.872 Y182.949 Z-5.000
G1 X360.046 Y183.054 Z-5.000
G1 X360.204 Y183.187 Z-5.000
G1 X360.337 Y183.344 Z-5.000
G1 X360.442 Y183.519 Z-5.000
G1 X360.515 Y183.704 Z-5.000
G1 X360.557 Y183.890 Z-5.000
G1 X360.570 Y184.071 Z-5.000
G1 X360.557 Y184.252 Z-5.000
G1 X360.515 Y184.438 Z-5.000
G1 X360.442 Y184.622 Z-5.000
G1 X360.337 Y184.797 Z-5.000
G1 X360.204 Y184.955 Z-5.000
G1 X360.046 Y185.088 Z-5.000
G1 X359.872 Y185.193 Z-5.000
G1 X359.687 Y185.266 Z-5.000
G1 X359.501 Y185.308 Z-5.000
G1 X359.320 Y185.321 Z-5.000
G1 X359.156 Y185.310 Z-5.000
G1 X358.987 Y185.276 Z-5.000
G1 X358.818 Y185.216 Z-5.000
G1 X358.656 Y185.130 Z-5.000
G1 X358.505 Y185.019 Z-5.000
G1 X358.372 Y184.886 Z-5.000
G1 X358.261 Y184.735 Z-5.000
G1 X358.175 Y184.573 Z-5.000
G1 X358.115 Y184.404 Z-5.000
G1 X358.081 Y184.235 Z-5.000
G1 X358.070 Y184.071 Z-5.000
G0 X358.070 Y184.071
G0 Z6.000
G1 X358.070 Y184.071 Z-6.000 F635.0
G1 X358.083 Y183.890 Z-6.000 F180.0
G1 X358.125 Y183.704 Z-6.000
G1 X358.198 Y183.519 Z-6.000
G1 X358.303 Y183.344 Z-6.000
G1 X358.436 Y183.187 Z-6.000
G1 X358.594 Y183.054 Z-6.000
G1 X358.768 Y182.949 Z-6.000
G1 X358.953 Y182.876 Z-6.000
G1 X359.139 Y182.834 Z-6.000
G1 X359.320 Y182.821 Z-6.000
G1 X359.501 Y182.834 Z-6.000
G1 X359.687 Y182.876 Z-6.000
G1 X359.872 Y182.949 Z-6.000
G1 X360.046 Y183.054 Z-6.000
G1 X360.204 Y183.187 Z-6.000
G1 X360.337 Y183.344 Z-6.000
G1 X360.442 Y183.519 Z-6.000
G1 X360.515 Y183.704 Z-6.000
G1 X360.557 Y183.890 Z-6.000
G1 X360.570 Y184.071 Z-6.000
G1 X360.557 Y184.252 Z-6.000
G1 X360.515 Y184.438 Z-6.000
G1 X360.442 Y184.622 Z-6.000
G1 X360.337 Y184.797 Z-6.000
G1 X360.204 Y184.955 Z-6.000
G1 X360.046 Y185.088 Z-6.000
G1 X359.872 Y185.193 Z-6.000
G1 X359.687 Y185.266 Z-6.000
G1 X359.501 Y185.308 Z-6.000
G1 X359.320 Y185.321 Z-6.000
G1 X359.156 Y185.310 Z-6.000
G1 X358.987 Y185.276 Z-6.000
G1 X358.818 Y185.216 Z-6.000
G1 X358.656 Y185.130 Z-6.000
G1 X358.505 Y185.019 Z-6.000
G1 X358.372 Y184.886 Z-6.000
G1 X358.261 Y184.735 Z-6.000
G1 X358.175 Y184.573 Z-6.000
G1 X358.115 Y184.404 Z-6.000
G1 X358.081 Y184.235 Z-6.000
G1 X358.070 Y184.071 Z-6.000
G0 X358.070 Y184.071
G0 Z6.000
G1 X358.070 Y184.071 Z-7.000 F635.0
G1 X358.083 Y183.890 Z-7.000 F180.0
G1 X358.125 Y183.704 Z-7.000
G1 X358.198 Y183.519 Z-7.000
G1 X358.303 Y183.344 Z-7.000
G1 X358.436 Y183.187 Z-7.000
G1 X358.594 Y183.054 Z-7.000
G1 X358.768 Y182.949 Z-7.000
G1 X358.953 Y182.876 Z-7.000
G1 X359.139 Y182.834 Z-7.000
G1 X359.320 Y182.821 Z-7.000
G1 X359.501 Y182.834 Z-7.000
G1 X359.687 Y182.876 Z-7.000
G1 X359.872 Y182.949 Z-7.000
G1 X360.046 Y183.054 Z-7.000
G1 X360.204 Y183.187 Z-7.000
G1 X360.337 Y183.344 Z-7.000
G1 X360.442 Y183.519 Z-7.000
G1 X360.515 Y183.704 Z-7.000
G1 X360.557 Y183.890 Z-7.000
G1 X360.570 Y184.071 Z-7.000
G1 X360.557 Y184.252 Z-7.000
G1 X360.515 Y184.438 Z-7.000
G1 X360.442 Y184.622 Z-7.000
G1 X360.337 Y184.797 Z-7.000
G1 X360.204 Y184.955 Z-7.000
G1 X360.046 Y185.088 Z-7.000
G1 X359.872 Y185.193 Z-7.000
G1 X359.687 Y185.266 Z-7.000
G1 X359.501 Y185.308 Z-7.000
G1 X359.320 Y185.321 Z-7.000
G1 X359.156 Y185.310 Z-7.000
G1 X358.987 Y185.276 Z-7.000
G1 X358.818 Y185.216 Z-7.000
G1 X358.656 Y185.130 Z-7.000
G1 X358.505 Y185.019 Z-7.000
G1 X358.372 Y184.886 Z-7.000
G1 X358.261 Y184.735 Z-7.000
G1 X358.175 Y184.573 Z-7.000
G1 X358.115 Y184.404 Z-7.000
G1 X358.081 Y184.235 Z-7.000
G1 X358.070 Y184.071 Z-7.000
G0 X358.070 Y184.071
G0 Z6.000
G1 X358.070 Y184.071 Z-8.000 F635.0
G1 X358.083 Y183.890 Z-8.000 F180.0
G1 X358.125 Y183.704 Z-8.000
G1 X358.198 Y183.519 Z-8.000
G1 X358.303 Y183.344 Z-8.000
G1 X358.436 Y183.187 Z-8.000
G1 X358.594 Y183.054 Z-8.000
G1 X358.768 Y182.949 Z-8.000
G1 X358.953 Y182.876 Z-8.000
G1 X359.139 Y182.834 Z-8.000
G1 X359.320 Y182.821 Z-8.000
G1 X359.501 Y182.834 Z-8.000
G1 X359.687 Y182.876 Z-8.000
G1 X359.872 Y182.949 Z-8.000
G1 X360.046 Y183.054 Z-8.000
G1 X360.204 Y183.187 Z-8.000
G1 X360.337 Y183.344 Z-8.000
G1 X360.442 Y183.519 Z-8.000
G1 X360.515 Y183.704 Z-8.000
G1 X360.557 Y183.890 Z-8.000
G1 X360.570 Y184.071 Z-8.000
G1 X360.557 Y184.252 Z-8.000
G1 X360.515 Y184.438 Z-8.000
G1 X360.442 Y184.622 Z-8.000
G1 X360.337 Y184.797 Z-8.000
G1 X360.204 Y184.955 Z-8.000
G1 X360.046 Y185.088 Z-8.000
G1 X359.872 Y185.193 Z-8.000
G1 X359.687 Y185.266 Z-8.000
G1 X359.501 Y185.308 Z-8.000
G1 X359.320 Y185.321 Z-8.000
G1 X359.156 Y185.310 Z-8.000
G1 X358.987 Y185.276 Z-8.000
G1 X358.818 Y185.216 Z-8.000
G1 X358.656 Y185.130 Z-8.000
G1 X358.505 Y185.019 Z-8.000
G1 X358.372 Y184.886 Z-8.000
G1 X358.261 Y184.735 Z-8.000
G1 X358.175 Y184.573 Z-8.000
G1 X358.115 Y184.404 Z-8.000
G1 X358.081 Y184.235 Z-8.000
G1 X358.070 Y184.071 Z-8.000
G0 X358.070 Y184.071
G0 Z6.000
G1 X358.070 Y184.071 Z-9.000 F635.0
G1 X358.083 Y183.890 Z-9.000 F180.0
G1 X358.125 Y183.704 Z-9.000
G1 X358.198 Y183.519 Z-9.000
G1 X358.303 Y183.344 Z-9.000
G1 X358.436 Y183.187 Z-9.000
G1 X358.594 Y183.054 Z-9.000
G1 X358.768 Y182.949 Z-9.000
G1 X358.953 Y182.876 Z-9.000
G1 X359.139 Y182.834 Z-9.000
G1 X359.320 Y182.821 Z-9.000
G1 X359.501 Y182.834 Z-9.000
G1 X359.687 Y182.876 Z-9.000
G1 X359.872 Y182.949 Z-9.000
G1 X360.046 Y183.054 Z-9.000
G1 X360.204 Y183.187 Z-9.000
G1 X360.337 Y183.344 Z-9.000
G1 X360.442 Y183.519 Z-9.000
G1 X360.515 Y183.704 Z-9.000
G1 X360.557 Y183.890 Z-9.000
G1 X360.570 Y184.071 Z-9.000
G1 X360.557 Y184.252 Z-9.000
G1 X360.515 Y184.438 Z-9.000
G1 X360.442 Y184.622 Z-9.000
G1 X360.337 Y184.797 Z-9.000
G1 X360.204 Y184.955 Z-9.000
G1 X360.046 Y185.088 Z-9.000
G1 X359.872 Y185.193 Z-9.000
G1 X359.687 Y185.266 Z-9.000
G1 X359.501 Y185.308 Z-9.000
G1 X359.320 Y185.321 Z-9.000
G1 X359.156 Y185.310 Z-9.000
G1 X358.987 Y185.276 Z-9.000
G1 X358.818 Y185.216 Z-9.000
G1 X358.656 Y185.130 Z-9.000
G1 X358.505 Y185.019 Z-9.000
G1 X358.372 Y184.886 Z-9.000
G1 X358.261 Y184.735 Z-9.000
G1 X358.175 Y184.573 Z-9.000
G1 X358.115 Y184.404 Z-9.000
G1 X358.081 Y184.235 Z-9.000
G1 X358.070 Y184.071 Z-9.000
G0 X358.070 Y184.071
G0 Z6.000
G1 X358.070 Y184.071 Z-10.000 F635.0
G1 X358.083 Y183.890 Z-10.000 F180.0
G1 X358.125 Y183.704 Z-10.000
G1 X358.198 Y183.519 Z-10.000
G1 X358.303 Y183.344 Z-10.000
G1 X358.436 Y183.187 Z-10.000
G1 X358.594 Y183.054 Z-10.000
G1 X358.768 Y182.949 Z-10.000
G1 X358.953 Y182.876 Z-10.000
G1 X359.139 Y182.834 Z-10.000
G1 X359.320 Y182.821 Z-10.000
G1 X359.501 Y182.834 Z-10.000
G1 X359.687 Y182.876 Z-10.000
G1 X359.872 Y182.949 Z-10.000
G1 X360.046 Y183.054 Z-10.000
G1 X360.204 Y183.187 Z-10.000
G1 X360.337 Y183.344 Z-10.000
G1 X360.442 Y183.519 Z-10.000
G1 X360.515 Y183.704 Z-10.000
G1 X360.557 Y183.890 Z-10.000
G1 X360.570 Y184.071 Z-10.000
G1 X360.557 Y184.252 Z-10.000
G1 X360.515 Y184.438 Z-10.000
G1 X360.442 Y184.622 Z-10.000
G1 X360.337 Y184.797 Z-10.000
G1 X360.204 Y184.955 Z-10.000
G1 X360.046 Y185.088 Z-10.000
G1 X359.872 Y185.193 Z-10.000
G1 X359.687 Y185.266 Z-10.000
G1 X359.501 Y185.308 Z-10.000
G1 X359.320 Y185.321 Z-10.000
G1 X359.156 Y185.310 Z-10.000
G1 X358.987 Y185.276 Z-10.000
G1 X358.818 Y185.216 Z-10.000
G1 X358.656 Y185.130 Z-10.000
G1 X358.505 Y185.019 Z-10.000
G1 X358.372 Y184.886 Z-10.000
G1 X358.261 Y184.735 Z-10.000
G1 X358.175 Y184.573 Z-10.000
G1 X358.115 Y184.404 Z-10.000
G1 X358.081 Y184.235 Z-10.000
G1 X358.070 Y184.071 Z-10.000
G0 X358.070 Y184.071
G0 Z6.000
G1 X358.070 Y184.071 Z-11.000 F635.0
G1 X358.083 Y183.890 Z-11.000 F180.0
G1 X358.125 Y183.704 Z-11.000
G1 X358.198 Y183.519 Z-11.000
G1 X358.303 Y183.344 Z-11.000
G1 X358.436 Y183.187 Z-11.000
G1 X358.594 Y183.054 Z-11.000
G1 X358.768 Y182.949 Z-11.000
G1 X358.953 Y182.876 Z-11.000
G1 X359.139 Y182.834 Z-11.000
G1 X359.320 Y182.821 Z-11.000
G1 X359.501 Y182.834 Z-11.000
G1 X359.687 Y182.876 Z-11.000
G1 X359.872 Y182.949 Z-11.000
G1 X360.046 Y183.054 Z-11.000
G1 X360.204 Y183.187 Z-11.000
G1 X360.337 Y183.344 Z-11.000
G1 X360.442 Y183.519 Z-11.000
G1 X360.515 Y183.704 Z-11.000
G1 X360.557 Y183.890 Z-11.000
G1 X360.570 Y184.071 Z-11.000
G1 X360.557 Y184.252 Z-11.000
G1 X360.515 Y184.438 Z-11.000
G1 X360.442 Y184.622 Z-11.000
G1 X360.337 Y184.797 Z-11.000
G1 X360.204 Y184.955 Z-11.000
G1 X360.046 Y185.088 Z-11.000
G1 X359.872 Y185.193 Z-11.000
G1 X359.687 Y185.266 Z-11.000
G1 X359.501 Y185.308 Z-11.000
G1 X359.320 Y185.321 Z-11.000
G1 X359.156 Y185.310 Z-11.000
G1 X358.987 Y185.276 Z-11.000
G1 X358.818 Y185.216 Z-11.000
G1 X358.656 Y185.130 Z-11.000
G1 X358.505 Y185.019 Z-11.000
G1 X358.372 Y184.886 Z-11.000
G1 X358.261 Y184.735 Z-11.000
G1 X358.175 Y184.573 Z-11.000
G1 X358.115 Y184.404 Z-11.000
G1 X358.081 Y184.235 Z-11.000
G1 X358.070 Y184.071 Z-11.000
G0 X358.070 Y184.071
G0 Z6.000
G1 X358.070 Y184.071 Z-12.000 F635.0
G1 X358.083 Y183.890 Z-12.000 F180.0
G1 X358.125 Y183.704 Z-12.000
G1 X358.198 Y183.519 Z-12.000
G1 X358.303 Y183.344 Z-12.000
G1 X358.436 Y183.187 Z-12.000
G1 X358.594 Y183.054 Z-12.000
G1 X358.768 Y182.949 Z-12.000
G1 X358.953 Y182.876 Z-12.000
G1 X359.139 Y182.834 Z-12.000
G1 X359.320 Y182.821 Z-12.000
G1 X359.501 Y182.834 Z-12.000
G1 X359.687 Y182.876 Z-12.000
G1 X359.872 Y182.949 Z-12.000
G1 X360.046 Y183.054 Z-12.000
G1 X360.204 Y183.187 Z-12.000
G1 X360.337 Y183.344 Z-12.000
G1 X360.442 Y183.519 Z-12.000
G1 X360.515 Y183.704 Z-12.000
G1 X360.557 Y183.890 Z-12.000
G1 X360.570 Y184.071 Z-12.000
G1 X360.557 Y184.252 Z-12.000
G1 X360.515 Y184.438 Z-12.000
G1 X360.442 Y184.622 Z-12.000
G1 X360.337 Y184.797 Z-12.000
G1 X360.204 Y184.955 Z-12.000
G1 X360.046 Y185.088 Z-12.000
G1 X359.872 Y185.193 Z-12.000
G1 X359.687 Y185.266 Z-12.000
G1 X359.501 Y185.308 Z-12.000
G1 X359.320 Y185.321 Z-12.000
G1 X359.156 Y185.310 Z-12.000
G1 X358.987 Y185.276 Z-12.000
G1 X358.818 Y185.216 Z-12.000
G1 X358.656 Y185.130 Z-12.000
G1 X358.505 Y185.019 Z-12.000
G1 X358.372 Y184.886 Z-12.000
G1 X358.261 Y184.735 Z-12.000
G1 X358.175 Y184.573 Z-12.000
G1 X358.115 Y184.404 Z-12.000
G1 X358.081 Y184.235 Z-12.000
G1 X358.070 Y184.071 Z-12.000
G0 X358.070 Y184.071
G0 Z6.000
G0 X341.319 Y231.969
G0 Z6.000
G1 X341.319 Y231.969 Z-1.000 F635.0
G1 X341.500 Y231.982 Z-1.000 F180.0
G1 X341.686 Y232.024 Z-1.000
G1 X341.871 Y232.097 Z-1.000
G1 X342.045 Y232.202 Z-1.000
G1 X342.203 Y232.335 Z-1.000
G1 X342.336 Y232.492 Z-1.000
G1 X342.441 Y232.667 Z-1.000
G1 X342.514 Y232.852 Z-1.000
G1 X342.556 Y233.038 Z-1.000
G1 X342.569 Y233.219 Z-1.000
G1 X342.556 Y233.400 Z-1.000
G1 X342.514 Y233.586 Z-1.000
G1 X342.441 Y233.770 Z-1.000
G1 X342.336 Y233.945 Z-1.000
G1 X342.203 Y234.103 Z-1.000
G1 X342.045 Y234.236 Z-1.000
G1 X341.871 Y234.341 Z-1.000
G1 X341.686 Y234.414 Z-1.000
G1 X341.500 Y234.456 Z-1.000
G1 X341.319 Y234.469 Z-1.000
G1 X341.138 Y234.456 Z-1.000
G1 X340.952 Y234.414 Z-1.000
G1 X340.767 Y234.341 Z-1.000
G1 X340.593 Y234.236 Z-1.000
G1 X340.435 Y234.103 Z-1.000
G1 X340.302 Y233.945 Z-1.000
G1 X340.197 Y233.770 Z-1.000
G1 X340.124 Y233.586 Z-1.000
G1 X340.082 Y233.400 Z-1.000
G1 X340.069 Y233.219 Z-1.000
G1 X340.082 Y233.038 Z-1.000
G1 X340.124 Y232.852 Z-1.000
G1 X340.197 Y232.667 Z-1.000
G1 X340.302 Y232.492 Z-1.000
G1 X340.435 Y232.335 Z-1.000
G1 X340.593 Y232.202 Z-1.000
G1 X340.767 Y232.097 Z-1.000
G1 X340.952 Y232.024 Z-1.000
G1 X341.138 Y231.982 Z-1.000
G1 X341.319 Y231.969 Z-1.000
G0 X341.319 Y231.969
G0 Z6.000
G1 X341.319 Y231.969 Z-2.000 F635.0
G1 X341.500 Y231.982 Z-2.000 F180.0
G1 X341.686 Y232.024 Z-2.000
G1 X341.871 Y232.097 Z-2.000
G1 X342.045 Y232.202 Z-2.000
G1 X342.203 Y232.335 Z-2.000
G1 X342.336 Y232.492 Z-2.000
G1 X342.441 Y232.667 Z-2.000
G1 X342.514 Y232.852 Z-2.000
G1 X342.556 Y233.038 Z-2.000
G1 X342.569 Y233.219 Z-2.000
G1 X342.556 Y233.400 Z-2.000
G1 X342.514 Y233.586 Z-2.000
G1 X342.441 Y233.770 Z-2.000
G1 X342.336 Y233.945 Z-2.000
G1 X342.203 Y234.103 Z-2.000
G1 X342.045 Y234.236 Z-2.000
G1 X341.871 Y234.341 Z-2.000
G1 X341.686 Y234.414 Z-2.000
G1 X341.500 Y234.456 Z-2.000
G1 X341.319 Y234.469 Z-2.000
G1 X341.138 Y234.456 Z-2.000
G1 X340.952 Y234.414 Z-2.000
G1 X340.767 Y234.341 Z-2.000
G1 X340.593 Y234.236 Z-2.000
G1 X340.435 Y234.103 Z-2.000
G1 X340.302 Y233.945 Z-2.000
G1 X340.197 Y233.770 Z-2.000
G1 X340.124 Y233.586 Z-2.000
G1 X340.082 Y233.400 Z-2.000
G1 X340.069 Y233.219 Z-2.000
G1 X340.082 Y233.038 Z-2.000
G1 X340.124 Y232.852 Z-2.000
G1 X340.197 Y232.667 Z-2.000
G1 X340.302 Y232.492 Z-2.000
G1 X340.435 Y232.335 Z-2.000
G1 X340.593 Y232.202 Z-2.000
G1 X340.767 Y232.097 Z-2.000
G1 X340.952 Y232.024 Z-2.000
G1 X341.138 Y231.982 Z-2.000
G1 X341.319 Y231.969 Z-2.000
G0 X341.319 Y231.969
G0 Z6.000
G1 X341.319 Y231.969 Z-3.000 F635.0
G1 X341.500 Y231.982 Z-3.000 F180.0
G1 X341.686 Y232.024 Z-3.000
G1 X341.871 Y232.097 Z-3.000
G1 X342.045 Y232.202 Z-3.000
G1 X342.203 Y232.335 Z-3.000
G1 X342.336 Y232.492 Z-3.000
G1 X342.441 Y232.667 Z-3.000
G1 X342.514 Y232.852 Z-3.000
G1 X342.556 Y233.038 Z-3.000
G1 X342.569 Y233.219 Z-3.000
G1 X342.556 Y233.400 Z-3.000
G1 X342.514 Y233.586 Z-3.000
G1 X342.441 Y233.770 Z-3.000
G1 X342.336 Y233.945 Z-3.000
G1 X342.203 Y234.103 Z-3.000
G1 X342.045 Y234.236 Z-3.000
G1 X341.871 Y234.341 Z-3.000
G1 X341.686 Y234.414 Z-3.000
G1 X341.500 Y234.456 Z-3.000
G1 X341.319 Y234.469 Z-3.000
G1 X341.138 Y234.456 Z-3.000
G1 X340.952 Y234.414 Z-3.000
G1 X340.767 Y234.341 Z-3.000
G1 X340.593 Y234.236 Z-3.000
G1 X340.435 Y234.103 Z-3.000
G1 X340.302 Y233.945 Z-3.000
G1 X340.197 Y233.770 Z-3.000
G1 X340.124 Y233.586 Z-3.000
G1 X340.082 Y233.400 Z-3.000
G1 X340.069 Y233.219 Z-3.000
G1 X340.082 Y233.038 Z-3.000
G1 X340.124 Y232.852 Z-3.000
G1 X340.197 Y232.667 Z-3.000
G1 X340.302 Y232.492 Z-3.000
G1 X340.435 Y232.335 Z-3.000
G1 X340.593 Y232.202 Z-3.000
G1 X340.767 Y232.097 Z-3.000
G1 X340.952 Y232.024 Z-3.000
G1 X341.138 Y231.982 Z-3.000
G1 X341.319 Y231.969 Z-3.000
G0 X341.319 Y231.969
G0 Z6.000
G1 X341.319 Y231.969 Z-4.000 F635.0
G1 X341.500 Y231.982 Z-4.000 F180.0
G1 X341.686 Y232.024 Z-4.000
G1 X341.871 Y232.097 Z-4.000
G1 X342.045 Y232.202 Z-4.000
G1 X342.203 Y232.335 Z-4.000
G1 X342.336 Y232.492 Z-4.000
G1 X342.441 Y232.667 Z-4.000
G1 X342.514 Y232.852 Z-4.000
G1 X342.556 Y233.038 Z-4.000
G1 X342.569 Y233.219 Z-4.000
G1 X342.556 Y233.400 Z-4.000
G1 X342.514 Y233.586 Z-4.000
G1 X342.441 Y233.770 Z-4.000
G1 X342.336 Y233.945 Z-4.000
G1 X342.203 Y234.103 Z-4.000
G1 X342.045 Y234.236 Z-4.000
G1 X341.871 Y234.341 Z-4.000
G1 X341.686 Y234.414 Z-4.000
G1 X341.500 Y234.456 Z-4.000
G1 X341.319 Y234.469 Z-4.000
G1 X341.138 Y234.456 Z-4.000
G1 X340.952 Y234.414 Z-4.000
G1 X340.767 Y234.341 Z-4.000
G1 X340.593 Y234.236 Z-4.000
G1 X340.435 Y234.103 Z-4.000
G1 X340.302 Y233.945 Z-4.000
G1 X340.197 Y233.770 Z-4.000
G1 X340.124 Y233.586 Z-4.000
G1 X340.082 Y233.400 Z-4.000
G1 X340.069 Y233.219 Z-4.000
G1 X340.082 Y233.038 Z-4.000
G1 X340.124 Y232.852 Z-4.000
G1 X340.197 Y232.667 Z-4.000
G1 X340.302 Y232.492 Z-4.000
G1 X340.435 Y232.335 Z-4.000
G1 X340.593 Y232.202 Z-4.000
G1 X340.767 Y232.097 Z-4.000
G1 X340.952 Y232.024 Z-4.000
G1 X341.138 Y231.982 Z-4.000
G1 X341.319 Y231.969 Z-4.000
G0 X341.319 Y231.969
G0 Z6.000
G1 X341.319 Y231.969 Z-5.000 F635.0
G1 X341.500 Y231.982 Z-5.000 F180.0
G1 X341.686 Y232.024 Z-5.000
G1 X341.871 Y232.097 Z-5.000
G1 X342.045 Y232.202 Z-5.000
G1 X342.203 Y232.335 Z-5.000
G1 X342.336 Y232.492 Z-5.000
G1 X342.441 Y232.667 Z-5.000
G1 X342.514 Y232.852 Z-5.000
G1 X342.556 Y233.038 Z-5.000
G1 X342.569 Y233.219 Z-5.000
G1 X342.556 Y233.400 Z-5.000
G1 X342.514 Y233.586 Z-5.000
G1 X342.441 Y233.770 Z-5.000
G1 X342.336 Y233.945 Z-5.000
G1 X342.203 Y234.103 Z-5.000
G1 X342.045 Y234.236 Z-5.000
G1 X341.871 Y234.341 Z-5.000
G1 X341.686 Y234.414 Z-5.000
G1 X341.500 Y234.456 Z-5.000
G1 X341.319 Y234.469 Z-5.000
G1 X341.138 Y234.456 Z-5.000
G1 X340.952 Y234.414 Z-5.000
G1 X340.767 Y234.341 Z-5.000
G1 X340.593 Y234.236 Z-5.000
G1 X340.435 Y234.103 Z-5.000
G1 X340.302 Y233.945 Z-5.000
G1 X340.197 Y233.770 Z-5.000
G1 X340.124 Y233.586 Z-5.000
G1 X340.082 Y233.400 Z-5.000
G1 X340.069 Y233.219 Z-5.000
G1 X340.082 Y233.038 Z-5.000
G1 X340.124 Y232.852 Z-5.000
G1 X340.197 Y232.667 Z-5.000
G1 X340.302 Y232.492 Z-5.000
G1 X340.435 Y232.335 Z-5.000
G1 X340.593 Y232.202 Z-5.000
G1 X340.767 Y232.097 Z-5.000
G1 X340.952 Y232.024 Z-5.000
G1 X341.138 Y231.982 Z-5.000
G1 X341.319 Y231.969 Z-5.000
G0 X341.319 Y231.969
G0 Z6.000
G1 X341.319 Y231.969 Z-6.000 F635.0
G1 X341.500 Y231.982 Z-6.000 F180.0
G1 X341.686 Y232.024 Z-6.000
G1 X341.871 Y232.097 Z-6.000
G1 X342.045 Y232.202 Z-6.000
G1 X342.203 Y232.335 Z-6.000
G1 X342.336 Y232.492 Z-6.000
G1 X342.441 Y232.667 Z-6.000
G1 X342.514 Y232.852 Z-6.000
G1 X342.556 Y233.038 Z-6.000
G1 X342.569 Y233.219 Z-6.000
G1 X342.556 Y233.400 Z-6.000
G1 X342.514 Y233.586 Z-6.000
G1 X342.441 Y233.770 Z-6.000
G1 X342.336 Y233.945 Z-6.000
G1 X342.203 Y234.103 Z-6.000
G1 X342.045 Y234.236 Z-6.000
G1 X341.871 Y234.341 Z-6.000
G1 X341.686 Y234.414 Z-6.000
G1 X341.500 Y234.456 Z-6.000
G1 X341.319 Y234.469 Z-6.000
G1 X341.138 Y234.456 Z-6.000
G1 X340.952 Y234.414 Z-6.000
G1 X340.767 Y234.341 Z-6.000
G1 X340.593 Y234.236 Z-6.000
G1 X340.435 Y234.103 Z-6.000
G1 X340.302 Y233.945 Z-6.000
G1 X340.197 Y233.770 Z-6.000
G1 X340.124 Y233.586 Z-6.000
G1 X340.082 Y233.400 Z-6.000
G1 X340.069 Y233.219 Z-6.000
G1 X340.082 Y233.038 Z-6.000
G1 X340.124 Y232.852 Z-6.000
G1 X340.197 Y232.667 Z-6.000
G1 X340.302 Y232.492 Z-6.000
G1 X340.435 Y232.335 Z-6.000
G1 X340.593 Y232.202 Z-6.000
G1 X340.767 Y232.097 Z-6.000
G1 X340.952 Y232.024 Z-6.000
G1 X341.138 Y231.982 Z-6.000
G1 X341.319 Y231.969 Z-6.000
G0 X341.319 Y231.969
G0 Z6.000
G1 X341.319 Y231.969 Z-7.000 F635.0
G1 X341.500 Y231.982 Z-7.000 F180.0
G1 X341.686 Y232.024 Z-7.000
G1 X341.871 Y232.097 Z-7.000
G1 X342.045 Y232.202 Z-7.000
G1 X342.203 Y232.335 Z-7.000
G1 X342.336 Y232.492 Z-7.000
G1 X342.441 Y232.667 Z-7.000
G1 X342.514 Y232.852 Z-7.000
G1 X342.556 Y233.038 Z-7.000
G1 X342.569 Y233.219 Z-7.000
G1 X342.556 Y233.400 Z-7.000
G1 X342.514 Y233.586 Z-7.000
G1 X342.441 Y233.770 Z-7.000
G1 X342.336 Y233.945 Z-7.000
G1 X342.203 Y234.103 Z-7.000
G1 X342.045 Y234.236 Z-7.000
G1 X341.871 Y234.341 Z-7.000
G1 X341.686 Y234.414 Z-7.000
G1 X341.500 Y234.456 Z-7.000
G1 X341.319 Y234.469 Z-7.000
G1 X341.138 Y234.456 Z-7.000
G1 X340.952 Y234.414 Z-7.000
G1 X340.767 Y234.341 Z-7.000
G1 X340.593 Y234.236 Z-7.000
G1 X340.435 Y234.103 Z-7.000
G1 X340.302 Y233.945 Z-7.000
G1 X340.197 Y233.770 Z-7.000
G1 X340.124 Y233.586 Z-7.000
G1 X340.082 Y233.400 Z-7.000
G1 X340.069 Y233.219 Z-7.000
G1 X340.082 Y233.038 Z-7.000
G1 X340.124 Y232.852 Z-7.000
G1 X340.197 Y232.667 Z-7.000
G1 X340.302 Y232.492 Z-7.000
G1 X340.435 Y232.335 Z-7.000
G1 X340.593 Y232.202 Z-7.000
G1 X340.767 Y232.097 Z-7.000
G1 X340.952 Y232.024 Z-7.000
G1 X341.138 Y231.982 Z-7.000
G1 X341.319 Y231.969 Z-7.000
G0 X341.319 Y231.969
G0 Z6.000
G1 X341.319 Y231.969 Z-8.000 F635.0
G1 X341.500 Y231.982 Z-8.000 F180.0
G1 X341.686 Y232.024 Z-8.000
G1 X341.871 Y232.097 Z-8.000
G1 X342.045 Y232.202 Z-8.000
G1 X342.203 Y232.335 Z-8.000
G1 X342.336 Y232.492 Z-8.000
G1 X342.441 Y232.667 Z-8.000
G1 X342.514 Y232.852 Z-8.000
G1 X342.556 Y233.038 Z-8.000
G1 X342.569 Y233.219 Z-8.000
G1 X342.556 Y233.400 Z-8.000
G1 X342.514 Y233.586 Z-8.000
G1 X342.441 Y233.770 Z-8.000
G1 X342.336 Y233.945 Z-8.000
G1 X342.203 Y234.103 Z-8.000
G1 X342.045 Y234.236 Z-8.000
G1 X341.871 Y234.341 Z-8.000
G1 X341.686 Y234.414 Z-8.000
G1 X341.500 Y234.456 Z-8.000
G1 X341.319 Y234.469 Z-8.000
G1 X341.138 Y234.456 Z-8.000
G1 X340.952 Y234.414 Z-8.000
G1 X340.767 Y234.341 Z-8.000
G1 X340.593 Y234.236 Z-8.000
G1 X340.435 Y234.103 Z-8.000
G1 X340.302 Y233.945 Z-8.000
G1 X340.197 Y233.770 Z-8.000
G1 X340.124 Y233.586 Z-8.000
G1 X340.082 Y233.400 Z-8.000
G1 X340.069 Y233.219 Z-8.000
G1 X340.082 Y233.038 Z-8.000
G1 X340.124 Y232.852 Z-8.000
G1 X340.197 Y232.667 Z-8.000
G1 X340.302 Y232.492 Z-8.000
G1 X340.435 Y232.335 Z-8.000
G1 X340.593 Y232.202 Z-8.000
G1 X340.767 Y232.097 Z-8.000
G1 X340.952 Y232.024 Z-8.000
G1 X341.138 Y231.982 Z-8.000
G1 X341.319 Y231.969 Z-8.000
G0 X341.319 Y231.969
G0 Z6.000
G1 X341.319 Y231.969 Z-9.000 F635.0
G1 X341.500 Y231.982 Z-9.000 F180.0
G1 X341.686 Y232.024 Z-9.000
G1 X341.871 Y232.097 Z-9.000
G1 X342.045 Y232.202 Z-9.000
G1 X342.203 Y232.335 Z-9.000
G1 X342.336 Y232.492 Z-9.000
G1 X342.441 Y232.667 Z-9.000
G1 X342.514 Y232.852 Z-9.000
G1 X342.556 Y233.038 Z-9.000
G1 X342.569 Y233.219 Z-9.000
G1 X342.556 Y233.400 Z-9.000
G1 X342.514 Y233.586 Z-9.000
G1 X342.441 Y233.770 Z-9.000
G1 X342.336 Y233.945 Z-9.000
G1 X342.203 Y234.103 Z-9.000
G1 X342.045 Y234.236 Z-9.000
G1 X341.871 Y234.341 Z-9.000
G1 X341.686 Y234.414 Z-9.000
G1 X341.500 Y234.456 Z-9.000
G1 X341.319 Y234.469 Z-9.000
G1 X341.138 Y234.456 Z-9.000
G1 X340.952 Y234.414 Z-9.000
G1 X340.767 Y234.341 Z-9.000
G1 X340.593 Y234.236 Z-9.000
G1 X340.435 Y234.103 Z-9.000
G1 X340.302 Y233.945 Z-9.000
G1 X340.197 Y233.770 Z-9.000
G1 X340.124 Y233.586 Z-9.000
G1 X340.082 Y233.400 Z-9.000
G1 X340.069 Y233.219 Z-9.000
G1 X340.082 Y233.038 Z-9.000
G1 X340.124 Y232.852 Z-9.000
G1 X340.197 Y232.667 Z-9.000
G1 X340.302 Y232.492 Z-9.000
G1 X340.435 Y232.335 Z-9.000
G1 X340.593 Y232.202 Z-9.000
G1 X340.767 Y232.097 Z-9.000
G1 X340.952 Y232.024 Z-9.000
G1 X341.138 Y231.982 Z-9.000
G1 X341.319 Y231.969 Z-9.000
G0 X341.319 Y231.969
G0 Z6.000
G1 X341.319 Y231.969 Z-10.000 F635.0
G1 X341.500 Y231.982 Z-10.000 F180.0
G1 X341.686 Y232.024 Z-10.000
G1 X341.871 Y232.097 Z-10.000
G1 X342.045 Y232.202 Z-10.000
G1 X342.203 Y232.335 Z-10.000
G1 X342.336 Y232.492 Z-10.000
G1 X342.441 Y232.667 Z-10.000
G1 X342.514 Y232.852 Z-10.000
G1 X342.556 Y233.038 Z-10.000
G1 X342.569 Y233.219 Z-10.000
G1 X342.556 Y233.400 Z-10.000
G1 X342.514 Y233.586 Z-10.000
G1 X342.441 Y233.770 Z-10.000
G1 X342.336 Y233.945 Z-10.000
G1 X342.203 Y234.103 Z-10.000
G1 X342.045 Y234.236 Z-10.000
G1 X341.871 Y234.341 Z-10.000
G1 X341.686 Y234.414 Z-10.000
G1 X341.500 Y234.456 Z-10.000
G1 X341.319 Y234.469 Z-10.000
G1 X341.138 Y234.456 Z-10.000
G1 X340.952 Y234.414 Z-10.000
G1 X340.767 Y234.341 Z-10.000
G1 X340.593 Y234.236 Z-10.000
G1 X340.435 Y234.103 Z-10.000
G1 X340.302 Y233.945 Z-10.000
G1 X340.197 Y233.770 Z-10.000
G1 X340.124 Y233.586 Z-10.000
G1 X340.082 Y233.400 Z-10.000
G1 X340.069 Y233.219 Z-10.000
G1 X340.082 Y233.038 Z-10.000
G1 X340.124 Y232.852 Z-10.000
G1 X340.197 Y232.667 Z-10.000
G1 X340.302 Y232.492 Z-10.000
G1 X340.435 Y232.335 Z-10.000
G1 X340.593 Y232.202 Z-10.000
G1 X340.767 Y232.097 Z-10.000
G1 X340.952 Y232.024 Z-10.000
G1 X341.138 Y231.982 Z-10.000
G1 X341.319 Y231.969 Z-10.000
G0 X341.319 Y231.969
G0 Z6.000
G1 X341.319 Y231.969 Z-11.000 F635.0
G1 X341.500 Y231.982 Z-11.000 F180.0
G1 X341.686 Y232.024 Z-11.000
G1 X341.871 Y232.097 Z-11.000
G1 X342.045 Y232.202 Z-11.000
G1 X342.203 Y232.335 Z-11.000
G1 X342.336 Y232.492 Z-11.000
G1 X342.441 Y232.667 Z-11.000
G1 X342.514 Y232.852 Z-11.000
G1 X342.556 Y233.038 Z-11.000
G1 X342.569 Y233.219 Z-11.000
G1 X342.556 Y233.400 Z-11.000
G1 X342.514 Y233.586 Z-11.000
G1 X342.441 Y233.770 Z-11.000
G1 X342.336 Y233.945 Z-11.000
G1 X342.203 Y234.103 Z-11.000
G1 X342.045 Y234.236 Z-11.000
G1 X341.871 Y234.341 Z-11.000
G1 X341.686 Y234.414 Z-11.000
G1 X341.500 Y234.456 Z-11.000
G1 X341.319 Y234.469 Z-11.000
G1 X341.138 Y234.456 Z-11.000
G1 X340.952 Y234.414 Z-11.000
G1 X340.767 Y234.341 Z-11.000
G1 X340.593 Y234.236 Z-11.000
G1 X340.435 Y234.103 Z-11.000
G1 X340.302 Y233.945 Z-11.000
G1 X340.197 Y233.770 Z-11.000
G1 X340.124 Y233.586 Z-11.000
G1 X340.082 Y233.400 Z-11.000
G1 X340.069 Y233.219 Z-11.000
G1 X340.082 Y233.038 Z-11.000
G1 X340.124 Y232.852 Z-11.000
G1 X340.197 Y232.667 Z-11.000
G1 X340.302 Y232.492 Z-11.000
G1 X340.435 Y232.335 Z-11.000
G1 X340.593 Y232.202 Z-11.000
G1 X340.767 Y232.097 Z-11.000
G1 X340.952 Y232.024 Z-11.000
G1 X341.138 Y231.982 Z-11.000
G1 X341.319 Y231.969 Z-11.000
G0 X341.319 Y231.969
G0 Z6.000
G1 X341.319 Y231.969 Z-12.000 F635.0
G1 X341.500 Y231.982 Z-12.000 F180.0
G1 X341.686 Y232.024 Z-12.000
G1 X341.871 Y232.097 Z-12.000
G1 X342.045 Y232.202 Z-12.000
G1 X342.203 Y232.335 Z-12.000
G1 X342.336 Y232.492 Z-12.000
G1 X342.441 Y232.667 Z-12.000
G1 X342.514 Y232.852 Z-12.000
G1 X342.556 Y233.038 Z-12.000
G1 X342.569 Y233.219 Z-12.000
G1 X342.556 Y233.400 Z-12.000
G1 X342.514 Y233.586 Z-12.000
G1 X342.441 Y233.770 Z-12.000
G1 X342.336 Y233.945 Z-12.000
G1 X342.203 Y234.103 Z-12.000
G1 X342.045 Y234.236 Z-12.000
G1 X341.871 Y234.341 Z-12.000
G1 X341.686 Y234.414 Z-12.000
G1 X341.500 Y234.456 Z-12.000
G1 X341.319 Y234.469 Z-12.000
G1 X341.138 Y234.456 Z-12.000
G1 X340.952 Y234.414 Z-12.000
G1 X340.767 Y234.341 Z-12.000
G1 X340.593 Y234.236 Z-12.000
G1 X340.435 Y234.103 Z-12.000
G1 X340.302 Y233.945 Z-12.000
G1 X340.197 Y233.770 Z-12.000
G1 X340.124 Y233.586 Z-12.000
G1 X340.082 Y233.400 Z-12.000
G1 X340.069 Y233.219 Z-12.000
G1 X340.082 Y233.038 Z-12.000
G1 X340.124 Y232.852 Z-12.000
G1 X340.197 Y232.667 Z-12.000
G1 X340.302 Y232.492 Z-12.000
G1 X340.435 Y232.335 Z-12.000
G1 X340.593 Y232.202 Z-12.000
G1 X340.767 Y232.097 Z-12.000
G1 X340.952 Y232.024 Z-12.000
G1 X341.138 Y231.982 Z-12.000
G1 X341.319 Y231.969 Z-12.000
G0 X341.319 Y231.969
G0 Z6.000
G0 X373.680 Y274.921
G0 Z6.000
G1 X373.680 Y274.921 Z-1.000 F635.0
G1 X373.499 Y274.908 Z-1.000 F180.0
G1 X373.313 Y274.866 Z-1.000
G1 X373.128 Y274.793 Z-1.000
G1 X372.954 Y274.688 Z-1.000
G1 X372.796 Y274.555 Z-1.000
G1 X372.663 Y274.397 Z-1.000
G1 X372.558 Y274.222 Z-1.000
G1 X372.485 Y274.038 Z-1.000
G1 X372.443 Y273.852 Z-1.000
G1 X372.430 Y273.671 Z-1.000
G1 X372.443 Y273.490 Z-1.000
G1 X372.485 Y273.304 Z-1.000
G1 X372.558 Y273.119 Z-1.000
G1 X372.663 Y272.944 Z-1.000
G1 X372.796 Y272.787 Z-1.000
G1 X372.954 Y272.654 Z-1.000
G1 X373.128 Y272.549 Z-1.000
G1 X373.313 Y272.476 Z-1.000
G1 X373.499 Y272.434 Z-1.000
G1 X373.680 Y272.421 Z-1.000
G1 X373.861 Y272.434 Z-1.000
G1 X374.047 Y272.476 Z-1.000
G1 X374.232 Y272.549 Z-1.000
G1 X374.406 Y272.654 Z-1.000
G1 X374.564 Y272.787 Z-1.000
G1 X374.697 Y272.944 Z-1.000
G1 X374.802 Y273.119 Z-1.000
G1 X374.875 Y273.304 Z-1.000
G1 X374.917 Y273.490 Z-1.000
G1 X374.930 Y273.671 Z-1.000
G1 X374.917 Y273.852 Z-1.000
G1 X374.875 Y274.038 Z-1.000
G1 X374.802 Y274.222 Z-1.000
G1 X374.697 Y274.397 Z-1.000
G1 X374.564 Y274.555 Z-1.000
G1 X374.406 Y274.688 Z-1.000
G1 X374.232 Y274.793 Z-1.000
G1 X374.047 Y274.866 Z-1.000
G1 X373.861 Y274.908 Z-1.000
G1 X373.680 Y274.921 Z-1.000
G0 X373.680 Y274.921
G0 Z6.000
G1 X373.680 Y274.921 Z-2.000 F635.0
G1 X373.499 Y274.908 Z-2.000 F180.0
G1 X373.313 Y274.866 Z-2.000
G1 X373.128 Y274.793 Z-2.000
G1 X372.954 Y274.688 Z-2.000
G1 X372.796 Y274.555 Z-2.000
G1 X372.663 Y274.397 Z-2.000
G1 X372.558 Y274.222 Z-2.000
G1 X372.485 Y274.038 Z-2.000
G1 X372.443 Y273.852 Z-2.000
G1 X372.430 Y273.671 Z-2.000
G1 X372.443 Y273.490 Z-2.000
G1 X372.485 Y273.304 Z-2.000
G1 X372.558 Y273.119 Z-2.000
G1 X372.663 Y272.944 Z-2.000
G1 X372.796 Y272.787 Z-2.000
G1 X372.954 Y272.654 Z-2.000
G1 X373.128 Y272.549 Z-2.000
G1 X373.313 Y272.476 Z-2.000
G1 X373.499 Y272.434 Z-2.000
G1 X373.680 Y272.421 Z-2.000
G1 X373.861 Y272.434 Z-2.000
G1 X374.047 Y272.476 Z-2.000
G1 X374.232 Y272.549 Z-2.000
G1 X374.406 Y272.654 Z-2.000
G1 X374.564 Y272.787 Z-2.000
G1 X374.697 Y272.944 Z-2.000
G1 X374.802 Y273.119 Z-2.000
G1 X374.875 Y273.304 Z-2.000
G1 X374.917 Y273.490 Z-2.000
G1 X374.930 Y273.671 Z-2.000
G1 X374.917 Y273.852 Z-2.000
G1 X374.875 Y274.038 Z-2.000
G1 X374.802 Y274.222 Z-2.000
G1 X374.697 Y274.397 Z-2.000
G1 X374.564 Y274.555 Z-2.000
G1 X374.406 Y274.688 Z-2.000
G1 X374.232 Y274.793 Z-2.000
G1 X374.047 Y274.866 Z-2.000
G1 X373.861 Y274.908 Z-2.000
G1 X373.680 Y274.921 Z-2.000
G0 X373.680 Y274.921
G0 Z6.000
G1 X373.680 Y274.921 Z-3.000 F635.0
G1 X373.499 Y274.908 Z-3.000 F180.0
G1 X373.313 Y274.866 Z-3.000
G1 X373.128 Y274.793 Z-3.000
G1 X372.954 Y274.688 Z-3.000
G1 X372.796 Y274.555 Z-3.000
G1 X372.663 Y274.397 Z-3.000
G1 X372.558 Y274.222 Z-3.000
G1 X372.485 Y274.038 Z-3.000
G1 X372.443 Y273.852 Z-3.000
G1 X372.430 Y273.671 Z-3.000
G1 X372.443 Y273.490 Z-3.000
G1 X372.485 Y273.304 Z-3.000
G1 X372.558 Y273.119 Z-3.000
G1 X372.663 Y272.944 Z-3.000
G1 X372.796 Y272.787 Z-3.000
G1 X372.954 Y272.654 Z-3.000
G1 X373.128 Y272.549 Z-3.000
G1 X373.313 Y272.476 Z-3.000
G1 X373.499 Y272.434 Z-3.000
G1 X373.680 Y272.421 Z-3.000
G1 X373.861 Y272.434 Z-3.000
G1 X374.047 Y272.476 Z-3.000
G1 X374.232 Y272.549 Z-3.000
G1 X374.406 Y272.654 Z-3.000
G1 X374.564 Y272.787 Z-3.000
G1 X374.697 Y272.944 Z-3.000
G1 X374.802 Y273.119 Z-3.000
G1 X374.875 Y273.304 Z-3.000
G1 X374.917 Y273.490 Z-3.000
G1 X374.930 Y273.671 Z-3.000
G1 X374.917 Y273.852 Z-3.000
G1 X374.875 Y274.038 Z-3.000
G1 X374.802 Y274.222 Z-3.000
G1 X374.697 Y274.397 Z-3.000
G1 X374.564 Y274.555 Z-3.000
G1 X374.406 Y274.688 Z-3.000
G1 X374.232 Y274.793 Z-3.000
G1 X374.047 Y274.866 Z-3.000
G1 X373.861 Y274.908 Z-3.000
G1 X373.680 Y274.921 Z-3.000
G0 X373.680 Y274.921
G0 Z6.000
G1 X373.680 Y274.921 Z-4.000 F635.0
G1 X373.499 Y274.908 Z-4.000 F180.0
G1 X373.313 Y274.866 Z-4.000
G1 X373.128 Y274.793 Z-4.000
G1 X372.954 Y274.688 Z-4.000
G1 X372.796 Y274.555 Z-4.000
G1 X372.663 Y274.397 Z-4.000
G1 X372.558 Y274.222 Z-4.000
G1 X372.485 Y274.038 Z-4.000
G1 X372.443 Y273.852 Z-4.000
G1 X372.430 Y273.671 Z-4.000
G1 X372.443 Y273.490 Z-4.000
G1 X372.485 Y273.304 Z-4.000
G1 X372.558 Y273.119 Z-4.000
G1 X372.663 Y272.944 Z-4.000
G1 X372.796 Y272.787 Z-4.000
G1 X372.954 Y272.654 Z-4.000
G1 X373.128 Y272.549 Z-4.000
G1 X373.313 Y272.476 Z-4.000
G1 X373.499 Y272.434 Z-4.000
G1 X373.680 Y272.421 Z-4.000
G1 X373.861 Y272.434 Z-4.000
G1 X374.047 Y272.476 Z-4.000
G1 X374.232 Y272.549 Z-4.000
G1 X374.406 Y272.654 Z-4.000
G1 X374.564 Y272.787 Z-4.000
G1 X374.697 Y272.944 Z-4.000
G1 X374.802 Y273.119 Z-4.000
G1 X374.875 Y273.304 Z-4.000
G1 X374.917 Y273.490 Z-4.000
G1 X374.930 Y273.671 Z-4.000
G1 X374.917 Y273.852 Z-4.000
G1 X374.875 Y274.038 Z-4.000
G1 X374.802 Y274.222 Z-4.000
G1 X374.697 Y274.397 Z-4.000
G1 X374.564 Y274.555 Z-4.000
G1 X374.406 Y274.688 Z-4.000
G1 X374.232 Y274.793 Z-4.000
G1 X374.047 Y274.866 Z-4.000
G1 X373.861 Y274.908 Z-4.000
G1 X373.680 Y274.921 Z-4.000
G0 X373.680 Y274.921
G0 Z6.000
G1 X373.680 Y274.921 Z-5.000 F635.0
G1 X373.499 Y274.908 Z-5.000 F180.0
G1 X373.313 Y274.866 Z-5.000
G1 X373.128 Y274.793 Z-5.000
G1 X372.954 Y274.688 Z-5.000
G1 X372.796 Y274.555 Z-5.000
G1 X372.663 Y274.397 Z-5.000
G1 X372.558 Y274.222 Z-5.000
G1 X372.485 Y274.038 Z-5.000
G1 X372.443 Y273.852 Z-5.000
G1 X372.430 Y273.671 Z-5.000
G1 X372.443 Y273.490 Z-5.000
G1 X372.485 Y273.304 Z-5.000
G1 X372.558 Y273.119 Z-5.000
G1 X372.663 Y272.944 Z-5.000
G1 X372.796 Y272.787 Z-5.000
G1 X372.954 Y272.654 Z-5.000
G1 X373.128 Y272.549 Z-5.000
G1 X373.313 Y272.476 Z-5.000
G1 X373.499 Y272.434 Z-5.000
G1 X373.680 Y272.421 Z-5.000
G1 X373.861 Y272.434 Z-5.000
G1 X374.047 Y272.476 Z-5.000
G1 X374.232 Y272.549 Z-5.000
G1 X374.406 Y272.654 Z-5.000
G1 X374.564 Y272.787 Z-5.000
G1 X374.697 Y272.944 Z-5.000
G1 X374.802 Y273.119 Z-5.000
G1 X374.875 Y273.304 Z-5.000
G1 X374.917 Y273.490 Z-5.000
G1 X374.930 Y273.671 Z-5.000
G1 X374.917 Y273.852 Z-5.000
G1 X374.875 Y274.038 Z-5.000
G1 X374.802 Y274.222 Z-5.000
G1 X374.697 Y274.397 Z-5.000
G1 X374.564 Y274.555 Z-5.000
G1 X374.406 Y274.688 Z-5.000
G1 X374.232 Y274.793 Z-5.000
G1 X374.047 Y274.866 Z-5.000
G1 X373.861 Y274.908 Z-5.000
G1 X373.680 Y274.921 Z-5.000
G0 X373.680 Y274.921
G0 Z6.000
G1 X373.680 Y274.921 Z-6.000 F635.0
G1 X373.499 Y274.908 Z-6.000 F180.0
G1 X373.313 Y274.866 Z-6.000
G1 X373.128 Y274.793 Z-6.000
G1 X372.954 Y274.688 Z-6.000
G1 X372.796 Y274.555 Z-6.000
G1 X372.663 Y274.397 Z-6.000
G1 X372.558 Y274.222 Z-6.000
G1 X372.485 Y274.038 Z-6.000
G1 X372.443 Y273.852 Z-6.000
G1 X372.430 Y273.671 Z-6.000
G1 X372.443 Y273.490 Z-6.000
G1 X372.485 Y273.304 Z-6.000
G1 X372.558 Y273.119 Z-6.000
G1 X372.663 Y272.944 Z-6.000
G1 X372.796 Y272.787 Z-6.000
G1 X372.954 Y272.654 Z-6.000
G1 X373.128 Y272.549 Z-6.000
G1 X373.313 Y272.476 Z-6.000
G1 X373.499 Y272.434 Z-6.000
G1 X373.680 Y272.421 Z-6.000
G1 X373.861 Y272.434 Z-6.000
G1 X374.047 Y272.476 Z-6.000
G1 X374.232 Y272.549 Z-6.000
G1 X374.406 Y272.654 Z-6.000
G1 X374.564 Y272.787 Z-6.000
G1 X374.697 Y272.944 Z-6.000
G1 X374.802 Y273.119 Z-6.000
G1 X374.875 Y273.304 Z-6.000
G1 X374.917 Y273.490 Z-6.000
G1 X374.930 Y273.671 Z-6.000
G1 X374.917 Y273.852 Z-6.000
G1 X374.875 Y274.038 Z-6.000
G1 X374.802 Y274.222 Z-6.000
G1 X374.697 Y274.397 Z-6.000
G1 X374.564 Y274.555 Z-6.000
G1 X374.406 Y274.688 Z-6.000
G1 X374.232 Y274.793 Z-6.000
G1 X374.047 Y274.866 Z-6.000
G1 X373.861 Y274.908 Z-6.000
G1 X373.680 Y274.921 Z-6.000
G0 X373.680 Y274.921
G0 Z6.000
G1 X373.680 Y274.921 Z-7.000 F635.0
G1 X373.499 Y274.908 Z-7.000 F180.0
G1 X373.313 Y274.866 Z-7.000
G1 X373.128 Y274.793 Z-7.000
G1 X372.954 Y274.688 Z-7.000
G1 X372.796 Y274.555 Z-7.000
G1 X372.663 Y274.397 Z-7.000
G1 X372.558 Y274.222 Z-7.000
G1 X372.485 Y274.038 Z-7.000
G1 X372.443 Y273.852 Z-7.000
G1 X372.430 Y273.671 Z-7.000
G1 X372.443 Y273.490 Z-7.000
G1 X372.485 Y273.304 Z-7.000
G1 X372.558 Y273.119 Z-7.000
G1 X372.663 Y272.944 Z-7.000
G1 X372.796 Y272.787 Z-7.000
G1 X372.954 Y272.654 Z-7.000
G1 X373.128 Y272.549 Z-7.000
G1 X373.313 Y272.476 Z-7.000
G1 X373.499 Y272.434 Z-7.000
G1 X373.680 Y272.421 Z-7.000
G1 X373.861 Y272.434 Z-7.000
G1 X374.047 Y272.476 Z-7.000
G1 X374.232 Y272.549 Z-7.000
G1 X374.406 Y272.654 Z-7.000
G1 X374.564 Y272.787 Z-7.000
G1 X374.697 Y272.944 Z-7.000
G1 X374.802 Y273.119 Z-7.000
G1 X374.875 Y273.304 Z-7.000
G1 X374.917 Y273.490 Z-7.000
G1 X374.930 Y273.671 Z-7.000
G1 X374.917 Y273.852 Z-7.000
G1 X374.875 Y274.038 Z-7.000
G1 X374.802 Y274.222 Z-7.000
G1 X374.697 Y274.397 Z-7.000
G1 X374.564 Y274.555 Z-7.000
G1 X374.406 Y274.688 Z-7.000
G1 X374.232 Y274.793 Z-7.000
G1 X374.047 Y274.866 Z-7.000
G1 X373.861 Y274.908 Z-7.000
G1 X373.680 Y274.921 Z-7.000
G0 X373.680 Y274.921
G0 Z6.000
G1 X373.680 Y274.921 Z-8.000 F635.0
G1 X373.499 Y274.908 Z-8.000 F180.0
G1 X373.313 Y274.866 Z-8.000
G1 X373.128 Y274.793 Z-8.000
G1 X372.954 Y274.688 Z-8.000
G1 X372.796 Y274.555 Z-8.000
G1 X372.663 Y274.397 Z-8.000
G1 X372.558 Y274.222 Z-8.000
G1 X372.485 Y274.038 Z-8.000
G1 X372.443 Y273.852 Z-8.000
G1 X372.430 Y273.671 Z-8.000
G1 X372.443 Y273.490 Z-8.000
G1 X372.485 Y273.304 Z-8.000
G1 X372.558 Y273.119 Z-8.000
G1 X372.663 Y272.944 Z-8.000
G1 X372.796 Y272.787 Z-8.000
G1 X372.954 Y272.654 Z-8.000
G1 X373.128 Y272.549 Z-8.000
G1 X373.313 Y272.476 Z-8.000
G1 X373.499 Y272.434 Z-8.000
G1 X373.680 Y272.421 Z-8.000
G1 X373.861 Y272.434 Z-8.000
G1 X374.047 Y272.476 Z-8.000
G1 X374.232 Y272.549 Z-8.000
G1 X374.406 Y272.654 Z-8.000
G1 X374.564 Y272.787 Z-8.000
G1 X374.697 Y272.944 Z-8.000
G1 X374.802 Y273.119 Z-8.000
G1 X374.875 Y273.304 Z-8.000
G1 X374.917 Y273.490 Z-8.000
G1 X374.930 Y273.671 Z-8.000
G1 X374.917 Y273.852 Z-8.000
G1 X374.875 Y274.038 Z-8.000
G1 X374.802 Y274.222 Z-8.000
G1 X374.697 Y274.397 Z-8.000
G1 X374.564 Y274.555 Z-8.000
G1 X374.406 Y274.688 Z-8.000
G1 X374.232 Y274.793 Z-8.000
G1 X374.047 Y274.866 Z-8.000
G1 X373.861 Y274.908 Z-8.000
G1 X373.680 Y274.921 Z-8.000
G0 X373.680 Y274.921
G0 Z6.000
G1 X373.680 Y274.921 Z-9.000 F635.0
G1 X373.499 Y274.908 Z-9.000 F180.0
G1 X373.313 Y274.866 Z-9.000
G1 X373.128 Y274.793 Z-9.000
G1 X372.954 Y274.688 Z-9.000
G1 X372.796 Y274.555 Z-9.000
G1 X372.663 Y274.397 Z-9.000
G1 X372.558 Y274.222 Z-9.000
G1 X372.485 Y274.038 Z-9.000
G1 X372.443 Y273.852 Z-9.000
G1 X372.430 Y273.671 Z-9.000
G1 X372.443 Y273.490 Z-9.000
G1 X372.485 Y273.304 Z-9.000
G1 X372.558 Y273.119 Z-9.000
G1 X372.663 Y272.944 Z-9.000
G1 X372.796 Y272.787 Z-9.000
G1 X372.954 Y272.654 Z-9.000
G1 X373.128 Y272.549 Z-9.000
G1 X373.313 Y272.476 Z-9.000
G1 X373.499 Y272.434 Z-9.000
G1 X373.680 Y272.421 Z-9.000
G1 X373.861 Y272.434 Z-9.000
G1 X374.047 Y272.476 Z-9.000
G1 X374.232 Y272.549 Z-9.000
G1 X374.406 Y272.654 Z-9.000
G1 X374.564 Y272.787 Z-9.000
G1 X374.697 Y272.944 Z-9.000
G1 X374.802 Y273.119 Z-9.000
G1 X374.875 Y273.304 Z-9.000
G1 X374.917 Y273.490 Z-9.000
G1 X374.930 Y273.671 Z-9.000
G1 X374.917 Y273.852 Z-9.000
G1 X374.875 Y274.038 Z-9.000
G1 X374.802 Y274.222 Z-9.000
G1 X374.697 Y274.397 Z-9.000
G1 X374.564 Y274.555 Z-9.000
G1 X374.406 Y274.688 Z-9.000
G1 X374.232 Y274.793 Z-9.000
G1 X374.047 Y274.866 Z-9.000
G1 X373.861 Y274.908 Z-9.000
G1 X373.680 Y274.921 Z-9.000
G0 X373.680 Y274.921
G0 Z6.000
G1 X373.680 Y274.921 Z-10.000 F635.0
G1 X373.499 Y274.908 Z-10.000 F180.0
G1 X373.313 Y274.866 Z-10.000
G1 X373.128 Y274.793 Z-10.000
G1 X372.954 Y274.688 Z-10.000
G1 X372.796 Y274.555 Z-10.000
G1 X372.663 Y274.397 Z-10.000
G1 X372.558 Y274.222 Z-10.000
G1 X372.485 Y274.038 Z-10.000
G1 X372.443 Y273.852 Z-10.000
G1 X372.430 Y273.671 Z-10.000
G1 X372.443 Y273.490 Z-10.000
G1 X372.485 Y273.304 Z-10.000
G1 X372.558 Y273.119 Z-10.000
G1 X372.663 Y272.944 Z-10.000
G1 X372.796 Y272.787 Z-10.000
G1 X372.954 Y272.654 Z-10.000
G1 X373.128 Y272.549 Z-10.000
G1 X373.313 Y272.476 Z-10.000
G1 X373.499 Y272.434 Z-10.000
G1 X373.680 Y272.421 Z-10.000
G1 X373.861 Y272.434 Z-10.000
G1 X374.047 Y272.476 Z-10.000
G1 X374.232 Y272.549 Z-10.000
G1 X374.406 Y272.654 Z-10.000
G1 X374.564 Y272.787 Z-10.000
G1 X374.697 Y272.944 Z-10.000
G1 X374.802 Y273.119 Z-10.000
G1 X374.875 Y273.304 Z-10.000
G1 X374.917 Y273.490 Z-10.000
G1 X374.930 Y273.671 Z-10.000
G1 X374.917 Y273.852 Z-10.000
G1 X374.875 Y274.038 Z-10.000
G1 X374.802 Y274.222 Z-10.000
G1 X374.697 Y274.397 Z-10.000
G1 X374.564 Y274.555 Z-10.000
G1 X374.406 Y274.688 Z-10.000
G1 X374.232 Y274.793 Z-10.000
G1 X374.047 Y274.866 Z-10.000
G1 X373.861 Y274.908 Z-10.000
G1 X373.680 Y274.921 Z-10.000
G0 X373.680 Y274.921
G0 Z6.000
G1 X373.680 Y274.921 Z-11.000 F635.0
G1 X373.499 Y274.908 Z-11.000 F180.0
G1 X373.313 Y274.866 Z-11.000
G1 X373.128 Y274.793 Z-11.000
G1 X372.954 Y274.688 Z-11.000
G1 X372.796 Y274.555 Z-11.000
G1 X372.663 Y274.397 Z-11.000
G1 X372.558 Y274.222 Z-11.000
G1 X372.485 Y274.038 Z-11.000
G1 X372.443 Y273.852 Z-11.000
G1 X372.430 Y273.671 Z-11.000
G1 X372.443 Y273.490 Z-11.000
G1 X372.485 Y273.304 Z-11.000
G1 X372.558 Y273.119 Z-11.000
G1 X372.663 Y272.944 Z-11.000
G1 X372.796 Y272.787 Z-11.000
G1 X372.954 Y272.654 Z-11.000
G1 X373.128 Y272.549 Z-11.000
G1 X373.313 Y272.476 Z-11.000
G1 X373.499 Y272.434 Z-11.000
G1 X373.680 Y272.421 Z-11.000
G1 X373.861 Y272.434 Z-11.000
G1 X374.047 Y272.476 Z-11.000
G1 X374.232 Y272.549 Z-11.000
G1 X374.406 Y272.654 Z-11.000
G1 X374.564 Y272.787 Z-11.000
G1 X374.697 Y272.944 Z-11.000
G1 X374.802 Y273.119 Z-11.000
G1 X374.875 Y273.304 Z-11.000
G1 X374.917 Y273.490 Z-11.000
G1 X374.930 Y273.671 Z-11.000
G1 X374.917 Y273.852 Z-11.000
G1 X374.875 Y274.038 Z-11.000
G1 X374.802 Y274.222 Z-11.000
G1 X374.697 Y274.397 Z-11.000
G1 X374.564 Y274.555 Z-11.000
G1 X374.406 Y274.688 Z-11.000
G1 X374.232 Y274.793 Z-11.000
G1 X374.047 Y274.866 Z-11.000
G1 X373.861 Y274.908 Z-11.000
G1 X373.680 Y274.921 Z-11.000
G0 X373.680 Y274.921
G0 Z6.000
G1 X373.680 Y274.921 Z-12.000 F635.0
G1 X373.499 Y274.908 Z-12.000 F180.0
G1 X373.313 Y274.866 Z-12.000
G1 X373.128 Y274.793 Z-12.000
G1 X372.954 Y274.688 Z-12.000
G1 X372.796 Y274.555 Z-12.000
G1 X372.663 Y274.397 Z-12.000
G1 X372.558 Y274.222 Z-12.000
G1 X372.485 Y274.038 Z-12.000
G1 X372.443 Y273.852 Z-12.000
G1 X372.430 Y273.671 Z-12.000
G1 X372.443 Y273.490 Z-12.000
G1 X372.485 Y273.304 Z-12.000
G1 X372.558 Y273.119 Z-12.000
G1 X372.663 Y272.944 Z-12.000
G1 X372.796 Y272.787 Z-12.000
G1 X372.954 Y272.654 Z-12.000
G1 X373.128 Y272.549 Z-12.000
G1 X373.313 Y272.476 Z-12.000
G1 X373.499 Y272.434 Z-12.000
G1 X373.680 Y272.421 Z-12.000
G1 X373.861 Y272.434 Z-12.000
G1 X374.047 Y272.476 Z-12.000
G1 X374.232 Y272.549 Z-12.000
G1 X374.406 Y272.654 Z-12.000
G1 X374.564 Y272.787 Z-12.000
G1 X374.697 Y272.944 Z-12.000
G1 X374.802 Y273.119 Z-12.000
G1 X374.875 Y273.304 Z-12.000
G1 X374.917 Y273.490 Z-12.000
G1 X374.930 Y273.671 Z-12.000
G1 X374.917 Y273.852 Z-12.000
G1 X374.875 Y274.038 Z-12.000
G1 X374.802 Y274.222 Z-12.000
G1 X374.697 Y274.397 Z-12.000
G1 X374.564 Y274.555 Z-12.000
G1 X374.406 Y274.688 Z-12.000
G1 X374.232 Y274.793 Z-12.000
G1 X374.047 Y274.866 Z-12.000
G1 X373.861 Y274.908 Z-12.000
G1 X373.680 Y274.921 Z-12.000
G0 X373.680 Y274.921
G0 Z6.000
G0 X223.403 Y279.168
G0 Z6.000
G1 X223.403 Y279.168 Z-1.000 F635.0
G1 X223.222 Y279.155 Z-1.000 F180.0
G1 X223.036 Y279.113 Z-1.000
G1 X222.851 Y279.040 Z-1.000
G1 X222.677 Y278.935 Z-1.000
G1 X222.519 Y278.802 Z-1.000
G1 X222.386 Y278.644 Z-1.000
G1 X222.281 Y278.469 Z-1.000
G1 X222.208 Y278.285 Z-1.000
G1 X222.166 Y278.099 Z-1.000
G1 X222.153 Y277.918 Z-1.000
G1 X222.166 Y277.737 Z-1.000
G1 X222.208 Y277.551 Z-1.000
G1 X222.281 Y277.366 Z-1.000
G1 X222.386 Y277.191 Z-1.000
G1 X222.519 Y277.034 Z-1.000
G1 X222.677 Y276.901 Z-1.000
G1 X222.851 Y276.796 Z-1.000
G1 X223.036 Y276.723 Z-1.000
G1 X223.222 Y276.681 Z-1.000
G1 X223.403 Y276.668 Z-1.000
G1 X223.584 Y276.681 Z-1.000
G1 X223.770 Y276.723 Z-1.000
G1 X223.955 Y276.796 Z-1.000
G1 X224.129 Y276.901 Z-1.000
G1 X224.287 Y277.034 Z-1.000
G1 X224.420 Y277.191 Z-1.000
G1 X224.525 Y277.366 Z-1.000
G1 X224.598 Y277.551 Z-1.000
G1 X224.640 Y277.737 Z-1.000
G1 X224.653 Y277.918 Z-1.000
G1 X224.640 Y278.099 Z-1.000
G1 X224.598 Y278.285 Z-1.000
G1 X224.525 Y278.469 Z-1.000
G1 X224.420 Y278.644 Z-1.000
G1 X224.287 Y278.802 Z-1.000
G1 X224.129 Y278.935 Z-1.000
G1 X223.955 Y279.040 Z-1.000
G1 X223.770 Y279.113 Z-1.000
G1 X223.584 Y279.155 Z-1.000
G1 X223.403 Y279.168 Z-1.000
G0 X223.403 Y279.168
G0 Z6.000
G1 X223.403 Y279.168 Z-2.000 F635.0
G1 X223.222 Y279.155 Z-2.000 F180.0
G1 X223.036 Y279.113 Z-2.000
G1 X222.851 Y279.040 Z-2.000
G1 X222.677 Y278.935 Z-2.000
G1 X222.519 Y278.802 Z-2.000
G1 X222.386 Y278.644 Z-2.000
G1 X222.281 Y278.469 Z-2.000
G1 X222.208 Y278.285 Z-2.000
G1 X222.166 Y278.099 Z-2.000
G1 X222.153 Y277.918 Z-2.000
G1 X222.166 Y277.737 Z-2.000
G1 X222.208 Y277.551 Z-2.000
G1 X222.281 Y277.366 Z-2.000
G1 X222.386 Y277.191 Z-2.000
G1 X222.519 Y277.034 Z-2.000
G1 X222.677 Y276.901 Z-2.000
G1 X222.851 Y276.796 Z-2.000
G1 X223.036 Y276.723 Z-2.000
G1 X223.222 Y276.681 Z-2.000
G1 X223.403 Y276.668 Z-2.000
G1 X223.584 Y276.681 Z-2.000
G1 X223.770 Y276.723 Z-2.000
G1 X223.955 Y276.796 Z-2.000
G1 X224.129 Y276.901 Z-2.000
G1 X224.287 Y277.034 Z-2.000
G1 X224.420 Y277.191 Z-2.000
G1 X224.525 Y277.366 Z-2.000
G1 X224.598 Y277.551 Z-2.000
G1 X224.640 Y277.737 Z-2.000
G1 X224.653 Y277.918 Z-2.000
G1 X224.640 Y278.099 Z-2.000
G1 X224.598 Y278.285 Z-2.000
G1 X224.525 Y278.469 Z-2.000
G1 X224.420 Y278.644 Z-2.000
G1 X224.287 Y278.802 Z-2.000
G1 X224.129 Y278.935 Z-2.000
G1 X223.955 Y279.040 Z-2.000
G1 X223.770 Y279.113 Z-2.000
G1 X223.584 Y279.155 Z-2.000
G1 X223.403 Y279.168 Z-2.000
G0 X223.403 Y279.168
G0 Z6.000
G1 X223.403 Y279.168 Z-3.000 F635.0
G1 X223.222 Y279.155 Z-3.000 F180.0
G1 X223.036 Y279.113 Z-3.000
G1 X222.851 Y279.040 Z-3.000
G1 X222.677 Y278.935 Z-3.000
G1 X222.519 Y278.802 Z-3.000
G1 X222.386 Y278.644 Z-3.000
G1 X222.281 Y278.469 Z-3.000
G1 X222.208 Y278.285 Z-3.000
G1 X222.166 Y278.099 Z-3.000
G1 X222.153 Y277.918 Z-3.000
G1 X222.166 Y277.737 Z-3.000
G1 X222.208 Y277.551 Z-3.000
G1 X222.281 Y277.366 Z-3.000
G1 X222.386 Y277.191 Z-3.000
G1 X222.519 Y277.034 Z-3.000
G1 X222.677 Y276.901 Z-3.000
G1 X222.851 Y276.796 Z-3.000
G1 X223.036 Y276.723 Z-3.000
G1 X223.222 Y276.681 Z-3.000
G1 X223.403 Y276.668 Z-3.000
G1 X223.584 Y276.681 Z-3.000
G1 X223.770 Y276.723 Z-3.000
G1 X223.955 Y276.796 Z-3.000
G1 X224.129 Y276.901 Z-3.000
G1 X224.287 Y277.034 Z-3.000
G1 X224.420 Y277.191 Z-3.000
G1 X224.525 Y277.366 Z-3.000
G1 X224.598 Y277.551 Z-3.000
G1 X224.640 Y277.737 Z-3.000
G1 X224.653 Y277.918 Z-3.000
G1 X224.640 Y278.099 Z-3.000
G1 X224.598 Y278.285 Z-3.000
G1 X224.525 Y278.469 Z-3.000
G1 X224.420 Y278.644 Z-3.000
G1 X224.287 Y278.802 Z-3.000
G1 X224.129 Y278.935 Z-3.000
G1 X223.955 Y279.040 Z-3.000
G1 X223.770 Y279.113 Z-3.000
G1 X223.584 Y279.155 Z-3.000
G1 X223.403 Y279.168 Z-3.000
G0 X223.403 Y279.168
G0 Z6.000
G1 X223.403 Y279.168 Z-4.000 F635.0
G1 X223.222 Y279.155 Z-4.000 F180.0
G1 X223.036 Y279.113 Z-4.000
G1 X222.851 Y279.040 Z-4.000
G1 X222.677 Y278.935 Z-4.000
G1 X222.519 Y278.802 Z-4.000
G1 X222.386 Y278.644 Z-4.000
G1 X222.281 Y278.469 Z-4.000
G1 X222.208 Y278.285 Z-4.000
G1 X222.166 Y278.099 Z-4.000
G1 X222.153 Y277.918 Z-4.000
G1 X222.166 Y277.737 Z-4.000
G1 X222.208 Y277.551 Z-4.000
G1 X222.281 Y277.366 Z-4.000
G1 X222.386 Y277.191 Z-4.000
G1 X222.519 Y277.034 Z-4.000
G1 X222.677 Y276.901 Z-4.000
G1 X222.851 Y276.796 Z-4.000
G1 X223.036 Y276.723 Z-4.000
G1 X223.222 Y276.681 Z-4.000
G1 X223.403 Y276.668 Z-4.000
G1 X223.584 Y276.681 Z-4.000
G1 X223.770 Y276.723 Z-4.000
G1 X223.955 Y276.796 Z-4.000
G1 X224.129 Y276.901 Z-4.000
G1 X224.287 Y277.034 Z-4.000
G1 X224.420 Y277.191 Z-4.000
G1 X224.525 Y277.366 Z-4.000
G1 X224.598 Y277.551 Z-4.000
G1 X224.640 Y277.737 Z-4.000
G1 X224.653 Y277.918 Z-4.000
G1 X224.640 Y278.099 Z-4.000
G1 X224.598 Y278.285 Z-4.000
G1 X224.525 Y278.469 Z-4.000
G1 X224.420 Y278.644 Z-4.000
G1 X224.287 Y278.802 Z-4.000
G1 X224.129 Y278.935 Z-4.000
G1 X223.955 Y279.040 Z-4.000
G1 X223.770 Y279.113 Z-4.000
G1 X223.584 Y279.155 Z-4.000
G1 X223.403 Y279.168 Z-4.000
G0 X223.403 Y279.168
G0 Z6.000
G1 X223.403 Y279.168 Z-5.000 F635.0
G1 X223.222 Y279.155 Z-5.000 F180.0
G1 X223.036 Y279.113 Z-5.000
G1 X222.851 Y279.040 Z-5.000
G1 X222.677 Y278.935 Z-5.000
G1 X222.519 Y278.802 Z-5.000
G1 X222.386 Y278.644 Z-5.000
G1 X222.281 Y278.469 Z-5.000
G1 X222.208 Y278.285 Z-5.000
G1 X222.166 Y278.099 Z-5.000
G1 X222.153 Y277.918 Z-5.000
G1 X222.166 Y277.737 Z-5.000
G1 X222.208 Y277.551 Z-5.000
G1 X222.281 Y277.366 Z-5.000
G1 X222.386 Y277.191 Z-5.000
G1 X222.519 Y277.034 Z-5.000
G1 X222.677 Y276.901 Z-5.000
G1 X222.851 Y276.796 Z-5.000
G1 X223.036 Y276.723 Z-5.000
G1 X223.222 Y276.681 Z-5.000
G1 X223.403 Y276.668 Z-5.000
G1 X223.584 Y276.681 Z-5.000
G1 X223.770 Y276.723 Z-5.000
G1 X223.955 Y276.796 Z-5.000
G1 X224.129 Y276.901 Z-5.000
G1 X224.287 Y277.034 Z-5.000
G1 X224.420 Y277.191 Z-5.000
G1 X224.525 Y277.366 Z-5.000
G1 X224.598 Y277.551 Z-5.000
G1 X224.640 Y277.737 Z-5.000
G1 X224.653 Y277.918 Z-5.000
G1 X224.640 Y278.099 Z-5.000
G1 X224.598 Y278.285 Z-5.000
G1 X224.525 Y278.469 Z-5.000
G1 X224.420 Y278.644 Z-5.000
G1 X224.287 Y278.802 Z-5.000
G1 X224.129 Y278.935 Z-5.000
G1 X223.955 Y279.040 Z-5.000
G1 X223.770 Y279.113 Z-5.000
G1 X223.584 Y279.155 Z-5.000
G1 X223.403 Y279.168 Z-5.000
G0 X223.403 Y279.168
G0 Z6.000
G1 X223.403 Y279.168 Z-6.000 F635.0
G1 X223.222 Y279.155 Z-6.000 F180.0
G1 X223.036 Y279.113 Z-6.000
G1 X222.851 Y279.040 Z-6.000
G1 X222.677 Y278.935 Z-6.000
G1 X222.519 Y278.802 Z-6.000
G1 X222.386 Y278.644 Z-6.000
G1 X222.281 Y278.469 Z-6.000
G1 X222.208 Y278.285 Z-6.000
G1 X222.166 Y278.099 Z-6.000
G1 X222.153 Y277.918 Z-6.000
G1 X222.166 Y277.737 Z-6.000
G1 X222.208 Y277.551 Z-6.000
G1 X222.281 Y277.366 Z-6.000
G1 X222.386 Y277.191 Z-6.000
G1 X222.519 Y277.034 Z-6.000
G1 X222.677 Y276.901 Z-6.000
G1 X222.851 Y276.796 Z-6.000
G1 X223.036 Y276.723 Z-6.000
G1 X223.222 Y276.681 Z-6.000
G1 X223.403 Y276.668 Z-6.000
G1 X223.584 Y276.681 Z-6.000
G1 X223.770 Y276.723 Z-6.000
G1 X223.955 Y276.796 Z-6.000
G1 X224.129 Y276.901 Z-6.000
G1 X224.287 Y277.034 Z-6.000
G1 X224.420 Y277.191 Z-6.000
G1 X224.525 Y277.366 Z-6.000
G1 X224.598 Y277.551 Z-6.000
G1 X224.640 Y277.737 Z-6.000
G1 X224.653 Y277.918 Z-6.000
G1 X224.640 Y278.099 Z-6.000
G1 X224.598 Y278.285 Z-6.000
G1 X224.525 Y278.469 Z-6.000
G1 X224.420 Y278.644 Z-6.000
G1 X224.287 Y278.802 Z-6.000
G1 X224.129 Y278.935 Z-6.000
G1 X223.955 Y279.040 Z-6.000
G1 X223.770 Y279.113 Z-6.000
G1 X223.584 Y279.155 Z-6.000
G1 X223.403 Y279.168 Z-6.000
G0 X223.403 Y279.168
G0 Z6.000
G1 X223.403 Y279.168 Z-7.000 F635.0
G1 X223.222 Y279.155 Z-7.000 F180.0
G1 X223.036 Y279.113 Z-7.000
G1 X222.851 Y279.040 Z-7.000
G1 X222.677 Y278.935 Z-7.000
G1 X222.519 Y278.802 Z-7.000
G1 X222.386 Y278.644 Z-7.000
G1 X222.281 Y278.469 Z-7.000
G1 X222.208 Y278.285 Z-7.000
G1 X222.166 Y278.099 Z-7.000
G1 X222.153 Y277.918 Z-7.000
G1 X222.166 Y277.737 Z-7.000
G1 X222.208 Y277.551 Z-7.000
G1 X222.281 Y277.366 Z-7.000
G1 X222.386 Y277.191 Z-7.000
G1 X222.519 Y277.034 Z-7.000
G1 X222.677 Y276.901 Z-7.000
G1 X222.851 Y276.796 Z-7.000
G1 X223.036 Y276.723 Z-7.000
G1 X223.222 Y276.681 Z-7.000
G1 X223.403 Y276.668 Z-7.000
G1 X223.584 Y276.681 Z-7.000
G1 X223.770 Y276.723 Z-7.000
G1 X223.955 Y276.796 Z-7.000
G1 X224.129 Y276.901 Z-7.000
G1 X224.287 Y277.034 Z-7.000
G1 X224.420 Y277.191 Z-7.000
G1 X224.525 Y277.366 Z-7.000
G1 X224.598 Y277.551 Z-7.000
G1 X224.640 Y277.737 Z-7.000
G1 X224.653 Y277.918 Z-7.000
G1 X224.640 Y278.099 Z-7.000
G1 X224.598 Y278.285 Z-7.000
G1 X224.525 Y278.469 Z-7.000
G1 X224.420 Y278.644 Z-7.000
G1 X224.287 Y278.802 Z-7.000
G1 X224.129 Y278.935 Z-7.000
G1 X223.955 Y279.040 Z-7.000
G1 X223.770 Y279.113 Z-7.000
G1 X223.584 Y279.155 Z-7.000
G1 X223.403 Y279.168 Z-7.000
G0 X223.403 Y279.168
G0 Z6.000
G1 X223.403 Y279.168 Z-8.000 F635.0
G1 X223.222 Y279.155 Z-8.000 F180.0
G1 X223.036 Y279.113 Z-8.000
G1 X222.851 Y279.040 Z-8.000
G1 X222.677 Y278.935 Z-8.000
G1 X222.519 Y278.802 Z-8.000
G1 X222.386 Y278.644 Z-8.000
G1 X222.281 Y278.469 Z-8.000
G1 X222.208 Y278.285 Z-8.000
G1 X222.166 Y278.099 Z-8.000
G1 X222.153 Y277.918 Z-8.000
G1 X222.166 Y277.737 Z-8.000
G1 X222.208 Y277.551 Z-8.000
G1 X222.281 Y277.366 Z-8.000
G1 X222.386 Y277.191 Z-8.000
G1 X222.519 Y277.034 Z-8.000
G1 X222.677 Y276.901 Z-8.000
G1 X222.851 Y276.796 Z-8.000
G1 X223.036 Y276.723 Z-8.000
G1 X223.222 Y276.681 Z-8.000
G1 X223.403 Y276.668 Z-8.000
G1 X223.584 Y276.681 Z-8.000
G1 X223.770 Y276.723 Z-8.000
G1 X223.955 Y276.796 Z-8.000
G1 X224.129 Y276.901 Z-8.000
G1 X224.287 Y277.034 Z-8.000
G1 X224.420 Y277.191 Z-8.000
G1 X224.525 Y277.366 Z-8.000
G1 X224.598 Y277.551 Z-8.000
G1 X224.640 Y277.737 Z-8.000
G1 X224.653 Y277.918 Z-8.000
G1 X224.640 Y278.099 Z-8.000
G1 X224.598 Y278.285 Z-8.000
G1 X224.525 Y278.469 Z-8.000
G1 X224.420 Y278.644 Z-8.000
G1 X224.287 Y278.802 Z-8.000
G1 X224.129 Y278.935 Z-8.000
G1 X223.955 Y279.040 Z-8.000
G1 X223.770 Y279.113 Z-8.000
G1 X223.584 Y279.155 Z-8.000
G1 X223.403 Y279.168 Z-8.000
G0 X223.403 Y279.168
G0 Z6.000
G1 X223.403 Y279.168 Z-9.000 F635.0
G1 X223.222 Y279.155 Z-9.000 F180.0
G1 X223.036 Y279.113 Z-9.000
G1 X222.851 Y279.040 Z-9.000
G1 X222.677 Y278.935 Z-9.000
G1 X222.519 Y278.802 Z-9.000
G1 X222.386 Y278.644 Z-9.000
G1 X222.281 Y278.469 Z-9.000
G1 X222.208 Y278.285 Z-9.000
G1 X222.166 Y278.099 Z-9.000
G1 X222.153 Y277.918 Z-9.000
G1 X222.166 Y277.737 Z-9.000
G1 X222.208 Y277.551 Z-9.000
G1 X222.281 Y277.366 Z-9.000
G1 X222.386 Y277.191 Z-9.000
G1 X222.519 Y277.034 Z-9.000
G1 X222.677 Y276.901 Z-9.000
G1 X222.851 Y276.796 Z-9.000
G1 X223.036 Y276.723 Z-9.000
G1 X223.222 Y276.681 Z-9.000
G1 X223.403 Y276.668 Z-9.000
G1 X223.584 Y276.681 Z-9.000
G1 X223.770 Y276.723 Z-9.000
G1 X223.955 Y276.796 Z-9.000
G1 X224.129 Y276.901 Z-9.000
G1 X224.287 Y277.034 Z-9.000
G1 X224.420 Y277.191 Z-9.000
G1 X224.525 Y277.366 Z-9.000
G1 X224.598 Y277.551 Z-9.000
G1 X224.640 Y277.737 Z-9.000
G1 X224.653 Y277.918 Z-9.000
G1 X224.640 Y278.099 Z-9.000
G1 X224.598 Y278.285 Z-9.000
G1 X224.525 Y278.469 Z-9.000
G1 X224.420 Y278.644 Z-9.000
G1 X224.287 Y278.802 Z-9.000
G1 X224.129 Y278.935 Z-9.000
G1 X223.955 Y279.040 Z-9.000
G1 X223.770 Y279.113 Z-9.000
G1 X223.584 Y279.155 Z-9.000
G1 X223.403 Y279.168 Z-9.000
G0 X223.403 Y279.168
G0 Z6.000
G1 X223.403 Y279.168 Z-10.000 F635.0
G1 X223.222 Y279.155 Z-10.000 F180.0
G1 X223.036 Y279.113 Z-10.000
G1 X222.851 Y279.040 Z-10.000
G1 X222.677 Y278.935 Z-10.000
G1 X222.519 Y278.802 Z-10.000
G1 X222.386 Y278.644 Z-10.000
G1 X222.281 Y278.469 Z-10.000
G1 X222.208 Y278.285 Z-10.000
G1 X222.166 Y278.099 Z-10.000
G1 X222.153 Y277.918 Z-10.000
G1 X222.166 Y277.737 Z-10.000
G1 X222.208 Y277.551 Z-10.000
G1 X222.281 Y277.366 Z-10.000
G1 X222.386 Y277.191 Z-10.000
G1 X222.519 Y277.034 Z-10.000
G1 X222.677 Y276.901 Z-10.000
G1 X222.851 Y276.796 Z-10.000
G1 X223.036 Y276.723 Z-10.000
G1 X223.222 Y276.681 Z-10.000
G1 X223.403 Y276.668 Z-10.000
G1 X223.584 Y276.681 Z-10.000
G1 X223.770 Y276.723 Z-10.000
G1 X223.955 Y276.796 Z-10.000
G1 X224.129 Y276.901 Z-10.000
G1 X224.287 Y277.034 Z-10.000
G1 X224.420 Y277.191 Z-10.000
G1 X224.525 Y277.366 Z-10.000
G1 X224.598 Y277.551 Z-10.000
G1 X224.640 Y277.737 Z-10.000
G1 X224.653 Y277.918 Z-10.000
G1 X224.640 Y278.099 Z-10.000
G1 X224.598 Y278.285 Z-10.000
G1 X224.525 Y278.469 Z-10.000
G1 X224.420 Y278.644 Z-10.000
G1 X224.287 Y278.802 Z-10.000
G1 X224.129 Y278.935 Z-10.000
G1 X223.955 Y279.040 Z-10.000
G1 X223.770 Y279.113 Z-10.000
G1 X223.584 Y279.155 Z-10.000
G1 X223.403 Y279.168 Z-10.000
G0 X223.403 Y279.168
G0 Z6.000
G1 X223.403 Y279.168 Z-11.000 F635.0
G1 X223.222 Y279.155 Z-11.000 F180.0
G1 X223.036 Y279.113 Z-11.000
G1 X222.851 Y279.040 Z-11.000
G1 X222.677 Y278.935 Z-11.000
G1 X222.519 Y278.802 Z-11.000
G1 X222.386 Y278.644 Z-11.000
G1 X222.281 Y278.469 Z-11.000
G1 X222.208 Y278.285 Z-11.000
G1 X222.166 Y278.099 Z-11.000
G1 X222.153 Y277.918 Z-11.000
G1 X222.166 Y277.737 Z-11.000
G1 X222.208 Y277.551 Z-11.000
G1 X222.281 Y277.366 Z-11.000
G1 X222.386 Y277.191 Z-11.000
G1 X222.519 Y277.034 Z-11.000
G1 X222.677 Y276.901 Z-11.000
G1 X222.851 Y276.796 Z-11.000
G1 X223.036 Y276.723 Z-11.000
G1 X223.222 Y276.681 Z-11.000
G1 X223.403 Y276.668 Z-11.000
G1 X223.584 Y276.681 Z-11.000
G1 X223.770 Y276.723 Z-11.000
G1 X223.955 Y276.796 Z-11.000
G1 X224.129 Y276.901 Z-11.000
G1 X224.287 Y277.034 Z-11.000
G1 X224.420 Y277.191 Z-11.000
G1 X224.525 Y277.366 Z-11.000
G1 X224.598 Y277.551 Z-11.000
G1 X224.640 Y277.737 Z-11.000
G1 X224.653 Y277.918 Z-11.000
G1 X224.640 Y278.099 Z-11.000
G1 X224.598 Y278.285 Z-11.000
G1 X224.525 Y278.469 Z-11.000
G1 X224.420 Y278.644 Z-11.000
G1 X224.287 Y278.802 Z-11.000
G1 X224.129 Y278.935 Z-11.000
G1 X223.955 Y279.040 Z-11.000
G1 X223.770 Y279.113 Z-11.000
G1 X223.584 Y279.155 Z-11.000
G1 X223.403 Y279.168 Z-11.000
G0 X223.403 Y279.168
G0 Z6.000
G1 X223.403 Y279.168 Z-12.000 F635.0
G1 X223.222 Y279.155 Z-12.000 F180.0
G1 X223.036 Y279.113 Z-12.000
G1 X222.851 Y279.040 Z-12.000
G1 X222.677 Y278.935 Z-12.000
G1 X222.519 Y278.802 Z-12.000
G1 X222.386 Y278.644 Z-12.000
G1 X222.281 Y278.469 Z-12.000
G1 X222.208 Y278.285 Z-12.000
G1 X222.166 Y278.099 Z-12.000
G1 X222.153 Y277.918 Z-12.000
G1 X222.166 Y277.737 Z-12.000
G1 X222.208 Y277.551 Z-12.000
G1 X222.281 Y277.366 Z-12.000
G1 X222.386 Y277.191 Z-12.000
G1 X222.519 Y277.034 Z-12.000
G1 X222.677 Y276.901 Z-12.000
G1 X222.851 Y276.796 Z-12.000
G1 X223.036 Y276.723 Z-12.000
G1 X223.222 Y276.681 Z-12.000
G1 X223.403 Y276.668 Z-12.000
G1 X223.584 Y276.681 Z-12.000
G1 X223.770 Y276.723 Z-12.000
G1 X223.955 Y276.796 Z-12.000
G1 X224.129 Y276.901 Z-12.000
G1 X224.287 Y277.034 Z-12.000
G1 X224.420 Y277.191 Z-12.000
G1 X224.525 Y277.366 Z-12.000
G1 X224.598 Y277.551 Z-12.000
G1 X224.640 Y277.737 Z-12.000
G1 X224.653 Y277.918 Z-12.000
G1 X224.640 Y278.099 Z-12.000
G1 X224.598 Y278.285 Z-12.000
G1 X224.525 Y278.469 Z-12.000
G1 X224.420 Y278.644 Z-12.000
G1 X224.287 Y278.802 Z-12.000
G1 X224.129 Y278.935 Z-12.000
G1 X223.955 Y279.040 Z-12.000
G1 X223.770 Y279.113 Z-12.000
G1 X223.584 Y279.155 Z-12.000
G1 X223.403 Y279.168 Z-12.000
G0 X223.403 Y279.168
G0 Z6.000
G0 X211.195 Y272.969
G0 Z6.000
G1 X211.195 Y272.969 Z-1.000 F635.0
G1 X210.738 Y273.365 Z-1.000 F180.0
G1 X210.318 Y273.790 Z-1.000
G1 X209.938 Y274.242 Z-1.000
G1 X209.600 Y274.719 Z-1.000
G1 X209.305 Y275.218 Z-1.000
G1 X209.056 Y275.738 Z-1.000
G1 X208.852 Y276.273 Z-1.000
G1 X208.696 Y276.822 Z-1.000
G1 X208.585 Y277.379 Z-1.000
G1 X208.520 Y277.942 Z-1.000
G1 X208.498 Y278.518 Z-1.000
G1 X208.530 Y279.210 Z-1.000
G1 X208.626 Y279.896 Z-1.000
G1 X208.783 Y280.561 Z-1.000
G1 X208.997 Y281.202 Z-1.000
G1 X209.266 Y281.816 Z-1.000
G1 X209.586 Y282.399 Z-1.000
G1 X209.955 Y282.949 Z-1.000
G1 X210.369 Y283.462 Z-1.000
G1 X210.826 Y283.937 Z-1.000
G1 X211.323 Y284.370 Z-1.000
G1 X211.858 Y284.758 Z-1.000
G1 X212.427 Y285.100 Z-1.000
G1 X213.028 Y285.391 Z-1.000
G1 X213.658 Y285.629 Z-1.000
G1 X214.314 Y285.810 Z-1.000
G1 X215.091 Y285.950 Z-1.000
G1 X227.689 Y285.759 Z-1.000
G1 X277.250 Y281.350 Z-1.000
G1 X293.187 Y279.933 Z-1.000
G1 X309.602 Y278.472 Z-1.000
G1 X371.360 Y286.000 Z-1.000
G1 X375.784 Y286.000 Z-1.000
G1 X376.045 Y285.997 Z-1.000
G1 X376.309 Y285.989 Z-1.000
G1 X376.576 Y285.974 Z-1.000
G1 X376.846 Y285.953 Z-1.000
G1 X377.117 Y285.926 Z-1.000
G1 X377.392 Y285.892 Z-1.000
G1 X377.668 Y285.851 Z-1.000
G1 X377.946 Y285.804 Z-1.000
G1 X378.226 Y285.749 Z-1.000
G1 X378.507 Y285.687 Z-1.000
G1 X378.790 Y285.618 Z-1.000
G1 X379.073 Y285.541 Z-1.000
G1 X379.357 Y285.456 Z-1.000
G1 X379.641 Y285.363 Z-1.000
G1 X379.926 Y285.263 Z-1.000
G1 X380.210 Y285.154 Z-1.000
G1 X380.494 Y285.037 Z-1.000
G1 X380.777 Y284.912 Z-1.000
G1 X381.059 Y284.779 Z-1.000
G1 X381.339 Y284.637 Z-1.000
G1 X381.617 Y284.487 Z-1.000
G1 X381.893 Y284.329 Z-1.000
G1 X382.167 Y284.162 Z-1.000
G1 X382.437 Y283.987 Z-1.000
G1 X382.705 Y283.804 Z-1.000
G1 X382.968 Y283.612 Z-1.000
G1 X383.228 Y283.413 Z-1.000
G1 X383.483 Y283.205 Z-1.000
G1 X383.734 Y282.990 Z-1.000
G1 X383.979 Y282.766 Z-1.000
G1 X384.219 Y282.536 Z-1.000
G1 X384.453 Y282.298 Z-1.000
G1 X384.681 Y282.053 Z-1.000
G1 X384.903 Y281.801 Z-1.000
G1 X385.118 Y281.542 Z-1.000
G1 X385.326 Y281.277 Z-1.000
G1 X385.527 Y281.006 Z-1.000
G1 X385.720 Y280.730 Z-1.000
G1 X385.905 Y280.448 Z-1.000
G1 X386.082 Y280.160 Z-1.000
G1 X386.252 Y279.868 Z-1.000
G1 X386.412 Y279.572 Z-1.000
G1 X386.564 Y279.272 Z-1.000
G1 X386.708 Y278.967 Z-1.000
G1 X386.843 Y278.660 Z-1.000
G1 X386.968 Y278.350 Z-1.000
G1 X387.085 Y278.037 Z-1.000
G1 X387.193 Y277.722 Z-1.000
G1 X387.291 Y277.405 Z-1.000
G1 X387.380 Y277.087 Z-1.000
G1 X387.461 Y276.768 Z-1.000
G1 X387.532 Y276.448 Z-1.000
G1 X387.594 Y276.129 Z-1.000
G1 X387.647 Y275.809 Z-1.000
G1 X387.692 Y275.490 Z-1.000
G1 X387.727 Y275.171 Z-1.000
G1 X387.754 Y274.854 Z-1.000
G1 X387.772 Y274.539 Z-1.000
G1 X387.782 Y274.225 Z-1.000
G1 X387.784 Y273.913 Z-1.000
G1 X387.778 Y273.604 Z-1.000
G1 X387.764 Y273.297 Z-1.000
G1 X387.742 Y272.994 Z-1.000
G1 X387.713 Y272.693 Z-1.000
G1 X387.677 Y272.396 Z-1.000
G1 X387.634 Y272.103 Z-1.000
G1 X387.584 Y271.814 Z-1.000
G1 X387.527 Y271.528 Z-1.000
G1 X387.464 Y271.247 Z-1.000
G1 X387.396 Y270.971 Z-1.000
G1 X387.321 Y270.698 Z-1.000
G1 X387.241 Y270.431 Z-1.000
G1 X387.156 Y270.168 Z-1.000
G1 X387.066 Y269.910 Z-1.000
G1 X386.971 Y269.657 Z-1.000
G1 X386.872 Y269.409 Z-1.000
G1 X386.768 Y269.166 Z-1.000
G1 X386.660 Y268.929 Z-1.000
G1 X383.450 Y262.044 Z-1.000
G1 X376.688 Y247.543 Z-1.000
G1 X366.376 Y225.428 Z-1.000
G1 X366.221 Y225.088 Z-1.000
G1 X366.073 Y224.743 Z-1.000
G1 X365.932 Y224.395 Z-1.000
G1 X365.798 Y224.042 Z-1.000
G1 X365.671 Y223.686 Z-1.000
G1 X365.552 Y223.327 Z-1.000
G1 X365.440 Y222.965 Z-1.000
G1 X365.335 Y222.599 Z-1.000
G1 X365.238 Y222.231 Z-1.000
G1 X365.148 Y221.861 Z-1.000
G1 X365.067 Y221.488 Z-1.000
G1 X364.993 Y221.114 Z-1.000
G1 X364.927 Y220.738 Z-1.000
G1 X364.869 Y220.360 Z-1.000
G1 X364.819 Y219.981 Z-1.000
G1 X364.777 Y219.601 Z-1.000
G1 X364.744 Y219.221 Z-1.000
G1 X364.718 Y218.840 Z-1.000
G1 X364.700 Y218.459 Z-1.000
G1 X364.691 Y218.078 Z-1.000
G1 X364.690 Y217.698 Z-1.000
G1 X364.696 Y217.318 Z-1.000
G1 X364.711 Y216.938 Z-1.000
G1 X364.733 Y216.560 Z-1.000
G1 X364.764 Y216.184 Z-1.000
G1 X364.802 Y215.809 Z-1.000
G1 X364.848 Y215.436 Z-1.000
G1 X364.901 Y215.064 Z-1.000
G1 X364.963 Y214.696 Z-1.000
G1 X371.704 Y176.463 Z-1.000
G1 X371.710 Y176.221 Z-1.000
G1 X371.682 Y175.602 Z-1.000
G1 X371.596 Y174.975 Z-1.000
G1 X371.456 Y174.366 Z-1.000
G1 X371.263 Y173.777 Z-1.000
G1 X371.022 Y173.213 Z-1.000
G1 X370.734 Y172.675 Z-1.000
G1 X370.403 Y172.168 Z-1.000
G1 X370.030 Y171.692 Z-1.000
G1 X369.618 Y171.251 Z-1.000
G1 X369.169 Y170.847 Z-1.000
G1 X368.686 Y170.481 Z-1.000
G1 X368.171 Y170.158 Z-1.000
G1 X367.627 Y169.879 Z-1.000
G1 X367.055 Y169.648 Z-1.000
G1 X366.459 Y169.466 Z-1.000
G1 X365.728 Y169.313 Z-1.000
G1 X361.950 Y169.318 Z-1.000
G1 X361.656 Y169.322 Z-1.000
G1 X361.360 Y169.333 Z-1.000
G1 X361.062 Y169.351 Z-1.000
G1 X360.764 Y169.377 Z-1.000
G1 X360.464 Y169.411 Z-1.000
G1 X360.163 Y169.452 Z-1.000
G1 X359.862 Y169.501 Z-1.000
G1 X359.561 Y169.559 Z-1.000
G1 X359.260 Y169.624 Z-1.000
G1 X358.959 Y169.697 Z-1.000
G1 X358.659 Y169.778 Z-1.000
G1 X358.361 Y169.868 Z-1.000
G1 X358.063 Y169.965 Z-1.000
G1 X357.767 Y170.071 Z-1.000
G1 X357.474 Y170.185 Z-1.000
G1 X357.183 Y170.306 Z-1.000
G1 X356.894 Y170.436 Z-1.000
G1 X356.609 Y170.573 Z-1.000
G1 X356.326 Y170.718 Z-1.000
G1 X356.048 Y170.870 Z-1.000
G1 X355.773 Y171.030 Z-1.000
G1 X355.503 Y171.198 Z-1.000
G1 X355.237 Y171.372 Z-1.000
G1 X354.976 Y171.553 Z-1.000
G1 X354.720 Y171.741 Z-1.000
G1 X354.469 Y171.936 Z-1.000
G1 X354.224 Y172.137 Z-1.000
G1 X353.985 Y172.343 Z-1.000
G1 X353.752 Y172.556 Z-1.000
G1 X353.525 Y172.774 Z-1.000
G1 X353.304 Y172.997 Z-1.000
G1 X353.090 Y173.226 Z-1.000
G1 X352.883 Y173.459 Z-1.000
G1 X352.682 Y173.696 Z-1.000
G1 X352.489 Y173.938 Z-1.000
G1 X352.303 Y174.183 Z-1.000
G1 X352.124 Y174.432 Z-1.000
G1 X351.952 Y174.684 Z-1.000
G1 X351.787 Y174.939 Z-1.000
G1 X351.630 Y175.196 Z-1.000
G1 X351.480 Y175.456 Z-1.000
G1 X351.338 Y175.718 Z-1.000
G1 X351.203 Y175.982 Z-1.000
G1 X351.075 Y176.247 Z-1.000
G1 X345.285 Y188.665 Z-1.000
G1 X338.523 Y203.166 Z-1.000
G1 X331.062 Y219.165 Z-1.000
G1 X329.336 Y219.165 Z-1.000
G1 X329.222 Y219.168 Z-1.000
G1 X329.105 Y219.178 Z-1.000
G1 X328.987 Y219.196 Z-1.000
G1 X328.868 Y219.221 Z-1.000
G1 X328.749 Y219.253 Z-1.000
G1 X328.630 Y219.294 Z-1.000
G1 X328.512 Y219.343 Z-1.000
G1 X328.396 Y219.400 Z-1.000
G1 X328.283 Y219.465 Z-1.000
G1 X328.174 Y219.537 Z-1.000
G1 X328.069 Y219.618 Z-1.000
G1 X327.970 Y219.705 Z-1.000
G1 X327.876 Y219.798 Z-1.000
G1 X327.789 Y219.898 Z-1.000
G1 X327.709 Y220.003 Z-1.000
G1 X327.636 Y220.112 Z-1.000
G1 X327.571 Y220.225 Z-1.000
G1 X327.514 Y220.341 Z-1.000
G1 X327.465 Y220.458 Z-1.000
G1 X327.425 Y220.577 Z-1.000
G1 X327.392 Y220.697 Z-1.000
G1 X327.367 Y220.816 Z-1.000
G1 X327.350 Y220.934 Z-1.000
G1 X327.340 Y221.051 Z-1.000
G1 X327.336 Y221.165 Z-1.000
G1 X327.337 Y230.127 Z-1.000
G1 X327.333 Y231.209 Z-1.000
G1 X327.276 Y232.243 Z-1.000
G1 X327.167 Y233.275 Z-1.000
G1 X327.002 Y234.314 Z-1.000
G1 X326.903 Y234.811 Z-1.000
G1 X326.789 Y235.319 Z-1.000
G1 X326.660 Y235.824 Z-1.000
G1 X326.519 Y236.326 Z-1.000
G1 X326.363 Y236.825 Z-1.000
G1 X326.195 Y237.321 Z-1.000
G1 X326.012 Y237.812 Z-1.000
G1 X325.816 Y238.300 Z-1.000
G1 X325.607 Y238.782 Z-1.000
G1 X325.383 Y239.261 Z-1.000
G1 X325.146 Y239.734 Z-1.000
G1 X324.896 Y240.202 Z-1.000
G1 X324.631 Y240.664 Z-1.000
G1 X324.353 Y241.121 Z-1.000
G1 X324.060 Y241.571 Z-1.000
G1 X323.754 Y242.015 Z-1.000
G1 X323.433 Y242.452 Z-1.000
G1 X323.098 Y242.882 Z-1.000
G1 X322.749 Y243.305 Z-1.000
G1 X322.386 Y243.721 Z-1.000
G1 X322.009 Y244.129 Z-1.000
G1 X321.616 Y244.529 Z-1.000
G1 X321.209 Y244.920 Z-1.000
G1 X320.789 Y245.302 Z-1.000
G1 X320.289 Y245.729 Z-1.000
G1 X319.776 Y246.139 Z-1.000
G1 X319.248 Y246.534 Z-1.000
G1 X318.705 Y246.913 Z-1.000
G1 X318.147 Y247.277 Z-1.000
G1 X317.575 Y247.626 Z-1.000
G1 X316.988 Y247.960 Z-1.000
G1 X316.333 Y248.307 Z-1.000
G1 X315.595 Y248.728 Z-1.000
G1 X314.890 Y249.105 Z-1.000
G1 X314.168 Y249.467 Z-1.000
G1 X313.428 Y249.814 Z-1.000
G1 X312.671 Y250.145 Z-1.000
G1 X311.898 Y250.461 Z-1.000
G1 X311.110 Y250.761 Z-1.000
G1 X310.307 Y251.045 Z-1.000
G1 X309.490 Y251.313 Z-1.000
G1 X308.660 Y251.565 Z-1.000
G1 X307.817 Y251.800 Z-1.000
G1 X306.962 Y252.019 Z-1.000
G1 X306.097 Y252.221 Z-1.000
G1 X305.221 Y252.407 Z-1.000
G1 X304.335 Y252.576 Z-1.000
G1 X303.383 Y252.737 Z-1.000
G1 X263.130 Y261.140 Z-1.000
G1 X247.468 Y264.409 Z-1.000
G1 X214.106 Y271.373 Z-1.000
G1 X213.367 Y271.672 Z-1.000
G1 X212.775 Y271.953 Z-1.000
G1 X212.215 Y272.262 Z-1.000
G1 X211.688 Y272.601 Z-1.000
G1 X211.195 Y272.969 Z-1.000
G1 X211.195 Y272.969 Z-2.000 F635.0
G1 X210.738 Y273.365 Z-2.000 F180.0
G1 X210.318 Y273.790 Z-2.000
G1 X209.938 Y274.242 Z-2.000
G1 X209.600 Y274.719 Z-2.000
G1 X209.305 Y275.218 Z-2.000
G1 X209.056 Y275.738 Z-2.000
G1 X208.852 Y276.273 Z-2.000
G1 X208.696 Y276.822 Z-2.000
G1 X208.585 Y277.379 Z-2.000
G1 X208.520 Y277.942 Z-2.000
G1 X208.498 Y278.518 Z-2.000
G1 X208.530 Y279.210 Z-2.000
G1 X208.626 Y279.896 Z-2.000
G1 X208.783 Y280.561 Z-2.000
G1 X208.997 Y281.202 Z-2.000
G1 X209.266 Y281.816 Z-2.000
G1 X209.586 Y282.399 Z-2.000
G1 X209.955 Y282.949 Z-2.000
G1 X210.369 Y283.462 Z-2.000
G1 X210.826 Y283.937 Z-2.000
G1 X211.323 Y284.370 Z-2.000
G1 X211.858 Y284.758 Z-2.000
G1 X212.427 Y285.100 Z-2.000
G1 X213.028 Y285.391 Z-2.000
G1 X213.658 Y285.629 Z-2.000
G1 X214.314 Y285.810 Z-2.000
G1 X215.091 Y285.950 Z-2.000
G1 X227.689 Y285.759 Z-2.000
G1 X277.250 Y281.350 Z-2.000
G1 X293.187 Y279.933 Z-2.000
G1 X309.602 Y278.472 Z-2.000
G1 X371.360 Y286.000 Z-2.000
G1 X375.784 Y286.000 Z-2.000
G1 X376.045 Y285.997 Z-2.000
G1 X376.309 Y285.989 Z-2.000
G1 X376.576 Y285.974 Z-2.000
G1 X376.846 Y285.953 Z-2.000
G1 X377.117 Y285.926 Z-2.000
G1 X377.392 Y285.892 Z-2.000
G1 X377.668 Y285.851 Z-2.000
G1 X377.946 Y285.804 Z-2.000
G1 X378.226 Y285.749 Z-2.000
G1 X378.507 Y285.687 Z-2.000
G1 X378.790 Y285.618 Z-2.000
G1 X379.073 Y285.541 Z-2.000
G1 X379.357 Y285.456 Z-2.000
G1 X379.641 Y285.363 Z-2.000
G1 X379.926 Y285.263 Z-2.000
G1 X380.210 Y285.154 Z-2.000
G1 X380.494 Y285.037 Z-2.000
G1 X380.777 Y284.912 Z-2.000
G1 X381.059 Y284.779 Z-2.000
G1 X381.339 Y284.637 Z-2.000
G1 X381.617 Y284.487 Z-2.000
G1 X381.893 Y284.329 Z-2.000
G1 X382.167 Y284.162 Z-2.000
G1 X382.437 Y283.987 Z-2.000
G1 X382.705 Y283.804 Z-2.000
G1 X382.968 Y283.612 Z-2.000
G1 X383.228 Y283.413 Z-2.000
G1 X383.483 Y283.205 Z-2.000
G1 X383.734 Y282.990 Z-2.000
G1 X383.979 Y282.766 Z-2.000
G1 X384.219 Y282.536 Z-2.000
G1 X384.453 Y282.298 Z-2.000
G1 X384.681 Y282.053 Z-2.000
G1 X384.903 Y281.801 Z-2.000
G1 X385.118 Y281.542 Z-2.000
G1 X385.326 Y281.277 Z-2.000
G1 X385.527 Y281.006 Z-2.000
G1 X385.720 Y280.730 Z-2.000
G1 X385.905 Y280.448 Z-2.000
G1 X386.082 Y280.160 Z-2.000
G1 X386.252 Y279.868 Z-2.000
G1 X386.412 Y279.572 Z-2.000
G1 X386.564 Y279.272 Z-2.000
G1 X386.708 Y278.967 Z-2.000
G1 X386.843 Y278.660 Z-2.000
G1 X386.968 Y278.350 Z-2.000
G1 X387.085 Y278.037 Z-2.000
G1 X387.193 Y277.722 Z-2.000
G1 X387.291 Y277.405 Z-2.000
G1 X387.380 Y277.087 Z-2.000
G1 X387.461 Y276.768 Z-2.000
G1 X387.532 Y276.448 Z-2.000
G1 X387.594 Y276.129 Z-2.000
G1 X387.647 Y275.809 Z-2.000
G1 X387.692 Y275.490 Z-2.000
G1 X387.727 Y275.171 Z-2.000
G1 X387.754 Y274.854 Z-2.000
G1 X387.772 Y274.539 Z-2.000
G1 X387.782 Y274.225 Z-2.000
G1 X387.784 Y273.913 Z-2.000
G1 X387.778 Y273.604 Z-2.000
G1 X387.764 Y273.297 Z-2.000
G1 X387.742 Y272.994 Z-2.000
G1 X387.713 Y272.693 Z-2.000
G1 X387.677 Y272.396 Z-2.000
G1 X387.634 Y272.103 Z-2.000
G1 X387.584 Y271.814 Z-2.000
G1 X387.527 Y271.528 Z-2.000
G1 X387.464 Y271.247 Z-2.000
G1 X387.396 Y270.971 Z-2.000
G1 X387.321 Y270.698 Z-2.000
G1 X387.241 Y270.431 Z-2.000
G1 X387.156 Y270.168 Z-2.000
G1 X387.066 Y269.910 Z-2.000
G1 X386.971 Y269.657 Z-2.000
G1 X386.872 Y269.409 Z-2.000
G1 X386.768 Y269.166 Z-2.000
G1 X386.660 Y268.929 Z-2.000
G1 X383.450 Y262.044 Z-2.000
G1 X376.688 Y247.543 Z-2.000
G1 X366.376 Y225.428 Z-2.000
G1 X366.221 Y225.088 Z-2.000
G1 X366.073 Y224.743 Z-2.000
G1 X365.932 Y224.395 Z-2.000
G1 X365.798 Y224.042 Z-2.000
G1 X365.671 Y223.686 Z-2.000
G1 X365.552 Y223.327 Z-2.000
G1 X365.440 Y222.965 Z-2.000
G1 X365.335 Y222.599 Z-2.000
G1 X365.238 Y222.231 Z-2.000
G1 X365.148 Y221.861 Z-2.000
G1 X365.067 Y221.488 Z-2.000
G1 X364.993 Y221.114 Z-2.000
G1 X364.927 Y220.738 Z-2.000
G1 X364.869 Y220.360 Z-2.000
G1 X364.819 Y219.981 Z-2.000
G1 X364.777 Y219.601 Z-2.000
G1 X364.744 Y219.221 Z-2.000
G1 X364.718 Y218.840 Z-2.000
G1 X364.700 Y218.459 Z-2.000
G1 X364.691 Y218.078 Z-2.000
G1 X364.690 Y217.698 Z-2.000
G1 X364.696 Y217.318 Z-2.000
G1 X364.711 Y216.938 Z-2.000
G1 X364.733 Y216.560 Z-2.000
G1 X364.764 Y216.184 Z-2.000
G1 X364.802 Y215.809 Z-2.000
G1 X364.848 Y215.436 Z-2.000
G1 X364.901 Y215.064 Z-2.000
G1 X364.963 Y214.696 Z-2.000
G1 X371.704 Y176.463 Z-2.000
G1 X371.710 Y176.221 Z-2.000
G1 X371.682 Y175.602 Z-2.000
G1 X371.596 Y174.975 Z-2.000
G1 X371.456 Y174.366 Z-2.000
G1 X371.263 Y173.777 Z-2.000
G1 X371.022 Y173.213 Z-2.000
G1 X370.734 Y172.675 Z-2.000
G1 X370.403 Y172.168 Z-2.000
G1 X370.030 Y171.692 Z-2.000
G1 X369.618 Y171.251 Z-2.000
G1 X369.169 Y170.847 Z-2.000
G1 X368.686 Y170.481 Z-2.000
G1 X368.171 Y170.158 Z-2.000
G1 X367.627 Y169.879 Z-2.000
G1 X367.055 Y169.648 Z-2.000
G1 X366.459 Y169.466 Z-2.000
G1 X365.728 Y169.313 Z-2.000
G1 X361.950 Y169.318 Z-2.000
G1 X361.656 Y169.322 Z-2.000
G1 X361.360 Y169.333 Z-2.000
G1 X361.062 Y169.351 Z-2.000
G1 X360.764 Y169.377 Z-2.000
G1 X360.464 Y169.411 Z-2.000
G1 X360.163 Y169.452 Z-2.000
G1 X359.862 Y169.501 Z-2.000
G1 X359.561 Y169.559 Z-2.000
G1 X359.260 Y169.624 Z-2.000
G1 X358.959 Y169.697 Z-2.000
G1 X358.659 Y169.778 Z-2.000
G1 X358.361 Y169.868 Z-2.000
G1 X358.063 Y169.965 Z-2.000
G1 X357.767 Y170.071 Z-2.000
G1 X357.474 Y170.185 Z-2.000
G1 X357.183 Y170.306 Z-2.000
G1 X356.894 Y170.436 Z-2.000
G1 X356.609 Y170.573 Z-2.000
G1 X356.326 Y170.718 Z-2.000
G1 X356.048 Y170.870 Z-2.000
G1 X355.773 Y171.030 Z-2.000
G1 X355.503 Y171.198 Z-2.000
G1 X355.237 Y171.372 Z-2.000
G1 X354.976 Y171.553 Z-2.000
G1 X354.720 Y171.741 Z-2.000
G1 X354.469 Y171.936 Z-2.000
G1 X354.224 Y172.137 Z-2.000
G1 X353.985 Y172.343 Z-2.000
G1 X353.752 Y172.556 Z-2.000
G1 X353.525 Y172.774 Z-2.000
G1 X353.304 Y172.997 Z-2.000
G1 X353.090 Y173.226 Z-2.000
G1 X352.883 Y173.459 Z-2.000
G1 X352.682 Y173.696 Z-2.000
G1 X352.489 Y173.938 Z-2.000
G1 X352.303 Y174.183 Z-2.000
G1 X352.124 Y174.432 Z-2.000
G1 X351.952 Y174.684 Z-2.000
G1 X351.787 Y174.939 Z-2.000
G1 X351.630 Y175.196 Z-2.000
G1 X351.480 Y175.456 Z-2.000
G1 X351.338 Y175.718 Z-2.000
G1 X351.203 Y175.982 Z-2.000
G1 X351.075 Y176.247 Z-2.000
G1 X345.285 Y188.665 Z-2.000
G1 X338.523 Y203.166 Z-2.000
G1 X331.062 Y219.165 Z-2.000
G1 X329.336 Y219.165 Z-2.000
G1 X329.222 Y219.168 Z-2.000
G1 X329.105 Y219.178 Z-2.000
G1 X328.987 Y219.196 Z-2.000
G1 X328.868 Y219.221 Z-2.000
G1 X328.749 Y219.253 Z-2.000
G1 X328.630 Y219.294 Z-2.000
G1 X328.512 Y219.343 Z-2.000
G1 X328.396 Y219.400 Z-2.000
G1 X328.283 Y219.465 Z-2.000
G1 X328.174 Y219.537 Z-2.000
G1 X328.069 Y219.618 Z-2.000
G1 X327.970 Y219.705 Z-2.000
G1 X327.876 Y219.798 Z-2.000
G1 X327.789 Y219.898 Z-2.000
G1 X327.709 Y220.003 Z-2.000
G1 X327.636 Y220.112 Z-2.000
G1 X327.571 Y220.225 Z-2.000
G1 X327.514 Y220.341 Z-2.000
G1 X327.465 Y220.458 Z-2.000
G1 X327.425 Y220.577 Z-2.000
G1 X327.392 Y220.697 Z-2.000
G1 X327.367 Y220.816 Z-2.000
G1 X327.350 Y220.934 Z-2.000
G1 X327.340 Y221.051 Z-2.000
G1 X327.336 Y221.165 Z-2.000
G1 X327.337 Y230.127 Z-2.000
G1 X327.333 Y231.209 Z-2.000
G1 X327.276 Y232.243 Z-2.000
G1 X327.167 Y233.275 Z-2.000
G1 X327.002 Y234.314 Z-2.000
G1 X326.903 Y234.811 Z-2.000
G1 X326.789 Y235.319 Z-2.000
G1 X326.660 Y235.824 Z-2.000
G1 X326.519 Y236.326 Z-2.000
G1 X326.363 Y236.825 Z-2.000
G1 X326.195 Y237.321 Z-2.000
G1 X326.012 Y237.812 Z-2.000
G1 X325.816 Y238.300 Z-2.000
G1 X325.607 Y238.782 Z-2.000
G1 X325.383 Y239.261 Z-2.000
G1 X325.146 Y239.734 Z-2.000
G1 X324.896 Y240.202 Z-2.000
G1 X324.631 Y240.664 Z-2.000
G1 X324.353 Y241.121 Z-2.000
G1 X324.060 Y241.571 Z-2.000
G1 X323.754 Y242.015 Z-2.000
G1 X323.433 Y242.452 Z-2.000
G1 X323.098 Y242.882 Z-2.000
G1 X322.749 Y243.305 Z-2.000
G1 X322.386 Y243.721 Z-2.000
G1 X322.009 Y244.129 Z-2.000
G1 X321.616 Y244.529 Z-2.000
G1 X321.209 Y244.920 Z-2.000
G1 X320.789 Y245.302 Z-2.000
G1 X320.289 Y245.729 Z-2.000
G1 X319.776 Y246.139 Z-2.000
G1 X319.248 Y246.534 Z-2.000
G1 X318.705 Y246.913 Z-2.000
G1 X318.147 Y247.277 Z-2.000
G1 X317.575 Y247.626 Z-2.000
G1 X316.988 Y247.960 Z-2.000
G1 X316.333 Y248.307 Z-2.000
G1 X315.595 Y248.728 Z-2.000
G1 X314.890 Y249.105 Z-2.000
G1 X314.168 Y249.467 Z-2.000
G1 X313.428 Y249.814 Z-2.000
G1 X312.671 Y250.145 Z-2.000
G1 X311.898 Y250.461 Z-2.000
G1 X311.110 Y250.761 Z-2.000
G1 X310.307 Y251.045 Z-2.000
G1 X309.490 Y251.313 Z-2.000
G1 X308.660 Y251.565 Z-2.000
G1 X307.817 Y251.800 Z-2.000
G1 X306.962 Y252.019 Z-2.000
G1 X306.097 Y252.221 Z-2.000
G1 X305.221 Y252.407 Z-2.000
G1 X304.335 Y252.576 Z-2.000
G1 X303.383 Y252.737 Z-2.000
G1 X263.130 Y261.140 Z-2.000
G1 X247.468 Y264.409 Z-2.000
G1 X214.106 Y271.373 Z-2.000
G1 X213.367 Y271.672 Z-2.000
G1 X212.775 Y271.953 Z-2.000
G1 X212.215 Y272.262 Z-2.000
G1 X211.688 Y272.601 Z-2.000
G1 X211.195 Y272.969 Z-2.000
G1 X211.195 Y272.969 Z-3.000 F635.0
G1 X210.738 Y273.365 Z-3.000 F180.0
G1 X210.318 Y273.790 Z-3.000
G1 X209.938 Y274.242 Z-3.000
G1 X209.600 Y274.719 Z-3.000
G1 X209.305 Y275.218 Z-3.000
G1 X209.056 Y275.738 Z-3.000
G1 X208.852 Y276.273 Z-3.000
G1 X208.696 Y276.822 Z-3.000
G1 X208.585 Y277.379 Z-3.000
G1 X208.520 Y277.942 Z-3.000
G1 X208.498 Y278.518 Z-3.000
G1 X208.530 Y279.210 Z-3.000
G1 X208.626 Y279.896 Z-3.000
G1 X208.783 Y280.561 Z-3.000
G1 X208.997 Y281.202 Z-3.000
G1 X209.266 Y281.816 Z-3.000
G1 X209.586 Y282.399 Z-3.000
G1 X209.955 Y282.949 Z-3.000
G1 X210.369 Y283.462 Z-3.000
G1 X210.826 Y283.937 Z-3.000
G1 X211.323 Y284.370 Z-3.000
G1 X211.858 Y284.758 Z-3.000
G1 X212.427 Y285.100 Z-3.000
G1 X213.028 Y285.391 Z-3.000
G1 X213.658 Y285.629 Z-3.000
G1 X214.314 Y285.810 Z-3.000
G1 X215.091 Y285.950 Z-3.000
G1 X227.689 Y285.759 Z-3.000
G1 X277.250 Y281.350 Z-3.000
G1 X293.187 Y279.933 Z-3.000
G1 X309.602 Y278.472 Z-3.000
G1 X371.360 Y286.000 Z-3.000
G1 X375.784 Y286.000 Z-3.000
G1 X376.045 Y285.997 Z-3.000
G1 X376.309 Y285.989 Z-3.000
G1 X376.576 Y285.974 Z-3.000
G1 X376.846 Y285.953 Z-3.000
G1 X377.117 Y285.926 Z-3.000
G1 X377.392 Y285.892 Z-3.000
G1 X377.668 Y285.851 Z-3.000
G1 X377.946 Y285.804 Z-3.000
G1 X378.226 Y285.749 Z-3.000
G1 X378.507 Y285.687 Z-3.000
G1 X378.790 Y285.618 Z-3.000
G1 X379.073 Y285.541 Z-3.000
G1 X379.357 Y285.456 Z-3.000
G1 X379.641 Y285.363 Z-3.000
G1 X379.926 Y285.263 Z-3.000
G1 X380.210 Y285.154 Z-3.000
G1 X380.494 Y285.037 Z-3.000
G1 X380.777 Y284.912 Z-3.000
G1 X381.059 Y284.779 Z-3.000
G1 X381.339 Y284.637 Z-3.000
G1 X381.617 Y284.487 Z-3.000
G1 X381.893 Y284.329 Z-3.000
G1 X382.167 Y284.162 Z-3.000
G1 X382.437 Y283.987 Z-3.000
G1 X382.705 Y283.804 Z-3.000
G1 X382.968 Y283.612 Z-3.000
G1 X383.228 Y283.413 Z-3.000
G1 X383.483 Y283.205 Z-3.000
G1 X383.734 Y282.990 Z-3.000
G1 X383.979 Y282.766 Z-3.000
G1 X384.219 Y282.536 Z-3.000
G1 X384.453 Y282.298 Z-3.000
G1 X384.681 Y282.053 Z-3.000
G1 X384.903 Y281.801 Z-3.000
G1 X385.118 Y281.542 Z-3.000
G1 X385.326 Y281.277 Z-3.000
G1 X385.527 Y281.006 Z-3.000
G1 X385.720 Y280.730 Z-3.000
G1 X385.905 Y280.448 Z-3.000
G1 X386.082 Y280.160 Z-3.000
G1 X386.252 Y279.868 Z-3.000
G1 X386.412 Y279.572 Z-3.000
G1 X386.564 Y279.272 Z-3.000
G1 X386.708 Y278.967 Z-3.000
G1 X386.843 Y278.660 Z-3.000
G1 X386.968 Y278.350 Z-3.000
G1 X387.085 Y278.037 Z-3.000
G1 X387.193 Y277.722 Z-3.000
G1 X387.291 Y277.405 Z-3.000
G1 X387.380 Y277.087 Z-3.000
G1 X387.461 Y276.768 Z-3.000
G1 X387.532 Y276.448 Z-3.000
G1 X387.594 Y276.129 Z-3.000
G1 X387.647 Y275.809 Z-3.000
G1 X387.692 Y275.490 Z-3.000
G1 X387.727 Y275.171 Z-3.000
G1 X387.754 Y274.854 Z-3.000
G1 X387.772 Y274.539 Z-3.000
G1 X387.782 Y274.225 Z-3.000
G1 X387.784 Y273.913 Z-3.000
G1 X387.778 Y273.604 Z-3.000
G1 X387.764 Y273.297 Z-3.000
G1 X387.742 Y272.994 Z-3.000
G1 X387.713 Y272.693 Z-3.000
G1 X387.677 Y272.396 Z-3.000
G1 X387.634 Y272.103 Z-3.000
G1 X387.584 Y271.814 Z-3.000
G1 X387.527 Y271.528 Z-3.000
G1 X387.464 Y271.247 Z-3.000
G1 X387.396 Y270.971 Z-3.000
G1 X387.321 Y270.698 Z-3.000
G1 X387.241 Y270.431 Z-3.000
G1 X387.156 Y270.168 Z-3.000
G1 X387.066 Y269.910 Z-3.000
G1 X386.971 Y269.657 Z-3.000
G1 X386.872 Y269.409 Z-3.000
G1 X386.768 Y269.166 Z-3.000
G1 X386.660 Y268.929 Z-3.000
G1 X383.450 Y262.044 Z-3.000
G1 X376.688 Y247.543 Z-3.000
G1 X366.376 Y225.428 Z-3.000
G1 X366.221 Y225.088 Z-3.000
G1 X366.073 Y224.743 Z-3.000
G1 X365.932 Y224.395 Z-3.000
G1 X365.798 Y224.042 Z-3.000
G1 X365.671 Y223.686 Z-3.000
G1 X365.552 Y223.327 Z-3.000
G1 X365.440 Y222.965 Z-3.000
G1 X365.335 Y222.599 Z-3.000
G1 X365.238 Y222.231 Z-3.000
G1 X365.148 Y221.861 Z-3.000
G1 X365.067 Y221.488 Z-3.000
G1 X364.993 Y221.114 Z-3.000
G1 X364.927 Y220.738 Z-3.000
G1 X364.869 Y220.360 Z-3.000
G1 X364.819 Y219.981 Z-3.000
G1 X364.777 Y219.601 Z-3.000
G1 X364.744 Y219.221 Z-3.000
G1 X364.718 Y218.840 Z-3.000
G1 X364.700 Y218.459 Z-3.000
G1 X364.691 Y218.078 Z-3.000
G1 X364.690 Y217.698 Z-3.000
G1 X364.696 Y217.318 Z-3.000
G1 X364.711 Y216.938 Z-3.000
G1 X364.733 Y216.560 Z-3.000
G1 X364.764 Y216.184 Z-3.000
G1 X364.802 Y215.809 Z-3.000
G1 X364.848 Y215.436 Z-3.000
G1 X364.901 Y215.064 Z-3.000
G1 X364.963 Y214.696 Z-3.000
G1 X371.704 Y176.463 Z-3.000
G1 X371.710 Y176.221 Z-3.000
G1 X371.682 Y175.602 Z-3.000
G1 X371.596 Y174.975 Z-3.000
G1 X371.456 Y174.366 Z-3.000
G1 X371.263 Y173.777 Z-3.000
G1 X371.022 Y173.213 Z-3.000
G1 X370.734 Y172.675 Z-3.000
G1 X370.403 Y172.168 Z-3.000
G1 X370.030 Y171.692 Z-3.000
G1 X369.618 Y171.251 Z-3.000
G1 X369.169 Y170.847 Z-3.000
G1 X368.686 Y170.481 Z-3.000
G1 X368.171 Y170.158 Z-3.000
G1 X367.627 Y169.879 Z-3.000
G1 X367.055 Y169.648 Z-3.000
G1 X366.459 Y169.466 Z-3.000
G1 X365.728 Y169.313 Z-3.000
G1 X361.950 Y169.318 Z-3.000
G1 X361.656 Y169.322 Z-3.000
G1 X361.360 Y169.333 Z-3.000
G1 X361.062 Y169.351 Z-3.000
G1 X360.764 Y169.377 Z-3.000
G1 X360.464 Y169.411 Z-3.000
G1 X360.163 Y169.452 Z-3.000
G1 X359.862 Y169.501 Z-3.000
G1 X359.561 Y169.559 Z-3.000
G1 X359.260 Y169.624 Z-3.000
G1 X358.959 Y169.697 Z-3.000
G1 X358.659 Y169.778 Z-3.000
G1 X358.361 Y169.868 Z-3.000
G1 X358.063 Y169.965 Z-3.000
G1 X357.767 Y170.071 Z-3.000
G1 X357.474 Y170.185 Z-3.000
G1 X357.183 Y170.306 Z-3.000
G1 X356.894 Y170.436 Z-3.000
G1 X356.609 Y170.573 Z-3.000
G1 X356.326 Y170.718 Z-3.000
G1 X356.048 Y170.870 Z-3.000
G1 X355.773 Y171.030 Z-3.000
G1 X355.503 Y171.198 Z-3.000
G1 X355.237 Y171.372 Z-3.000
G1 X354.976 Y171.553 Z-3.000
G1 X354.720 Y171.741 Z-3.000
G1 X354.469 Y171.936 Z-3.000
G1 X354.224 Y172.137 Z-3.000
G1 X353.985 Y172.343 Z-3.000
G1 X353.752 Y172.556 Z-3.000
G1 X353.525 Y172.774 Z-3.000
G1 X353.304 Y172.997 Z-3.000
G1 X353.090 Y173.226 Z-3.000
G1 X352.883 Y173.459 Z-3.000
G1 X352.682 Y173.696 Z-3.000
G1 X352.489 Y173.938 Z-3.000
G1 X352.303 Y174.183 Z-3.000
G1 X352.124 Y174.432 Z-3.000
G1 X351.952 Y174.684 Z-3.000
G1 X351.787 Y174.939 Z-3.000
G1 X351.630 Y175.196 Z-3.000
G1 X351.480 Y175.456 Z-3.000
G1 X351.338 Y175.718 Z-3.000
G1 X351.203 Y175.982 Z-3.000
G1 X351.075 Y176.247 Z-3.000
G1 X345.285 Y188.665 Z-3.000
G1 X338.523 Y203.166 Z-3.000
G1 X331.062 Y219.165 Z-3.000
G1 X329.336 Y219.165 Z-3.000
G1 X329.222 Y219.168 Z-3.000
G1 X329.105 Y219.178 Z-3.000
G1 X328.987 Y219.196 Z-3.000
G1 X328.868 Y219.221 Z-3.000
G1 X328.749 Y219.253 Z-3.000
G1 X328.630 Y219.294 Z-3.000
G1 X328.512 Y219.343 Z-3.000
G1 X328.396 Y219.400 Z-3.000
G1 X328.283 Y219.465 Z-3.000
G1 X328.174 Y219.537 Z-3.000
G1 X328.069 Y219.618 Z-3.000
G1 X327.970 Y219.705 Z-3.000
G1 X327.876 Y219.798 Z-3.000
G1 X327.789 Y219.898 Z-3.000
G1 X327.709 Y220.003 Z-3.000
G1 X327.636 Y220.112 Z-3.000
G1 X327.571 Y220.225 Z-3.000
G1 X327.514 Y220.341 Z-3.000
G1 X327.465 Y220.458 Z-3.000
G1 X327.425 Y220.577 Z-3.000
G1 X327.392 Y220.697 Z-3.000
G1 X327.367 Y220.816 Z-3.000
G1 X327.350 Y220.934 Z-3.000
G1 X327.340 Y221.051 Z-3.000
G1 X327.336 Y221.165 Z-3.000
G1 X327.337 Y230.127 Z-3.000
G1 X327.333 Y231.209 Z-3.000
G1 X327.276 Y232.243 Z-3.000
G1 X327.167 Y233.275 Z-3.000
G1 X327.002 Y234.314 Z-3.000
G1 X326.903 Y234.811 Z-3.000
G1 X326.789 Y235.319 Z-3.000
G1 X326.660 Y235.824 Z-3.000
G1 X326.519 Y236.326 Z-3.000
G1 X326.363 Y236.825 Z-3.000
G1 X326.195 Y237.321 Z-3.000
G1 X326.012 Y237.812 Z-3.000
G1 X325.816 Y238.300 Z-3.000
G1 X325.607 Y238.782 Z-3.000
G1 X325.383 Y239.261 Z-3.000
G1 X325.146 Y239.734 Z-3.000
G1 X324.896 Y240.202 Z-3.000
G1 X324.631 Y240.664 Z-3.000
G1 X324.353 Y241.121 Z-3.000
G1 X324.060 Y241.571 Z-3.000
G1 X323.754 Y242.015 Z-3.000
G1 X323.433 Y242.452 Z-3.000
G1 X323.098 Y242.882 Z-3.000
G1 X322.749 Y243.305 Z-3.000
G1 X322.386 Y243.721 Z-3.000
G1 X322.009 Y244.129 Z-3.000
G1 X321.616 Y244.529 Z-3.000
G1 X321.209 Y244.920 Z-3.000
G1 X320.789 Y245.302 Z-3.000
G1 X320.289 Y245.729 Z-3.000
G1 X319.776 Y246.139 Z-3.000
G1 X319.248 Y246.534 Z-3.000
G1 X318.705 Y246.913 Z-3.000
G1 X318.147 Y247.277 Z-3.000
G1 X317.575 Y247.626 Z-3.000
G1 X316.988 Y247.960 Z-3.000
G1 X316.333 Y248.307 Z-3.000
G1 X315.595 Y248.728 Z-3.000
G1 X314.890 Y249.105 Z-3.000
G1 X314.168 Y249.467 Z-3.000
G1 X313.428 Y249.814 Z-3.000
G1 X312.671 Y250.145 Z-3.000
G1 X311.898 Y250.461 Z-3.000
G1 X311.110 Y250.761 Z-3.000
G1 X310.307 Y251.045 Z-3.000
G1 X309.490 Y251.313 Z-3.000
G1 X308.660 Y251.565 Z-3.000
G1 X307.817 Y251.800 Z-3.000
G1 X306.962 Y252.019 Z-3.000
G1 X306.097 Y252.221 Z-3.000
G1 X305.221 Y252.407 Z-3.000
G1 X304.335 Y252.576 Z-3.000
G1 X303.383 Y252.737 Z-3.000
G1 X263.130 Y261.140 Z-3.000
G1 X247.468 Y264.409 Z-3.000
G1 X214.106 Y271.373 Z-3.000
G1 X213.367 Y271.672 Z-3.000
G1 X212.775 Y271.953 Z-3.000
G1 X212.215 Y272.262 Z-3.000
G1 X211.688 Y272.601 Z-3.000
G1 X211.195 Y272.969 Z-3.000
G1 X211.195 Y272.969 Z-4.000 F635.0
G1 X210.738 Y273.365 Z-4.000 F180.0
G1 X210.318 Y273.790 Z-4.000
G1 X209.938 Y274.242 Z-4.000
G1 X209.600 Y274.719 Z-4.000
G1 X209.305 Y275.218 Z-4.000
G1 X209.056 Y275.738 Z-4.000
G1 X208.852 Y276.273 Z-4.000
G1 X208.696 Y276.822 Z-4.000
G1 X208.585 Y277.379 Z-4.000
G1 X208.520 Y277.942 Z-4.000
G1 X208.498 Y278.518 Z-4.000
G1 X208.530 Y279.210 Z-4.000
G1 X208.626 Y279.896 Z-4.000
G1 X208.783 Y280.561 Z-4.000
G1 X208.997 Y281.202 Z-4.000
G1 X209.266 Y281.816 Z-4.000
G1 X209.586 Y282.399 Z-4.000
G1 X209.955 Y282.949 Z-4.000
G1 X210.369 Y283.462 Z-4.000
G1 X210.826 Y283.937 Z-4.000
G1 X211.323 Y284.370 Z-4.000
G1 X211.858 Y284.758 Z-4.000
G1 X212.427 Y285.100 Z-4.000
G1 X213.028 Y285.391 Z-4.000
G1 X213.658 Y285.629 Z-4.000
G1 X214.314 Y285.810 Z-4.000
G1 X215.091 Y285.950 Z-4.000
G1 X227.689 Y285.759 Z-4.000
G1 X277.250 Y281.350 Z-4.000
G1 X293.187 Y279.933 Z-4.000
G1 X309.602 Y278.472 Z-4.000
G1 X371.360 Y286.000 Z-4.000
G1 X375.784 Y286.000 Z-4.000
G1 X376.045 Y285.997 Z-4.000
G1 X376.309 Y285.989 Z-4.000
G1 X376.576 Y285.974 Z-4.000
G1 X376.846 Y285.953 Z-4.000
G1 X377.117 Y285.926 Z-4.000
G1 X377.392 Y285.892 Z-4.000
G1 X377.668 Y285.851 Z-4.000
G1 X377.946 Y285.804 Z-4.000
G1 X378.226 Y285.749 Z-4.000
G1 X378.507 Y285.687 Z-4.000
G1 X378.790 Y285.618 Z-4.000
G1 X379.073 Y285.541 Z-4.000
G1 X379.357 Y285.456 Z-4.000
G1 X379.641 Y285.363 Z-4.000
G1 X379.926 Y285.263 Z-4.000
G1 X380.210 Y285.154 Z-4.000
G1 X380.494 Y285.037 Z-4.000
G1 X380.777 Y284.912 Z-4.000
G1 X381.059 Y284.779 Z-4.000
G1 X381.339 Y284.637 Z-4.000
G1 X381.617 Y284.487 Z-4.000
G1 X381.893 Y284.329 Z-4.000
G1 X382.167 Y284.162 Z-4.000
G1 X382.437 Y283.987 Z-4.000
G1 X382.705 Y283.804 Z-4.000
G1 X382.968 Y283.612 Z-4.000
G1 X383.228 Y283.413 Z-4.000
G1 X383.483 Y283.205 Z-4.000
G1 X383.734 Y282.990 Z-4.000
G1 X383.979 Y282.766 Z-4.000
G1 X384.219 Y282.536 Z-4.000
G1 X384.453 Y282.298 Z-4.000
G1 X384.681 Y282.053 Z-4.000
G1 X384.903 Y281.801 Z-4.000
G1 X385.118 Y281.542 Z-4.000
G1 X385.326 Y281.277 Z-4.000
G1 X385.527 Y281.006 Z-4.000
G1 X385.720 Y280.730 Z-4.000
G1 X385.905 Y280.448 Z-4.000
G1 X386.082 Y280.160 Z-4.000
G1 X386.252 Y279.868 Z-4.000
G1 X386.412 Y279.572 Z-4.000
G1 X386.564 Y279.272 Z-4.000
G1 X386.708 Y278.967 Z-4.000
G1 X386.843 Y278.660 Z-4.000
G1 X386.968 Y278.350 Z-4.000
G1 X387.085 Y278.037 Z-4.000
G1 X387.193 Y277.722 Z-4.000
G1 X387.291 Y277.405 Z-4.000
G1 X387.380 Y277.087 Z-4.000
G1 X387.461 Y276.768 Z-4.000
G1 X387.532 Y276.448 Z-4.000
G1 X387.594 Y276.129 Z-4.000
G1 X387.647 Y275.809 Z-4.000
G1 X387.692 Y275.490 Z-4.000
G1 X387.727 Y275.171 Z-4.000
G1 X387.754 Y274.854 Z-4.000
G1 X387.772 Y274.539 Z-4.000
G1 X387.782 Y274.225 Z-4.000
G1 X387.784 Y273.913 Z-4.000
G1 X387.778 Y273.604 Z-4.000
G1 X387.764 Y273.297 Z-4.000
G1 X387.742 Y272.994 Z-4.000
G1 X387.713 Y272.693 Z-4.000
G1 X387.677 Y272.396 Z-4.000
G1 X387.634 Y272.103 Z-4.000
G1 X387.584 Y271.814 Z-4.000
G1 X387.527 Y271.528 Z-4.000
G1 X387.464 Y271.247 Z-4.000
G1 X387.396 Y270.971 Z-4.000
G1 X387.321 Y270.698 Z-4.000
G1 X387.241 Y270.431 Z-4.000
G1 X387.156 Y270.168 Z-4.000
G1 X387.066 Y269.910 Z-4.000
G1 X386.971 Y269.657 Z-4.000
G1 X386.872 Y269.409 Z-4.000
G1 X386.768 Y269.166 Z-4.000
G1 X386.660 Y268.929 Z-4.000
G1 X383.450 Y262.044 Z-4.000
G1 X376.688 Y247.543 Z-4.000
G1 X366.376 Y225.428 Z-4.000
G1 X366.221 Y225.088 Z-4.000
G1 X366.073 Y224.743 Z-4.000
G1 X365.932 Y224.395 Z-4.000
G1 X365.798 Y224.042 Z-4.000
G1 X365.671 Y223.686 Z-4.000
G1 X365.552 Y223.327 Z-4.000
G1 X365.440 Y222.965 Z-4.000
G1 X365.335 Y222.599 Z-4.000
G1 X365.238 Y222.231 Z-4.000
G1 X365.148 Y221.861 Z-4.000
G1 X365.067 Y221.488 Z-4.000
G1 X364.993 Y221.114 Z-4.000
G1 X364.927 Y220.738 Z-4.000
G1 X364.869 Y220.360 Z-4.000
G1 X364.819 Y219.981 Z-4.000
G1 X364.777 Y219.601 Z-4.000
G1 X364.744 Y219.221 Z-4.000
G1 X364.718 Y218.840 Z-4.000
G1 X364.700 Y218.459 Z-4.000
G1 X364.691 Y218.078 Z-4.000
G1 X364.690 Y217.698 Z-4.000
G1 X364.696 Y217.318 Z-4.000
G1 X364.711 Y216.938 Z-4.000
G1 X364.733 Y216.560 Z-4.000
G1 X364.764 Y216.184 Z-4.000
G1 X364.802 Y215.809 Z-4.000
G1 X364.848 Y215.436 Z-4.000
G1 X364.901 Y215.064 Z-4.000
G1 X364.963 Y214.696 Z-4.000
G1 X371.704 Y176.463 Z-4.000
G1 X371.710 Y176.221 Z-4.000
G1 X371.682 Y175.602 Z-4.000
G1 X371.596 Y174.975 Z-4.000
G1 X371.456 Y174.366 Z-4.000
G1 X371.263 Y173.777 Z-4.000
G1 X371.022 Y173.213 Z-4.000
G1 X370.734 Y172.675 Z-4.000
G1 X370.403 Y172.168 Z-4.000
G1 X370.030 Y171.692 Z-4.000
G1 X369.618 Y171.251 Z-4.000
G1 X369.169 Y170.847 Z-4.000
G1 X368.686 Y170.481 Z-4.000
G1 X368.171 Y170.158 Z-4.000
G1 X367.627 Y169.879 Z-4.000
G1 X367.055 Y169.648 Z-4.000
G1 X366.459 Y169.466 Z-4.000
G1 X365.728 Y169.313 Z-4.000
G1 X361.950 Y169.318 Z-4.000
G1 X361.656 Y169.322 Z-4.000
G1 X361.360 Y169.333 Z-4.000
G1 X361.062 Y169.351 Z-4.000
G1 X360.764 Y169.377 Z-4.000
G1 X360.464 Y169.411 Z-4.000
G1 X360.163 Y169.452 Z-4.000
G1 X359.862 Y169.501 Z-4.000
G1 X359.561 Y169.559 Z-4.000
G1 X359.260 Y169.624 Z-4.000
G1 X358.959 Y169.697 Z-4.000
G1 X358.659 Y169.778 Z-4.000
G1 X358.361 Y169.868 Z-4.000
G1 X358.063 Y169.965 Z-4.000
G1 X357.767 Y170.071 Z-4.000
G1 X357.474 Y170.185 Z-4.000
G1 X357.183 Y170.306 Z-4.000
G1 X356.894 Y170.436 Z-4.000
G1 X356.609 Y170.573 Z-4.000
G1 X356.326 Y170.718 Z-4.000
G1 X356.048 Y170.870 Z-4.000
G1 X355.773 Y171.030 Z-4.000
G1 X355.503 Y171.198 Z-4.000
G1 X355.237 Y171.372 Z-4.000
G1 X354.976 Y171.553 Z-4.000
G1 X354.720 Y171.741 Z-4.000
G1 X354.469 Y171.936 Z-4.000
G1 X354.224 Y172.137 Z-4.000
G1 X353.985 Y172.343 Z-4.000
G1 X353.752 Y172.556 Z-4.000
G1 X353.525 Y172.774 Z-4.000
G1 X353.304 Y172.997 Z-4.000
G1 X353.090 Y173.226 Z-4.000
G1 X352.883 Y173.459 Z-4.000
G1 X352.682 Y173.696 Z-4.000
G1 X352.489 Y173.938 Z-4.000
G1 X352.303 Y174.183 Z-4.000
G1 X352.124 Y174.432 Z-4.000
G1 X351.952 Y174.684 Z-4.000
G1 X351.787 Y174.939 Z-4.000
G1 X351.630 Y175.196 Z-4.000
G1 X351.480 Y175.456 Z-4.000
G1 X351.338 Y175.718 Z-4.000
G1 X351.203 Y175.982 Z-4.000
G1 X351.075 Y176.247 Z-4.000
G1 X345.285 Y188.665 Z-4.000
G1 X338.523 Y203.166 Z-4.000
G1 X331.062 Y219.165 Z-4.000
G1 X329.336 Y219.165 Z-4.000
G1 X329.222 Y219.168 Z-4.000
G1 X329.105 Y219.178 Z-4.000
G1 X328.987 Y219.196 Z-4.000
G1 X328.868 Y219.221 Z-4.000
G1 X328.749 Y219.253 Z-4.000
G1 X328.630 Y219.294 Z-4.000
G1 X328.512 Y219.343 Z-4.000
G1 X328.396 Y219.400 Z-4.000
G1 X328.283 Y219.465 Z-4.000
G1 X328.174 Y219.537 Z-4.000
G1 X328.069 Y219.618 Z-4.000
G1 X327.970 Y219.705 Z-4.000
G1 X327.876 Y219.798 Z-4.000
G1 X327.789 Y219.898 Z-4.000
G1 X327.709 Y220.003 Z-4.000
G1 X327.636 Y220.112 Z-4.000
G1 X327.571 Y220.225 Z-4.000
G1 X327.514 Y220.341 Z-4.000
G1 X327.465 Y220.458 Z-4.000
G1 X327.425 Y220.577 Z-4.000
G1 X327.392 Y220.697 Z-4.000
G1 X327.367 Y220.816 Z-4.000
G1 X327.350 Y220.934 Z-4.000
G1 X327.340 Y221.051 Z-4.000
G1 X327.336 Y221.165 Z-4.000
G1 X327.337 Y230.127 Z-4.000
G1 X327.333 Y231.209 Z-4.000
G1 X327.276 Y232.243 Z-4.000
G1 X327.167 Y233.275 Z-4.000
G1 X327.002 Y234.314 Z-4.000
G1 X326.903 Y234.811 Z-4.000
G1 X326.789 Y235.319 Z-4.000
G1 X326.660 Y235.824 Z-4.000
G1 X326.519 Y236.326 Z-4.000
G1 X326.363 Y236.825 Z-4.000
G1 X326.195 Y237.321 Z-4.000
G1 X326.012 Y237.812 Z-4.000
G1 X325.816 Y238.300 Z-4.000
G1 X325.607 Y238.782 Z-4.000
G1 X325.383 Y239.261 Z-4.000
G1 X325.146 Y239.734 Z-4.000
G1 X324.896 Y240.202 Z-4.000
G1 X324.631 Y240.664 Z-4.000
G1 X324.353 Y241.121 Z-4.000
G1 X324.060 Y241.571 Z-4.000
G1 X323.754 Y242.015 Z-4.000
G1 X323.433 Y242.452 Z-4.000
G1 X323.098 Y242.882 Z-4.000
G1 X322.749 Y243.305 Z-4.000
G1 X322.386 Y243.721 Z-4.000
G1 X322.009 Y244.129 Z-4.000
G1 X321.616 Y244.529 Z-4.000
G1 X321.209 Y244.920 Z-4.000
G1 X320.789 Y245.302 Z-4.000
G1 X320.289 Y245.729 Z-4.000
G1 X319.776 Y246.139 Z-4.000
G1 X319.248 Y246.534 Z-4.000
G1 X318.705 Y246.913 Z-4.000
G1 X318.147 Y247.277 Z-4.000
G1 X317.575 Y247.626 Z-4.000
G1 X316.988 Y247.960 Z-4.000
G1 X316.333 Y248.307 Z-4.000
G1 X315.595 Y248.728 Z-4.000
G1 X314.890 Y249.105 Z-4.000
G1 X314.168 Y249.467 Z-4.000
G1 X313.428 Y249.814 Z-4.000
G1 X312.671 Y250.145 Z-4.000
G1 X311.898 Y250.461 Z-4.000
G1 X311.110 Y250.761 Z-4.000
G1 X310.307 Y251.045 Z-4.000
G1 X309.490 Y251.313 Z-4.000
G1 X308.660 Y251.565 Z-4.000
G1 X307.817 Y251.800 Z-4.000
G1 X306.962 Y252.019 Z-4.000
G1 X306.097 Y252.221 Z-4.000
G1 X305.221 Y252.407 Z-4.000
G1 X304.335 Y252.576 Z-4.000
G1 X303.383 Y252.737 Z-4.000
G1 X263.130 Y261.140 Z-4.000
G1 X247.468 Y264.409 Z-4.000
G1 X214.106 Y271.373 Z-4.000
G1 X213.367 Y271.672 Z-4.000
G1 X212.775 Y271.953 Z-4.000
G1 X212.215 Y272.262 Z-4.000
G1 X211.688 Y272.601 Z-4.000
G1 X211.195 Y272.969 Z-4.000
G1 X211.195 Y272.969 Z-5.000 F635.0
G1 X210.738 Y273.365 Z-5.000 F180.0
G1 X210.318 Y273.790 Z-5.000
G1 X209.938 Y274.242 Z-5.000
G1 X209.600 Y274.719 Z-5.000
G1 X209.305 Y275.218 Z-5.000
G1 X209.056 Y275.738 Z-5.000
G1 X208.852 Y276.273 Z-5.000
G1 X208.696 Y276.822 Z-5.000
G1 X208.585 Y277.379 Z-5.000
G1 X208.520 Y277.942 Z-5.000
G1 X208.498 Y278.518 Z-5.000
G1 X208.530 Y279.210 Z-5.000
G1 X208.626 Y279.896 Z-5.000
G1 X208.783 Y280.561 Z-5.000
G1 X208.997 Y281.202 Z-5.000
G1 X209.266 Y281.816 Z-5.000
G1 X209.586 Y282.399 Z-5.000
G1 X209.955 Y282.949 Z-5.000
G1 X210.369 Y283.462 Z-5.000
G1 X210.826 Y283.937 Z-5.000
G1 X211.323 Y284.370 Z-5.000
G1 X211.858 Y284.758 Z-5.000
G1 X212.427 Y285.100 Z-5.000
G1 X213.028 Y285.391 Z-5.000
G1 X213.658 Y285.629 Z-5.000
G1 X214.314 Y285.810 Z-5.000
G1 X215.091 Y285.950 Z-5.000
G1 X227.689 Y285.759 Z-5.000
G1 X277.250 Y281.350 Z-5.000
G1 X293.187 Y279.933 Z-5.000
G1 X309.602 Y278.472 Z-5.000
G1 X371.360 Y286.000 Z-5.000
G1 X375.784 Y286.000 Z-5.000
G1 X376.045 Y285.997 Z-5.000
G1 X376.309 Y285.989 Z-5.000
G1 X376.576 Y285.974 Z-5.000
G1 X376.846 Y285.953 Z-5.000
G1 X377.117 Y285.926 Z-5.000
G1 X377.392 Y285.892 Z-5.000
G1 X377.668 Y285.851 Z-5.000
G1 X377.946 Y285.804 Z-5.000
G1 X378.226 Y285.749 Z-5.000
G1 X378.507 Y285.687 Z-5.000
G1 X378.790 Y285.618 Z-5.000
G1 X379.073 Y285.541 Z-5.000
G1 X379.357 Y285.456 Z-5.000
G1 X379.641 Y285.363 Z-5.000
G1 X379.926 Y285.263 Z-5.000
G1 X380.210 Y285.154 Z-5.000
G1 X380.494 Y285.037 Z-5.000
G1 X380.777 Y284.912 Z-5.000
G1 X381.059 Y284.779 Z-5.000
G1 X381.339 Y284.637 Z-5.000
G1 X381.617 Y284.487 Z-5.000
G1 X381.893 Y284.329 Z-5.000
G1 X382.167 Y284.162 Z-5.000
G1 X382.437 Y283.987 Z-5.000
G1 X382.705 Y283.804 Z-5.000
G1 X382.968 Y283.612 Z-5.000
G1 X383.228 Y283.413 Z-5.000
G1 X383.483 Y283.205 Z-5.000
G1 X383.734 Y282.990 Z-5.000
G1 X383.979 Y282.766 Z-5.000
G1 X384.219 Y282.536 Z-5.000
G1 X384.453 Y282.298 Z-5.000
G1 X384.681 Y282.053 Z-5.000
G1 X384.903 Y281.801 Z-5.000
G1 X385.118 Y281.542 Z-5.000
G1 X385.326 Y281.277 Z-5.000
G1 X385.527 Y281.006 Z-5.000
G1 X385.720 Y280.730 Z-5.000
G1 X385.905 Y280.448 Z-5.000
G1 X386.082 Y280.160 Z-5.000
G1 X386.252 Y279.868 Z-5.000
G1 X386.412 Y279.572 Z-5.000
G1 X386.564 Y279.272 Z-5.000
G1 X386.708 Y278.967 Z-5.000
G1 X386.843 Y278.660 Z-5.000
G1 X386.968 Y278.350 Z-5.000
G1 X387.085 Y278.037 Z-5.000
G1 X387.193 Y277.722 Z-5.000
G1 X387.291 Y277.405 Z-5.000
G1 X387.380 Y277.087 Z-5.000
G1 X387.461 Y276.768 Z-5.000
G1 X387.532 Y276.448 Z-5.000
G1 X387.594 Y276.129 Z-5.000
G1 X387.647 Y275.809 Z-5.000
G1 X387.692 Y275.490 Z-5.000
G1 X387.727 Y275.171 Z-5.000
G1 X387.754 Y274.854 Z-5.000
G1 X387.772 Y274.539 Z-5.000
G1 X387.782 Y274.225 Z-5.000
G1 X387.784 Y273.913 Z-5.000
G1 X387.778 Y273.604 Z-5.000
G1 X387.764 Y273.297 Z-5.000
G1 X387.742 Y272.994 Z-5.000
G1 X387.713 Y272.693 Z-5.000
G1 X387.677 Y272.396 Z-5.000
G1 X387.634 Y272.103 Z-5.000
G1 X387.584 Y271.814 Z-5.000
G1 X387.527 Y271.528 Z-5.000
G1 X387.464 Y271.247 Z-5.000
G1 X387.396 Y270.971 Z-5.000
G1 X387.321 Y270.698 Z-5.000
G1 X387.241 Y270.431 Z-5.000
G1 X387.156 Y270.168 Z-5.000
G1 X387.066 Y269.910 Z-5.000
G1 X386.971 Y269.657 Z-5.000
G1 X386.872 Y269.409 Z-5.000
G1 X386.768 Y269.166 Z-5.000
G1 X386.660 Y268.929 Z-5.000
G1 X383.450 Y262.044 Z-5.000
G1 X376.688 Y247.543 Z-5.000
G1 X366.376 Y225.428 Z-5.000
G1 X366.221 Y225.088 Z-5.000
G1 X366.073 Y224.743 Z-5.000
G1 X365.932 Y224.395 Z-5.000
G1 X365.798 Y224.042 Z-5.000
G1 X365.671 Y223.686 Z-5.000
G1 X365.552 Y223.327 Z-5.000
G1 X365.440 Y222.965 Z-5.000
G1 X365.335 Y222.599 Z-5.000
G1 X365.238 Y222.231 Z-5.000
G1 X365.148 Y221.861 Z-5.000
G1 X365.067 Y221.488 Z-5.000
G1 X364.993 Y221.114 Z-5.000
G1 X364.927 Y220.738 Z-5.000
G1 X364.869 Y220.360 Z-5.000
G1 X364.819 Y219.981 Z-5.000
G1 X364.777 Y219.601 Z-5.000
G1 X364.744 Y219.221 Z-5.000
G1 X364.718 Y218.840 Z-5.000
G1 X364.700 Y218.459 Z-5.000
G1 X364.691 Y218.078 Z-5.000
G1 X364.690 Y217.698 Z-5.000
G1 X364.696 Y217.318 Z-5.000
G1 X364.711 Y216.938 Z-5.000
G1 X364.733 Y216.560 Z-5.000
G1 X364.764 Y216.184 Z-5.000
G1 X364.802 Y215.809 Z-5.000
G1 X364.848 Y215.436 Z-5.000
G1 X364.901 Y215.064 Z-5.000
G1 X364.963 Y214.696 Z-5.000
G1 X371.704 Y176.463 Z-5.000
G1 X371.710 Y176.221 Z-5.000
G1 X371.682 Y175.602 Z-5.000
G1 X371.596 Y174.975 Z-5.000
G1 X371.456 Y174.366 Z-5.000
G1 X371.263 Y173.777 Z-5.000
G1 X371.022 Y173.213 Z-5.000
G1 X370.734 Y172.675 Z-5.000
G1 X370.403 Y172.168 Z-5.000
G1 X370.030 Y171.692 Z-5.000
G1 X369.618 Y171.251 Z-5.000
G1 X369.169 Y170.847 Z-5.000
G1 X368.686 Y170.481 Z-5.000
G1 X368.171 Y170.158 Z-5.000
G1 X367.627 Y169.879 Z-5.000
G1 X367.055 Y169.648 Z-5.000
G1 X366.459 Y169.466 Z-5.000
G1 X365.728 Y169.313 Z-5.000
G1 X361.950 Y169.318 Z-5.000
G1 X361.656 Y169.322 Z-5.000
G1 X361.360 Y169.333 Z-5.000
G1 X361.062 Y169.351 Z-5.000
G1 X360.764 Y169.377 Z-5.000
G1 X360.464 Y169.411 Z-5.000
G1 X360.163 Y169.452 Z-5.000
G1 X359.862 Y169.501 Z-5.000
G1 X359.561 Y169.559 Z-5.000
G1 X359.260 Y169.624 Z-5.000
G1 X358.959 Y169.697 Z-5.000
G1 X358.659 Y169.778 Z-5.000
G1 X358.361 Y169.868 Z-5.000
G1 X358.063 Y169.965 Z-5.000
G1 X357.767 Y170.071 Z-5.000
