(VECTRIC POST REVISION)
(AE8C5706166A14C0DE23454C54EBD95B)
%
G21
G40
G94
G97
G64
G90
T3 M6
M8
M3 S17000
G0 X385.104 Y141.035
G0 Z6.000
G1 X385.104 Y141.035 Z-0.750 F254.0
G1 X385.047 Y141.031 Z-0.750 F177.8
G1 X384.989 Y141.017 Z-0.750
G1 X384.931 Y140.994 Z-0.750
G1 X384.876 Y140.962 Z-0.750
G1 X384.827 Y140.920 Z-0.750
G1 X384.785 Y140.870 Z-0.750
G1 X384.752 Y140.815 Z-0.750
G1 X384.729 Y140.758 Z-0.750
G1 X384.716 Y140.699 Z-0.750
G1 X384.712 Y140.642 Z-0.750
G1 X384.716 Y140.585 Z-0.750
G1 X384.729 Y140.527 Z-0.750
G1 X384.752 Y140.469 Z-0.750
G1 X384.785 Y140.414 Z-0.750
G1 X384.827 Y140.365 Z-0.750
G1 X384.876 Y140.323 Z-0.750
G1 X384.931 Y140.290 Z-0.750
G1 X384.989 Y140.267 Z-0.750
G1 X385.047 Y140.254 Z-0.750
G1 X385.104 Y140.250 Z-0.750
G1 X385.161 Y140.254 Z-0.750
G1 X385.219 Y140.267 Z-0.750
G1 X385.277 Y140.290 Z-0.750
G1 X385.332 Y140.323 Z-0.750
G1 X385.382 Y140.365 Z-0.750
G1 X385.424 Y140.414 Z-0.750
G1 X385.456 Y140.469 Z-0.750
G1 X385.479 Y140.527 Z-0.750
G1 X385.492 Y140.585 Z-0.750
G1 X385.497 Y140.642 Z-0.750
G1 X385.492 Y140.699 Z-0.750
G1 X385.479 Y140.758 Z-0.750
G1 X385.456 Y140.815 Z-0.750
G1 X385.424 Y140.870 Z-0.750
G1 X385.382 Y140.920 Z-0.750
G1 X385.332 Y140.962 Z-0.750
G1 X385.277 Y140.994 Z-0.750
G1 X385.219 Y141.017 Z-0.750
G1 X385.161 Y141.031 Z-0.750
G1 X385.104 Y141.035 Z-0.750
G1 X385.104 Y142.305 Z-0.750
G1 X384.863 Y142.287 Z-0.750
G1 X384.616 Y142.231 Z-0.750
G1 X384.371 Y142.134 Z-0.750
G1 X384.138 Y141.995 Z-0.750
G1 X383.929 Y141.818 Z-0.750
G1 X383.751 Y141.608 Z-0.750
G1 X383.612 Y141.376 Z-0.750
G1 X383.515 Y141.131 Z-0.750
G1 X383.459 Y140.883 Z-0.750
G1 X383.442 Y140.642 Z-0.750
G1 X383.459 Y140.401 Z-0.750
G1 X383.515 Y140.154 Z-0.750
G1 X383.612 Y139.909 Z-0.750
G1 X383.751 Y139.676 Z-0.750
G1 X383.929 Y139.467 Z-0.750
G1 X384.138 Y139.289 Z-0.750
G1 X384.371 Y139.150 Z-0.750
G1 X384.616 Y139.053 Z-0.750
G1 X384.863 Y138.997 Z-0.750
G1 X385.104 Y138.980 Z-0.750
G1 X385.345 Y138.997 Z-0.750
G1 X385.593 Y139.053 Z-0.750
G1 X385.838 Y139.150 Z-0.750
G1 X386.070 Y139.289 Z-0.750
G1 X386.280 Y139.467 Z-0.750
G1 X386.457 Y139.676 Z-0.750
G1 X386.596 Y139.909 Z-0.750
G1 X386.693 Y140.154 Z-0.750
G1 X386.749 Y140.401 Z-0.750
G1 X386.767 Y140.642 Z-0.750
G1 X386.749 Y140.883 Z-0.750
G1 X386.693 Y141.131 Z-0.750
G1 X386.596 Y141.376 Z-0.750
G1 X386.457 Y141.608 Z-0.750
G1 X386.280 Y141.818 Z-0.750
G1 X386.070 Y141.995 Z-0.750
G1 X385.838 Y142.134 Z-0.750
G1 X385.593 Y142.231 Z-0.750
G1 X385.345 Y142.287 Z-0.750
G1 X385.104 Y142.305 Z-0.750
G0 X385.104 Y142.305
G0 Z6.000
G0 X385.104 Y141.035
G0 Z6.000
G1 X385.104 Y141.035 Z-1.500 F254.0
G1 X385.047 Y141.031 Z-1.500 F177.8
G1 X384.989 Y141.017 Z-1.500
G1 X384.931 Y140.994 Z-1.500
G1 X384.876 Y140.962 Z-1.500
G1 X384.827 Y140.920 Z-1.500
G1 X384.785 Y140.870 Z-1.500
G1 X384.752 Y140.815 Z-1.500
G1 X384.729 Y140.758 Z-1.500
G1 X384.716 Y140.699 Z-1.500
G1 X384.712 Y140.642 Z-1.500
G1 X384.716 Y140.585 Z-1.500
G1 X384.729 Y140.527 Z-1.500
G1 X384.752 Y140.469 Z-1.500
G1 X384.785 Y140.414 Z-1.500
G1 X384.827 Y140.365 Z-1.500
G1 X384.876 Y140.323 Z-1.500
G1 X384.931 Y140.290 Z-1.500
G1 X384.989 Y140.267 Z-1.500
G1 X385.047 Y140.254 Z-1.500
G1 X385.104 Y140.250 Z-1.500
G1 X385.161 Y140.254 Z-1.500
G1 X385.219 Y140.267 Z-1.500
G1 X385.277 Y140.290 Z-1.500
G1 X385.332 Y140.323 Z-1.500
G1 X385.382 Y140.365 Z-1.500
G1 X385.424 Y140.414 Z-1.500
G1 X385.456 Y140.469 Z-1.500
G1 X385.479 Y140.527 Z-1.500
G1 X385.492 Y140.585 Z-1.500
G1 X385.497 Y140.642 Z-1.500
G1 X385.492 Y140.699 Z-1.500
G1 X385.479 Y140.758 Z-1.500
G1 X385.456 Y140.815 Z-1.500
G1 X385.424 Y140.870 Z-1.500
G1 X385.382 Y140.920 Z-1.500
G1 X385.332 Y140.962 Z-1.500
G1 X385.277 Y140.994 Z-1.500
G1 X385.219 Y141.017 Z-1.500
G1 X385.161 Y141.031 Z-1.500
G1 X385.104 Y141.035 Z-1.500
G1 X385.104 Y142.305 Z-1.500
G1 X384.863 Y142.287 Z-1.500
G1 X384.616 Y142.231 Z-1.500
G1 X384.371 Y142.134 Z-1.500
G1 X384.138 Y141.995 Z-1.500
G1 X383.929 Y141.818 Z-1.500
G1 X383.751 Y141.608 Z-1.500
G1 X383.612 Y141.376 Z-1.500
G1 X383.515 Y141.131 Z-1.500
G1 X383.459 Y140.883 Z-1.500
G1 X383.442 Y140.642 Z-1.500
G1 X383.459 Y140.401 Z-1.500
G1 X383.515 Y140.154 Z-1.500
G1 X383.612 Y139.909 Z-1.500
G1 X383.751 Y139.676 Z-1.500
G1 X383.929 Y139.467 Z-1.500
G1 X384.138 Y139.289 Z-1.500
G1 X384.371 Y139.150 Z-1.500
G1 X384.616 Y139.053 Z-1.500
G1 X384.863 Y138.997 Z-1.500
G1 X385.104 Y138.980 Z-1.500
G1 X385.345 Y138.997 Z-1.500
G1 X385.593 Y139.053 Z-1.500
G1 X385.838 Y139.150 Z-1.500
G1 X386.070 Y139.289 Z-1.500
G1 X386.280 Y139.467 Z-1.500
G1 X386.457 Y139.676 Z-1.500
G1 X386.596 Y139.909 Z-1.500
G1 X386.693 Y140.154 Z-1.500
G1 X386.749 Y140.401 Z-1.500
G1 X386.767 Y140.642 Z-1.500
G1 X386.749 Y140.883 Z-1.500
G1 X386.693 Y141.131 Z-1.500
G1 X386.596 Y141.376 Z-1.500
G1 X386.457 Y141.608 Z-1.500
G1 X386.280 Y141.818 Z-1.500
G1 X386.070 Y141.995 Z-1.500
G1 X385.838 Y142.134 Z-1.500
G1 X385.593 Y142.231 Z-1.500
G1 X385.345 Y142.287 Z-1.500
G1 X385.104 Y142.305 Z-1.500
G0 X385.104 Y142.305
G0 Z6.000
G0 X385.104 Y141.035
G0 Z6.000
G1 X385.104 Y141.035 Z-2.250 F254.0
G1 X385.047 Y141.031 Z-2.250 F177.8
G1 X384.989 Y141.017 Z-2.250
G1 X384.931 Y140.994 Z-2.250
G1 X384.876 Y140.962 Z-2.250
G1 X384.827 Y140.920 Z-2.250
G1 X384.785 Y140.870 Z-2.250
G1 X384.752 Y140.815 Z-2.250
G1 X384.729 Y140.758 Z-2.250
G1 X384.716 Y140.699 Z-2.250
G1 X384.712 Y140.642 Z-2.250
G1 X384.716 Y140.585 Z-2.250
G1 X384.729 Y140.527 Z-2.250
G1 X384.752 Y140.469 Z-2.250
G1 X384.785 Y140.414 Z-2.250
G1 X384.827 Y140.365 Z-2.250
G1 X384.876 Y140.323 Z-2.250
G1 X384.931 Y140.290 Z-2.250
G1 X384.989 Y140.267 Z-2.250
G1 X385.047 Y140.254 Z-2.250
G1 X385.104 Y140.250 Z-2.250
G1 X385.161 Y140.254 Z-2.250
G1 X385.219 Y140.267 Z-2.250
G1 X385.277 Y140.290 Z-2.250
G1 X385.332 Y140.323 Z-2.250
G1 X385.382 Y140.365 Z-2.250
G1 X385.424 Y140.414 Z-2.250
G1 X385.456 Y140.469 Z-2.250
G1 X385.479 Y140.527 Z-2.250
G1 X385.492 Y140.585 Z-2.250
G1 X385.497 Y140.642 Z-2.250
G1 X385.492 Y140.699 Z-2.250
G1 X385.479 Y140.758 Z-2.250
G1 X385.456 Y140.815 Z-2.250
G1 X385.424 Y140.870 Z-2.250
G1 X385.382 Y140.920 Z-2.250
G1 X385.332 Y140.962 Z-2.250
G1 X385.277 Y140.994 Z-2.250
G1 X385.219 Y141.017 Z-2.250
G1 X385.161 Y141.031 Z-2.250
G1 X385.104 Y141.035 Z-2.250
G1 X385.104 Y142.305 Z-2.250
G1 X384.863 Y142.287 Z-2.250
G1 X384.616 Y142.231 Z-2.250
G1 X384.371 Y142.134 Z-2.250
G1 X384.138 Y141.995 Z-2.250
G1 X383.929 Y141.818 Z-2.250
G1 X383.751 Y141.608 Z-2.250
G1 X383.612 Y141.376 Z-2.250
G1 X383.515 Y141.131 Z-2.250
G1 X383.459 Y140.883 Z-2.250
G1 X383.442 Y140.642 Z-2.250
G1 X383.459 Y140.401 Z-2.250
G1 X383.515 Y140.154 Z-2.250
G1 X383.612 Y139.909 Z-2.250
G1 X383.751 Y139.676 Z-2.250
G1 X383.929 Y139.467 Z-2.250
G1 X384.138 Y139.289 Z-2.250
G1 X384.371 Y139.150 Z-2.250
G1 X384.616 Y139.053 Z-2.250
G1 X384.863 Y138.997 Z-2.250
G1 X385.104 Y138.980 Z-2.250
G1 X385.345 Y138.997 Z-2.250
G1 X385.593 Y139.053 Z-2.250
G1 X385.838 Y139.150 Z-2.250
G1 X386.070 Y139.289 Z-2.250
G1 X386.280 Y139.467 Z-2.250
G1 X386.457 Y139.676 Z-2.250
G1 X386.596 Y139.909 Z-2.250
G1 X386.693 Y140.154 Z-2.250
G1 X386.749 Y140.401 Z-2.250
G1 X386.767 Y140.642 Z-2.250
G1 X386.749 Y140.883 Z-2.250
G1 X386.693 Y141.131 Z-2.250
G1 X386.596 Y141.376 Z-2.250
G1 X386.457 Y141.608 Z-2.250
G1 X386.280 Y141.818 Z-2.250
G1 X386.070 Y141.995 Z-2.250
G1 X385.838 Y142.134 Z-2.250
G1 X385.593 Y142.231 Z-2.250
G1 X385.345 Y142.287 Z-2.250
G1 X385.104 Y142.305 Z-2.250
G0 X385.104 Y142.305
G0 Z6.000
G0 X385.104 Y141.035
G0 Z6.000
G1 X385.104 Y141.035 Z-3.000 F254.0
G1 X385.047 Y141.031 Z-3.000 F177.8
G1 X384.989 Y141.017 Z-3.000
G1 X384.931 Y140.994 Z-3.000
G1 X384.876 Y140.962 Z-3.000
G1 X384.827 Y140.920 Z-3.000
G1 X384.785 Y140.870 Z-3.000
G1 X384.752 Y140.815 Z-3.000
G1 X384.729 Y140.758 Z-3.000
G1 X384.716 Y140.699 Z-3.000
G1 X384.712 Y140.642 Z-3.000
G1 X384.716 Y140.585 Z-3.000
G1 X384.729 Y140.527 Z-3.000
G1 X384.752 Y140.469 Z-3.000
G1 X384.785 Y140.414 Z-3.000
G1 X384.827 Y140.365 Z-3.000
G1 X384.876 Y140.323 Z-3.000
G1 X384.931 Y140.290 Z-3.000
G1 X384.989 Y140.267 Z-3.000
G1 X385.047 Y140.254 Z-3.000
G1 X385.104 Y140.250 Z-3.000
G1 X385.161 Y140.254 Z-3.000
G1 X385.219 Y140.267 Z-3.000
G1 X385.277 Y140.290 Z-3.000
G1 X385.332 Y140.323 Z-3.000
G1 X385.382 Y140.365 Z-3.000
G1 X385.424 Y140.414 Z-3.000
G1 X385.456 Y140.469 Z-3.000
G1 X385.479 Y140.527 Z-3.000
G1 X385.492 Y140.585 Z-3.000
G1 X385.497 Y140.642 Z-3.000
G1 X385.492 Y140.699 Z-3.000
G1 X385.479 Y140.758 Z-3.000
G1 X385.456 Y140.815 Z-3.000
G1 X385.424 Y140.870 Z-3.000
G1 X385.382 Y140.920 Z-3.000
G1 X385.332 Y140.962 Z-3.000
G1 X385.277 Y140.994 Z-3.000
G1 X385.219 Y141.017 Z-3.000
G1 X385.161 Y141.031 Z-3.000
G1 X385.104 Y141.035 Z-3.000
G1 X385.104 Y142.305 Z-3.000
G1 X384.863 Y142.287 Z-3.000
G1 X384.616 Y142.231 Z-3.000
G1 X384.371 Y142.134 Z-3.000
G1 X384.138 Y141.995 Z-3.000
G1 X383.929 Y141.818 Z-3.000
G1 X383.751 Y141.608 Z-3.000
G1 X383.612 Y141.376 Z-3.000
G1 X383.515 Y141.131 Z-3.000
G1 X383.459 Y140.883 Z-3.000
G1 X383.442 Y140.642 Z-3.000
G1 X383.459 Y140.401 Z-3.000
G1 X383.515 Y140.154 Z-3.000
G1 X383.612 Y139.909 Z-3.000
G1 X383.751 Y139.676 Z-3.000
G1 X383.929 Y139.467 Z-3.000
G1 X384.138 Y139.289 Z-3.000
G1 X384.371 Y139.150 Z-3.000
G1 X384.616 Y139.053 Z-3.000
G1 X384.863 Y138.997 Z-3.000
G1 X385.104 Y138.980 Z-3.000
G1 X385.345 Y138.997 Z-3.000
G1 X385.593 Y139.053 Z-3.000
G1 X385.838 Y139.150 Z-3.000
G1 X386.070 Y139.289 Z-3.000
G1 X386.280 Y139.467 Z-3.000
G1 X386.457 Y139.676 Z-3.000
G1 X386.596 Y139.909 Z-3.000
G1 X386.693 Y140.154 Z-3.000
G1 X386.749 Y140.401 Z-3.000
G1 X386.767 Y140.642 Z-3.000
G1 X386.749 Y140.883 Z-3.000
G1 X386.693 Y141.131 Z-3.000
G1 X386.596 Y141.376 Z-3.000
G1 X386.457 Y141.608 Z-3.000
G1 X386.280 Y141.818 Z-3.000
G1 X386.070 Y141.995 Z-3.000
G1 X385.838 Y142.134 Z-3.000
G1 X385.593 Y142.231 Z-3.000
G1 X385.345 Y142.287 Z-3.000
G1 X385.104 Y142.305 Z-3.000
G0 X385.104 Y142.305
G0 Z6.000
G0 X385.104 Y141.035
G0 Z6.000
G1 X385.104 Y141.035 Z-3.750 F254.0
G1 X385.047 Y141.031 Z-3.750 F177.8
G1 X384.989 Y141.017 Z-3.750
G1 X384.931 Y140.994 Z-3.750
G1 X384.876 Y140.962 Z-3.750
G1 X384.827 Y140.920 Z-3.750
G1 X384.785 Y140.870 Z-3.750
G1 X384.752 Y140.815 Z-3.750
G1 X384.729 Y140.758 Z-3.750
G1 X384.716 Y140.699 Z-3.750
G1 X384.712 Y140.642 Z-3.750
G1 X384.716 Y140.585 Z-3.750
G1 X384.729 Y140.527 Z-3.750
G1 X384.752 Y140.469 Z-3.750
G1 X384.785 Y140.414 Z-3.750
G1 X384.827 Y140.365 Z-3.750
G1 X384.876 Y140.323 Z-3.750
G1 X384.931 Y140.290 Z-3.750
G1 X384.989 Y140.267 Z-3.750
G1 X385.047 Y140.254 Z-3.750
G1 X385.104 Y140.250 Z-3.750
G1 X385.161 Y140.254 Z-3.750
G1 X385.219 Y140.267 Z-3.750
G1 X385.277 Y140.290 Z-3.750
G1 X385.332 Y140.323 Z-3.750
G1 X385.382 Y140.365 Z-3.750
G1 X385.424 Y140.414 Z-3.750
G1 X385.456 Y140.469 Z-3.750
G1 X385.479 Y140.527 Z-3.750
G1 X385.492 Y140.585 Z-3.750
G1 X385.497 Y140.642 Z-3.750
G1 X385.492 Y140.699 Z-3.750
G1 X385.479 Y140.758 Z-3.750
G1 X385.456 Y140.815 Z-3.750
G1 X385.424 Y140.870 Z-3.750
G1 X385.382 Y140.920 Z-3.750
G1 X385.332 Y140.962 Z-3.750
G1 X385.277 Y140.994 Z-3.750
G1 X385.219 Y141.017 Z-3.750
G1 X385.161 Y141.031 Z-3.750
G1 X385.104 Y141.035 Z-3.750
G1 X385.104 Y142.305 Z-3.750
G1 X384.863 Y142.287 Z-3.750
G1 X384.616 Y142.231 Z-3.750
G1 X384.371 Y142.134 Z-3.750
G1 X384.138 Y141.995 Z-3.750
G1 X383.929 Y141.818 Z-3.750
G1 X383.751 Y141.608 Z-3.750
G1 X383.612 Y141.376 Z-3.750
G1 X383.515 Y141.131 Z-3.750
G1 X383.459 Y140.883 Z-3.750
G1 X383.442 Y140.642 Z-3.750
G1 X383.459 Y140.401 Z-3.750
G1 X383.515 Y140.154 Z-3.750
G1 X383.612 Y139.909 Z-3.750
G1 X383.751 Y139.676 Z-3.750
G1 X383.929 Y139.467 Z-3.750
G1 X384.138 Y139.289 Z-3.750
G1 X384.371 Y139.150 Z-3.750
G1 X384.616 Y139.053 Z-3.750
G1 X384.863 Y138.997 Z-3.750
G1 X385.104 Y138.980 Z-3.750
G1 X385.345 Y138.997 Z-3.750
G1 X385.593 Y139.053 Z-3.750
G1 X385.838 Y139.150 Z-3.750
G1 X386.070 Y139.289 Z-3.750
G1 X386.280 Y139.467 Z-3.750
G1 X386.457 Y139.676 Z-3.750
G1 X386.596 Y139.909 Z-3.750
G1 X386.693 Y140.154 Z-3.750
G1 X386.749 Y140.401 Z-3.750
G1 X386.767 Y140.642 Z-3.750
G1 X386.749 Y140.883 Z-3.750
G1 X386.693 Y141.131 Z-3.750
G1 X386.596 Y141.376 Z-3.750
G1 X386.457 Y141.608 Z-3.750
G1 X386.280 Y141.818 Z-3.750
G1 X386.070 Y141.995 Z-3.750
G1 X385.838 Y142.134 Z-3.750
G1 X385.593 Y142.231 Z-3.750
G1 X385.345 Y142.287 Z-3.750
G1 X385.104 Y142.305 Z-3.750
G0 X385.104 Y142.305
G0 Z6.000
G0 X385.104 Y141.035
G0 Z6.000
G1 X385.104 Y141.035 Z-4.500 F254.0
G1 X385.047 Y141.031 Z-4.500 F177.8
G1 X384.989 Y141.017 Z-4.500
G1 X384.931 Y140.994 Z-4.500
G1 X384.876 Y140.962 Z-4.500
G1 X384.827 Y140.920 Z-4.500
G1 X384.785 Y140.870 Z-4.500
G1 X384.752 Y140.815 Z-4.500
G1 X384.729 Y140.758 Z-4.500
G1 X384.716 Y140.699 Z-4.500
G1 X384.712 Y140.642 Z-4.500
G1 X384.716 Y140.585 Z-4.500
G1 X384.729 Y140.527 Z-4.500
G1 X384.752 Y140.469 Z-4.500
G1 X384.785 Y140.414 Z-4.500
G1 X384.827 Y140.365 Z-4.500
G1 X384.876 Y140.323 Z-4.500
G1 X384.931 Y140.290 Z-4.500
G1 X384.989 Y140.267 Z-4.500
G1 X385.047 Y140.254 Z-4.500
G1 X385.104 Y140.250 Z-4.500
G1 X385.161 Y140.254 Z-4.500
G1 X385.219 Y140.267 Z-4.500
G1 X385.277 Y140.290 Z-4.500
G1 X385.332 Y140.323 Z-4.500
G1 X385.382 Y140.365 Z-4.500
G1 X385.424 Y140.414 Z-4.500
G1 X385.456 Y140.469 Z-4.500
G1 X385.479 Y140.527 Z-4.500
G1 X385.492 Y140.585 Z-4.500
G1 X385.497 Y140.642 Z-4.500
G1 X385.492 Y140.699 Z-4.500
G1 X385.479 Y140.758 Z-4.500
G1 X385.456 Y140.815 Z-4.500
G1 X385.424 Y140.870 Z-4.500
G1 X385.382 Y140.920 Z-4.500
G1 X385.332 Y140.962 Z-4.500
G1 X385.277 Y140.994 Z-4.500
G1 X385.219 Y141.017 Z-4.500
G1 X385.161 Y141.031 Z-4.500
G1 X385.104 Y141.035 Z-4.500
G1 X385.104 Y142.305 Z-4.500
G1 X384.863 Y142.287 Z-4.500
G1 X384.616 Y142.231 Z-4.500
G1 X384.371 Y142.134 Z-4.500
G1 X384.138 Y141.995 Z-4.500
G1 X383.929 Y141.818 Z-4.500
G1 X383.751 Y141.608 Z-4.500
G1 X383.612 Y141.376 Z-4.500
G1 X383.515 Y141.131 Z-4.500
G1 X383.459 Y140.883 Z-4.500
G1 X383.442 Y140.642 Z-4.500
G1 X383.459 Y140.401 Z-4.500
G1 X383.515 Y140.154 Z-4.500
G1 X383.612 Y139.909 Z-4.500
G1 X383.751 Y139.676 Z-4.500
G1 X383.929 Y139.467 Z-4.500
G1 X384.138 Y139.289 Z-4.500
G1 X384.371 Y139.150 Z-4.500
G1 X384.616 Y139.053 Z-4.500
G1 X384.863 Y138.997 Z-4.500
G1 X385.104 Y138.980 Z-4.500
G1 X385.345 Y138.997 Z-4.500
G1 X385.593 Y139.053 Z-4.500
G1 X385.838 Y139.150 Z-4.500
G1 X386.070 Y139.289 Z-4.500
G1 X386.280 Y139.467 Z-4.500
G1 X386.457 Y139.676 Z-4.500
G1 X386.596 Y139.909 Z-4.500
G1 X386.693 Y140.154 Z-4.500
G1 X386.749 Y140.401 Z-4.500
G1 X386.767 Y140.642 Z-4.500
G1 X386.749 Y140.883 Z-4.500
G1 X386.693 Y141.131 Z-4.500
G1 X386.596 Y141.376 Z-4.500
G1 X386.457 Y141.608 Z-4.500
G1 X386.280 Y141.818 Z-4.500
G1 X386.070 Y141.995 Z-4.500
G1 X385.838 Y142.134 Z-4.500
G1 X385.593 Y142.231 Z-4.500
G1 X385.345 Y142.287 Z-4.500
G1 X385.104 Y142.305 Z-4.500
G0 X385.104 Y142.305
G0 Z6.000
G0 X385.104 Y141.035
G0 Z6.000
G1 X385.104 Y141.035 Z-5.250 F254.0
G1 X385.047 Y141.031 Z-5.250 F177.8
G1 X384.989 Y141.017 Z-5.250
G1 X384.931 Y140.994 Z-5.250
G1 X384.876 Y140.962 Z-5.250
G1 X384.827 Y140.920 Z-5.250
G1 X384.785 Y140.870 Z-5.250
G1 X384.752 Y140.815 Z-5.250
G1 X384.729 Y140.758 Z-5.250
G1 X384.716 Y140.699 Z-5.250
G1 X384.712 Y140.642 Z-5.250
G1 X384.716 Y140.585 Z-5.250
G1 X384.729 Y140.527 Z-5.250
G1 X384.752 Y140.469 Z-5.250
G1 X384.785 Y140.414 Z-5.250
G1 X384.827 Y140.365 Z-5.250
G1 X384.876 Y140.323 Z-5.250
G1 X384.931 Y140.290 Z-5.250
G1 X384.989 Y140.267 Z-5.250
G1 X385.047 Y140.254 Z-5.250
G1 X385.104 Y140.250 Z-5.250
G1 X385.161 Y140.254 Z-5.250
G1 X385.219 Y140.267 Z-5.250
G1 X385.277 Y140.290 Z-5.250
G1 X385.332 Y140.323 Z-5.250
G1 X385.382 Y140.365 Z-5.250
G1 X385.424 Y140.414 Z-5.250
G1 X385.456 Y140.469 Z-5.250
G1 X385.479 Y140.527 Z-5.250
G1 X385.492 Y140.585 Z-5.250
G1 X385.497 Y140.642 Z-5.250
G1 X385.492 Y140.699 Z-5.250
G1 X385.479 Y140.758 Z-5.250
G1 X385.456 Y140.815 Z-5.250
G1 X385.424 Y140.870 Z-5.250
G1 X385.382 Y140.920 Z-5.250
G1 X385.332 Y140.962 Z-5.250
G1 X385.277 Y140.994 Z-5.250
G1 X385.219 Y141.017 Z-5.250
G1 X385.161 Y141.031 Z-5.250
G1 X385.104 Y141.035 Z-5.250
G1 X385.104 Y142.305 Z-5.250
G1 X384.863 Y142.287 Z-5.250
G1 X384.616 Y142.231 Z-5.250
G1 X384.371 Y142.134 Z-5.250
G1 X384.138 Y141.995 Z-5.250
G1 X383.929 Y141.818 Z-5.250
G1 X383.751 Y141.608 Z-5.250
G1 X383.612 Y141.376 Z-5.250
G1 X383.515 Y141.131 Z-5.250
G1 X383.459 Y140.883 Z-5.250
G1 X383.442 Y140.642 Z-5.250
G1 X383.459 Y140.401 Z-5.250
G1 X383.515 Y140.154 Z-5.250
G1 X383.612 Y139.909 Z-5.250
G1 X383.751 Y139.676 Z-5.250
G1 X383.929 Y139.467 Z-5.250
G1 X384.138 Y139.289 Z-5.250
G1 X384.371 Y139.150 Z-5.250
G1 X384.616 Y139.053 Z-5.250
G1 X384.863 Y138.997 Z-5.250
G1 X385.104 Y138.980 Z-5.250
G1 X385.345 Y138.997 Z-5.250
G1 X385.593 Y139.053 Z-5.250
G1 X385.838 Y139.150 Z-5.250
G1 X386.070 Y139.289 Z-5.250
G1 X386.280 Y139.467 Z-5.250
G1 X386.457 Y139.676 Z-5.250
G1 X386.596 Y139.909 Z-5.250
G1 X386.693 Y140.154 Z-5.250
G1 X386.749 Y140.401 Z-5.250
G1 X386.767 Y140.642 Z-5.250
G1 X386.749 Y140.883 Z-5.250
G1 X386.693 Y141.131 Z-5.250
G1 X386.596 Y141.376 Z-5.250
G1 X386.457 Y141.608 Z-5.250
G1 X386.280 Y141.818 Z-5.250
G1 X386.070 Y141.995 Z-5.250
G1 X385.838 Y142.134 Z-5.250
G1 X385.593 Y142.231 Z-5.250
G1 X385.345 Y142.287 Z-5.250
G1 X385.104 Y142.305 Z-5.250
G0 X385.104 Y142.305
G0 Z6.000
G0 X385.104 Y141.035
G0 Z6.000
G1 X385.104 Y141.035 Z-6.000 F254.0
G1 X385.047 Y141.031 Z-6.000 F177.8
G1 X384.989 Y141.017 Z-6.000
G1 X384.931 Y140.994 Z-6.000
G1 X384.876 Y140.962 Z-6.000
G1 X384.827 Y140.920 Z-6.000
G1 X384.785 Y140.870 Z-6.000
G1 X384.752 Y140.815 Z-6.000
G1 X384.729 Y140.758 Z-6.000
G1 X384.716 Y140.699 Z-6.000
G1 X384.712 Y140.642 Z-6.000
G1 X384.716 Y140.585 Z-6.000
G1 X384.729 Y140.527 Z-6.000
G1 X384.752 Y140.469 Z-6.000
G1 X384.785 Y140.414 Z-6.000
G1 X384.827 Y140.365 Z-6.000
G1 X384.876 Y140.323 Z-6.000
G1 X384.931 Y140.290 Z-6.000
G1 X384.989 Y140.267 Z-6.000
G1 X385.047 Y140.254 Z-6.000
G1 X385.104 Y140.250 Z-6.000
G1 X385.161 Y140.254 Z-6.000
G1 X385.219 Y140.267 Z-6.000
G1 X385.277 Y140.290 Z-6.000
G1 X385.332 Y140.323 Z-6.000
G1 X385.382 Y140.365 Z-6.000
G1 X385.424 Y140.414 Z-6.000
G1 X385.456 Y140.469 Z-6.000
G1 X385.479 Y140.527 Z-6.000
G1 X385.492 Y140.585 Z-6.000
G1 X385.497 Y140.642 Z-6.000
G1 X385.492 Y140.699 Z-6.000
G1 X385.479 Y140.758 Z-6.000
G1 X385.456 Y140.815 Z-6.000
G1 X385.424 Y140.870 Z-6.000
G1 X385.382 Y140.920 Z-6.000
G1 X385.332 Y140.962 Z-6.000
G1 X385.277 Y140.994 Z-6.000
G1 X385.219 Y141.017 Z-6.000
G1 X385.161 Y141.031 Z-6.000
G1 X385.104 Y141.035 Z-6.000
G1 X385.104 Y142.305 Z-6.000
G1 X384.863 Y142.287 Z-6.000
G1 X384.616 Y142.231 Z-6.000
G1 X384.371 Y142.134 Z-6.000
G1 X384.138 Y141.995 Z-6.000
G1 X383.929 Y141.818 Z-6.000
G1 X383.751 Y141.608 Z-6.000
G1 X383.612 Y141.376 Z-6.000
G1 X383.515 Y141.131 Z-6.000
G1 X383.459 Y140.883 Z-6.000
G1 X383.442 Y140.642 Z-6.000
G1 X383.459 Y140.401 Z-6.000
G1 X383.515 Y140.154 Z-6.000
G1 X383.612 Y139.909 Z-6.000
G1 X383.751 Y139.676 Z-6.000
G1 X383.929 Y139.467 Z-6.000
G1 X384.138 Y139.289 Z-6.000
G1 X384.371 Y139.150 Z-6.000
G1 X384.616 Y139.053 Z-6.000
G1 X384.863 Y138.997 Z-6.000
G1 X385.104 Y138.980 Z-6.000
G1 X385.345 Y138.997 Z-6.000
G1 X385.593 Y139.053 Z-6.000
G1 X385.838 Y139.150 Z-6.000
G1 X386.070 Y139.289 Z-6.000
G1 X386.280 Y139.467 Z-6.000
G1 X386.457 Y139.676 Z-6.000
G1 X386.596 Y139.909 Z-6.000
G1 X386.693 Y140.154 Z-6.000
G1 X386.749 Y140.401 Z-6.000
G1 X386.767 Y140.642 Z-6.000
G1 X386.749 Y140.883 Z-6.000
G1 X386.693 Y141.131 Z-6.000
G1 X386.596 Y141.376 Z-6.000
G1 X386.457 Y141.608 Z-6.000
G1 X386.280 Y141.818 Z-6.000
G1 X386.070 Y141.995 Z-6.000
G1 X385.838 Y142.134 Z-6.000
G1 X385.593 Y142.231 Z-6.000
G1 X385.345 Y142.287 Z-6.000
G1 X385.104 Y142.305 Z-6.000
G0 X385.104 Y142.305
G0 Z6.000
G0 X385.104 Y141.035
G0 Z6.000
G1 X385.104 Y141.035 Z-6.750 F254.0
G1 X385.047 Y141.031 Z-6.750 F177.8
G1 X384.989 Y141.017 Z-6.750
G1 X384.931 Y140.994 Z-6.750
G1 X384.876 Y140.962 Z-6.750
G1 X384.827 Y140.920 Z-6.750
G1 X384.785 Y140.870 Z-6.750
G1 X384.752 Y140.815 Z-6.750
G1 X384.729 Y140.758 Z-6.750
G1 X384.716 Y140.699 Z-6.750
G1 X384.712 Y140.642 Z-6.750
G1 X384.716 Y140.585 Z-6.750
G1 X384.729 Y140.527 Z-6.750
G1 X384.752 Y140.469 Z-6.750
G1 X384.785 Y140.414 Z-6.750
G1 X384.827 Y140.365 Z-6.750
G1 X384.876 Y140.323 Z-6.750
G1 X384.931 Y140.290 Z-6.750
G1 X384.989 Y140.267 Z-6.750
G1 X385.047 Y140.254 Z-6.750
G1 X385.104 Y140.250 Z-6.750
G1 X385.161 Y140.254 Z-6.750
G1 X385.219 Y140.267 Z-6.750
G1 X385.277 Y140.290 Z-6.750
G1 X385.332 Y140.323 Z-6.750
G1 X385.382 Y140.365 Z-6.750
G1 X385.424 Y140.414 Z-6.750
G1 X385.456 Y140.469 Z-6.750
G1 X385.479 Y140.527 Z-6.750
G1 X385.492 Y140.585 Z-6.750
G1 X385.497 Y140.642 Z-6.750
G1 X385.492 Y140.699 Z-6.750
G1 X385.479 Y140.758 Z-6.750
G1 X385.456 Y140.815 Z-6.750
G1 X385.424 Y140.870 Z-6.750
G1 X385.382 Y140.920 Z-6.750
G1 X385.332 Y140.962 Z-6.750
G1 X385.277 Y140.994 Z-6.750
G1 X385.219 Y141.017 Z-6.750
G1 X385.161 Y141.031 Z-6.750
G1 X385.104 Y141.035 Z-6.750
G1 X385.104 Y142.305 Z-6.750
G1 X384.863 Y142.287 Z-6.750
G1 X384.616 Y142.231 Z-6.750
G1 X384.371 Y142.134 Z-6.750
G1 X384.138 Y141.995 Z-6.750
G1 X383.929 Y141.818 Z-6.750
G1 X383.751 Y141.608 Z-6.750
G1 X383.612 Y141.376 Z-6.750
G1 X383.515 Y141.131 Z-6.750
G1 X383.459 Y140.883 Z-6.750
G1 X383.442 Y140.642 Z-6.750
G1 X383.459 Y140.401 Z-6.750
G1 X383.515 Y140.154 Z-6.750
G1 X383.612 Y139.909 Z-6.750
G1 X383.751 Y139.676 Z-6.750
G1 X383.929 Y139.467 Z-6.750
G1 X384.138 Y139.289 Z-6.750
G1 X384.371 Y139.150 Z-6.750
G1 X384.616 Y139.053 Z-6.750
G1 X384.863 Y138.997 Z-6.750
G1 X385.104 Y138.980 Z-6.750
G1 X385.345 Y138.997 Z-6.750
G1 X385.593 Y139.053 Z-6.750
G1 X385.838 Y139.150 Z-6.750
G1 X386.070 Y139.289 Z-6.750
G1 X386.280 Y139.467 Z-6.750
G1 X386.457 Y139.676 Z-6.750
G1 X386.596 Y139.909 Z-6.750
G1 X386.693 Y140.154 Z-6.750
G1 X386.749 Y140.401 Z-6.750
G1 X386.767 Y140.642 Z-6.750
G1 X386.749 Y140.883 Z-6.750
G1 X386.693 Y141.131 Z-6.750
G1 X386.596 Y141.376 Z-6.750
G1 X386.457 Y141.608 Z-6.750
G1 X386.280 Y141.818 Z-6.750
G1 X386.070 Y141.995 Z-6.750
G1 X385.838 Y142.134 Z-6.750
G1 X385.593 Y142.231 Z-6.750
G1 X385.345 Y142.287 Z-6.750
G1 X385.104 Y142.305 Z-6.750
G0 X385.104 Y142.305
G0 Z6.000
G0 X385.104 Y141.035
G0 Z6.000
G1 X385.104 Y141.035 Z-7.500 F254.0
G1 X385.047 Y141.031 Z-7.500 F177.8
G1 X384.989 Y141.017 Z-7.500
G1 X384.931 Y140.994 Z-7.500
G1 X384.876 Y140.962 Z-7.500
G1 X384.827 Y140.920 Z-7.500
G1 X384.785 Y140.870 Z-7.500
G1 X384.752 Y140.815 Z-7.500
G1 X384.729 Y140.758 Z-7.500
G1 X384.716 Y140.699 Z-7.500
G1 X384.712 Y140.642 Z-7.500
G1 X384.716 Y140.585 Z-7.500
G1 X384.729 Y140.527 Z-7.500
G1 X384.752 Y140.469 Z-7.500
G1 X384.785 Y140.414 Z-7.500
G1 X384.827 Y140.365 Z-7.500
G1 X384.876 Y140.323 Z-7.500
G1 X384.931 Y140.290 Z-7.500
G1 X384.989 Y140.267 Z-7.500
G1 X385.047 Y140.254 Z-7.500
G1 X385.104 Y140.250 Z-7.500
G1 X385.161 Y140.254 Z-7.500
G1 X385.219 Y140.267 Z-7.500
G1 X385.277 Y140.290 Z-7.500
G1 X385.332 Y140.323 Z-7.500
G1 X385.382 Y140.365 Z-7.500
G1 X385.424 Y140.414 Z-7.500
G1 X385.456 Y140.469 Z-7.500
G1 X385.479 Y140.527 Z-7.500
G1 X385.492 Y140.585 Z-7.500
G1 X385.497 Y140.642 Z-7.500
G1 X385.492 Y140.699 Z-7.500
G1 X385.479 Y140.758 Z-7.500
G1 X385.456 Y140.815 Z-7.500
G1 X385.424 Y140.870 Z-7.500
G1 X385.382 Y140.920 Z-7.500
G1 X385.332 Y140.962 Z-7.500
G1 X385.277 Y140.994 Z-7.500
G1 X385.219 Y141.017 Z-7.500
G1 X385.161 Y141.031 Z-7.500
G1 X385.104 Y141.035 Z-7.500
G1 X385.104 Y142.305 Z-7.500
G1 X384.863 Y142.287 Z-7.500
G1 X384.616 Y142.231 Z-7.500
G1 X384.371 Y142.134 Z-7.500
G1 X384.138 Y141.995 Z-7.500
G1 X383.929 Y141.818 Z-7.500
G1 X383.751 Y141.608 Z-7.500
G1 X383.612 Y141.376 Z-7.500
G1 X383.515 Y141.131 Z-7.500
G1 X383.459 Y140.883 Z-7.500
G1 X383.442 Y140.642 Z-7.500
G1 X383.459 Y140.401 Z-7.500
G1 X383.515 Y140.154 Z-7.500
G1 X383.612 Y139.909 Z-7.500
G1 X383.751 Y139.676 Z-7.500
G1 X383.929 Y139.467 Z-7.500
G1 X384.138 Y139.289 Z-7.500
G1 X384.371 Y139.150 Z-7.500
G1 X384.616 Y139.053 Z-7.500
G1 X384.863 Y138.997 Z-7.500
G1 X385.104 Y138.980 Z-7.500
G1 X385.345 Y138.997 Z-7.500
G1 X385.593 Y139.053 Z-7.500
G1 X385.838 Y139.150 Z-7.500
G1 X386.070 Y139.289 Z-7.500
G1 X386.280 Y139.467 Z-7.500
G1 X386.457 Y139.676 Z-7.500
G1 X386.596 Y139.909 Z-7.500
G1 X386.693 Y140.154 Z-7.500
G1 X386.749 Y140.401 Z-7.500
G1 X386.767 Y140.642 Z-7.500
G1 X386.749 Y140.883 Z-7.500
G1 X386.693 Y141.131 Z-7.500
G1 X386.596 Y141.376 Z-7.500
G1 X386.457 Y141.608 Z-7.500
G1 X386.280 Y141.818 Z-7.500
G1 X386.070 Y141.995 Z-7.500
G1 X385.838 Y142.134 Z-7.500
G1 X385.593 Y142.231 Z-7.500
G1 X385.345 Y142.287 Z-7.500
G1 X385.104 Y142.305 Z-7.500
G0 X385.104 Y142.305
G0 Z6.000
G0 X385.104 Y141.035
G0 Z6.000
G1 X385.104 Y141.035 Z-8.250 F254.0
G1 X385.047 Y141.031 Z-8.250 F177.8
G1 X384.989 Y141.017 Z-8.250
G1 X384.931 Y140.994 Z-8.250
G1 X384.876 Y140.962 Z-8.250
G1 X384.827 Y140.920 Z-8.250
G1 X384.785 Y140.870 Z-8.250
G1 X384.752 Y140.815 Z-8.250
G1 X384.729 Y140.758 Z-8.250
G1 X384.716 Y140.699 Z-8.250
G1 X384.712 Y140.642 Z-8.250
G1 X384.716 Y140.585 Z-8.250
G1 X384.729 Y140.527 Z-8.250
G1 X384.752 Y140.469 Z-8.250
G1 X384.785 Y140.414 Z-8.250
G1 X384.827 Y140.365 Z-8.250
G1 X384.876 Y140.323 Z-8.250
G1 X384.931 Y140.290 Z-8.250
G1 X384.989 Y140.267 Z-8.250
G1 X385.047 Y140.254 Z-8.250
G1 X385.104 Y140.250 Z-8.250
G1 X385.161 Y140.254 Z-8.250
G1 X385.219 Y140.267 Z-8.250
G1 X385.277 Y140.290 Z-8.250
G1 X385.332 Y140.323 Z-8.250
G1 X385.382 Y140.365 Z-8.250
G1 X385.424 Y140.414 Z-8.250
G1 X385.456 Y140.469 Z-8.250
G1 X385.479 Y140.527 Z-8.250
G1 X385.492 Y140.585 Z-8.250
G1 X385.497 Y140.642 Z-8.250
G1 X385.492 Y140.699 Z-8.250
G1 X385.479 Y140.758 Z-8.250
G1 X385.456 Y140.815 Z-8.250
G1 X385.424 Y140.870 Z-8.250
G1 X385.382 Y140.920 Z-8.250
G1 X385.332 Y140.962 Z-8.250
G1 X385.277 Y140.994 Z-8.250
G1 X385.219 Y141.017 Z-8.250
G1 X385.161 Y141.031 Z-8.250
G1 X385.104 Y141.035 Z-8.250
G1 X385.104 Y142.305 Z-8.250
G1 X384.863 Y142.287 Z-8.250
G1 X384.616 Y142.231 Z-8.250
G1 X384.371 Y142.134 Z-8.250
G1 X384.138 Y141.995 Z-8.250
G1 X383.929 Y141.818 Z-8.250
G1 X383.751 Y141.608 Z-8.250
G1 X383.612 Y141.376 Z-8.250
G1 X383.515 Y141.131 Z-8.250
G1 X383.459 Y140.883 Z-8.250
G1 X383.442 Y140.642 Z-8.250
G1 X383.459 Y140.401 Z-8.250
G1 X383.515 Y140.154 Z-8.250
G1 X383.612 Y139.909 Z-8.250
G1 X383.751 Y139.676 Z-8.250
G1 X383.929 Y139.467 Z-8.250
G1 X384.138 Y139.289 Z-8.250
G1 X384.371 Y139.150 Z-8.250
G1 X384.616 Y139.053 Z-8.250
G1 X384.863 Y138.997 Z-8.250
G1 X385.104 Y138.980 Z-8.250
G1 X385.345 Y138.997 Z-8.250
G1 X385.593 Y139.053 Z-8.250
G1 X385.838 Y139.150 Z-8.250
G1 X386.070 Y139.289 Z-8.250
G1 X386.280 Y139.467 Z-8.250
G1 X386.457 Y139.676 Z-8.250
G1 X386.596 Y139.909 Z-8.250
G1 X386.693 Y140.154 Z-8.250
G1 X386.749 Y140.401 Z-8.250
G1 X386.767 Y140.642 Z-8.250
G1 X386.749 Y140.883 Z-8.250
G1 X386.693 Y141.131 Z-8.250
G1 X386.596 Y141.376 Z-8.250
G1 X386.457 Y141.608 Z-8.250
G1 X386.280 Y141.818 Z-8.250
G1 X386.070 Y141.995 Z-8.250
G1 X385.838 Y142.134 Z-8.250
G1 X385.593 Y142.231 Z-8.250
G1 X385.345 Y142.287 Z-8.250
G1 X385.104 Y142.305 Z-8.250
G0 X385.104 Y142.305
G0 Z6.000
G0 X385.104 Y141.035
G0 Z6.000
G1 X385.104 Y141.035 Z-9.000 F254.0
G1 X385.047 Y141.031 Z-9.000 F177.8
G1 X384.989 Y141.017 Z-9.000
G1 X384.931 Y140.994 Z-9.000
G1 X384.876 Y140.962 Z-9.000
G1 X384.827 Y140.920 Z-9.000
G1 X384.785 Y140.870 Z-9.000
G1 X384.752 Y140.815 Z-9.000
G1 X384.729 Y140.758 Z-9.000
G1 X384.716 Y140.699 Z-9.000
G1 X384.712 Y140.642 Z-9.000
G1 X384.716 Y140.585 Z-9.000
G1 X384.729 Y140.527 Z-9.000
G1 X384.752 Y140.469 Z-9.000
G1 X384.785 Y140.414 Z-9.000
G1 X384.827 Y140.365 Z-9.000
G1 X384.876 Y140.323 Z-9.000
G1 X384.931 Y140.290 Z-9.000
G1 X384.989 Y140.267 Z-9.000
G1 X385.047 Y140.254 Z-9.000
G1 X385.104 Y140.250 Z-9.000
G1 X385.161 Y140.254 Z-9.000
G1 X385.219 Y140.267 Z-9.000
G1 X385.277 Y140.290 Z-9.000
G1 X385.332 Y140.323 Z-9.000
G1 X385.382 Y140.365 Z-9.000
G1 X385.424 Y140.414 Z-9.000
G1 X385.456 Y140.469 Z-9.000
G1 X385.479 Y140.527 Z-9.000
G1 X385.492 Y140.585 Z-9.000
G1 X385.497 Y140.642 Z-9.000
G1 X385.492 Y140.699 Z-9.000
G1 X385.479 Y140.758 Z-9.000
G1 X385.456 Y140.815 Z-9.000
G1 X385.424 Y140.870 Z-9.000
G1 X385.382 Y140.920 Z-9.000
G1 X385.332 Y140.962 Z-9.000
G1 X385.277 Y140.994 Z-9.000
G1 X385.219 Y141.017 Z-9.000
G1 X385.161 Y141.031 Z-9.000
G1 X385.104 Y141.035 Z-9.000
G1 X385.104 Y142.305 Z-9.000
G1 X384.863 Y142.287 Z-9.000
G1 X384.616 Y142.231 Z-9.000
G1 X384.371 Y142.134 Z-9.000
G1 X384.138 Y141.995 Z-9.000
G1 X383.929 Y141.818 Z-9.000
G1 X383.751 Y141.608 Z-9.000
G1 X383.612 Y141.376 Z-9.000
G1 X383.515 Y141.131 Z-9.000
G1 X383.459 Y140.883 Z-9.000
G1 X383.442 Y140.642 Z-9.000
G1 X383.459 Y140.401 Z-9.000
G1 X383.515 Y140.154 Z-9.000
G1 X383.612 Y139.909 Z-9.000
G1 X383.751 Y139.676 Z-9.000
G1 X383.929 Y139.467 Z-9.000
G1 X384.138 Y139.289 Z-9.000
G1 X384.371 Y139.150 Z-9.000
G1 X384.616 Y139.053 Z-9.000
G1 X384.863 Y138.997 Z-9.000
G1 X385.104 Y138.980 Z-9.000
G1 X385.345 Y138.997 Z-9.000
G1 X385.593 Y139.053 Z-9.000
G1 X385.838 Y139.150 Z-9.000
G1 X386.070 Y139.289 Z-9.000
G1 X386.280 Y139.467 Z-9.000
G1 X386.457 Y139.676 Z-9.000
G1 X386.596 Y139.909 Z-9.000
G1 X386.693 Y140.154 Z-9.000
G1 X386.749 Y140.401 Z-9.000
G1 X386.767 Y140.642 Z-9.000
G1 X386.749 Y140.883 Z-9.000
G1 X386.693 Y141.131 Z-9.000
G1 X386.596 Y141.376 Z-9.000
G1 X386.457 Y141.608 Z-9.000
G1 X386.280 Y141.818 Z-9.000
G1 X386.070 Y141.995 Z-9.000
G1 X385.838 Y142.134 Z-9.000
G1 X385.593 Y142.231 Z-9.000
G1 X385.345 Y142.287 Z-9.000
G1 X385.104 Y142.305 Z-9.000
G0 X385.104 Y142.305
G0 Z6.000
G0 X385.104 Y141.035
G0 Z6.000
G1 X385.104 Y141.035 Z-9.750 F254.0
G1 X385.047 Y141.031 Z-9.750 F177.8
G1 X384.989 Y141.017 Z-9.750
G1 X384.931 Y140.994 Z-9.750
G1 X384.876 Y140.962 Z-9.750
G1 X384.827 Y140.920 Z-9.750
G1 X384.785 Y140.870 Z-9.750
G1 X384.752 Y140.815 Z-9.750
G1 X384.729 Y140.758 Z-9.750
G1 X384.716 Y140.699 Z-9.750
G1 X384.712 Y140.642 Z-9.750
G1 X384.716 Y140.585 Z-9.750
G1 X384.729 Y140.527 Z-9.750
G1 X384.752 Y140.469 Z-9.750
G1 X384.785 Y140.414 Z-9.750
G1 X384.827 Y140.365 Z-9.750
G1 X384.876 Y140.323 Z-9.750
G1 X384.931 Y140.290 Z-9.750
G1 X384.989 Y140.267 Z-9.750
G1 X385.047 Y140.254 Z-9.750
G1 X385.104 Y140.250 Z-9.750
G1 X385.161 Y140.254 Z-9.750
G1 X385.219 Y140.267 Z-9.750
G1 X385.277 Y140.290 Z-9.750
G1 X385.332 Y140.323 Z-9.750
G1 X385.382 Y140.365 Z-9.750
G1 X385.424 Y140.414 Z-9.750
G1 X385.456 Y140.469 Z-9.750
G1 X385.479 Y140.527 Z-9.750
G1 X385.492 Y140.585 Z-9.750
G1 X385.497 Y140.642 Z-9.750
G1 X385.492 Y140.699 Z-9.750
G1 X385.479 Y140.758 Z-9.750
G1 X385.456 Y140.815 Z-9.750
G1 X385.424 Y140.870 Z-9.750
G1 X385.382 Y140.920 Z-9.750
G1 X385.332 Y140.962 Z-9.750
G1 X385.277 Y140.994 Z-9.750
G1 X385.219 Y141.017 Z-9.750
G1 X385.161 Y141.031 Z-9.750
G1 X385.104 Y141.035 Z-9.750
G1 X385.104 Y142.305 Z-9.750
G1 X384.863 Y142.287 Z-9.750
G1 X384.616 Y142.231 Z-9.750
G1 X384.371 Y142.134 Z-9.750
G1 X384.138 Y141.995 Z-9.750
G1 X383.929 Y141.818 Z-9.750
G1 X383.751 Y141.608 Z-9.750
G1 X383.612 Y141.376 Z-9.750
G1 X383.515 Y141.131 Z-9.750
G1 X383.459 Y140.883 Z-9.750
G1 X383.442 Y140.642 Z-9.750
G1 X383.459 Y140.401 Z-9.750
G1 X383.515 Y140.154 Z-9.750
G1 X383.612 Y139.909 Z-9.750
G1 X383.751 Y139.676 Z-9.750
G1 X383.929 Y139.467 Z-9.750
G1 X384.138 Y139.289 Z-9.750
G1 X384.371 Y139.150 Z-9.750
G1 X384.616 Y139.053 Z-9.750
G1 X384.863 Y138.997 Z-9.750
G1 X385.104 Y138.980 Z-9.750
G1 X385.345 Y138.997 Z-9.750
G1 X385.593 Y139.053 Z-9.750
G1 X385.838 Y139.150 Z-9.750
G1 X386.070 Y139.289 Z-9.750
G1 X386.280 Y139.467 Z-9.750
G1 X386.457 Y139.676 Z-9.750
G1 X386.596 Y139.909 Z-9.750
G1 X386.693 Y140.154 Z-9.750
G1 X386.749 Y140.401 Z-9.750
G1 X386.767 Y140.642 Z-9.750
G1 X386.749 Y140.883 Z-9.750
G1 X386.693 Y141.131 Z-9.750
G1 X386.596 Y141.376 Z-9.750
G1 X386.457 Y141.608 Z-9.750
G1 X386.280 Y141.818 Z-9.750
G1 X386.070 Y141.995 Z-9.750
G1 X385.838 Y142.134 Z-9.750
G1 X385.593 Y142.231 Z-9.750
G1 X385.345 Y142.287 Z-9.750
G1 X385.104 Y142.305 Z-9.750
G0 X385.104 Y142.305
G0 Z6.000
G0 X385.104 Y141.035
G0 Z6.000
G1 X385.104 Y141.035 Z-10.500 F254.0
G1 X385.047 Y141.031 Z-10.500 F177.8
G1 X384.989 Y141.017 Z-10.500
G1 X384.931 Y140.994 Z-10.500
G1 X384.876 Y140.962 Z-10.500
G1 X384.827 Y140.920 Z-10.500
G1 X384.785 Y140.870 Z-10.500
G1 X384.752 Y140.815 Z-10.500
G1 X384.729 Y140.758 Z-10.500
G1 X384.716 Y140.699 Z-10.500
G1 X384.712 Y140.642 Z-10.500
G1 X384.716 Y140.585 Z-10.500
G1 X384.729 Y140.527 Z-10.500
G1 X384.752 Y140.469 Z-10.500
G1 X384.785 Y140.414 Z-10.500
G1 X384.827 Y140.365 Z-10.500
G1 X384.876 Y140.323 Z-10.500
G1 X384.931 Y140.290 Z-10.500
G1 X384.989 Y140.267 Z-10.500
G1 X385.047 Y140.254 Z-10.500
G1 X385.104 Y140.250 Z-10.500
G1 X385.161 Y140.254 Z-10.500
G1 X385.219 Y140.267 Z-10.500
G1 X385.277 Y140.290 Z-10.500
G1 X385.332 Y140.323 Z-10.500
G1 X385.382 Y140.365 Z-10.500
G1 X385.424 Y140.414 Z-10.500
G1 X385.456 Y140.469 Z-10.500
G1 X385.479 Y140.527 Z-10.500
G1 X385.492 Y140.585 Z-10.500
G1 X385.497 Y140.642 Z-10.500
G1 X385.492 Y140.699 Z-10.500
G1 X385.479 Y140.758 Z-10.500
G1 X385.456 Y140.815 Z-10.500
G1 X385.424 Y140.870 Z-10.500
G1 X385.382 Y140.920 Z-10.500
G1 X385.332 Y140.962 Z-10.500
G1 X385.277 Y140.994 Z-10.500
G1 X385.219 Y141.017 Z-10.500
G1 X385.161 Y141.031 Z-10.500
G1 X385.104 Y141.035 Z-10.500
G1 X385.104 Y142.305 Z-10.500
G1 X384.863 Y142.287 Z-10.500
G1 X384.616 Y142.231 Z-10.500
G1 X384.371 Y142.134 Z-10.500
G1 X384.138 Y141.995 Z-10.500
G1 X383.929 Y141.818 Z-10.500
G1 X383.751 Y141.608 Z-10.500
G1 X383.612 Y141.376 Z-10.500
G1 X383.515 Y141.131 Z-10.500
G1 X383.459 Y140.883 Z-10.500
G1 X383.442 Y140.642 Z-10.500
G1 X383.459 Y140.401 Z-10.500
G1 X383.515 Y140.154 Z-10.500
G1 X383.612 Y139.909 Z-10.500
G1 X383.751 Y139.676 Z-10.500
G1 X383.929 Y139.467 Z-10.500
G1 X384.138 Y139.289 Z-10.500
G1 X384.371 Y139.150 Z-10.500
G1 X384.616 Y139.053 Z-10.500
G1 X384.863 Y138.997 Z-10.500
G1 X385.104 Y138.980 Z-10.500
G1 X385.345 Y138.997 Z-10.500
G1 X385.593 Y139.053 Z-10.500
G1 X385.838 Y139.150 Z-10.500
G1 X386.070 Y139.289 Z-10.500
G1 X386.280 Y139.467 Z-10.500
G1 X386.457 Y139.676 Z-10.500
G1 X386.596 Y139.909 Z-10.500
G1 X386.693 Y140.154 Z-10.500
G1 X386.749 Y140.401 Z-10.500
G1 X386.767 Y140.642 Z-10.500
G1 X386.749 Y140.883 Z-10.500
G1 X386.693 Y141.131 Z-10.500
G1 X386.596 Y141.376 Z-10.500
G1 X386.457 Y141.608 Z-10.500
G1 X386.280 Y141.818 Z-10.500
G1 X386.070 Y141.995 Z-10.500
G1 X385.838 Y142.134 Z-10.500
G1 X385.593 Y142.231 Z-10.500
G1 X385.345 Y142.287 Z-10.500
G1 X385.104 Y142.305 Z-10.500
G0 X385.104 Y142.305
G0 Z6.000
G0 X385.104 Y141.035
G0 Z6.000
G1 X385.104 Y141.035 Z-11.250 F254.0
G1 X385.047 Y141.031 Z-11.250 F177.8
G1 X384.989 Y141.017 Z-11.250
G1 X384.931 Y140.994 Z-11.250
G1 X384.876 Y140.962 Z-11.250
G1 X384.827 Y140.920 Z-11.250
G1 X384.785 Y140.870 Z-11.250
G1 X384.752 Y140.815 Z-11.250
G1 X384.729 Y140.758 Z-11.250
G1 X384.716 Y140.699 Z-11.250
G1 X384.712 Y140.642 Z-11.250
G1 X384.716 Y140.585 Z-11.250
G1 X384.729 Y140.527 Z-11.250
G1 X384.752 Y140.469 Z-11.250
G1 X384.785 Y140.414 Z-11.250
G1 X384.827 Y140.365 Z-11.250
G1 X384.876 Y140.323 Z-11.250
G1 X384.931 Y140.290 Z-11.250
G1 X384.989 Y140.267 Z-11.250
G1 X385.047 Y140.254 Z-11.250
G1 X385.104 Y140.250 Z-11.250
G1 X385.161 Y140.254 Z-11.250
G1 X385.219 Y140.267 Z-11.250
G1 X385.277 Y140.290 Z-11.250
G1 X385.332 Y140.323 Z-11.250
G1 X385.382 Y140.365 Z-11.250
G1 X385.424 Y140.414 Z-11.250
G1 X385.456 Y140.469 Z-11.250
G1 X385.479 Y140.527 Z-11.250
G1 X385.492 Y140.585 Z-11.250
G1 X385.497 Y140.642 Z-11.250
G1 X385.492 Y140.699 Z-11.250
G1 X385.479 Y140.758 Z-11.250
G1 X385.456 Y140.815 Z-11.250
G1 X385.424 Y140.870 Z-11.250
G1 X385.382 Y140.920 Z-11.250
G1 X385.332 Y140.962 Z-11.250
G1 X385.277 Y140.994 Z-11.250
G1 X385.219 Y141.017 Z-11.250
G1 X385.161 Y141.031 Z-11.250
G1 X385.104 Y141.035 Z-11.250
G1 X385.104 Y142.305 Z-11.250
G1 X384.863 Y142.287 Z-11.250
G1 X384.616 Y142.231 Z-11.250
G1 X384.371 Y142.134 Z-11.250
G1 X384.138 Y141.995 Z-11.250
G1 X383.929 Y141.818 Z-11.250
G1 X383.751 Y141.608 Z-11.250
G1 X383.612 Y141.376 Z-11.250
G1 X383.515 Y141.131 Z-11.250
G1 X383.459 Y140.883 Z-11.250
G1 X383.442 Y140.642 Z-11.250
G1 X383.459 Y140.401 Z-11.250
G1 X383.515 Y140.154 Z-11.250
G1 X383.612 Y139.909 Z-11.250
G1 X383.751 Y139.676 Z-11.250
G1 X383.929 Y139.467 Z-11.250
G1 X384.138 Y139.289 Z-11.250
G1 X384.371 Y139.150 Z-11.250
G1 X384.616 Y139.053 Z-11.250
G1 X384.863 Y138.997 Z-11.250
G1 X385.104 Y138.980 Z-11.250
G1 X385.345 Y138.997 Z-11.250
G1 X385.593 Y139.053 Z-11.250
G1 X385.838 Y139.150 Z-11.250
G1 X386.070 Y139.289 Z-11.250
G1 X386.280 Y139.467 Z-11.250
G1 X386.457 Y139.676 Z-11.250
G1 X386.596 Y139.909 Z-11.250
G1 X386.693 Y140.154 Z-11.250
G1 X386.749 Y140.401 Z-11.250
G1 X386.767 Y140.642 Z-11.250
G1 X386.749 Y140.883 Z-11.250
G1 X386.693 Y141.131 Z-11.250
G1 X386.596 Y141.376 Z-11.250
G1 X386.457 Y141.608 Z-11.250
G1 X386.280 Y141.818 Z-11.250
G1 X386.070 Y141.995 Z-11.250
G1 X385.838 Y142.134 Z-11.250
G1 X385.593 Y142.231 Z-11.250
G1 X385.345 Y142.287 Z-11.250
G1 X385.104 Y142.305 Z-11.250
G0 X385.104 Y142.305
G0 Z6.000
G0 X385.104 Y141.035
G0 Z6.000
G1 X385.104 Y141.035 Z-12.000 F254.0
G1 X385.047 Y141.031 Z-12.000 F177.8
G1 X384.989 Y141.017 Z-12.000
G1 X384.931 Y140.994 Z-12.000
G1 X384.876 Y140.962 Z-12.000
G1 X384.827 Y140.920 Z-12.000
G1 X384.785 Y140.870 Z-12.000
G1 X384.752 Y140.815 Z-12.000
G1 X384.729 Y140.758 Z-12.000
G1 X384.716 Y140.699 Z-12.000
G1 X384.712 Y140.642 Z-12.000
G1 X384.716 Y140.585 Z-12.000
G1 X384.729 Y140.527 Z-12.000
G1 X384.752 Y140.469 Z-12.000
G1 X384.785 Y140.414 Z-12.000
G1 X384.827 Y140.365 Z-12.000
G1 X384.876 Y140.323 Z-12.000
G1 X384.931 Y140.290 Z-12.000
G1 X384.989 Y140.267 Z-12.000
G1 X385.047 Y140.254 Z-12.000
G1 X385.104 Y140.250 Z-12.000
G1 X385.161 Y140.254 Z-12.000
G1 X385.219 Y140.267 Z-12.000
G1 X385.277 Y140.290 Z-12.000
G1 X385.332 Y140.323 Z-12.000
G1 X385.382 Y140.365 Z-12.000
G1 X385.424 Y140.414 Z-12.000
G1 X385.456 Y140.469 Z-12.000
G1 X385.479 Y140.527 Z-12.000
G1 X385.492 Y140.585 Z-12.000
G1 X385.497 Y140.642 Z-12.000
G1 X385.492 Y140.699 Z-12.000
G1 X385.479 Y140.758 Z-12.000
G1 X385.456 Y140.815 Z-12.000
G1 X385.424 Y140.870 Z-12.000
G1 X385.382 Y140.920 Z-12.000
G1 X385.332 Y140.962 Z-12.000
G1 X385.277 Y140.994 Z-12.000
G1 X385.219 Y141.017 Z-12.000
G1 X385.161 Y141.031 Z-12.000
G1 X385.104 Y141.035 Z-12.000
G1 X385.104 Y142.305 Z-12.000
G1 X384.863 Y142.287 Z-12.000
G1 X384.616 Y142.231 Z-12.000
G1 X384.371 Y142.134 Z-12.000
G1 X384.138 Y141.995 Z-12.000
G1 X383.929 Y141.818 Z-12.000
G1 X383.751 Y141.608 Z-12.000
G1 X383.612 Y141.376 Z-12.000
G1 X383.515 Y141.131 Z-12.000
G1 X383.459 Y140.883 Z-12.000
G1 X383.442 Y140.642 Z-12.000
G1 X383.459 Y140.401 Z-12.000
G1 X383.515 Y140.154 Z-12.000
G1 X383.612 Y139.909 Z-12.000
G1 X383.751 Y139.676 Z-12.000
G1 X383.929 Y139.467 Z-12.000
G1 X384.138 Y139.289 Z-12.000
G1 X384.371 Y139.150 Z-12.000
G1 X384.616 Y139.053 Z-12.000
G1 X384.863 Y138.997 Z-12.000
G1 X385.104 Y138.980 Z-12.000
G1 X385.345 Y138.997 Z-12.000
G1 X385.593 Y139.053 Z-12.000
G1 X385.838 Y139.150 Z-12.000
G1 X386.070 Y139.289 Z-12.000
G1 X386.280 Y139.467 Z-12.000
G1 X386.457 Y139.676 Z-12.000
G1 X386.596 Y139.909 Z-12.000
G1 X386.693 Y140.154 Z-12.000
G1 X386.749 Y140.401 Z-12.000
G1 X386.767 Y140.642 Z-12.000
G1 X386.749 Y140.883 Z-12.000
G1 X386.693 Y141.131 Z-12.000
G1 X386.596 Y141.376 Z-12.000
G1 X386.457 Y141.608 Z-12.000
G1 X386.280 Y141.818 Z-12.000
G1 X386.070 Y141.995 Z-12.000
G1 X385.838 Y142.134 Z-12.000
G1 X385.593 Y142.231 Z-12.000
G1 X385.345 Y142.287 Z-12.000
G1 X385.104 Y142.305 Z-12.000
G0 X385.104 Y142.305
G0 Z6.000
G0 X417.465 Y181.487
G0 Z6.000
G1 X417.465 Y181.487 Z-0.750 F254.0
G1 X417.408 Y181.483 Z-0.750 F177.8
G1 X417.350 Y181.469 Z-0.750
G1 X417.292 Y181.446 Z-0.750
G1 X417.237 Y181.414 Z-0.750
G1 X417.188 Y181.372 Z-0.750
G1 X417.146 Y181.322 Z-0.750
G1 X417.113 Y181.267 Z-0.750
G1 X417.090 Y181.210 Z-0.750
G1 X417.077 Y181.151 Z-0.750
G1 X417.073 Y181.094 Z-0.750
G1 X417.077 Y181.037 Z-0.750
G1 X417.090 Y180.979 Z-0.750
G1 X417.113 Y180.921 Z-0.750
G1 X417.146 Y180.866 Z-0.750
G1 X417.188 Y180.817 Z-0.750
G1 X417.237 Y180.775 Z-0.750
G1 X417.292 Y180.742 Z-0.750
G1 X417.350 Y180.719 Z-0.750
G1 X417.408 Y180.706 Z-0.750
G1 X417.465 Y180.702 Z-0.750
G1 X417.522 Y180.706 Z-0.750
G1 X417.580 Y180.719 Z-0.750
G1 X417.638 Y180.742 Z-0.750
G1 X417.693 Y180.775 Z-0.750
G1 X417.743 Y180.817 Z-0.750
G1 X417.785 Y180.866 Z-0.750
G1 X417.817 Y180.921 Z-0.750
G1 X417.840 Y180.979 Z-0.750
G1 X417.853 Y181.037 Z-0.750
G1 X417.858 Y181.094 Z-0.750
G1 X417.853 Y181.151 Z-0.750
G1 X417.840 Y181.210 Z-0.750
G1 X417.817 Y181.267 Z-0.750
G1 X417.785 Y181.322 Z-0.750
G1 X417.743 Y181.372 Z-0.750
G1 X417.693 Y181.414 Z-0.750
G1 X417.638 Y181.446 Z-0.750
G1 X417.580 Y181.469 Z-0.750
G1 X417.522 Y181.483 Z-0.750
G1 X417.465 Y181.487 Z-0.750
G1 X417.465 Y182.757 Z-0.750
G1 X417.224 Y182.739 Z-0.750
G1 X416.977 Y182.683 Z-0.750
G1 X416.732 Y182.586 Z-0.750
G1 X416.499 Y182.447 Z-0.750
G1 X416.290 Y182.270 Z-0.750
G1 X416.112 Y182.060 Z-0.750
G1 X415.973 Y181.828 Z-0.750
G1 X415.876 Y181.583 Z-0.750
G1 X415.820 Y181.335 Z-0.750
G1 X415.803 Y181.094 Z-0.750
G1 X415.820 Y180.853 Z-0.750
G1 X415.876 Y180.606 Z-0.750
G1 X415.973 Y180.361 Z-0.750
G1 X416.112 Y180.128 Z-0.750
G1 X416.290 Y179.919 Z-0.750
G1 X416.499 Y179.741 Z-0.750
G1 X416.732 Y179.602 Z-0.750
G1 X416.977 Y179.505 Z-0.750
G1 X417.224 Y179.449 Z-0.750
G1 X417.465 Y179.432 Z-0.750
G1 X417.706 Y179.449 Z-0.750
G1 X417.954 Y179.505 Z-0.750
G1 X418.199 Y179.602 Z-0.750
G1 X418.431 Y179.741 Z-0.750
G1 X418.641 Y179.919 Z-0.750
G1 X418.818 Y180.128 Z-0.750
G1 X418.957 Y180.361 Z-0.750
G1 X419.054 Y180.606 Z-0.750
G1 X419.110 Y180.853 Z-0.750
G1 X419.128 Y181.094 Z-0.750
G1 X419.110 Y181.335 Z-0.750
G1 X419.054 Y181.583 Z-0.750
G1 X418.957 Y181.828 Z-0.750
G1 X418.818 Y182.060 Z-0.750
G1 X418.641 Y182.270 Z-0.750
G1 X418.431 Y182.447 Z-0.750
G1 X418.199 Y182.586 Z-0.750
G1 X417.954 Y182.683 Z-0.750
G1 X417.706 Y182.739 Z-0.750
G1 X417.465 Y182.757 Z-0.750
G0 X417.465 Y182.757
G0 Z6.000
G0 X417.465 Y181.487
G0 Z6.000
G1 X417.465 Y181.487 Z-1.500 F254.0
G1 X417.408 Y181.483 Z-1.500 F177.8
G1 X417.350 Y181.469 Z-1.500
G1 X417.292 Y181.446 Z-1.500
G1 X417.237 Y181.414 Z-1.500
G1 X417.188 Y181.372 Z-1.500
G1 X417.146 Y181.322 Z-1.500
G1 X417.113 Y181.267 Z-1.500
G1 X417.090 Y181.210 Z-1.500
G1 X417.077 Y181.151 Z-1.500
G1 X417.073 Y181.094 Z-1.500
G1 X417.077 Y181.037 Z-1.500
G1 X417.090 Y180.979 Z-1.500
G1 X417.113 Y180.921 Z-1.500
G1 X417.146 Y180.866 Z-1.500
G1 X417.188 Y180.817 Z-1.500
G1 X417.237 Y180.775 Z-1.500
G1 X417.292 Y180.742 Z-1.500
G1 X417.350 Y180.719 Z-1.500
G1 X417.408 Y180.706 Z-1.500
G1 X417.465 Y180.702 Z-1.500
G1 X417.522 Y180.706 Z-1.500
G1 X417.580 Y180.719 Z-1.500
G1 X417.638 Y180.742 Z-1.500
G1 X417.693 Y180.775 Z-1.500
G1 X417.743 Y180.817 Z-1.500
G1 X417.785 Y180.866 Z-1.500
G1 X417.817 Y180.921 Z-1.500
G1 X417.840 Y180.979 Z-1.500
G1 X417.853 Y181.037 Z-1.500
G1 X417.858 Y181.094 Z-1.500
G1 X417.853 Y181.151 Z-1.500
G1 X417.840 Y181.210 Z-1.500
G1 X417.817 Y181.267 Z-1.500
G1 X417.785 Y181.322 Z-1.500
G1 X417.743 Y181.372 Z-1.500
G1 X417.693 Y181.414 Z-1.500
G1 X417.638 Y181.446 Z-1.500
G1 X417.580 Y181.469 Z-1.500
G1 X417.522 Y181.483 Z-1.500
G1 X417.465 Y181.487 Z-1.500
G1 X417.465 Y182.757 Z-1.500
G1 X417.224 Y182.739 Z-1.500
G1 X416.977 Y182.683 Z-1.500
G1 X416.732 Y182.586 Z-1.500
G1 X416.499 Y182.447 Z-1.500
G1 X416.290 Y182.270 Z-1.500
G1 X416.112 Y182.060 Z-1.500
G1 X415.973 Y181.828 Z-1.500
G1 X415.876 Y181.583 Z-1.500
G1 X415.820 Y181.335 Z-1.500
G1 X415.803 Y181.094 Z-1.500
G1 X415.820 Y180.853 Z-1.500
G1 X415.876 Y180.606 Z-1.500
G1 X415.973 Y180.361 Z-1.500
G1 X416.112 Y180.128 Z-1.500
G1 X416.290 Y179.919 Z-1.500
G1 X416.499 Y179.741 Z-1.500
G1 X416.732 Y179.602 Z-1.500
G1 X416.977 Y179.505 Z-1.500
G1 X417.224 Y179.449 Z-1.500
G1 X417.465 Y179.432 Z-1.500
G1 X417.706 Y179.449 Z-1.500
G1 X417.954 Y179.505 Z-1.500
G1 X418.199 Y179.602 Z-1.500
G1 X418.431 Y179.741 Z-1.500
G1 X418.641 Y179.919 Z-1.500
G1 X418.818 Y180.128 Z-1.500
G1 X418.957 Y180.361 Z-1.500
G1 X419.054 Y180.606 Z-1.500
G1 X419.110 Y180.853 Z-1.500
G1 X419.128 Y181.094 Z-1.500
G1 X419.110 Y181.335 Z-1.500
G1 X419.054 Y181.583 Z-1.500
G1 X418.957 Y181.828 Z-1.500
G1 X418.818 Y182.060 Z-1.500
G1 X418.641 Y182.270 Z-1.500
G1 X418.431 Y182.447 Z-1.500
G1 X418.199 Y182.586 Z-1.500
G1 X417.954 Y182.683 Z-1.500
G1 X417.706 Y182.739 Z-1.500
G1 X417.465 Y182.757 Z-1.500
G0 X417.465 Y182.757
G0 Z6.000
G0 X417.465 Y181.487
G0 Z6.000
G1 X417.465 Y181.487 Z-2.250 F254.0
G1 X417.408 Y181.483 Z-2.250 F177.8
G1 X417.350 Y181.469 Z-2.250
G1 X417.292 Y181.446 Z-2.250
G1 X417.237 Y181.414 Z-2.250
G1 X417.188 Y181.372 Z-2.250
G1 X417.146 Y181.322 Z-2.250
G1 X417.113 Y181.267 Z-2.250
G1 X417.090 Y181.210 Z-2.250
G1 X417.077 Y181.151 Z-2.250
G1 X417.073 Y181.094 Z-2.250
G1 X417.077 Y181.037 Z-2.250
G1 X417.090 Y180.979 Z-2.250
G1 X417.113 Y180.921 Z-2.250
G1 X417.146 Y180.866 Z-2.250
G1 X417.188 Y180.817 Z-2.250
G1 X417.237 Y180.775 Z-2.250
G1 X417.292 Y180.742 Z-2.250
G1 X417.350 Y180.719 Z-2.250
G1 X417.408 Y180.706 Z-2.250
G1 X417.465 Y180.702 Z-2.250
G1 X417.522 Y180.706 Z-2.250
G1 X417.580 Y180.719 Z-2.250
G1 X417.638 Y180.742 Z-2.250
G1 X417.693 Y180.775 Z-2.250
G1 X417.743 Y180.817 Z-2.250
G1 X417.785 Y180.866 Z-2.250
G1 X417.817 Y180.921 Z-2.250
G1 X417.840 Y180.979 Z-2.250
G1 X417.853 Y181.037 Z-2.250
G1 X417.858 Y181.094 Z-2.250
G1 X417.853 Y181.151 Z-2.250
G1 X417.840 Y181.210 Z-2.250
G1 X417.817 Y181.267 Z-2.250
G1 X417.785 Y181.322 Z-2.250
G1 X417.743 Y181.372 Z-2.250
G1 X417.693 Y181.414 Z-2.250
G1 X417.638 Y181.446 Z-2.250
G1 X417.580 Y181.469 Z-2.250
G1 X417.522 Y181.483 Z-2.250
G1 X417.465 Y181.487 Z-2.250
G1 X417.465 Y182.757 Z-2.250
G1 X417.224 Y182.739 Z-2.250
G1 X416.977 Y182.683 Z-2.250
G1 X416.732 Y182.586 Z-2.250
G1 X416.499 Y182.447 Z-2.250
G1 X416.290 Y182.270 Z-2.250
G1 X416.112 Y182.060 Z-2.250
G1 X415.973 Y181.828 Z-2.250
G1 X415.876 Y181.583 Z-2.250
G1 X415.820 Y181.335 Z-2.250
G1 X415.803 Y181.094 Z-2.250
G1 X415.820 Y180.853 Z-2.250
G1 X415.876 Y180.606 Z-2.250
G1 X415.973 Y180.361 Z-2.250
G1 X416.112 Y180.128 Z-2.250
G1 X416.290 Y179.919 Z-2.250
G1 X416.499 Y179.741 Z-2.250
G1 X416.732 Y179.602 Z-2.250
G1 X416.977 Y179.505 Z-2.250
G1 X417.224 Y179.449 Z-2.250
G1 X417.465 Y179.432 Z-2.250
G1 X417.706 Y179.449 Z-2.250
G1 X417.954 Y179.505 Z-2.250
G1 X418.199 Y179.602 Z-2.250
G1 X418.431 Y179.741 Z-2.250
G1 X418.641 Y179.919 Z-2.250
G1 X418.818 Y180.128 Z-2.250
G1 X418.957 Y180.361 Z-2.250
G1 X419.054 Y180.606 Z-2.250
G1 X419.110 Y180.853 Z-2.250
G1 X419.128 Y181.094 Z-2.250
G1 X419.110 Y181.335 Z-2.250
G1 X419.054 Y181.583 Z-2.250
G1 X418.957 Y181.828 Z-2.250
G1 X418.818 Y182.060 Z-2.250
G1 X418.641 Y182.270 Z-2.250
G1 X418.431 Y182.447 Z-2.250
G1 X418.199 Y182.586 Z-2.250
G1 X417.954 Y182.683 Z-2.250
G1 X417.706 Y182.739 Z-2.250
G1 X417.465 Y182.757 Z-2.250
G0 X417.465 Y182.757
G0 Z6.000
G0 X417.465 Y181.487
G0 Z6.000
G1 X417.465 Y181.487 Z-3.000 F254.0
G1 X417.408 Y181.483 Z-3.000 F177.8
G1 X417.350 Y181.469 Z-3.000
G1 X417.292 Y181.446 Z-3.000
G1 X417.237 Y181.414 Z-3.000
G1 X417.188 Y181.372 Z-3.000
G1 X417.146 Y181.322 Z-3.000
G1 X417.113 Y181.267 Z-3.000
G1 X417.090 Y181.210 Z-3.000
G1 X417.077 Y181.151 Z-3.000
G1 X417.073 Y181.094 Z-3.000
G1 X417.077 Y181.037 Z-3.000
G1 X417.090 Y180.979 Z-3.000
G1 X417.113 Y180.921 Z-3.000
G1 X417.146 Y180.866 Z-3.000
G1 X417.188 Y180.817 Z-3.000
G1 X417.237 Y180.775 Z-3.000
G1 X417.292 Y180.742 Z-3.000
G1 X417.350 Y180.719 Z-3.000
G1 X417.408 Y180.706 Z-3.000
G1 X417.465 Y180.702 Z-3.000
G1 X417.522 Y180.706 Z-3.000
G1 X417.580 Y180.719 Z-3.000
G1 X417.638 Y180.742 Z-3.000
G1 X417.693 Y180.775 Z-3.000
G1 X417.743 Y180.817 Z-3.000
G1 X417.785 Y180.866 Z-3.000
G1 X417.817 Y180.921 Z-3.000
G1 X417.840 Y180.979 Z-3.000
G1 X417.853 Y181.037 Z-3.000
G1 X417.858 Y181.094 Z-3.000
G1 X417.853 Y181.151 Z-3.000
G1 X417.840 Y181.210 Z-3.000
G1 X417.817 Y181.267 Z-3.000
G1 X417.785 Y181.322 Z-3.000
G1 X417.743 Y181.372 Z-3.000
G1 X417.693 Y181.414 Z-3.000
G1 X417.638 Y181.446 Z-3.000
G1 X417.580 Y181.469 Z-3.000
G1 X417.522 Y181.483 Z-3.000
G1 X417.465 Y181.487 Z-3.000
G1 X417.465 Y182.757 Z-3.000
G1 X417.224 Y182.739 Z-3.000
G1 X416.977 Y182.683 Z-3.000
G1 X416.732 Y182.586 Z-3.000
G1 X416.499 Y182.447 Z-3.000
G1 X416.290 Y182.270 Z-3.000
G1 X416.112 Y182.060 Z-3.000
G1 X415.973 Y181.828 Z-3.000
G1 X415.876 Y181.583 Z-3.000
G1 X415.820 Y181.335 Z-3.000
G1 X415.803 Y181.094 Z-3.000
G1 X415.820 Y180.853 Z-3.000
G1 X415.876 Y180.606 Z-3.000
G1 X415.973 Y180.361 Z-3.000
G1 X416.112 Y180.128 Z-3.000
G1 X416.290 Y179.919 Z-3.000
G1 X416.499 Y179.741 Z-3.000
G1 X416.732 Y179.602 Z-3.000
G1 X416.977 Y179.505 Z-3.000
G1 X417.224 Y179.449 Z-3.000
G1 X417.465 Y179.432 Z-3.000
G1 X417.706 Y179.449 Z-3.000
G1 X417.954 Y179.505 Z-3.000
G1 X418.199 Y179.602 Z-3.000
G1 X418.431 Y179.741 Z-3.000
G1 X418.641 Y179.919 Z-3.000
G1 X418.818 Y180.128 Z-3.000
G1 X418.957 Y180.361 Z-3.000
G1 X419.054 Y180.606 Z-3.000
G1 X419.110 Y180.853 Z-3.000
G1 X419.128 Y181.094 Z-3.000
G1 X419.110 Y181.335 Z-3.000
G1 X419.054 Y181.583 Z-3.000
G1 X418.957 Y181.828 Z-3.000
G1 X418.818 Y182.060 Z-3.000
G1 X418.641 Y182.270 Z-3.000
G1 X418.431 Y182.447 Z-3.000
G1 X418.199 Y182.586 Z-3.000
G1 X417.954 Y182.683 Z-3.000
G1 X417.706 Y182.739 Z-3.000
G1 X417.465 Y182.757 Z-3.000
G0 X417.465 Y182.757
G0 Z6.000
G0 X417.465 Y181.487
G0 Z6.000
G1 X417.465 Y181.487 Z-3.750 F254.0
G1 X417.408 Y181.483 Z-3.750 F177.8
G1 X417.350 Y181.469 Z-3.750
G1 X417.292 Y181.446 Z-3.750
G1 X417.237 Y181.414 Z-3.750
G1 X417.188 Y181.372 Z-3.750
G1 X417.146 Y181.322 Z-3.750
G1 X417.113 Y181.267 Z-3.750
G1 X417.090 Y181.210 Z-3.750
G1 X417.077 Y181.151 Z-3.750
G1 X417.073 Y181.094 Z-3.750
G1 X417.077 Y181.037 Z-3.750
G1 X417.090 Y180.979 Z-3.750
G1 X417.113 Y180.921 Z-3.750
G1 X417.146 Y180.866 Z-3.750
G1 X417.188 Y180.817 Z-3.750
G1 X417.237 Y180.775 Z-3.750
G1 X417.292 Y180.742 Z-3.750
G1 X417.350 Y180.719 Z-3.750
G1 X417.408 Y180.706 Z-3.750
G1 X417.465 Y180.702 Z-3.750
G1 X417.522 Y180.706 Z-3.750
G1 X417.580 Y180.719 Z-3.750
G1 X417.638 Y180.742 Z-3.750
G1 X417.693 Y180.775 Z-3.750
G1 X417.743 Y180.817 Z-3.750
G1 X417.785 Y180.866 Z-3.750
G1 X417.817 Y180.921 Z-3.750
G1 X417.840 Y180.979 Z-3.750
G1 X417.853 Y181.037 Z-3.750
G1 X417.858 Y181.094 Z-3.750
G1 X417.853 Y181.151 Z-3.750
G1 X417.840 Y181.210 Z-3.750
G1 X417.817 Y181.267 Z-3.750
G1 X417.785 Y181.322 Z-3.750
G1 X417.743 Y181.372 Z-3.750
G1 X417.693 Y181.414 Z-3.750
G1 X417.638 Y181.446 Z-3.750
G1 X417.580 Y181.469 Z-3.750
G1 X417.522 Y181.483 Z-3.750
G1 X417.465 Y181.487 Z-3.750
G1 X417.465 Y182.757 Z-3.750
G1 X417.224 Y182.739 Z-3.750
G1 X416.977 Y182.683 Z-3.750
G1 X416.732 Y182.586 Z-3.750
G1 X416.499 Y182.447 Z-3.750
G1 X416.290 Y182.270 Z-3.750
G1 X416.112 Y182.060 Z-3.750
G1 X415.973 Y181.828 Z-3.750
G1 X415.876 Y181.583 Z-3.750
G1 X415.820 Y181.335 Z-3.750
G1 X415.803 Y181.094 Z-3.750
G1 X415.820 Y180.853 Z-3.750
G1 X415.876 Y180.606 Z-3.750
G1 X415.973 Y180.361 Z-3.750
G1 X416.112 Y180.128 Z-3.750
G1 X416.290 Y179.919 Z-3.750
G1 X416.499 Y179.741 Z-3.750
G1 X416.732 Y179.602 Z-3.750
G1 X416.977 Y179.505 Z-3.750
G1 X417.224 Y179.449 Z-3.750
G1 X417.465 Y179.432 Z-3.750
G1 X417.706 Y179.449 Z-3.750
G1 X417.954 Y179.505 Z-3.750
G1 X418.199 Y179.602 Z-3.750
G1 X418.431 Y179.741 Z-3.750
G1 X418.641 Y179.919 Z-3.750
G1 X418.818 Y180.128 Z-3.750
G1 X418.957 Y180.361 Z-3.750
G1 X419.054 Y180.606 Z-3.750
G1 X419.110 Y180.853 Z-3.750
G1 X419.128 Y181.094 Z-3.750
G1 X419.110 Y181.335 Z-3.750
G1 X419.054 Y181.583 Z-3.750
G1 X418.957 Y181.828 Z-3.750
G1 X418.818 Y182.060 Z-3.750
G1 X418.641 Y182.270 Z-3.750
G1 X418.431 Y182.447 Z-3.750
G1 X418.199 Y182.586 Z-3.750
G1 X417.954 Y182.683 Z-3.750
G1 X417.706 Y182.739 Z-3.750
G1 X417.465 Y182.757 Z-3.750
G0 X417.465 Y182.757
G0 Z6.000
G0 X417.465 Y181.487
G0 Z6.000
G1 X417.465 Y181.487 Z-4.500 F254.0
G1 X417.408 Y181.483 Z-4.500 F177.8
G1 X417.350 Y181.469 Z-4.500
G1 X417.292 Y181.446 Z-4.500
G1 X417.237 Y181.414 Z-4.500
G1 X417.188 Y181.372 Z-4.500
G1 X417.146 Y181.322 Z-4.500
G1 X417.113 Y181.267 Z-4.500
G1 X417.090 Y181.210 Z-4.500
G1 X417.077 Y181.151 Z-4.500
G1 X417.073 Y181.094 Z-4.500
G1 X417.077 Y181.037 Z-4.500
G1 X417.090 Y180.979 Z-4.500
G1 X417.113 Y180.921 Z-4.500
G1 X417.146 Y180.866 Z-4.500
G1 X417.188 Y180.817 Z-4.500
G1 X417.237 Y180.775 Z-4.500
G1 X417.292 Y180.742 Z-4.500
G1 X417.350 Y180.719 Z-4.500
G1 X417.408 Y180.706 Z-4.500
G1 X417.465 Y180.702 Z-4.500
G1 X417.522 Y180.706 Z-4.500
G1 X417.580 Y180.719 Z-4.500
G1 X417.638 Y180.742 Z-4.500
G1 X417.693 Y180.775 Z-4.500
G1 X417.743 Y180.817 Z-4.500
G1 X417.785 Y180.866 Z-4.500
G1 X417.817 Y180.921 Z-4.500
G1 X417.840 Y180.979 Z-4.500
G1 X417.853 Y181.037 Z-4.500
G1 X417.858 Y181.094 Z-4.500
G1 X417.853 Y181.151 Z-4.500
G1 X417.840 Y181.210 Z-4.500
G1 X417.817 Y181.267 Z-4.500
G1 X417.785 Y181.322 Z-4.500
G1 X417.743 Y181.372 Z-4.500
G1 X417.693 Y181.414 Z-4.500
G1 X417.638 Y181.446 Z-4.500
G1 X417.580 Y181.469 Z-4.500
G1 X417.522 Y181.483 Z-4.500
G1 X417.465 Y181.487 Z-4.500
G1 X417.465 Y182.757 Z-4.500
G1 X417.224 Y182.739 Z-4.500
G1 X416.977 Y182.683 Z-4.500
G1 X416.732 Y182.586 Z-4.500
G1 X416.499 Y182.447 Z-4.500
G1 X416.290 Y182.270 Z-4.500
G1 X416.112 Y182.060 Z-4.500
G1 X415.973 Y181.828 Z-4.500
G1 X415.876 Y181.583 Z-4.500
G1 X415.820 Y181.335 Z-4.500
G1 X415.803 Y181.094 Z-4.500
G1 X415.820 Y180.853 Z-4.500
G1 X415.876 Y180.606 Z-4.500
G1 X415.973 Y180.361 Z-4.500
G1 X416.112 Y180.128 Z-4.500
G1 X416.290 Y179.919 Z-4.500
G1 X416.499 Y179.741 Z-4.500
G1 X416.732 Y179.602 Z-4.500
G1 X416.977 Y179.505 Z-4.500
G1 X417.224 Y179.449 Z-4.500
G1 X417.465 Y179.432 Z-4.500
G1 X417.706 Y179.449 Z-4.500
G1 X417.954 Y179.505 Z-4.500
G1 X418.199 Y179.602 Z-4.500
G1 X418.431 Y179.741 Z-4.500
G1 X418.641 Y179.919 Z-4.500
G1 X418.818 Y180.128 Z-4.500
G1 X418.957 Y180.361 Z-4.500
G1 X419.054 Y180.606 Z-4.500
G1 X419.110 Y180.853 Z-4.500
G1 X419.128 Y181.094 Z-4.500
G1 X419.110 Y181.335 Z-4.500
G1 X419.054 Y181.583 Z-4.500
G1 X418.957 Y181.828 Z-4.500
G1 X418.818 Y182.060 Z-4.500
G1 X418.641 Y182.270 Z-4.500
G1 X418.431 Y182.447 Z-4.500
G1 X418.199 Y182.586 Z-4.500
G1 X417.954 Y182.683 Z-4.500
G1 X417.706 Y182.739 Z-4.500
G1 X417.465 Y182.757 Z-4.500
G0 X417.465 Y182.757
G0 Z6.000
G0 X417.465 Y181.487
G0 Z6.000
G1 X417.465 Y181.487 Z-5.250 F254.0
G1 X417.408 Y181.483 Z-5.250 F177.8
G1 X417.350 Y181.469 Z-5.250
G1 X417.292 Y181.446 Z-5.250
G1 X417.237 Y181.414 Z-5.250
G1 X417.188 Y181.372 Z-5.250
G1 X417.146 Y181.322 Z-5.250
G1 X417.113 Y181.267 Z-5.250
G1 X417.090 Y181.210 Z-5.250
G1 X417.077 Y181.151 Z-5.250
G1 X417.073 Y181.094 Z-5.250
G1 X417.077 Y181.037 Z-5.250
G1 X417.090 Y180.979 Z-5.250
G1 X417.113 Y180.921 Z-5.250
G1 X417.146 Y180.866 Z-5.250
G1 X417.188 Y180.817 Z-5.250
G1 X417.237 Y180.775 Z-5.250
G1 X417.292 Y180.742 Z-5.250
G1 X417.350 Y180.719 Z-5.250
G1 X417.408 Y180.706 Z-5.250
G1 X417.465 Y180.702 Z-5.250
G1 X417.522 Y180.706 Z-5.250
G1 X417.580 Y180.719 Z-5.250
G1 X417.638 Y180.742 Z-5.250
G1 X417.693 Y180.775 Z-5.250
G1 X417.743 Y180.817 Z-5.250
G1 X417.785 Y180.866 Z-5.250
G1 X417.817 Y180.921 Z-5.250
G1 X417.840 Y180.979 Z-5.250
G1 X417.853 Y181.037 Z-5.250
G1 X417.858 Y181.094 Z-5.250
G1 X417.853 Y181.151 Z-5.250
G1 X417.840 Y181.210 Z-5.250
G1 X417.817 Y181.267 Z-5.250
G1 X417.785 Y181.322 Z-5.250
G1 X417.743 Y181.372 Z-5.250
G1 X417.693 Y181.414 Z-5.250
G1 X417.638 Y181.446 Z-5.250
G1 X417.580 Y181.469 Z-5.250
G1 X417.522 Y181.483 Z-5.250
G1 X417.465 Y181.487 Z-5.250
G1 X417.465 Y182.757 Z-5.250
G1 X417.224 Y182.739 Z-5.250
G1 X416.977 Y182.683 Z-5.250
G1 X416.732 Y182.586 Z-5.250
G1 X416.499 Y182.447 Z-5.250
G1 X416.290 Y182.270 Z-5.250
G1 X416.112 Y182.060 Z-5.250
G1 X415.973 Y181.828 Z-5.250
G1 X415.876 Y181.583 Z-5.250
G1 X415.820 Y181.335 Z-5.250
G1 X415.803 Y181.094 Z-5.250
G1 X415.820 Y180.853 Z-5.250
G1 X415.876 Y180.606 Z-5.250
G1 X415.973 Y180.361 Z-5.250
G1 X416.112 Y180.128 Z-5.250
G1 X416.290 Y179.919 Z-5.250
G1 X416.499 Y179.741 Z-5.250
G1 X416.732 Y179.602 Z-5.250
G1 X416.977 Y179.505 Z-5.250
G1 X417.224 Y179.449 Z-5.250
G1 X417.465 Y179.432 Z-5.250
G1 X417.706 Y179.449 Z-5.250
G1 X417.954 Y179.505 Z-5.250
G1 X418.199 Y179.602 Z-5.250
G1 X418.431 Y179.741 Z-5.250
G1 X418.641 Y179.919 Z-5.250
G1 X418.818 Y180.128 Z-5.250
G1 X418.957 Y180.361 Z-5.250
G1 X419.054 Y180.606 Z-5.250
G1 X419.110 Y180.853 Z-5.250
G1 X419.128 Y181.094 Z-5.250
G1 X419.110 Y181.335 Z-5.250
G1 X419.054 Y181.583 Z-5.250
G1 X418.957 Y181.828 Z-5.250
G1 X418.818 Y182.060 Z-5.250
G1 X418.641 Y182.270 Z-5.250
G1 X418.431 Y182.447 Z-5.250
G1 X418.199 Y182.586 Z-5.250
G1 X417.954 Y182.683 Z-5.250
G1 X417.706 Y182.739 Z-5.250
G1 X417.465 Y182.757 Z-5.250
G0 X417.465 Y182.757
G0 Z6.000
G0 X417.465 Y181.487
G0 Z6.000
G1 X417.465 Y181.487 Z-6.000 F254.0
G1 X417.408 Y181.483 Z-6.000 F177.8
G1 X417.350 Y181.469 Z-6.000
G1 X417.292 Y181.446 Z-6.000
G1 X417.237 Y181.414 Z-6.000
G1 X417.188 Y181.372 Z-6.000
G1 X417.146 Y181.322 Z-6.000
G1 X417.113 Y181.267 Z-6.000
G1 X417.090 Y181.210 Z-6.000
G1 X417.077 Y181.151 Z-6.000
G1 X417.073 Y181.094 Z-6.000
G1 X417.077 Y181.037 Z-6.000
G1 X417.090 Y180.979 Z-6.000
G1 X417.113 Y180.921 Z-6.000
G1 X417.146 Y180.866 Z-6.000
G1 X417.188 Y180.817 Z-6.000
G1 X417.237 Y180.775 Z-6.000
G1 X417.292 Y180.742 Z-6.000
G1 X417.350 Y180.719 Z-6.000
G1 X417.408 Y180.706 Z-6.000
G1 X417.465 Y180.702 Z-6.000
G1 X417.522 Y180.706 Z-6.000
G1 X417.580 Y180.719 Z-6.000
G1 X417.638 Y180.742 Z-6.000
G1 X417.693 Y180.775 Z-6.000
G1 X417.743 Y180.817 Z-6.000
G1 X417.785 Y180.866 Z-6.000
G1 X417.817 Y180.921 Z-6.000
G1 X417.840 Y180.979 Z-6.000
G1 X417.853 Y181.037 Z-6.000
G1 X417.858 Y181.094 Z-6.000
G1 X417.853 Y181.151 Z-6.000
G1 X417.840 Y181.210 Z-6.000
G1 X417.817 Y181.267 Z-6.000
G1 X417.785 Y181.322 Z-6.000
G1 X417.743 Y181.372 Z-6.000
G1 X417.693 Y181.414 Z-6.000
G1 X417.638 Y181.446 Z-6.000
G1 X417.580 Y181.469 Z-6.000
G1 X417.522 Y181.483 Z-6.000
G1 X417.465 Y181.487 Z-6.000
G1 X417.465 Y182.757 Z-6.000
G1 X417.224 Y182.739 Z-6.000
G1 X416.977 Y182.683 Z-6.000
G1 X416.732 Y182.586 Z-6.000
G1 X416.499 Y182.447 Z-6.000
G1 X416.290 Y182.270 Z-6.000
G1 X416.112 Y182.060 Z-6.000
G1 X415.973 Y181.828 Z-6.000
G1 X415.876 Y181.583 Z-6.000
G1 X415.820 Y181.335 Z-6.000
G1 X415.803 Y181.094 Z-6.000
G1 X415.820 Y180.853 Z-6.000
G1 X415.876 Y180.606 Z-6.000
G1 X415.973 Y180.361 Z-6.000
G1 X416.112 Y180.128 Z-6.000
G1 X416.290 Y179.919 Z-6.000
G1 X416.499 Y179.741 Z-6.000
G1 X416.732 Y179.602 Z-6.000
G1 X416.977 Y179.505 Z-6.000
G1 X417.224 Y179.449 Z-6.000
G1 X417.465 Y179.432 Z-6.000
G1 X417.706 Y179.449 Z-6.000
G1 X417.954 Y179.505 Z-6.000
G1 X418.199 Y179.602 Z-6.000
G1 X418.431 Y179.741 Z-6.000
G1 X418.641 Y179.919 Z-6.000
G1 X418.818 Y180.128 Z-6.000
G1 X418.957 Y180.361 Z-6.000
G1 X419.054 Y180.606 Z-6.000
G1 X419.110 Y180.853 Z-6.000
G1 X419.128 Y181.094 Z-6.000
G1 X419.110 Y181.335 Z-6.000
G1 X419.054 Y181.583 Z-6.000
G1 X418.957 Y181.828 Z-6.000
G1 X418.818 Y182.060 Z-6.000
G1 X418.641 Y182.270 Z-6.000
G1 X418.431 Y182.447 Z-6.000
G1 X418.199 Y182.586 Z-6.000
G1 X417.954 Y182.683 Z-6.000
G1 X417.706 Y182.739 Z-6.000
G1 X417.465 Y182.757 Z-6.000
G0 X417.465 Y182.757
G0 Z6.000
G0 X417.465 Y181.487
G0 Z6.000
G1 X417.465 Y181.487 Z-6.750 F254.0
G1 X417.408 Y181.483 Z-6.750 F177.8
G1 X417.350 Y181.469 Z-6.750
G1 X417.292 Y181.446 Z-6.750
G1 X417.237 Y181.414 Z-6.750
G1 X417.188 Y181.372 Z-6.750
G1 X417.146 Y181.322 Z-6.750
G1 X417.113 Y181.267 Z-6.750
G1 X417.090 Y181.210 Z-6.750
G1 X417.077 Y181.151 Z-6.750
G1 X417.073 Y181.094 Z-6.750
G1 X417.077 Y181.037 Z-6.750
G1 X417.090 Y180.979 Z-6.750
G1 X417.113 Y180.921 Z-6.750
G1 X417.146 Y180.866 Z-6.750
G1 X417.188 Y180.817 Z-6.750
G1 X417.237 Y180.775 Z-6.750
G1 X417.292 Y180.742 Z-6.750
G1 X417.350 Y180.719 Z-6.750
G1 X417.408 Y180.706 Z-6.750
G1 X417.465 Y180.702 Z-6.750
G1 X417.522 Y180.706 Z-6.750
G1 X417.580 Y180.719 Z-6.750
G1 X417.638 Y180.742 Z-6.750
G1 X417.693 Y180.775 Z-6.750
G1 X417.743 Y180.817 Z-6.750
G1 X417.785 Y180.866 Z-6.750
G1 X417.817 Y180.921 Z-6.750
G1 X417.840 Y180.979 Z-6.750
G1 X417.853 Y181.037 Z-6.750
G1 X417.858 Y181.094 Z-6.750
G1 X417.853 Y181.151 Z-6.750
G1 X417.840 Y181.210 Z-6.750
G1 X417.817 Y181.267 Z-6.750
G1 X417.785 Y181.322 Z-6.750
G1 X417.743 Y181.372 Z-6.750
G1 X417.693 Y181.414 Z-6.750
G1 X417.638 Y181.446 Z-6.750
G1 X417.580 Y181.469 Z-6.750
G1 X417.522 Y181.483 Z-6.750
G1 X417.465 Y181.487 Z-6.750
G1 X417.465 Y182.757 Z-6.750
G1 X417.224 Y182.739 Z-6.750
G1 X416.977 Y182.683 Z-6.750
G1 X416.732 Y182.586 Z-6.750
G1 X416.499 Y182.447 Z-6.750
G1 X416.290 Y182.270 Z-6.750
G1 X416.112 Y182.060 Z-6.750
G1 X415.973 Y181.828 Z-6.750
G1 X415.876 Y181.583 Z-6.750
G1 X415.820 Y181.335 Z-6.750
G1 X415.803 Y181.094 Z-6.750
G1 X415.820 Y180.853 Z-6.750
G1 X415.876 Y180.606 Z-6.750
G1 X415.973 Y180.361 Z-6.750
G1 X416.112 Y180.128 Z-6.750
G1 X416.290 Y179.919 Z-6.750
G1 X416.499 Y179.741 Z-6.750
G1 X416.732 Y179.602 Z-6.750
G1 X416.977 Y179.505 Z-6.750
G1 X417.224 Y179.449 Z-6.750
G1 X417.465 Y179.432 Z-6.750
G1 X417.706 Y179.449 Z-6.750
G1 X417.954 Y179.505 Z-6.750
G1 X418.199 Y179.602 Z-6.750
G1 X418.431 Y179.741 Z-6.750
G1 X418.641 Y179.919 Z-6.750
G1 X418.818 Y180.128 Z-6.750
G1 X418.957 Y180.361 Z-6.750
G1 X419.054 Y180.606 Z-6.750
G1 X419.110 Y180.853 Z-6.750
G1 X419.128 Y181.094 Z-6.750
G1 X419.110 Y181.335 Z-6.750
G1 X419.054 Y181.583 Z-6.750
G1 X418.957 Y181.828 Z-6.750
G1 X418.818 Y182.060 Z-6.750
G1 X418.641 Y182.270 Z-6.750
G1 X418.431 Y182.447 Z-6.750
G1 X418.199 Y182.586 Z-6.750
G1 X417.954 Y182.683 Z-6.750
G1 X417.706 Y182.739 Z-6.750
G1 X417.465 Y182.757 Z-6.750
G0 X417.465 Y182.757
G0 Z6.000
G0 X417.465 Y181.487
G0 Z6.000
G1 X417.465 Y181.487 Z-7.500 F254.0
G1 X417.408 Y181.483 Z-7.500 F177.8
G1 X417.350 Y181.469 Z-7.500
G1 X417.292 Y181.446 Z-7.500
G1 X417.237 Y181.414 Z-7.500
G1 X417.188 Y181.372 Z-7.500
G1 X417.146 Y181.322 Z-7.500
G1 X417.113 Y181.267 Z-7.500
G1 X417.090 Y181.210 Z-7.500
G1 X417.077 Y181.151 Z-7.500
G1 X417.073 Y181.094 Z-7.500
G1 X417.077 Y181.037 Z-7.500
G1 X417.090 Y180.979 Z-7.500
G1 X417.113 Y180.921 Z-7.500
G1 X417.146 Y180.866 Z-7.500
G1 X417.188 Y180.817 Z-7.500
G1 X417.237 Y180.775 Z-7.500
G1 X417.292 Y180.742 Z-7.500
G1 X417.350 Y180.719 Z-7.500
G1 X417.408 Y180.706 Z-7.500
G1 X417.465 Y180.702 Z-7.500
G1 X417.522 Y180.706 Z-7.500
G1 X417.580 Y180.719 Z-7.500
G1 X417.638 Y180.742 Z-7.500
G1 X417.693 Y180.775 Z-7.500
G1 X417.743 Y180.817 Z-7.500
G1 X417.785 Y180.866 Z-7.500
G1 X417.817 Y180.921 Z-7.500
G1 X417.840 Y180.979 Z-7.500
G1 X417.853 Y181.037 Z-7.500
G1 X417.858 Y181.094 Z-7.500
G1 X417.853 Y181.151 Z-7.500
G1 X417.840 Y181.210 Z-7.500
G1 X417.817 Y181.267 Z-7.500
G1 X417.785 Y181.322 Z-7.500
G1 X417.743 Y181.372 Z-7.500
G1 X417.693 Y181.414 Z-7.500
G1 X417.638 Y181.446 Z-7.500
G1 X417.580 Y181.469 Z-7.500
G1 X417.522 Y181.483 Z-7.500
G1 X417.465 Y181.487 Z-7.500
G1 X417.465 Y182.757 Z-7.500
G1 X417.224 Y182.739 Z-7.500
G1 X416.977 Y182.683 Z-7.500
G1 X416.732 Y182.586 Z-7.500
G1 X416.499 Y182.447 Z-7.500
G1 X416.290 Y182.270 Z-7.500
G1 X416.112 Y182.060 Z-7.500
G1 X415.973 Y181.828 Z-7.500
G1 X415.876 Y181.583 Z-7.500
G1 X415.820 Y181.335 Z-7.500
G1 X415.803 Y181.094 Z-7.500
G1 X415.820 Y180.853 Z-7.500
G1 X415.876 Y180.606 Z-7.500
G1 X415.973 Y180.361 Z-7.500
G1 X416.112 Y180.128 Z-7.500
G1 X416.290 Y179.919 Z-7.500
G1 X416.499 Y179.741 Z-7.500
G1 X416.732 Y179.602 Z-7.500
G1 X416.977 Y179.505 Z-7.500
G1 X417.224 Y179.449 Z-7.500
G1 X417.465 Y179.432 Z-7.500
G1 X417.706 Y179.449 Z-7.500
G1 X417.954 Y179.505 Z-7.500
G1 X418.199 Y179.602 Z-7.500
G1 X418.431 Y179.741 Z-7.500
G1 X418.641 Y179.919 Z-7.500
G1 X418.818 Y180.128 Z-7.500
G1 X418.957 Y180.361 Z-7.500
G1 X419.054 Y180.606 Z-7.500
G1 X419.110 Y180.853 Z-7.500
G1 X419.128 Y181.094 Z-7.500
G1 X419.110 Y181.335 Z-7.500
G1 X419.054 Y181.583 Z-7.500
G1 X418.957 Y181.828 Z-7.500
G1 X418.818 Y182.060 Z-7.500
G1 X418.641 Y182.270 Z-7.500
G1 X418.431 Y182.447 Z-7.500
G1 X418.199 Y182.586 Z-7.500
G1 X417.954 Y182.683 Z-7.500
G1 X417.706 Y182.739 Z-7.500
G1 X417.465 Y182.757 Z-7.500
G0 X417.465 Y182.757
G0 Z6.000
G0 X417.465 Y181.487
G0 Z6.000
G1 X417.465 Y181.487 Z-8.250 F254.0
G1 X417.408 Y181.483 Z-8.250 F177.8
G1 X417.350 Y181.469 Z-8.250
G1 X417.292 Y181.446 Z-8.250
G1 X417.237 Y181.414 Z-8.250
G1 X417.188 Y181.372 Z-8.250
G1 X417.146 Y181.322 Z-8.250
G1 X417.113 Y181.267 Z-8.250
G1 X417.090 Y181.210 Z-8.250
G1 X417.077 Y181.151 Z-8.250
G1 X417.073 Y181.094 Z-8.250
G1 X417.077 Y181.037 Z-8.250
G1 X417.090 Y180.979 Z-8.250
G1 X417.113 Y180.921 Z-8.250
G1 X417.146 Y180.866 Z-8.250
G1 X417.188 Y180.817 Z-8.250
G1 X417.237 Y180.775 Z-8.250
G1 X417.292 Y180.742 Z-8.250
G1 X417.350 Y180.719 Z-8.250
G1 X417.408 Y180.706 Z-8.250
G1 X417.465 Y180.702 Z-8.250
G1 X417.522 Y180.706 Z-8.250
G1 X417.580 Y180.719 Z-8.250
G1 X417.638 Y180.742 Z-8.250
G1 X417.693 Y180.775 Z-8.250
G1 X417.743 Y180.817 Z-8.250
G1 X417.785 Y180.866 Z-8.250
G1 X417.817 Y180.921 Z-8.250
G1 X417.840 Y180.979 Z-8.250
G1 X417.853 Y181.037 Z-8.250
G1 X417.858 Y181.094 Z-8.250
G1 X417.853 Y181.151 Z-8.250
G1 X417.840 Y181.210 Z-8.250
G1 X417.817 Y181.267 Z-8.250
G1 X417.785 Y181.322 Z-8.250
G1 X417.743 Y181.372 Z-8.250
G1 X417.693 Y181.414 Z-8.250
G1 X417.638 Y181.446 Z-8.250
G1 X417.580 Y181.469 Z-8.250
G1 X417.522 Y181.483 Z-8.250
G1 X417.465 Y181.487 Z-8.250
G1 X417.465 Y182.757 Z-8.250
G1 X417.224 Y182.739 Z-8.250
G1 X416.977 Y182.683 Z-8.250
G1 X416.732 Y182.586 Z-8.250
G1 X416.499 Y182.447 Z-8.250
G1 X416.290 Y182.270 Z-8.250
G1 X416.112 Y182.060 Z-8.250
G1 X415.973 Y181.828 Z-8.250
G1 X415.876 Y181.583 Z-8.250
G1 X415.820 Y181.335 Z-8.250
G1 X415.803 Y181.094 Z-8.250
G1 X415.820 Y180.853 Z-8.250
G1 X415.876 Y180.606 Z-8.250
G1 X415.973 Y180.361 Z-8.250
G1 X416.112 Y180.128 Z-8.250
G1 X416.290 Y179.919 Z-8.250
G1 X416.499 Y179.741 Z-8.250
G1 X416.732 Y179.602 Z-8.250
G1 X416.977 Y179.505 Z-8.250
G1 X417.224 Y179.449 Z-8.250
G1 X417.465 Y179.432 Z-8.250
G1 X417.706 Y179.449 Z-8.250
G1 X417.954 Y179.505 Z-8.250
G1 X418.199 Y179.602 Z-8.250
G1 X418.431 Y179.741 Z-8.250
G1 X418.641 Y179.919 Z-8.250
G1 X418.818 Y180.128 Z-8.250
G1 X418.957 Y180.361 Z-8.250
G1 X419.054 Y180.606 Z-8.250
G1 X419.110 Y180.853 Z-8.250
G1 X419.128 Y181.094 Z-8.250
G1 X419.110 Y181.335 Z-8.250
G1 X419.054 Y181.583 Z-8.250
G1 X418.957 Y181.828 Z-8.250
G1 X418.818 Y182.060 Z-8.250
G1 X418.641 Y182.270 Z-8.250
G1 X418.431 Y182.447 Z-8.250
G1 X418.199 Y182.586 Z-8.250
G1 X417.954 Y182.683 Z-8.250
G1 X417.706 Y182.739 Z-8.250
G1 X417.465 Y182.757 Z-8.250
G0 X417.465 Y182.757
G0 Z6.000
G0 X417.465 Y181.487
G0 Z6.000
G1 X417.465 Y181.487 Z-9.000 F254.0
G1 X417.408 Y181.483 Z-9.000 F177.8
G1 X417.350 Y181.469 Z-9.000
G1 X417.292 Y181.446 Z-9.000
G1 X417.237 Y181.414 Z-9.000
G1 X417.188 Y181.372 Z-9.000
G1 X417.146 Y181.322 Z-9.000
G1 X417.113 Y181.267 Z-9.000
G1 X417.090 Y181.210 Z-9.000
G1 X417.077 Y181.151 Z-9.000
G1 X417.073 Y181.094 Z-9.000
G1 X417.077 Y181.037 Z-9.000
G1 X417.090 Y180.979 Z-9.000
G1 X417.113 Y180.921 Z-9.000
G1 X417.146 Y180.866 Z-9.000
G1 X417.188 Y180.817 Z-9.000
G1 X417.237 Y180.775 Z-9.000
G1 X417.292 Y180.742 Z-9.000
G1 X417.350 Y180.719 Z-9.000
G1 X417.408 Y180.706 Z-9.000
G1 X417.465 Y180.702 Z-9.000
G1 X417.522 Y180.706 Z-9.000
G1 X417.580 Y180.719 Z-9.000
G1 X417.638 Y180.742 Z-9.000
G1 X417.693 Y180.775 Z-9.000
G1 X417.743 Y180.817 Z-9.000
G1 X417.785 Y180.866 Z-9.000
G1 X417.817 Y180.921 Z-9.000
G1 X417.840 Y180.979 Z-9.000
G1 X417.853 Y181.037 Z-9.000
G1 X417.858 Y181.094 Z-9.000
G1 X417.853 Y181.151 Z-9.000
G1 X417.840 Y181.210 Z-9.000
G1 X417.817 Y181.267 Z-9.000
G1 X417.785 Y181.322 Z-9.000
G1 X417.743 Y181.372 Z-9.000
G1 X417.693 Y181.414 Z-9.000
G1 X417.638 Y181.446 Z-9.000
G1 X417.580 Y181.469 Z-9.000
G1 X417.522 Y181.483 Z-9.000
G1 X417.465 Y181.487 Z-9.000
G1 X417.465 Y182.757 Z-9.000
G1 X417.224 Y182.739 Z-9.000
G1 X416.977 Y182.683 Z-9.000
G1 X416.732 Y182.586 Z-9.000
G1 X416.499 Y182.447 Z-9.000
G1 X416.290 Y182.270 Z-9.000
G1 X416.112 Y182.060 Z-9.000
G1 X415.973 Y181.828 Z-9.000
G1 X415.876 Y181.583 Z-9.000
G1 X415.820 Y181.335 Z-9.000
G1 X415.803 Y181.094 Z-9.000
G1 X415.820 Y180.853 Z-9.000
G1 X415.876 Y180.606 Z-9.000
G1 X415.973 Y180.361 Z-9.000
G1 X416.112 Y180.128 Z-9.000
G1 X416.290 Y179.919 Z-9.000
G1 X416.499 Y179.741 Z-9.000
G1 X416.732 Y179.602 Z-9.000
G1 X416.977 Y179.505 Z-9.000
G1 X417.224 Y179.449 Z-9.000
G1 X417.465 Y179.432 Z-9.000
G1 X417.706 Y179.449 Z-9.000
G1 X417.954 Y179.505 Z-9.000
G1 X418.199 Y179.602 Z-9.000
G1 X418.431 Y179.741 Z-9.000
G1 X418.641 Y179.919 Z-9.000
G1 X418.818 Y180.128 Z-9.000
G1 X418.957 Y180.361 Z-9.000
G1 X419.054 Y180.606 Z-9.000
G1 X419.110 Y180.853 Z-9.000
G1 X419.128 Y181.094 Z-9.000
G1 X419.110 Y181.335 Z-9.000
G1 X419.054 Y181.583 Z-9.000
G1 X418.957 Y181.828 Z-9.000
G1 X418.818 Y182.060 Z-9.000
G1 X418.641 Y182.270 Z-9.000
G1 X418.431 Y182.447 Z-9.000
G1 X418.199 Y182.586 Z-9.000
G1 X417.954 Y182.683 Z-9.000
G1 X417.706 Y182.739 Z-9.000
G1 X417.465 Y182.757 Z-9.000
G0 X417.465 Y182.757
G0 Z6.000
G0 X417.465 Y181.487
G0 Z6.000
G1 X417.465 Y181.487 Z-9.750 F254.0
G1 X417.408 Y181.483 Z-9.750 F177.8
G1 X417.350 Y181.469 Z-9.750
G1 X417.292 Y181.446 Z-9.750
G1 X417.237 Y181.414 Z-9.750
G1 X417.188 Y181.372 Z-9.750
G1 X417.146 Y181.322 Z-9.750
G1 X417.113 Y181.267 Z-9.750
G1 X417.090 Y181.210 Z-9.750
G1 X417.077 Y181.151 Z-9.750
G1 X417.073 Y181.094 Z-9.750
G1 X417.077 Y181.037 Z-9.750
G1 X417.090 Y180.979 Z-9.750
G1 X417.113 Y180.921 Z-9.750
G1 X417.146 Y180.866 Z-9.750
G1 X417.188 Y180.817 Z-9.750
G1 X417.237 Y180.775 Z-9.750
G1 X417.292 Y180.742 Z-9.750
G1 X417.350 Y180.719 Z-9.750
G1 X417.408 Y180.706 Z-9.750
G1 X417.465 Y180.702 Z-9.750
G1 X417.522 Y180.706 Z-9.750
G1 X417.580 Y180.719 Z-9.750
G1 X417.638 Y180.742 Z-9.750
G1 X417.693 Y180.775 Z-9.750
G1 X417.743 Y180.817 Z-9.750
G1 X417.785 Y180.866 Z-9.750
G1 X417.817 Y180.921 Z-9.750
G1 X417.840 Y180.979 Z-9.750
G1 X417.853 Y181.037 Z-9.750
G1 X417.858 Y181.094 Z-9.750
G1 X417.853 Y181.151 Z-9.750
G1 X417.840 Y181.210 Z-9.750
G1 X417.817 Y181.267 Z-9.750
G1 X417.785 Y181.322 Z-9.750
G1 X417.743 Y181.372 Z-9.750
G1 X417.693 Y181.414 Z-9.750
G1 X417.638 Y181.446 Z-9.750
G1 X417.580 Y181.469 Z-9.750
G1 X417.522 Y181.483 Z-9.750
G1 X417.465 Y181.487 Z-9.750
G1 X417.465 Y182.757 Z-9.750
G1 X417.224 Y182.739 Z-9.750
G1 X416.977 Y182.683 Z-9.750
G1 X416.732 Y182.586 Z-9.750
G1 X416.499 Y182.447 Z-9.750
G1 X416.290 Y182.270 Z-9.750
G1 X416.112 Y182.060 Z-9.750
G1 X415.973 Y181.828 Z-9.750
G1 X415.876 Y181.583 Z-9.750
G1 X415.820 Y181.335 Z-9.750
G1 X415.803 Y181.094 Z-9.750
G1 X415.820 Y180.853 Z-9.750
G1 X415.876 Y180.606 Z-9.750
G1 X415.973 Y180.361 Z-9.750
G1 X416.112 Y180.128 Z-9.750
G1 X416.290 Y179.919 Z-9.750
G1 X416.499 Y179.741 Z-9.750
G1 X416.732 Y179.602 Z-9.750
G1 X416.977 Y179.505 Z-9.750
G1 X417.224 Y179.449 Z-9.750
G1 X417.465 Y179.432 Z-9.750
G1 X417.706 Y179.449 Z-9.750
G1 X417.954 Y179.505 Z-9.750
G1 X418.199 Y179.602 Z-9.750
G1 X418.431 Y179.741 Z-9.750
G1 X418.641 Y179.919 Z-9.750
G1 X418.818 Y180.128 Z-9.750
G1 X418.957 Y180.361 Z-9.750
G1 X419.054 Y180.606 Z-9.750
G1 X419.110 Y180.853 Z-9.750
G1 X419.128 Y181.094 Z-9.750
G1 X419.110 Y181.335 Z-9.750
G1 X419.054 Y181.583 Z-9.750
G1 X418.957 Y181.828 Z-9.750
G1 X418.818 Y182.060 Z-9.750
G1 X418.641 Y182.270 Z-9.750
G1 X418.431 Y182.447 Z-9.750
G1 X418.199 Y182.586 Z-9.750
G1 X417.954 Y182.683 Z-9.750
G1 X417.706 Y182.739 Z-9.750
G1 X417.465 Y182.757 Z-9.750
G0 X417.465 Y182.757
G0 Z6.000
G0 X417.465 Y181.487
G0 Z6.000
G1 X417.465 Y181.487 Z-10.500 F254.0
G1 X417.408 Y181.483 Z-10.500 F177.8
G1 X417.350 Y181.469 Z-10.500
G1 X417.292 Y181.446 Z-10.500
G1 X417.237 Y181.414 Z-10.500
G1 X417.188 Y181.372 Z-10.500
G1 X417.146 Y181.322 Z-10.500
G1 X417.113 Y181.267 Z-10.500
G1 X417.090 Y181.210 Z-10.500
G1 X417.077 Y181.151 Z-10.500
G1 X417.073 Y181.094 Z-10.500
G1 X417.077 Y181.037 Z-10.500
G1 X417.090 Y180.979 Z-10.500
G1 X417.113 Y180.921 Z-10.500
G1 X417.146 Y180.866 Z-10.500
G1 X417.188 Y180.817 Z-10.500
G1 X417.237 Y180.775 Z-10.500
G1 X417.292 Y180.742 Z-10.500
G1 X417.350 Y180.719 Z-10.500
G1 X417.408 Y180.706 Z-10.500
G1 X417.465 Y180.702 Z-10.500
G1 X417.522 Y180.706 Z-10.500
G1 X417.580 Y180.719 Z-10.500
G1 X417.638 Y180.742 Z-10.500
G1 X417.693 Y180.775 Z-10.500
G1 X417.743 Y180.817 Z-10.500
G1 X417.785 Y180.866 Z-10.500
G1 X417.817 Y180.921 Z-10.500
G1 X417.840 Y180.979 Z-10.500
G1 X417.853 Y181.037 Z-10.500
G1 X417.858 Y181.094 Z-10.500
G1 X417.853 Y181.151 Z-10.500
G1 X417.840 Y181.210 Z-10.500
G1 X417.817 Y181.267 Z-10.500
G1 X417.785 Y181.322 Z-10.500
G1 X417.743 Y181.372 Z-10.500
G1 X417.693 Y181.414 Z-10.500
G1 X417.638 Y181.446 Z-10.500
G1 X417.580 Y181.469 Z-10.500
G1 X417.522 Y181.483 Z-10.500
G1 X417.465 Y181.487 Z-10.500
G1 X417.465 Y182.757 Z-10.500
G1 X417.224 Y182.739 Z-10.500
G1 X416.977 Y182.683 Z-10.500
G1 X416.732 Y182.586 Z-10.500
G1 X416.499 Y182.447 Z-10.500
G1 X416.290 Y182.270 Z-10.500
G1 X416.112 Y182.060 Z-10.500
G1 X415.973 Y181.828 Z-10.500
G1 X415.876 Y181.583 Z-10.500
G1 X415.820 Y181.335 Z-10.500
G1 X415.803 Y181.094 Z-10.500
G1 X415.820 Y180.853 Z-10.500
G1 X415.876 Y180.606 Z-10.500
G1 X415.973 Y180.361 Z-10.500
G1 X416.112 Y180.128 Z-10.500
G1 X416.290 Y179.919 Z-10.500
G1 X416.499 Y179.741 Z-10.500
G1 X416.732 Y179.602 Z-10.500
G1 X416.977 Y179.505 Z-10.500
G1 X417.224 Y179.449 Z-10.500
G1 X417.465 Y179.432 Z-10.500
G1 X417.706 Y179.449 Z-10.500
G1 X417.954 Y179.505 Z-10.500
G1 X418.199 Y179.602 Z-10.500
G1 X418.431 Y179.741 Z-10.500
G1 X418.641 Y179.919 Z-10.500
G1 X418.818 Y180.128 Z-10.500
G1 X418.957 Y180.361 Z-10.500
G1 X419.054 Y180.606 Z-10.500
G1 X419.110 Y180.853 Z-10.500
G1 X419.128 Y181.094 Z-10.500
G1 X419.110 Y181.335 Z-10.500
G1 X419.054 Y181.583 Z-10.500
G1 X418.957 Y181.828 Z-10.500
G1 X418.818 Y182.060 Z-10.500
G1 X418.641 Y182.270 Z-10.500
G1 X418.431 Y182.447 Z-10.500
G1 X418.199 Y182.586 Z-10.500
G1 X417.954 Y182.683 Z-10.500
G1 X417.706 Y182.739 Z-10.500
G1 X417.465 Y182.757 Z-10.500
G0 X417.465 Y182.757
G0 Z6.000
G0 X417.465 Y181.487
G0 Z6.000
G1 X417.465 Y181.487 Z-11.250 F254.0
G1 X417.408 Y181.483 Z-11.250 F177.8
G1 X417.350 Y181.469 Z-11.250
G1 X417.292 Y181.446 Z-11.250
G1 X417.237 Y181.414 Z-11.250
G1 X417.188 Y181.372 Z-11.250
G1 X417.146 Y181.322 Z-11.250
G1 X417.113 Y181.267 Z-11.250
G1 X417.090 Y181.210 Z-11.250
G1 X417.077 Y181.151 Z-11.250
G1 X417.073 Y181.094 Z-11.250
G1 X417.077 Y181.037 Z-11.250
G1 X417.090 Y180.979 Z-11.250
G1 X417.113 Y180.921 Z-11.250
G1 X417.146 Y180.866 Z-11.250
G1 X417.188 Y180.817 Z-11.250
G1 X417.237 Y180.775 Z-11.250
G1 X417.292 Y180.742 Z-11.250
G1 X417.350 Y180.719 Z-11.250
G1 X417.408 Y180.706 Z-11.250
G1 X417.465 Y180.702 Z-11.250
G1 X417.522 Y180.706 Z-11.250
G1 X417.580 Y180.719 Z-11.250
G1 X417.638 Y180.742 Z-11.250
G1 X417.693 Y180.775 Z-11.250
G1 X417.743 Y180.817 Z-11.250
G1 X417.785 Y180.866 Z-11.250
G1 X417.817 Y180.921 Z-11.250
G1 X417.840 Y180.979 Z-11.250
G1 X417.853 Y181.037 Z-11.250
G1 X417.858 Y181.094 Z-11.250
G1 X417.853 Y181.151 Z-11.250
G1 X417.840 Y181.210 Z-11.250
G1 X417.817 Y181.267 Z-11.250
G1 X417.785 Y181.322 Z-11.250
G1 X417.743 Y181.372 Z-11.250
G1 X417.693 Y181.414 Z-11.250
G1 X417.638 Y181.446 Z-11.250
G1 X417.580 Y181.469 Z-11.250
G1 X417.522 Y181.483 Z-11.250
G1 X417.465 Y181.487 Z-11.250
G1 X417.465 Y182.757 Z-11.250
G1 X417.224 Y182.739 Z-11.250
G1 X416.977 Y182.683 Z-11.250
G1 X416.732 Y182.586 Z-11.250
G1 X416.499 Y182.447 Z-11.250
G1 X416.290 Y182.270 Z-11.250
G1 X416.112 Y182.060 Z-11.250
G1 X415.973 Y181.828 Z-11.250
G1 X415.876 Y181.583 Z-11.250
G1 X415.820 Y181.335 Z-11.250
G1 X415.803 Y181.094 Z-11.250
G1 X415.820 Y180.853 Z-11.250
G1 X415.876 Y180.606 Z-11.250
G1 X415.973 Y180.361 Z-11.250
G1 X416.112 Y180.128 Z-11.250
G1 X416.290 Y179.919 Z-11.250
G1 X416.499 Y179.741 Z-11.250
G1 X416.732 Y179.602 Z-11.250
G1 X416.977 Y179.505 Z-11.250
G1 X417.224 Y179.449 Z-11.250
G1 X417.465 Y179.432 Z-11.250
G1 X417.706 Y179.449 Z-11.250
G1 X417.954 Y179.505 Z-11.250
G1 X418.199 Y179.602 Z-11.250
G1 X418.431 Y179.741 Z-11.250
G1 X418.641 Y179.919 Z-11.250
G1 X418.818 Y180.128 Z-11.250
G1 X418.957 Y180.361 Z-11.250
G1 X419.054 Y180.606 Z-11.250
G1 X419.110 Y180.853 Z-11.250
G1 X419.128 Y181.094 Z-11.250
G1 X419.110 Y181.335 Z-11.250
G1 X419.054 Y181.583 Z-11.250
G1 X418.957 Y181.828 Z-11.250
G1 X418.818 Y182.060 Z-11.250
G1 X418.641 Y182.270 Z-11.250
G1 X418.431 Y182.447 Z-11.250
G1 X418.199 Y182.586 Z-11.250
G1 X417.954 Y182.683 Z-11.250
G1 X417.706 Y182.739 Z-11.250
G1 X417.465 Y182.757 Z-11.250
G0 X417.465 Y182.757
G0 Z6.000
G0 X417.465 Y181.487
G0 Z6.000
G1 X417.465 Y181.487 Z-12.000 F254.0
G1 X417.408 Y181.483 Z-12.000 F177.8
G1 X417.350 Y181.469 Z-12.000
G1 X417.292 Y181.446 Z-12.000
G1 X417.237 Y181.414 Z-12.000
G1 X417.188 Y181.372 Z-12.000
G1 X417.146 Y181.322 Z-12.000
G1 X417.113 Y181.267 Z-12.000
G1 X417.090 Y181.210 Z-12.000
G1 X417.077 Y181.151 Z-12.000
G1 X417.073 Y181.094 Z-12.000
G1 X417.077 Y181.037 Z-12.000
G1 X417.090 Y180.979 Z-12.000
G1 X417.113 Y180.921 Z-12.000
G1 X417.146 Y180.866 Z-12.000
G1 X417.188 Y180.817 Z-12.000
G1 X417.237 Y180.775 Z-12.000
G1 X417.292 Y180.742 Z-12.000
G1 X417.350 Y180.719 Z-12.000
G1 X417.408 Y180.706 Z-12.000
G1 X417.465 Y180.702 Z-12.000
G1 X417.522 Y180.706 Z-12.000
G1 X417.580 Y180.719 Z-12.000
G1 X417.638 Y180.742 Z-12.000
G1 X417.693 Y180.775 Z-12.000
G1 X417.743 Y180.817 Z-12.000
G1 X417.785 Y180.866 Z-12.000
G1 X417.817 Y180.921 Z-12.000
G1 X417.840 Y180.979 Z-12.000
G1 X417.853 Y181.037 Z-12.000
G1 X417.858 Y181.094 Z-12.000
G1 X417.853 Y181.151 Z-12.000
G1 X417.840 Y181.210 Z-12.000
G1 X417.817 Y181.267 Z-12.000
G1 X417.785 Y181.322 Z-12.000
G1 X417.743 Y181.372 Z-12.000
G1 X417.693 Y181.414 Z-12.000
G1 X417.638 Y181.446 Z-12.000
G1 X417.580 Y181.469 Z-12.000
G1 X417.522 Y181.483 Z-12.000
G1 X417.465 Y181.487 Z-12.000
G1 X417.465 Y182.757 Z-12.000
G1 X417.224 Y182.739 Z-12.000
G1 X416.977 Y182.683 Z-12.000
G1 X416.732 Y182.586 Z-12.000
G1 X416.499 Y182.447 Z-12.000
G1 X416.290 Y182.270 Z-12.000
G1 X416.112 Y182.060 Z-12.000
G1 X415.973 Y181.828 Z-12.000
G1 X415.876 Y181.583 Z-12.000
G1 X415.820 Y181.335 Z-12.000
G1 X415.803 Y181.094 Z-12.000
G1 X415.820 Y180.853 Z-12.000
G1 X415.876 Y180.606 Z-12.000
G1 X415.973 Y180.361 Z-12.000
G1 X416.112 Y180.128 Z-12.000
G1 X416.290 Y179.919 Z-12.000
G1 X416.499 Y179.741 Z-12.000
G1 X416.732 Y179.602 Z-12.000
G1 X416.977 Y179.505 Z-12.000
G1 X417.224 Y179.449 Z-12.000
G1 X417.465 Y179.432 Z-12.000
G1 X417.706 Y179.449 Z-12.000
G1 X417.954 Y179.505 Z-12.000
G1 X418.199 Y179.602 Z-12.000
G1 X418.431 Y179.741 Z-12.000
G1 X418.641 Y179.919 Z-12.000
G1 X418.818 Y180.128 Z-12.000
G1 X418.957 Y180.361 Z-12.000
G1 X419.054 Y180.606 Z-12.000
G1 X419.110 Y180.853 Z-12.000
G1 X419.128 Y181.094 Z-12.000
G1 X419.110 Y181.335 Z-12.000
G1 X419.054 Y181.583 Z-12.000
G1 X418.957 Y181.828 Z-12.000
G1 X418.818 Y182.060 Z-12.000
G1 X418.641 Y182.270 Z-12.000
G1 X418.431 Y182.447 Z-12.000
G1 X418.199 Y182.586 Z-12.000
G1 X417.954 Y182.683 Z-12.000
G1 X417.706 Y182.739 Z-12.000
G1 X417.465 Y182.757 Z-12.000
G0 X417.465 Y182.757
G0 Z6.000
G0 X399.464 Y230.635
G0 Z6.000
G1 X399.464 Y230.635 Z-0.750 F254.0
G1 X399.407 Y230.631 Z-0.750 F177.8
G1 X399.349 Y230.617 Z-0.750
G1 X399.291 Y230.594 Z-0.750
G1 X399.236 Y230.562 Z-0.750
G1 X399.187 Y230.520 Z-0.750
G1 X399.145 Y230.470 Z-0.750
G1 X399.112 Y230.415 Z-0.750
G1 X399.089 Y230.358 Z-0.750
G1 X399.076 Y230.299 Z-0.750
G1 X399.072 Y230.242 Z-0.750
G1 X399.076 Y230.185 Z-0.750
G1 X399.089 Y230.127 Z-0.750
G1 X399.112 Y230.069 Z-0.750
G1 X399.145 Y230.014 Z-0.750
G1 X399.187 Y229.965 Z-0.750
G1 X399.236 Y229.923 Z-0.750
G1 X399.291 Y229.890 Z-0.750
G1 X399.349 Y229.867 Z-0.750
G1 X399.407 Y229.854 Z-0.750
G1 X399.464 Y229.850 Z-0.750
G1 X399.521 Y229.854 Z-0.750
G1 X399.579 Y229.867 Z-0.750
G1 X399.637 Y229.890 Z-0.750
G1 X399.692 Y229.923 Z-0.750
G1 X399.742 Y229.965 Z-0.750
G1 X399.784 Y230.014 Z-0.750
G1 X399.816 Y230.069 Z-0.750
G1 X399.839 Y230.127 Z-0.750
G1 X399.852 Y230.185 Z-0.750
G1 X399.857 Y230.242 Z-0.750
G1 X399.852 Y230.299 Z-0.750
G1 X399.839 Y230.358 Z-0.750
G1 X399.816 Y230.415 Z-0.750
G1 X399.784 Y230.470 Z-0.750
G1 X399.742 Y230.520 Z-0.750
G1 X399.692 Y230.562 Z-0.750
G1 X399.637 Y230.594 Z-0.750
G1 X399.579 Y230.617 Z-0.750
G1 X399.521 Y230.631 Z-0.750
G1 X399.464 Y230.635 Z-0.750
G1 X399.464 Y231.905 Z-0.750
G1 X399.223 Y231.887 Z-0.750
G1 X398.976 Y231.831 Z-0.750
G1 X398.730 Y231.734 Z-0.750
G1 X398.498 Y231.595 Z-0.750
G1 X398.289 Y231.418 Z-0.750
G1 X398.111 Y231.208 Z-0.750
G1 X397.972 Y230.976 Z-0.750
G1 X397.875 Y230.731 Z-0.750
G1 X397.819 Y230.483 Z-0.750
G1 X397.802 Y230.242 Z-0.750
G1 X397.819 Y230.001 Z-0.750
G1 X397.875 Y229.754 Z-0.750
G1 X397.972 Y229.509 Z-0.750
G1 X398.111 Y229.276 Z-0.750
G1 X398.289 Y229.067 Z-0.750
G1 X398.498 Y228.889 Z-0.750
G1 X398.730 Y228.750 Z-0.750
G1 X398.976 Y228.653 Z-0.750
G1 X399.223 Y228.597 Z-0.750
G1 X399.464 Y228.580 Z-0.750
G1 X399.705 Y228.597 Z-0.750
G1 X399.953 Y228.653 Z-0.750
G1 X400.198 Y228.750 Z-0.750
G1 X400.430 Y228.889 Z-0.750
G1 X400.640 Y229.067 Z-0.750
G1 X400.817 Y229.276 Z-0.750
G1 X400.956 Y229.509 Z-0.750
G1 X401.053 Y229.754 Z-0.750
G1 X401.109 Y230.001 Z-0.750
G1 X401.127 Y230.242 Z-0.750
G1 X401.109 Y230.483 Z-0.750
G1 X401.053 Y230.731 Z-0.750
G1 X400.956 Y230.976 Z-0.750
G1 X400.817 Y231.208 Z-0.750
G1 X400.640 Y231.418 Z-0.750
G1 X400.430 Y231.595 Z-0.750
G1 X400.198 Y231.734 Z-0.750
G1 X399.953 Y231.831 Z-0.750
G1 X399.705 Y231.887 Z-0.750
G1 X399.464 Y231.905 Z-0.750
G0 X399.464 Y231.905
G0 Z6.000
G0 X399.464 Y230.635
G0 Z6.000
G1 X399.464 Y230.635 Z-1.500 F254.0
G1 X399.407 Y230.631 Z-1.500 F177.8
G1 X399.349 Y230.617 Z-1.500
G1 X399.291 Y230.594 Z-1.500
G1 X399.236 Y230.562 Z-1.500
G1 X399.187 Y230.520 Z-1.500
G1 X399.145 Y230.470 Z-1.500
G1 X399.112 Y230.415 Z-1.500
G1 X399.089 Y230.358 Z-1.500
G1 X399.076 Y230.299 Z-1.500
G1 X399.072 Y230.242 Z-1.500
G1 X399.076 Y230.185 Z-1.500
G1 X399.089 Y230.127 Z-1.500
G1 X399.112 Y230.069 Z-1.500
G1 X399.145 Y230.014 Z-1.500
G1 X399.187 Y229.965 Z-1.500
G1 X399.236 Y229.923 Z-1.500
G1 X399.291 Y229.890 Z-1.500
G1 X399.349 Y229.867 Z-1.500
G1 X399.407 Y229.854 Z-1.500
G1 X399.464 Y229.850 Z-1.500
G1 X399.521 Y229.854 Z-1.500
G1 X399.579 Y229.867 Z-1.500
G1 X399.637 Y229.890 Z-1.500
G1 X399.692 Y229.923 Z-1.500
G1 X399.742 Y229.965 Z-1.500
G1 X399.784 Y230.014 Z-1.500
G1 X399.816 Y230.069 Z-1.500
G1 X399.839 Y230.127 Z-1.500
G1 X399.852 Y230.185 Z-1.500
G1 X399.857 Y230.242 Z-1.500
G1 X399.852 Y230.299 Z-1.500
G1 X399.839 Y230.358 Z-1.500
G1 X399.816 Y230.415 Z-1.500
G1 X399.784 Y230.470 Z-1.500
G1 X399.742 Y230.520 Z-1.500
G1 X399.692 Y230.562 Z-1.500
G1 X399.637 Y230.594 Z-1.500
G1 X399.579 Y230.617 Z-1.500
G1 X399.521 Y230.631 Z-1.500
G1 X399.464 Y230.635 Z-1.500
G1 X399.464 Y231.905 Z-1.500
G1 X399.223 Y231.887 Z-1.500
G1 X398.976 Y231.831 Z-1.500
G1 X398.730 Y231.734 Z-1.500
G1 X398.498 Y231.595 Z-1.500
G1 X398.289 Y231.418 Z-1.500
G1 X398.111 Y231.208 Z-1.500
G1 X397.972 Y230.976 Z-1.500
G1 X397.875 Y230.731 Z-1.500
G1 X397.819 Y230.483 Z-1.500
G1 X397.802 Y230.242 Z-1.500
G1 X397.819 Y230.001 Z-1.500
G1 X397.875 Y229.754 Z-1.500
G1 X397.972 Y229.509 Z-1.500
G1 X398.111 Y229.276 Z-1.500
G1 X398.289 Y229.067 Z-1.500
G1 X398.498 Y228.889 Z-1.500
G1 X398.730 Y228.750 Z-1.500
G1 X398.976 Y228.653 Z-1.500
G1 X399.223 Y228.597 Z-1.500
G1 X399.464 Y228.580 Z-1.500
G1 X399.705 Y228.597 Z-1.500
G1 X399.953 Y228.653 Z-1.500
G1 X400.198 Y228.750 Z-1.500
G1 X400.430 Y228.889 Z-1.500
G1 X400.640 Y229.067 Z-1.500
G1 X400.817 Y229.276 Z-1.500
G1 X400.956 Y229.509 Z-1.500
G1 X401.053 Y229.754 Z-1.500
G1 X401.109 Y230.001 Z-1.500
G1 X401.127 Y230.242 Z-1.500
G1 X401.109 Y230.483 Z-1.500
G1 X401.053 Y230.731 Z-1.500
G1 X400.956 Y230.976 Z-1.500
G1 X400.817 Y231.208 Z-1.500
G1 X400.640 Y231.418 Z-1.500
G1 X400.430 Y231.595 Z-1.500
G1 X400.198 Y231.734 Z-1.500
G1 X399.953 Y231.831 Z-1.500
G1 X399.705 Y231.887 Z-1.500
G1 X399.464 Y231.905 Z-1.500
G0 X399.464 Y231.905
G0 Z6.000
G0 X399.464 Y230.635
G0 Z6.000
G1 X399.464 Y230.635 Z-2.250 F254.0
G1 X399.407 Y230.631 Z-2.250 F177.8
G1 X399.349 Y230.617 Z-2.250
G1 X399.291 Y230.594 Z-2.250
G1 X399.236 Y230.562 Z-2.250
G1 X399.187 Y230.520 Z-2.250
G1 X399.145 Y230.470 Z-2.250
G1 X399.112 Y230.415 Z-2.250
G1 X399.089 Y230.358 Z-2.250
G1 X399.076 Y230.299 Z-2.250
G1 X399.072 Y230.242 Z-2.250
G1 X399.076 Y230.185 Z-2.250
G1 X399.089 Y230.127 Z-2.250
G1 X399.112 Y230.069 Z-2.250
G1 X399.145 Y230.014 Z-2.250
G1 X399.187 Y229.965 Z-2.250
G1 X399.236 Y229.923 Z-2.250
G1 X399.291 Y229.890 Z-2.250
G1 X399.349 Y229.867 Z-2.250
G1 X399.407 Y229.854 Z-2.250
G1 X399.464 Y229.850 Z-2.250
G1 X399.521 Y229.854 Z-2.250
G1 X399.579 Y229.867 Z-2.250
G1 X399.637 Y229.890 Z-2.250
G1 X399.692 Y229.923 Z-2.250
G1 X399.742 Y229.965 Z-2.250
G1 X399.784 Y230.014 Z-2.250
G1 X399.816 Y230.069 Z-2.250
G1 X399.839 Y230.127 Z-2.250
G1 X399.852 Y230.185 Z-2.250
G1 X399.857 Y230.242 Z-2.250
G1 X399.852 Y230.299 Z-2.250
G1 X399.839 Y230.358 Z-2.250
G1 X399.816 Y230.415 Z-2.250
G1 X399.784 Y230.470 Z-2.250
G1 X399.742 Y230.520 Z-2.250
G1 X399.692 Y230.562 Z-2.250
G1 X399.637 Y230.594 Z-2.250
G1 X399.579 Y230.617 Z-2.250
G1 X399.521 Y230.631 Z-2.250
G1 X399.464 Y230.635 Z-2.250
G1 X399.464 Y231.905 Z-2.250
G1 X399.223 Y231.887 Z-2.250
G1 X398.976 Y231.831 Z-2.250
G1 X398.730 Y231.734 Z-2.250
G1 X398.498 Y231.595 Z-2.250
G1 X398.289 Y231.418 Z-2.250
G1 X398.111 Y231.208 Z-2.250
G1 X397.972 Y230.976 Z-2.250
G1 X397.875 Y230.731 Z-2.250
G1 X397.819 Y230.483 Z-2.250
G1 X397.802 Y230.242 Z-2.250
G1 X397.819 Y230.001 Z-2.250
G1 X397.875 Y229.754 Z-2.250
G1 X397.972 Y229.509 Z-2.250
G1 X398.111 Y229.276 Z-2.250
G1 X398.289 Y229.067 Z-2.250
G1 X398.498 Y228.889 Z-2.250
G1 X398.730 Y228.750 Z-2.250
G1 X398.976 Y228.653 Z-2.250
G1 X399.223 Y228.597 Z-2.250
G1 X399.464 Y228.580 Z-2.250
G1 X399.705 Y228.597 Z-2.250
G1 X399.953 Y228.653 Z-2.250
G1 X400.198 Y228.750 Z-2.250
G1 X400.430 Y228.889 Z-2.250
G1 X400.640 Y229.067 Z-2.250
G1 X400.817 Y229.276 Z-2.250
G1 X400.956 Y229.509 Z-2.250
G1 X401.053 Y229.754 Z-2.250
G1 X401.109 Y230.001 Z-2.250
G1 X401.127 Y230.242 Z-2.250
G1 X401.109 Y230.483 Z-2.250
G1 X401.053 Y230.731 Z-2.250
G1 X400.956 Y230.976 Z-2.250
G1 X400.817 Y231.208 Z-2.250
G1 X400.640 Y231.418 Z-2.250
G1 X400.430 Y231.595 Z-2.250
G1 X400.198 Y231.734 Z-2.250
G1 X399.953 Y231.831 Z-2.250
G1 X399.705 Y231.887 Z-2.250
G1 X399.464 Y231.905 Z-2.250
G0 X399.464 Y231.905
G0 Z6.000
G0 X399.464 Y230.635
G0 Z6.000
G1 X399.464 Y230.635 Z-3.000 F254.0
G1 X399.407 Y230.631 Z-3.000 F177.8
G1 X399.349 Y230.617 Z-3.000
G1 X399.291 Y230.594 Z-3.000
G1 X399.236 Y230.562 Z-3.000
G1 X399.187 Y230.520 Z-3.000
G1 X399.145 Y230.470 Z-3.000
G1 X399.112 Y230.415 Z-3.000
G1 X399.089 Y230.358 Z-3.000
G1 X399.076 Y230.299 Z-3.000
G1 X399.072 Y230.242 Z-3.000
G1 X399.076 Y230.185 Z-3.000
G1 X399.089 Y230.127 Z-3.000
G1 X399.112 Y230.069 Z-3.000
G1 X399.145 Y230.014 Z-3.000
G1 X399.187 Y229.965 Z-3.000
G1 X399.236 Y229.923 Z-3.000
G1 X399.291 Y229.890 Z-3.000
G1 X399.349 Y229.867 Z-3.000
G1 X399.407 Y229.854 Z-3.000
G1 X399.464 Y229.850 Z-3.000
G1 X399.521 Y229.854 Z-3.000
G1 X399.579 Y229.867 Z-3.000
G1 X399.637 Y229.890 Z-3.000
G1 X399.692 Y229.923 Z-3.000
G1 X399.742 Y229.965 Z-3.000
G1 X399.784 Y230.014 Z-3.000
G1 X399.816 Y230.069 Z-3.000
G1 X399.839 Y230.127 Z-3.000
G1 X399.852 Y230.185 Z-3.000
G1 X399.857 Y230.242 Z-3.000
G1 X399.852 Y230.299 Z-3.000
G1 X399.839 Y230.358 Z-3.000
G1 X399.816 Y230.415 Z-3.000
G1 X399.784 Y230.470 Z-3.000
G1 X399.742 Y230.520 Z-3.000
G1 X399.692 Y230.562 Z-3.000
G1 X399.637 Y230.594 Z-3.000
G1 X399.579 Y230.617 Z-3.000
G1 X399.521 Y230.631 Z-3.000
G1 X399.464 Y230.635 Z-3.000
G1 X399.464 Y231.905 Z-3.000
G1 X399.223 Y231.887 Z-3.000
G1 X398.976 Y231.831 Z-3.000
G1 X398.730 Y231.734 Z-3.000
G1 X398.498 Y231.595 Z-3.000
G1 X398.289 Y231.418 Z-3.000
G1 X398.111 Y231.208 Z-3.000
G1 X397.972 Y230.976 Z-3.000
G1 X397.875 Y230.731 Z-3.000
G1 X397.819 Y230.483 Z-3.000
G1 X397.802 Y230.242 Z-3.000
G1 X397.819 Y230.001 Z-3.000
G1 X397.875 Y229.754 Z-3.000
G1 X397.972 Y229.509 Z-3.000
G1 X398.111 Y229.276 Z-3.000
G1 X398.289 Y229.067 Z-3.000
G1 X398.498 Y228.889 Z-3.000
G1 X398.730 Y228.750 Z-3.000
G1 X398.976 Y228.653 Z-3.000
G1 X399.223 Y228.597 Z-3.000
G1 X399.464 Y228.580 Z-3.000
G1 X399.705 Y228.597 Z-3.000
G1 X399.953 Y228.653 Z-3.000
G1 X400.198 Y228.750 Z-3.000
G1 X400.430 Y228.889 Z-3.000
G1 X400.640 Y229.067 Z-3.000
G1 X400.817 Y229.276 Z-3.000
G1 X400.956 Y229.509 Z-3.000
G1 X401.053 Y229.754 Z-3.000
G1 X401.109 Y230.001 Z-3.000
G1 X401.127 Y230.242 Z-3.000
G1 X401.109 Y230.483 Z-3.000
G1 X401.053 Y230.731 Z-3.000
G1 X400.956 Y230.976 Z-3.000
G1 X400.817 Y231.208 Z-3.000
G1 X400.640 Y231.418 Z-3.000
G1 X400.430 Y231.595 Z-3.000
G1 X400.198 Y231.734 Z-3.000
G1 X399.953 Y231.831 Z-3.000
G1 X399.705 Y231.887 Z-3.000
G1 X399.464 Y231.905 Z-3.000
G0 X399.464 Y231.905
G0 Z6.000
G0 X399.464 Y230.635
G0 Z6.000
G1 X399.464 Y230.635 Z-3.750 F254.0
G1 X399.407 Y230.631 Z-3.750 F177.8
G1 X399.349 Y230.617 Z-3.750
G1 X399.291 Y230.594 Z-3.750
G1 X399.236 Y230.562 Z-3.750
G1 X399.187 Y230.520 Z-3.750
G1 X399.145 Y230.470 Z-3.750
G1 X399.112 Y230.415 Z-3.750
G1 X399.089 Y230.358 Z-3.750
G1 X399.076 Y230.299 Z-3.750
G1 X399.072 Y230.242 Z-3.750
G1 X399.076 Y230.185 Z-3.750
G1 X399.089 Y230.127 Z-3.750
G1 X399.112 Y230.069 Z-3.750
G1 X399.145 Y230.014 Z-3.750
G1 X399.187 Y229.965 Z-3.750
G1 X399.236 Y229.923 Z-3.750
G1 X399.291 Y229.890 Z-3.750
G1 X399.349 Y229.867 Z-3.750
G1 X399.407 Y229.854 Z-3.750
G1 X399.464 Y229.850 Z-3.750
G1 X399.521 Y229.854 Z-3.750
G1 X399.579 Y229.867 Z-3.750
G1 X399.637 Y229.890 Z-3.750
G1 X399.692 Y229.923 Z-3.750
G1 X399.742 Y229.965 Z-3.750
G1 X399.784 Y230.014 Z-3.750
G1 X399.816 Y230.069 Z-3.750
G1 X399.839 Y230.127 Z-3.750
G1 X399.852 Y230.185 Z-3.750
G1 X399.857 Y230.242 Z-3.750
G1 X399.852 Y230.299 Z-3.750
G1 X399.839 Y230.358 Z-3.750
G1 X399.816 Y230.415 Z-3.750
G1 X399.784 Y230.470 Z-3.750
G1 X399.742 Y230.520 Z-3.750
G1 X399.692 Y230.562 Z-3.750
G1 X399.637 Y230.594 Z-3.750
G1 X399.579 Y230.617 Z-3.750
G1 X399.521 Y230.631 Z-3.750
G1 X399.464 Y230.635 Z-3.750
G1 X399.464 Y231.905 Z-3.750
G1 X399.223 Y231.887 Z-3.750
G1 X398.976 Y231.831 Z-3.750
G1 X398.730 Y231.734 Z-3.750
G1 X398.498 Y231.595 Z-3.750
G1 X398.289 Y231.418 Z-3.750
G1 X398.111 Y231.208 Z-3.750
G1 X397.972 Y230.976 Z-3.750
G1 X397.875 Y230.731 Z-3.750
G1 X397.819 Y230.483 Z-3.750
G1 X397.802 Y230.242 Z-3.750
G1 X397.819 Y230.001 Z-3.750
G1 X397.875 Y229.754 Z-3.750
G1 X397.972 Y229.509 Z-3.750
G1 X398.111 Y229.276 Z-3.750
G1 X398.289 Y229.067 Z-3.750
G1 X398.498 Y228.889 Z-3.750
G1 X398.730 Y228.750 Z-3.750
G1 X398.976 Y228.653 Z-3.750
G1 X399.223 Y228.597 Z-3.750
G1 X399.464 Y228.580 Z-3.750
G1 X399.705 Y228.597 Z-3.750
G1 X399.953 Y228.653 Z-3.750
G1 X400.198 Y228.750 Z-3.750
G1 X400.430 Y228.889 Z-3.750
G1 X400.640 Y229.067 Z-3.750
G1 X400.817 Y229.276 Z-3.750
G1 X400.956 Y229.509 Z-3.750
G1 X401.053 Y229.754 Z-3.750
G1 X401.109 Y230.001 Z-3.750
G1 X401.127 Y230.242 Z-3.750
G1 X401.109 Y230.483 Z-3.750
G1 X401.053 Y230.731 Z-3.750
G1 X400.956 Y230.976 Z-3.750
G1 X400.817 Y231.208 Z-3.750
G1 X400.640 Y231.418 Z-3.750
G1 X400.430 Y231.595 Z-3.750
G1 X400.198 Y231.734 Z-3.750
G1 X399.953 Y231.831 Z-3.750
G1 X399.705 Y231.887 Z-3.750
G1 X399.464 Y231.905 Z-3.750
G0 X399.464 Y231.905
G0 Z6.000
G0 X399.464 Y230.635
G0 Z6.000
G1 X399.464 Y230.635 Z-4.500 F254.0
G1 X399.407 Y230.631 Z-4.500 F177.8
G1 X399.349 Y230.617 Z-4.500
G1 X399.291 Y230.594 Z-4.500
G1 X399.236 Y230.562 Z-4.500
G1 X399.187 Y230.520 Z-4.500
G1 X399.145 Y230.470 Z-4.500
G1 X399.112 Y230.415 Z-4.500
G1 X399.089 Y230.358 Z-4.500
G1 X399.076 Y230.299 Z-4.500
G1 X399.072 Y230.242 Z-4.500
G1 X399.076 Y230.185 Z-4.500
G1 X399.089 Y230.127 Z-4.500
G1 X399.112 Y230.069 Z-4.500
G1 X399.145 Y230.014 Z-4.500
G1 X399.187 Y229.965 Z-4.500
G1 X399.236 Y229.923 Z-4.500
G1 X399.291 Y229.890 Z-4.500
G1 X399.349 Y229.867 Z-4.500
G1 X399.407 Y229.854 Z-4.500
G1 X399.464 Y229.850 Z-4.500
G1 X399.521 Y229.854 Z-4.500
G1 X399.579 Y229.867 Z-4.500
G1 X399.637 Y229.890 Z-4.500
G1 X399.692 Y229.923 Z-4.500
G1 X399.742 Y229.965 Z-4.500
G1 X399.784 Y230.014 Z-4.500
G1 X399.816 Y230.069 Z-4.500
G1 X399.839 Y230.127 Z-4.500
G1 X399.852 Y230.185 Z-4.500
G1 X399.857 Y230.242 Z-4.500
G1 X399.852 Y230.299 Z-4.500
G1 X399.839 Y230.358 Z-4.500
G1 X399.816 Y230.415 Z-4.500
G1 X399.784 Y230.470 Z-4.500
G1 X399.742 Y230.520 Z-4.500
G1 X399.692 Y230.562 Z-4.500
G1 X399.637 Y230.594 Z-4.500
G1 X399.579 Y230.617 Z-4.500
G1 X399.521 Y230.631 Z-4.500
G1 X399.464 Y230.635 Z-4.500
G1 X399.464 Y231.905 Z-4.500
G1 X399.223 Y231.887 Z-4.500
G1 X398.976 Y231.831 Z-4.500
G1 X398.730 Y231.734 Z-4.500
G1 X398.498 Y231.595 Z-4.500
G1 X398.289 Y231.418 Z-4.500
G1 X398.111 Y231.208 Z-4.500
G1 X397.972 Y230.976 Z-4.500
G1 X397.875 Y230.731 Z-4.500
G1 X397.819 Y230.483 Z-4.500
G1 X397.802 Y230.242 Z-4.500
G1 X397.819 Y230.001 Z-4.500
G1 X397.875 Y229.754 Z-4.500
G1 X397.972 Y229.509 Z-4.500
G1 X398.111 Y229.276 Z-4.500
G1 X398.289 Y229.067 Z-4.500
G1 X398.498 Y228.889 Z-4.500
G1 X398.730 Y228.750 Z-4.500
G1 X398.976 Y228.653 Z-4.500
G1 X399.223 Y228.597 Z-4.500
G1 X399.464 Y228.580 Z-4.500
G1 X399.705 Y228.597 Z-4.500
G1 X399.953 Y228.653 Z-4.500
G1 X400.198 Y228.750 Z-4.500
G1 X400.430 Y228.889 Z-4.500
G1 X400.640 Y229.067 Z-4.500
G1 X400.817 Y229.276 Z-4.500
G1 X400.956 Y229.509 Z-4.500
G1 X401.053 Y229.754 Z-4.500
G1 X401.109 Y230.001 Z-4.500
G1 X401.127 Y230.242 Z-4.500
G1 X401.109 Y230.483 Z-4.500
G1 X401.053 Y230.731 Z-4.500
G1 X400.956 Y230.976 Z-4.500
G1 X400.817 Y231.208 Z-4.500
G1 X400.640 Y231.418 Z-4.500
G1 X400.430 Y231.595 Z-4.500
G1 X400.198 Y231.734 Z-4.500
G1 X399.953 Y231.831 Z-4.500
G1 X399.705 Y231.887 Z-4.500
G1 X399.464 Y231.905 Z-4.500
G0 X399.464 Y231.905
G0 Z6.000
G0 X399.464 Y230.635
G0 Z6.000
G1 X399.464 Y230.635 Z-5.250 F254.0
G1 X399.407 Y230.631 Z-5.250 F177.8
G1 X399.349 Y230.617 Z-5.250
G1 X399.291 Y230.594 Z-5.250
G1 X399.236 Y230.562 Z-5.250
G1 X399.187 Y230.520 Z-5.250
G1 X399.145 Y230.470 Z-5.250
G1 X399.112 Y230.415 Z-5.250
G1 X399.089 Y230.358 Z-5.250
G1 X399.076 Y230.299 Z-5.250
G1 X399.072 Y230.242 Z-5.250
G1 X399.076 Y230.185 Z-5.250
G1 X399.089 Y230.127 Z-5.250
G1 X399.112 Y230.069 Z-5.250
G1 X399.145 Y230.014 Z-5.250
G1 X399.187 Y229.965 Z-5.250
G1 X399.236 Y229.923 Z-5.250
G1 X399.291 Y229.890 Z-5.250
G1 X399.349 Y229.867 Z-5.250
G1 X399.407 Y229.854 Z-5.250
G1 X399.464 Y229.850 Z-5.250
G1 X399.521 Y229.854 Z-5.250
G1 X399.579 Y229.867 Z-5.250
G1 X399.637 Y229.890 Z-5.250
G1 X399.692 Y229.923 Z-5.250
G1 X399.742 Y229.965 Z-5.250
G1 X399.784 Y230.014 Z-5.250
G1 X399.816 Y230.069 Z-5.250
G1 X399.839 Y230.127 Z-5.250
G1 X399.852 Y230.185 Z-5.250
G1 X399.857 Y230.242 Z-5.250
G1 X399.852 Y230.299 Z-5.250
G1 X399.839 Y230.358 Z-5.250
G1 X399.816 Y230.415 Z-5.250
G1 X399.784 Y230.470 Z-5.250
G1 X399.742 Y230.520 Z-5.250
G1 X399.692 Y230.562 Z-5.250
G1 X399.637 Y230.594 Z-5.250
G1 X399.579 Y230.617 Z-5.250
G1 X399.521 Y230.631 Z-5.250
G1 X399.464 Y230.635 Z-5.250
G1 X399.464 Y231.905 Z-5.250
G1 X399.223 Y231.887 Z-5.250
G1 X398.976 Y231.831 Z-5.250
G1 X398.730 Y231.734 Z-5.250
G1 X398.498 Y231.595 Z-5.250
G1 X398.289 Y231.418 Z-5.250
G1 X398.111 Y231.208 Z-5.250
G1 X397.972 Y230.976 Z-5.250
G1 X397.875 Y230.731 Z-5.250
G1 X397.819 Y230.483 Z-5.250
G1 X397.802 Y230.242 Z-5.250
G1 X397.819 Y230.001 Z-5.250
G1 X397.875 Y229.754 Z-5.250
G1 X397.972 Y229.509 Z-5.250
G1 X398.111 Y229.276 Z-5.250
G1 X398.289 Y229.067 Z-5.250
G1 X398.498 Y228.889 Z-5.250
G1 X398.730 Y228.750 Z-5.250
G1 X398.976 Y228.653 Z-5.250
G1 X399.223 Y228.597 Z-5.250
G1 X399.464 Y228.580 Z-5.250
G1 X399.705 Y228.597 Z-5.250
G1 X399.953 Y228.653 Z-5.250
G1 X400.198 Y228.750 Z-5.250
G1 X400.430 Y228.889 Z-5.250
G1 X400.640 Y229.067 Z-5.250
G1 X400.817 Y229.276 Z-5.250
G1 X400.956 Y229.509 Z-5.250
G1 X401.053 Y229.754 Z-5.250
G1 X401.109 Y230.001 Z-5.250
G1 X401.127 Y230.242 Z-5.250
G1 X401.109 Y230.483 Z-5.250
G1 X401.053 Y230.731 Z-5.250
G1 X400.956 Y230.976 Z-5.250
G1 X400.817 Y231.208 Z-5.250
G1 X400.640 Y231.418 Z-5.250
G1 X400.430 Y231.595 Z-5.250
G1 X400.198 Y231.734 Z-5.250
G1 X399.953 Y231.831 Z-5.250
G1 X399.705 Y231.887 Z-5.250
G1 X399.464 Y231.905 Z-5.250
G0 X399.464 Y231.905
G0 Z6.000
G0 X399.464 Y230.635
G0 Z6.000
G1 X399.464 Y230.635 Z-6.000 F254.0
G1 X399.407 Y230.631 Z-6.000 F177.8
G1 X399.349 Y230.617 Z-6.000
G1 X399.291 Y230.594 Z-6.000
G1 X399.236 Y230.562 Z-6.000
G1 X399.187 Y230.520 Z-6.000
G1 X399.145 Y230.470 Z-6.000
G1 X399.112 Y230.415 Z-6.000
G1 X399.089 Y230.358 Z-6.000
G1 X399.076 Y230.299 Z-6.000
G1 X399.072 Y230.242 Z-6.000
G1 X399.076 Y230.185 Z-6.000
G1 X399.089 Y230.127 Z-6.000
G1 X399.112 Y230.069 Z-6.000
G1 X399.145 Y230.014 Z-6.000
G1 X399.187 Y229.965 Z-6.000
G1 X399.236 Y229.923 Z-6.000
G1 X399.291 Y229.890 Z-6.000
G1 X399.349 Y229.867 Z-6.000
G1 X399.407 Y229.854 Z-6.000
G1 X399.464 Y229.850 Z-6.000
G1 X399.521 Y229.854 Z-6.000
G1 X399.579 Y229.867 Z-6.000
G1 X399.637 Y229.890 Z-6.000
G1 X399.692 Y229.923 Z-6.000
G1 X399.742 Y229.965 Z-6.000
G1 X399.784 Y230.014 Z-6.000
G1 X399.816 Y230.069 Z-6.000
G1 X399.839 Y230.127 Z-6.000
G1 X399.852 Y230.185 Z-6.000
G1 X399.857 Y230.242 Z-6.000
G1 X399.852 Y230.299 Z-6.000
G1 X399.839 Y230.358 Z-6.000
G1 X399.816 Y230.415 Z-6.000
G1 X399.784 Y230.470 Z-6.000
G1 X399.742 Y230.520 Z-6.000
G1 X399.692 Y230.562 Z-6.000
G1 X399.637 Y230.594 Z-6.000
G1 X399.579 Y230.617 Z-6.000
G1 X399.521 Y230.631 Z-6.000
G1 X399.464 Y230.635 Z-6.000
G1 X399.464 Y231.905 Z-6.000
G1 X399.223 Y231.887 Z-6.000
G1 X398.976 Y231.831 Z-6.000
G1 X398.730 Y231.734 Z-6.000
G1 X398.498 Y231.595 Z-6.000
G1 X398.289 Y231.418 Z-6.000
G1 X398.111 Y231.208 Z-6.000
G1 X397.972 Y230.976 Z-6.000
G1 X397.875 Y230.731 Z-6.000
G1 X397.819 Y230.483 Z-6.000
G1 X397.802 Y230.242 Z-6.000
G1 X397.819 Y230.001 Z-6.000
G1 X397.875 Y229.754 Z-6.000
G1 X397.972 Y229.509 Z-6.000
G1 X398.111 Y229.276 Z-6.000
G1 X398.289 Y229.067 Z-6.000
G1 X398.498 Y228.889 Z-6.000
G1 X398.730 Y228.750 Z-6.000
G1 X398.976 Y228.653 Z-6.000
G1 X399.223 Y228.597 Z-6.000
G1 X399.464 Y228.580 Z-6.000
G1 X399.705 Y228.597 Z-6.000
G1 X399.953 Y228.653 Z-6.000
G1 X400.198 Y228.750 Z-6.000
G1 X400.430 Y228.889 Z-6.000
G1 X400.640 Y229.067 Z-6.000
G1 X400.817 Y229.276 Z-6.000
G1 X400.956 Y229.509 Z-6.000
G1 X401.053 Y229.754 Z-6.000
G1 X401.109 Y230.001 Z-6.000
G1 X401.127 Y230.242 Z-6.000
G1 X401.109 Y230.483 Z-6.000
G1 X401.053 Y230.731 Z-6.000
G1 X400.956 Y230.976 Z-6.000
G1 X400.817 Y231.208 Z-6.000
G1 X400.640 Y231.418 Z-6.000
G1 X400.430 Y231.595 Z-6.000
G1 X400.198 Y231.734 Z-6.000
G1 X399.953 Y231.831 Z-6.000
G1 X399.705 Y231.887 Z-6.000
G1 X399.464 Y231.905 Z-6.000
G0 X399.464 Y231.905
G0 Z6.000
G0 X399.464 Y230.635
G0 Z6.000
G1 X399.464 Y230.635 Z-6.750 F254.0
G1 X399.407 Y230.631 Z-6.750 F177.8
G1 X399.349 Y230.617 Z-6.750
G1 X399.291 Y230.594 Z-6.750
G1 X399.236 Y230.562 Z-6.750
G1 X399.187 Y230.520 Z-6.750
G1 X399.145 Y230.470 Z-6.750
G1 X399.112 Y230.415 Z-6.750
G1 X399.089 Y230.358 Z-6.750
G1 X399.076 Y230.299 Z-6.750
G1 X399.072 Y230.242 Z-6.750
G1 X399.076 Y230.185 Z-6.750
G1 X399.089 Y230.127 Z-6.750
G1 X399.112 Y230.069 Z-6.750
G1 X399.145 Y230.014 Z-6.750
G1 X399.187 Y229.965 Z-6.750
G1 X399.236 Y229.923 Z-6.750
G1 X399.291 Y229.890 Z-6.750
G1 X399.349 Y229.867 Z-6.750
G1 X399.407 Y229.854 Z-6.750
G1 X399.464 Y229.850 Z-6.750
G1 X399.521 Y229.854 Z-6.750
G1 X399.579 Y229.867 Z-6.750
G1 X399.637 Y229.890 Z-6.750
G1 X399.692 Y229.923 Z-6.750
G1 X399.742 Y229.965 Z-6.750
G1 X399.784 Y230.014 Z-6.750
G1 X399.816 Y230.069 Z-6.750
G1 X399.839 Y230.127 Z-6.750
G1 X399.852 Y230.185 Z-6.750
G1 X399.857 Y230.242 Z-6.750
G1 X399.852 Y230.299 Z-6.750
G1 X399.839 Y230.358 Z-6.750
G1 X399.816 Y230.415 Z-6.750
G1 X399.784 Y230.470 Z-6.750
G1 X399.742 Y230.520 Z-6.750
G1 X399.692 Y230.562 Z-6.750
G1 X399.637 Y230.594 Z-6.750
G1 X399.579 Y230.617 Z-6.750
G1 X399.521 Y230.631 Z-6.750
G1 X399.464 Y230.635 Z-6.750
