(VECTRIC POST REVISION)
(AE8C5706166A14C0DE23454C54EBD95B)
%
G21
G40
G94
G97
G64
G90
T1 M6
M8
M3 S10000
G0 X199.758 Y41.416
G0 Z6.000
G1 X199.758 Y41.416 Z-1.000 F635.0
G1 X199.939 Y41.429 Z-1.000 F180.0
G1 X200.125 Y41.471 Z-1.000
G1 X200.309 Y41.544 Z-1.000
G1 X200.484 Y41.649 Z-1.000
G1 X200.642 Y41.782 Z-1.000
G1 X200.775 Y41.940 Z-1.000
G1 X200.879 Y42.114 Z-1.000
G1 X200.953 Y42.299 Z-1.000
G1 X200.995 Y42.485 Z-1.000
G1 X201.008 Y42.666 Z-1.000
G1 X200.995 Y42.847 Z-1.000
G1 X200.953 Y43.033 Z-1.000
G1 X200.879 Y43.217 Z-1.000
G1 X200.775 Y43.392 Z-1.000
G1 X200.642 Y43.550 Z-1.000
G1 X200.484 Y43.683 Z-1.000
G1 X200.309 Y43.788 Z-1.000
G1 X200.125 Y43.861 Z-1.000
G1 X199.939 Y43.903 Z-1.000
G1 X199.758 Y43.916 Z-1.000
G1 X199.577 Y43.903 Z-1.000
G1 X199.390 Y43.861 Z-1.000
G1 X199.206 Y43.788 Z-1.000
G1 X199.031 Y43.683 Z-1.000
G1 X198.874 Y43.550 Z-1.000
G1 X198.740 Y43.392 Z-1.000
G1 X198.636 Y43.217 Z-1.000
G1 X198.563 Y43.033 Z-1.000
G1 X198.521 Y42.847 Z-1.000
G1 X198.508 Y42.666 Z-1.000
G1 X198.521 Y42.485 Z-1.000
G1 X198.563 Y42.299 Z-1.000
G1 X198.636 Y42.114 Z-1.000
G1 X198.740 Y41.940 Z-1.000
G1 X198.874 Y41.782 Z-1.000
G1 X199.031 Y41.649 Z-1.000
G1 X199.206 Y41.544 Z-1.000
G1 X199.390 Y41.471 Z-1.000
G1 X199.577 Y41.429 Z-1.000
G1 X199.758 Y41.416 Z-1.000
G0 X199.758 Y41.416
G0 Z6.000
G1 X199.758 Y41.416 Z-2.000 F635.0
G1 X199.939 Y41.429 Z-2.000 F180.0
G1 X200.125 Y41.471 Z-2.000
G1 X200.309 Y41.544 Z-2.000
G1 X200.484 Y41.649 Z-2.000
G1 X200.642 Y41.782 Z-2.000
G1 X200.775 Y41.940 Z-2.000
G1 X200.879 Y42.114 Z-2.000
G1 X200.953 Y42.299 Z-2.000
G1 X200.995 Y42.485 Z-2.000
G1 X201.008 Y42.666 Z-2.000
G1 X200.995 Y42.847 Z-2.000
G1 X200.953 Y43.033 Z-2.000
G1 X200.879 Y43.217 Z-2.000
G1 X200.775 Y43.392 Z-2.000
G1 X200.642 Y43.550 Z-2.000
G1 X200.484 Y43.683 Z-2.000
G1 X200.309 Y43.788 Z-2.000
G1 X200.125 Y43.861 Z-2.000
G1 X199.939 Y43.903 Z-2.000
G1 X199.758 Y43.916 Z-2.000
G1 X199.577 Y43.903 Z-2.000
G1 X199.390 Y43.861 Z-2.000
G1 X199.206 Y43.788 Z-2.000
G1 X199.031 Y43.683 Z-2.000
G1 X198.874 Y43.550 Z-2.000
G1 X198.740 Y43.392 Z-2.000
G1 X198.636 Y43.217 Z-2.000
G1 X198.563 Y43.033 Z-2.000
G1 X198.521 Y42.847 Z-2.000
G1 X198.508 Y42.666 Z-2.000
G1 X198.521 Y42.485 Z-2.000
G1 X198.563 Y42.299 Z-2.000
G1 X198.636 Y42.114 Z-2.000
G1 X198.740 Y41.940 Z-2.000
G1 X198.874 Y41.782 Z-2.000
G1 X199.031 Y41.649 Z-2.000
G1 X199.206 Y41.544 Z-2.000
G1 X199.390 Y41.471 Z-2.000
G1 X199.577 Y41.429 Z-2.000
G1 X199.758 Y41.416 Z-2.000
G0 X199.758 Y41.416
G0 Z6.000
G1 X199.758 Y41.416 Z-3.000 F635.0
G1 X199.939 Y41.429 Z-3.000 F180.0
G1 X200.125 Y41.471 Z-3.000
G1 X200.309 Y41.544 Z-3.000
G1 X200.484 Y41.649 Z-3.000
G1 X200.642 Y41.782 Z-3.000
G1 X200.775 Y41.940 Z-3.000
G1 X200.879 Y42.114 Z-3.000
G1 X200.953 Y42.299 Z-3.000
G1 X200.995 Y42.485 Z-3.000
G1 X201.008 Y42.666 Z-3.000
G1 X200.995 Y42.847 Z-3.000
G1 X200.953 Y43.033 Z-3.000
G1 X200.879 Y43.217 Z-3.000
G1 X200.775 Y43.392 Z-3.000
G1 X200.642 Y43.550 Z-3.000
G1 X200.484 Y43.683 Z-3.000
G1 X200.309 Y43.788 Z-3.000
G1 X200.125 Y43.861 Z-3.000
G1 X199.939 Y43.903 Z-3.000
G1 X199.758 Y43.916 Z-3.000
G1 X199.577 Y43.903 Z-3.000
G1 X199.390 Y43.861 Z-3.000
G1 X199.206 Y43.788 Z-3.000
G1 X199.031 Y43.683 Z-3.000
G1 X198.874 Y43.550 Z-3.000
G1 X198.740 Y43.392 Z-3.000
G1 X198.636 Y43.217 Z-3.000
G1 X198.563 Y43.033 Z-3.000
G1 X198.521 Y42.847 Z-3.000
G1 X198.508 Y42.666 Z-3.000
G1 X198.521 Y42.485 Z-3.000
G1 X198.563 Y42.299 Z-3.000
G1 X198.636 Y42.114 Z-3.000
G1 X198.740 Y41.940 Z-3.000
G1 X198.874 Y41.782 Z-3.000
G1 X199.031 Y41.649 Z-3.000
G1 X199.206 Y41.544 Z-3.000
G1 X199.390 Y41.471 Z-3.000
G1 X199.577 Y41.429 Z-3.000
G1 X199.758 Y41.416 Z-3.000
G0 X199.758 Y41.416
G0 Z6.000
G1 X199.758 Y41.416 Z-4.000 F635.0
G1 X199.939 Y41.429 Z-4.000 F180.0
G1 X200.125 Y41.471 Z-4.000
G1 X200.309 Y41.544 Z-4.000
G1 X200.484 Y41.649 Z-4.000
G1 X200.642 Y41.782 Z-4.000
G1 X200.775 Y41.940 Z-4.000
G1 X200.879 Y42.114 Z-4.000
G1 X200.953 Y42.299 Z-4.000
G1 X200.995 Y42.485 Z-4.000
G1 X201.008 Y42.666 Z-4.000
G1 X200.995 Y42.847 Z-4.000
G1 X200.953 Y43.033 Z-4.000
G1 X200.879 Y43.217 Z-4.000
G1 X200.775 Y43.392 Z-4.000
G1 X200.642 Y43.550 Z-4.000
G1 X200.484 Y43.683 Z-4.000
G1 X200.309 Y43.788 Z-4.000
G1 X200.125 Y43.861 Z-4.000
G1 X199.939 Y43.903 Z-4.000
G1 X199.758 Y43.916 Z-4.000
G1 X199.577 Y43.903 Z-4.000
G1 X199.390 Y43.861 Z-4.000
G1 X199.206 Y43.788 Z-4.000
G1 X199.031 Y43.683 Z-4.000
G1 X198.874 Y43.550 Z-4.000
G1 X198.740 Y43.392 Z-4.000
G1 X198.636 Y43.217 Z-4.000
G1 X198.563 Y43.033 Z-4.000
G1 X198.521 Y42.847 Z-4.000
G1 X198.508 Y42.666 Z-4.000
G1 X198.521 Y42.485 Z-4.000
G1 X198.563 Y42.299 Z-4.000
G1 X198.636 Y42.114 Z-4.000
G1 X198.740 Y41.940 Z-4.000
G1 X198.874 Y41.782 Z-4.000
G1 X199.031 Y41.649 Z-4.000
G1 X199.206 Y41.544 Z-4.000
G1 X199.390 Y41.471 Z-4.000
G1 X199.577 Y41.429 Z-4.000
G1 X199.758 Y41.416 Z-4.000
G0 X199.758 Y41.416
G0 Z6.000
G1 X199.758 Y41.416 Z-5.000 F635.0
G1 X199.939 Y41.429 Z-5.000 F180.0
G1 X200.125 Y41.471 Z-5.000
G1 X200.309 Y41.544 Z-5.000
G1 X200.484 Y41.649 Z-5.000
G1 X200.642 Y41.782 Z-5.000
G1 X200.775 Y41.940 Z-5.000
G1 X200.879 Y42.114 Z-5.000
G1 X200.953 Y42.299 Z-5.000
G1 X200.995 Y42.485 Z-5.000
G1 X201.008 Y42.666 Z-5.000
G1 X200.995 Y42.847 Z-5.000
G1 X200.953 Y43.033 Z-5.000
G1 X200.879 Y43.217 Z-5.000
G1 X200.775 Y43.392 Z-5.000
G1 X200.642 Y43.550 Z-5.000
G1 X200.484 Y43.683 Z-5.000
G1 X200.309 Y43.788 Z-5.000
G1 X200.125 Y43.861 Z-5.000
G1 X199.939 Y43.903 Z-5.000
G1 X199.758 Y43.916 Z-5.000
G1 X199.577 Y43.903 Z-5.000
G1 X199.390 Y43.861 Z-5.000
G1 X199.206 Y43.788 Z-5.000
G1 X199.031 Y43.683 Z-5.000
G1 X198.874 Y43.550 Z-5.000
G1 X198.740 Y43.392 Z-5.000
G1 X198.636 Y43.217 Z-5.000
G1 X198.563 Y43.033 Z-5.000
G1 X198.521 Y42.847 Z-5.000
G1 X198.508 Y42.666 Z-5.000
G1 X198.521 Y42.485 Z-5.000
G1 X198.563 Y42.299 Z-5.000
G1 X198.636 Y42.114 Z-5.000
G1 X198.740 Y41.940 Z-5.000
G1 X198.874 Y41.782 Z-5.000
G1 X199.031 Y41.649 Z-5.000
G1 X199.206 Y41.544 Z-5.000
G1 X199.390 Y41.471 Z-5.000
G1 X199.577 Y41.429 Z-5.000
G1 X199.758 Y41.416 Z-5.000
G0 X199.758 Y41.416
G0 Z6.000
G1 X199.758 Y41.416 Z-6.000 F635.0
G1 X199.939 Y41.429 Z-6.000 F180.0
G1 X200.125 Y41.471 Z-6.000
G1 X200.309 Y41.544 Z-6.000
G1 X200.484 Y41.649 Z-6.000
G1 X200.642 Y41.782 Z-6.000
G1 X200.775 Y41.940 Z-6.000
G1 X200.879 Y42.114 Z-6.000
G1 X200.953 Y42.299 Z-6.000
G1 X200.995 Y42.485 Z-6.000
G1 X201.008 Y42.666 Z-6.000
G1 X200.995 Y42.847 Z-6.000
G1 X200.953 Y43.033 Z-6.000
G1 X200.879 Y43.217 Z-6.000
G1 X200.775 Y43.392 Z-6.000
G1 X200.642 Y43.550 Z-6.000
G1 X200.484 Y43.683 Z-6.000
G1 X200.309 Y43.788 Z-6.000
G1 X200.125 Y43.861 Z-6.000
G1 X199.939 Y43.903 Z-6.000
G1 X199.758 Y43.916 Z-6.000
G1 X199.577 Y43.903 Z-6.000
G1 X199.390 Y43.861 Z-6.000
G1 X199.206 Y43.788 Z-6.000
G1 X199.031 Y43.683 Z-6.000
G1 X198.874 Y43.550 Z-6.000
G1 X198.740 Y43.392 Z-6.000
G1 X198.636 Y43.217 Z-6.000
G1 X198.563 Y43.033 Z-6.000
G1 X198.521 Y42.847 Z-6.000
G1 X198.508 Y42.666 Z-6.000
G1 X198.521 Y42.485 Z-6.000
G1 X198.563 Y42.299 Z-6.000
G1 X198.636 Y42.114 Z-6.000
G1 X198.740 Y41.940 Z-6.000
G1 X198.874 Y41.782 Z-6.000
G1 X199.031 Y41.649 Z-6.000
G1 X199.206 Y41.544 Z-6.000
G1 X199.390 Y41.471 Z-6.000
G1 X199.577 Y41.429 Z-6.000
G1 X199.758 Y41.416 Z-6.000
G0 X199.758 Y41.416
G0 Z6.000
G1 X199.758 Y41.416 Z-7.000 F635.0
G1 X199.939 Y41.429 Z-7.000 F180.0
G1 X200.125 Y41.471 Z-7.000
G1 X200.309 Y41.544 Z-7.000
G1 X200.484 Y41.649 Z-7.000
G1 X200.642 Y41.782 Z-7.000
G1 X200.775 Y41.940 Z-7.000
G1 X200.879 Y42.114 Z-7.000
G1 X200.953 Y42.299 Z-7.000
G1 X200.995 Y42.485 Z-7.000
G1 X201.008 Y42.666 Z-7.000
G1 X200.995 Y42.847 Z-7.000
G1 X200.953 Y43.033 Z-7.000
G1 X200.879 Y43.217 Z-7.000
G1 X200.775 Y43.392 Z-7.000
G1 X200.642 Y43.550 Z-7.000
G1 X200.484 Y43.683 Z-7.000
G1 X200.309 Y43.788 Z-7.000
G1 X200.125 Y43.861 Z-7.000
G1 X199.939 Y43.903 Z-7.000
G1 X199.758 Y43.916 Z-7.000
G1 X199.577 Y43.903 Z-7.000
G1 X199.390 Y43.861 Z-7.000
G1 X199.206 Y43.788 Z-7.000
G1 X199.031 Y43.683 Z-7.000
G1 X198.874 Y43.550 Z-7.000
G1 X198.740 Y43.392 Z-7.000
G1 X198.636 Y43.217 Z-7.000
G1 X198.563 Y43.033 Z-7.000
G1 X198.521 Y42.847 Z-7.000
G1 X198.508 Y42.666 Z-7.000
G1 X198.521 Y42.485 Z-7.000
G1 X198.563 Y42.299 Z-7.000
G1 X198.636 Y42.114 Z-7.000
G1 X198.740 Y41.940 Z-7.000
G1 X198.874 Y41.782 Z-7.000
G1 X199.031 Y41.649 Z-7.000
G1 X199.206 Y41.544 Z-7.000
G1 X199.390 Y41.471 Z-7.000
G1 X199.577 Y41.429 Z-7.000
G1 X199.758 Y41.416 Z-7.000
G0 X199.758 Y41.416
G0 Z6.000
G1 X199.758 Y41.416 Z-8.000 F635.0
G1 X199.939 Y41.429 Z-8.000 F180.0
G1 X200.125 Y41.471 Z-8.000
G1 X200.309 Y41.544 Z-8.000
G1 X200.484 Y41.649 Z-8.000
G1 X200.642 Y41.782 Z-8.000
G1 X200.775 Y41.940 Z-8.000
G1 X200.879 Y42.114 Z-8.000
G1 X200.953 Y42.299 Z-8.000
G1 X200.995 Y42.485 Z-8.000
G1 X201.008 Y42.666 Z-8.000
G1 X200.995 Y42.847 Z-8.000
G1 X200.953 Y43.033 Z-8.000
G1 X200.879 Y43.217 Z-8.000
G1 X200.775 Y43.392 Z-8.000
G1 X200.642 Y43.550 Z-8.000
G1 X200.484 Y43.683 Z-8.000
G1 X200.309 Y43.788 Z-8.000
G1 X200.125 Y43.861 Z-8.000
G1 X199.939 Y43.903 Z-8.000
G1 X199.758 Y43.916 Z-8.000
G1 X199.577 Y43.903 Z-8.000
G1 X199.390 Y43.861 Z-8.000
G1 X199.206 Y43.788 Z-8.000
G1 X199.031 Y43.683 Z-8.000
G1 X198.874 Y43.550 Z-8.000
G1 X198.740 Y43.392 Z-8.000
G1 X198.636 Y43.217 Z-8.000
G1 X198.563 Y43.033 Z-8.000
G1 X198.521 Y42.847 Z-8.000
G1 X198.508 Y42.666 Z-8.000
G1 X198.521 Y42.485 Z-8.000
G1 X198.563 Y42.299 Z-8.000
G1 X198.636 Y42.114 Z-8.000
G1 X198.740 Y41.940 Z-8.000
G1 X198.874 Y41.782 Z-8.000
G1 X199.031 Y41.649 Z-8.000
G1 X199.206 Y41.544 Z-8.000
G1 X199.390 Y41.471 Z-8.000
G1 X199.577 Y41.429 Z-8.000
G1 X199.758 Y41.416 Z-8.000
G0 X199.758 Y41.416
G0 Z6.000
G1 X199.758 Y41.416 Z-9.000 F635.0
G1 X199.939 Y41.429 Z-9.000 F180.0
G1 X200.125 Y41.471 Z-9.000
G1 X200.309 Y41.544 Z-9.000
G1 X200.484 Y41.649 Z-9.000
G1 X200.642 Y41.782 Z-9.000
G1 X200.775 Y41.940 Z-9.000
G1 X200.879 Y42.114 Z-9.000
G1 X200.953 Y42.299 Z-9.000
G1 X200.995 Y42.485 Z-9.000
G1 X201.008 Y42.666 Z-9.000
G1 X200.995 Y42.847 Z-9.000
G1 X200.953 Y43.033 Z-9.000
G1 X200.879 Y43.217 Z-9.000
G1 X200.775 Y43.392 Z-9.000
G1 X200.642 Y43.550 Z-9.000
G1 X200.484 Y43.683 Z-9.000
G1 X200.309 Y43.788 Z-9.000
G1 X200.125 Y43.861 Z-9.000
G1 X199.939 Y43.903 Z-9.000
G1 X199.758 Y43.916 Z-9.000
G1 X199.577 Y43.903 Z-9.000
G1 X199.390 Y43.861 Z-9.000
G1 X199.206 Y43.788 Z-9.000
G1 X199.031 Y43.683 Z-9.000
G1 X198.874 Y43.550 Z-9.000
G1 X198.740 Y43.392 Z-9.000
G1 X198.636 Y43.217 Z-9.000
G1 X198.563 Y43.033 Z-9.000
G1 X198.521 Y42.847 Z-9.000
G1 X198.508 Y42.666 Z-9.000
G1 X198.521 Y42.485 Z-9.000
G1 X198.563 Y42.299 Z-9.000
G1 X198.636 Y42.114 Z-9.000
G1 X198.740 Y41.940 Z-9.000
G1 X198.874 Y41.782 Z-9.000
G1 X199.031 Y41.649 Z-9.000
G1 X199.206 Y41.544 Z-9.000
G1 X199.390 Y41.471 Z-9.000
G1 X199.577 Y41.429 Z-9.000
G1 X199.758 Y41.416 Z-9.000
G0 X199.758 Y41.416
G0 Z6.000
G1 X199.758 Y41.416 Z-10.000 F635.0
G1 X199.939 Y41.429 Z-10.000 F180.0
G1 X200.125 Y41.471 Z-10.000
G1 X200.309 Y41.544 Z-10.000
G1 X200.484 Y41.649 Z-10.000
G1 X200.642 Y41.782 Z-10.000
G1 X200.775 Y41.940 Z-10.000
G1 X200.879 Y42.114 Z-10.000
G1 X200.953 Y42.299 Z-10.000
G1 X200.995 Y42.485 Z-10.000
G1 X201.008 Y42.666 Z-10.000
G1 X200.995 Y42.847 Z-10.000
G1 X200.953 Y43.033 Z-10.000
G1 X200.879 Y43.217 Z-10.000
G1 X200.775 Y43.392 Z-10.000
G1 X200.642 Y43.550 Z-10.000
G1 X200.484 Y43.683 Z-10.000
G1 X200.309 Y43.788 Z-10.000
G1 X200.125 Y43.861 Z-10.000
G1 X199.939 Y43.903 Z-10.000
G1 X199.758 Y43.916 Z-10.000
G1 X199.577 Y43.903 Z-10.000
G1 X199.390 Y43.861 Z-10.000
G1 X199.206 Y43.788 Z-10.000
G1 X199.031 Y43.683 Z-10.000
G1 X198.874 Y43.550 Z-10.000
G1 X198.740 Y43.392 Z-10.000
G1 X198.636 Y43.217 Z-10.000
G1 X198.563 Y43.033 Z-10.000
G1 X198.521 Y42.847 Z-10.000
G1 X198.508 Y42.666 Z-10.000
G1 X198.521 Y42.485 Z-10.000
G1 X198.563 Y42.299 Z-10.000
G1 X198.636 Y42.114 Z-10.000
G1 X198.740 Y41.940 Z-10.000
G1 X198.874 Y41.782 Z-10.000
G1 X199.031 Y41.649 Z-10.000
G1 X199.206 Y41.544 Z-10.000
G1 X199.390 Y41.471 Z-10.000
G1 X199.577 Y41.429 Z-10.000
G1 X199.758 Y41.416 Z-10.000
G0 X199.758 Y41.416
G0 Z6.000
G1 X199.758 Y41.416 Z-11.000 F635.0
G1 X199.939 Y41.429 Z-11.000 F180.0
G1 X200.125 Y41.471 Z-11.000
G1 X200.309 Y41.544 Z-11.000
G1 X200.484 Y41.649 Z-11.000
G1 X200.642 Y41.782 Z-11.000
G1 X200.775 Y41.940 Z-11.000
G1 X200.879 Y42.114 Z-11.000
G1 X200.953 Y42.299 Z-11.000
G1 X200.995 Y42.485 Z-11.000
G1 X201.008 Y42.666 Z-11.000
G1 X200.995 Y42.847 Z-11.000
G1 X200.953 Y43.033 Z-11.000
G1 X200.879 Y43.217 Z-11.000
G1 X200.775 Y43.392 Z-11.000
G1 X200.642 Y43.550 Z-11.000
G1 X200.484 Y43.683 Z-11.000
G1 X200.309 Y43.788 Z-11.000
G1 X200.125 Y43.861 Z-11.000
G1 X199.939 Y43.903 Z-11.000
G1 X199.758 Y43.916 Z-11.000
G1 X199.577 Y43.903 Z-11.000
G1 X199.390 Y43.861 Z-11.000
G1 X199.206 Y43.788 Z-11.000
G1 X199.031 Y43.683 Z-11.000
G1 X198.874 Y43.550 Z-11.000
G1 X198.740 Y43.392 Z-11.000
G1 X198.636 Y43.217 Z-11.000
G1 X198.563 Y43.033 Z-11.000
G1 X198.521 Y42.847 Z-11.000
G1 X198.508 Y42.666 Z-11.000
G1 X198.521 Y42.485 Z-11.000
G1 X198.563 Y42.299 Z-11.000
G1 X198.636 Y42.114 Z-11.000
G1 X198.740 Y41.940 Z-11.000
G1 X198.874 Y41.782 Z-11.000
G1 X199.031 Y41.649 Z-11.000
G1 X199.206 Y41.544 Z-11.000
G1 X199.390 Y41.471 Z-11.000
G1 X199.577 Y41.429 Z-11.000
G1 X199.758 Y41.416 Z-11.000
G0 X199.758 Y41.416
G0 Z6.000
G1 X199.758 Y41.416 Z-12.000 F635.0
G1 X199.939 Y41.429 Z-12.000 F180.0
G1 X200.125 Y41.471 Z-12.000
G1 X200.309 Y41.544 Z-12.000
G1 X200.484 Y41.649 Z-12.000
G1 X200.642 Y41.782 Z-12.000
G1 X200.775 Y41.940 Z-12.000
G1 X200.879 Y42.114 Z-12.000
G1 X200.953 Y42.299 Z-12.000
G1 X200.995 Y42.485 Z-12.000
G1 X201.008 Y42.666 Z-12.000
G1 X200.995 Y42.847 Z-12.000
G1 X200.953 Y43.033 Z-12.000
G1 X200.879 Y43.217 Z-12.000
G1 X200.775 Y43.392 Z-12.000
G1 X200.642 Y43.550 Z-12.000
G1 X200.484 Y43.683 Z-12.000
G1 X200.309 Y43.788 Z-12.000
G1 X200.125 Y43.861 Z-12.000
G1 X199.939 Y43.903 Z-12.000
G1 X199.758 Y43.916 Z-12.000
G1 X199.577 Y43.903 Z-12.000
G1 X199.390 Y43.861 Z-12.000
G1 X199.206 Y43.788 Z-12.000
G1 X199.031 Y43.683 Z-12.000
G1 X198.874 Y43.550 Z-12.000
G1 X198.740 Y43.392 Z-12.000
G1 X198.636 Y43.217 Z-12.000
G1 X198.563 Y43.033 Z-12.000
G1 X198.521 Y42.847 Z-12.000
G1 X198.508 Y42.666 Z-12.000
G1 X198.521 Y42.485 Z-12.000
G1 X198.563 Y42.299 Z-12.000
G1 X198.636 Y42.114 Z-12.000
G1 X198.740 Y41.940 Z-12.000
G1 X198.874 Y41.782 Z-12.000
G1 X199.031 Y41.649 Z-12.000
G1 X199.206 Y41.544 Z-12.000
G1 X199.390 Y41.471 Z-12.000
G1 X199.577 Y41.429 Z-12.000
G1 X199.758 Y41.416 Z-12.000
G0 X199.758 Y41.416
G0 Z6.000
G0 X248.906 Y59.417
G0 Z6.000
G1 X248.906 Y59.417 Z-1.000 F635.0
G1 X249.087 Y59.430 Z-1.000 F180.0
G1 X249.273 Y59.472 Z-1.000
G1 X249.457 Y59.545 Z-1.000
G1 X249.632 Y59.650 Z-1.000
G1 X249.790 Y59.783 Z-1.000
G1 X249.923 Y59.941 Z-1.000
G1 X250.027 Y60.115 Z-1.000
G1 X250.101 Y60.300 Z-1.000
G1 X250.143 Y60.486 Z-1.000
G1 X250.156 Y60.667 Z-1.000
G1 X250.143 Y60.848 Z-1.000
G1 X250.101 Y61.034 Z-1.000
G1 X250.027 Y61.218 Z-1.000
G1 X249.923 Y61.393 Z-1.000
G1 X249.790 Y61.551 Z-1.000
G1 X249.632 Y61.684 Z-1.000
G1 X249.457 Y61.789 Z-1.000
G1 X249.273 Y61.862 Z-1.000
G1 X249.087 Y61.904 Z-1.000
G1 X248.906 Y61.917 Z-1.000
G1 X248.725 Y61.904 Z-1.000
G1 X248.538 Y61.862 Z-1.000
G1 X248.354 Y61.789 Z-1.000
G1 X248.179 Y61.684 Z-1.000
G1 X248.022 Y61.551 Z-1.000
G1 X247.888 Y61.393 Z-1.000
G1 X247.784 Y61.218 Z-1.000
G1 X247.711 Y61.034 Z-1.000
G1 X247.669 Y60.848 Z-1.000
G1 X247.656 Y60.667 Z-1.000
G1 X247.669 Y60.486 Z-1.000
G1 X247.711 Y60.300 Z-1.000
G1 X247.784 Y60.115 Z-1.000
G1 X247.888 Y59.941 Z-1.000
G1 X248.022 Y59.783 Z-1.000
G1 X248.179 Y59.650 Z-1.000
G1 X248.354 Y59.545 Z-1.000
G1 X248.538 Y59.472 Z-1.000
G1 X248.725 Y59.430 Z-1.000
G1 X248.906 Y59.417 Z-1.000
G0 X248.906 Y59.417
G0 Z6.000
G1 X248.906 Y59.417 Z-2.000 F635.0
G1 X249.087 Y59.430 Z-2.000 F180.0
G1 X249.273 Y59.472 Z-2.000
G1 X249.457 Y59.545 Z-2.000
G1 X249.632 Y59.650 Z-2.000
G1 X249.790 Y59.783 Z-2.000
G1 X249.923 Y59.941 Z-2.000
G1 X250.027 Y60.115 Z-2.000
G1 X250.101 Y60.300 Z-2.000
G1 X250.143 Y60.486 Z-2.000
G1 X250.156 Y60.667 Z-2.000
G1 X250.143 Y60.848 Z-2.000
G1 X250.101 Y61.034 Z-2.000
G1 X250.027 Y61.218 Z-2.000
G1 X249.923 Y61.393 Z-2.000
G1 X249.790 Y61.551 Z-2.000
G1 X249.632 Y61.684 Z-2.000
G1 X249.457 Y61.789 Z-2.000
G1 X249.273 Y61.862 Z-2.000
G1 X249.087 Y61.904 Z-2.000
G1 X248.906 Y61.917 Z-2.000
G1 X248.725 Y61.904 Z-2.000
G1 X248.538 Y61.862 Z-2.000
G1 X248.354 Y61.789 Z-2.000
G1 X248.179 Y61.684 Z-2.000
G1 X248.022 Y61.551 Z-2.000
G1 X247.888 Y61.393 Z-2.000
G1 X247.784 Y61.218 Z-2.000
G1 X247.711 Y61.034 Z-2.000
G1 X247.669 Y60.848 Z-2.000
G1 X247.656 Y60.667 Z-2.000
G1 X247.669 Y60.486 Z-2.000
G1 X247.711 Y60.300 Z-2.000
G1 X247.784 Y60.115 Z-2.000
G1 X247.888 Y59.941 Z-2.000
G1 X248.022 Y59.783 Z-2.000
G1 X248.179 Y59.650 Z-2.000
G1 X248.354 Y59.545 Z-2.000
G1 X248.538 Y59.472 Z-2.000
G1 X248.725 Y59.430 Z-2.000
G1 X248.906 Y59.417 Z-2.000
G0 X248.906 Y59.417
G0 Z6.000
G1 X248.906 Y59.417 Z-3.000 F635.0
G1 X249.087 Y59.430 Z-3.000 F180.0
G1 X249.273 Y59.472 Z-3.000
G1 X249.457 Y59.545 Z-3.000
G1 X249.632 Y59.650 Z-3.000
G1 X249.790 Y59.783 Z-3.000
G1 X249.923 Y59.941 Z-3.000
G1 X250.027 Y60.115 Z-3.000
G1 X250.101 Y60.300 Z-3.000
G1 X250.143 Y60.486 Z-3.000
G1 X250.156 Y60.667 Z-3.000
G1 X250.143 Y60.848 Z-3.000
G1 X250.101 Y61.034 Z-3.000
G1 X250.027 Y61.218 Z-3.000
G1 X249.923 Y61.393 Z-3.000
G1 X249.790 Y61.551 Z-3.000
G1 X249.632 Y61.684 Z-3.000
G1 X249.457 Y61.789 Z-3.000
G1 X249.273 Y61.862 Z-3.000
G1 X249.087 Y61.904 Z-3.000
G1 X248.906 Y61.917 Z-3.000
G1 X248.725 Y61.904 Z-3.000
G1 X248.538 Y61.862 Z-3.000
G1 X248.354 Y61.789 Z-3.000
G1 X248.179 Y61.684 Z-3.000
G1 X248.022 Y61.551 Z-3.000
G1 X247.888 Y61.393 Z-3.000
G1 X247.784 Y61.218 Z-3.000
G1 X247.711 Y61.034 Z-3.000
G1 X247.669 Y60.848 Z-3.000
G1 X247.656 Y60.667 Z-3.000
G1 X247.669 Y60.486 Z-3.000
G1 X247.711 Y60.300 Z-3.000
G1 X247.784 Y60.115 Z-3.000
G1 X247.888 Y59.941 Z-3.000
G1 X248.022 Y59.783 Z-3.000
G1 X248.179 Y59.650 Z-3.000
G1 X248.354 Y59.545 Z-3.000
G1 X248.538 Y59.472 Z-3.000
G1 X248.725 Y59.430 Z-3.000
G1 X248.906 Y59.417 Z-3.000
G0 X248.906 Y59.417
G0 Z6.000
G1 X248.906 Y59.417 Z-4.000 F635.0
G1 X249.087 Y59.430 Z-4.000 F180.0
G1 X249.273 Y59.472 Z-4.000
G1 X249.457 Y59.545 Z-4.000
G1 X249.632 Y59.650 Z-4.000
G1 X249.790 Y59.783 Z-4.000
G1 X249.923 Y59.941 Z-4.000
G1 X250.027 Y60.115 Z-4.000
G1 X250.101 Y60.300 Z-4.000
G1 X250.143 Y60.486 Z-4.000
G1 X250.156 Y60.667 Z-4.000
G1 X250.143 Y60.848 Z-4.000
G1 X250.101 Y61.034 Z-4.000
G1 X250.027 Y61.218 Z-4.000
G1 X249.923 Y61.393 Z-4.000
G1 X249.790 Y61.551 Z-4.000
G1 X249.632 Y61.684 Z-4.000
G1 X249.457 Y61.789 Z-4.000
G1 X249.273 Y61.862 Z-4.000
G1 X249.087 Y61.904 Z-4.000
G1 X248.906 Y61.917 Z-4.000
G1 X248.725 Y61.904 Z-4.000
G1 X248.538 Y61.862 Z-4.000
G1 X248.354 Y61.789 Z-4.000
G1 X248.179 Y61.684 Z-4.000
G1 X248.022 Y61.551 Z-4.000
G1 X247.888 Y61.393 Z-4.000
G1 X247.784 Y61.218 Z-4.000
G1 X247.711 Y61.034 Z-4.000
G1 X247.669 Y60.848 Z-4.000
G1 X247.656 Y60.667 Z-4.000
G1 X247.669 Y60.486 Z-4.000
G1 X247.711 Y60.300 Z-4.000
G1 X247.784 Y60.115 Z-4.000
G1 X247.888 Y59.941 Z-4.000
G1 X248.022 Y59.783 Z-4.000
G1 X248.179 Y59.650 Z-4.000
G1 X248.354 Y59.545 Z-4.000
G1 X248.538 Y59.472 Z-4.000
G1 X248.725 Y59.430 Z-4.000
G1 X248.906 Y59.417 Z-4.000
G0 X248.906 Y59.417
G0 Z6.000
G1 X248.906 Y59.417 Z-5.000 F635.0
G1 X249.087 Y59.430 Z-5.000 F180.0
G1 X249.273 Y59.472 Z-5.000
G1 X249.457 Y59.545 Z-5.000
G1 X249.632 Y59.650 Z-5.000
G1 X249.790 Y59.783 Z-5.000
G1 X249.923 Y59.941 Z-5.000
G1 X250.027 Y60.115 Z-5.000
G1 X250.101 Y60.300 Z-5.000
G1 X250.143 Y60.486 Z-5.000
G1 X250.156 Y60.667 Z-5.000
G1 X250.143 Y60.848 Z-5.000
G1 X250.101 Y61.034 Z-5.000
G1 X250.027 Y61.218 Z-5.000
G1 X249.923 Y61.393 Z-5.000
G1 X249.790 Y61.551 Z-5.000
G1 X249.632 Y61.684 Z-5.000
G1 X249.457 Y61.789 Z-5.000
G1 X249.273 Y61.862 Z-5.000
G1 X249.087 Y61.904 Z-5.000
G1 X248.906 Y61.917 Z-5.000
G1 X248.725 Y61.904 Z-5.000
G1 X248.538 Y61.862 Z-5.000
G1 X248.354 Y61.789 Z-5.000
G1 X248.179 Y61.684 Z-5.000
G1 X248.022 Y61.551 Z-5.000
G1 X247.888 Y61.393 Z-5.000
G1 X247.784 Y61.218 Z-5.000
G1 X247.711 Y61.034 Z-5.000
G1 X247.669 Y60.848 Z-5.000
G1 X247.656 Y60.667 Z-5.000
G1 X247.669 Y60.486 Z-5.000
G1 X247.711 Y60.300 Z-5.000
G1 X247.784 Y60.115 Z-5.000
G1 X247.888 Y59.941 Z-5.000
G1 X248.022 Y59.783 Z-5.000
G1 X248.179 Y59.650 Z-5.000
G1 X248.354 Y59.545 Z-5.000
G1 X248.538 Y59.472 Z-5.000
G1 X248.725 Y59.430 Z-5.000
G1 X248.906 Y59.417 Z-5.000
G0 X248.906 Y59.417
G0 Z6.000
G1 X248.906 Y59.417 Z-6.000 F635.0
G1 X249.087 Y59.430 Z-6.000 F180.0
G1 X249.273 Y59.472 Z-6.000
G1 X249.457 Y59.545 Z-6.000
G1 X249.632 Y59.650 Z-6.000
G1 X249.790 Y59.783 Z-6.000
G1 X249.923 Y59.941 Z-6.000
G1 X250.027 Y60.115 Z-6.000
G1 X250.101 Y60.300 Z-6.000
G1 X250.143 Y60.486 Z-6.000
G1 X250.156 Y60.667 Z-6.000
G1 X250.143 Y60.848 Z-6.000
G1 X250.101 Y61.034 Z-6.000
G1 X250.027 Y61.218 Z-6.000
G1 X249.923 Y61.393 Z-6.000
G1 X249.790 Y61.551 Z-6.000
G1 X249.632 Y61.684 Z-6.000
G1 X249.457 Y61.789 Z-6.000
G1 X249.273 Y61.862 Z-6.000
G1 X249.087 Y61.904 Z-6.000
G1 X248.906 Y61.917 Z-6.000
G1 X248.725 Y61.904 Z-6.000
G1 X248.538 Y61.862 Z-6.000
G1 X248.354 Y61.789 Z-6.000
G1 X248.179 Y61.684 Z-6.000
G1 X248.022 Y61.551 Z-6.000
G1 X247.888 Y61.393 Z-6.000
G1 X247.784 Y61.218 Z-6.000
G1 X247.711 Y61.034 Z-6.000
G1 X247.669 Y60.848 Z-6.000
G1 X247.656 Y60.667 Z-6.000
G1 X247.669 Y60.486 Z-6.000
G1 X247.711 Y60.300 Z-6.000
G1 X247.784 Y60.115 Z-6.000
G1 X247.888 Y59.941 Z-6.000
G1 X248.022 Y59.783 Z-6.000
G1 X248.179 Y59.650 Z-6.000
G1 X248.354 Y59.545 Z-6.000
G1 X248.538 Y59.472 Z-6.000
G1 X248.725 Y59.430 Z-6.000
G1 X248.906 Y59.417 Z-6.000
G0 X248.906 Y59.417
G0 Z6.000
G1 X248.906 Y59.417 Z-7.000 F635.0
G1 X249.087 Y59.430 Z-7.000 F180.0
G1 X249.273 Y59.472 Z-7.000
G1 X249.457 Y59.545 Z-7.000
G1 X249.632 Y59.650 Z-7.000
G1 X249.790 Y59.783 Z-7.000
G1 X249.923 Y59.941 Z-7.000
G1 X250.027 Y60.115 Z-7.000
G1 X250.101 Y60.300 Z-7.000
G1 X250.143 Y60.486 Z-7.000
G1 X250.156 Y60.667 Z-7.000
G1 X250.143 Y60.848 Z-7.000
G1 X250.101 Y61.034 Z-7.000
G1 X250.027 Y61.218 Z-7.000
G1 X249.923 Y61.393 Z-7.000
G1 X249.790 Y61.551 Z-7.000
G1 X249.632 Y61.684 Z-7.000
G1 X249.457 Y61.789 Z-7.000
G1 X249.273 Y61.862 Z-7.000
G1 X249.087 Y61.904 Z-7.000
G1 X248.906 Y61.917 Z-7.000
G1 X248.725 Y61.904 Z-7.000
G1 X248.538 Y61.862 Z-7.000
G1 X248.354 Y61.789 Z-7.000
G1 X248.179 Y61.684 Z-7.000
G1 X248.022 Y61.551 Z-7.000
G1 X247.888 Y61.393 Z-7.000
G1 X247.784 Y61.218 Z-7.000
G1 X247.711 Y61.034 Z-7.000
G1 X247.669 Y60.848 Z-7.000
G1 X247.656 Y60.667 Z-7.000
G1 X247.669 Y60.486 Z-7.000
G1 X247.711 Y60.300 Z-7.000
G1 X247.784 Y60.115 Z-7.000
G1 X247.888 Y59.941 Z-7.000
G1 X248.022 Y59.783 Z-7.000
G1 X248.179 Y59.650 Z-7.000
G1 X248.354 Y59.545 Z-7.000
G1 X248.538 Y59.472 Z-7.000
G1 X248.725 Y59.430 Z-7.000
G1 X248.906 Y59.417 Z-7.000
G0 X248.906 Y59.417
G0 Z6.000
G1 X248.906 Y59.417 Z-8.000 F635.0
G1 X249.087 Y59.430 Z-8.000 F180.0
G1 X249.273 Y59.472 Z-8.000
G1 X249.457 Y59.545 Z-8.000
G1 X249.632 Y59.650 Z-8.000
G1 X249.790 Y59.783 Z-8.000
G1 X249.923 Y59.941 Z-8.000
G1 X250.027 Y60.115 Z-8.000
G1 X250.101 Y60.300 Z-8.000
G1 X250.143 Y60.486 Z-8.000
G1 X250.156 Y60.667 Z-8.000
G1 X250.143 Y60.848 Z-8.000
G1 X250.101 Y61.034 Z-8.000
G1 X250.027 Y61.218 Z-8.000
G1 X249.923 Y61.393 Z-8.000
G1 X249.790 Y61.551 Z-8.000
G1 X249.632 Y61.684 Z-8.000
G1 X249.457 Y61.789 Z-8.000
G1 X249.273 Y61.862 Z-8.000
G1 X249.087 Y61.904 Z-8.000
G1 X248.906 Y61.917 Z-8.000
G1 X248.725 Y61.904 Z-8.000
G1 X248.538 Y61.862 Z-8.000
G1 X248.354 Y61.789 Z-8.000
G1 X248.179 Y61.684 Z-8.000
G1 X248.022 Y61.551 Z-8.000
G1 X247.888 Y61.393 Z-8.000
G1 X247.784 Y61.218 Z-8.000
G1 X247.711 Y61.034 Z-8.000
G1 X247.669 Y60.848 Z-8.000
G1 X247.656 Y60.667 Z-8.000
G1 X247.669 Y60.486 Z-8.000
G1 X247.711 Y60.300 Z-8.000
G1 X247.784 Y60.115 Z-8.000
G1 X247.888 Y59.941 Z-8.000
G1 X248.022 Y59.783 Z-8.000
G1 X248.179 Y59.650 Z-8.000
G1 X248.354 Y59.545 Z-8.000
G1 X248.538 Y59.472 Z-8.000
G1 X248.725 Y59.430 Z-8.000
G1 X248.906 Y59.417 Z-8.000
G0 X248.906 Y59.417
G0 Z6.000
G1 X248.906 Y59.417 Z-9.000 F635.0
G1 X249.087 Y59.430 Z-9.000 F180.0
G1 X249.273 Y59.472 Z-9.000
G1 X249.457 Y59.545 Z-9.000
G1 X249.632 Y59.650 Z-9.000
G1 X249.790 Y59.783 Z-9.000
G1 X249.923 Y59.941 Z-9.000
G1 X250.027 Y60.115 Z-9.000
G1 X250.101 Y60.300 Z-9.000
G1 X250.143 Y60.486 Z-9.000
G1 X250.156 Y60.667 Z-9.000
G1 X250.143 Y60.848 Z-9.000
G1 X250.101 Y61.034 Z-9.000
G1 X250.027 Y61.218 Z-9.000
G1 X249.923 Y61.393 Z-9.000
G1 X249.790 Y61.551 Z-9.000
G1 X249.632 Y61.684 Z-9.000
G1 X249.457 Y61.789 Z-9.000
G1 X249.273 Y61.862 Z-9.000
G1 X249.087 Y61.904 Z-9.000
G1 X248.906 Y61.917 Z-9.000
G1 X248.725 Y61.904 Z-9.000
G1 X248.538 Y61.862 Z-9.000
G1 X248.354 Y61.789 Z-9.000
G1 X248.179 Y61.684 Z-9.000
G1 X248.022 Y61.551 Z-9.000
G1 X247.888 Y61.393 Z-9.000
G1 X247.784 Y61.218 Z-9.000
G1 X247.711 Y61.034 Z-9.000
G1 X247.669 Y60.848 Z-9.000
G1 X247.656 Y60.667 Z-9.000
G1 X247.669 Y60.486 Z-9.000
G1 X247.711 Y60.300 Z-9.000
G1 X247.784 Y60.115 Z-9.000
G1 X247.888 Y59.941 Z-9.000
G1 X248.022 Y59.783 Z-9.000
G1 X248.179 Y59.650 Z-9.000
G1 X248.354 Y59.545 Z-9.000
G1 X248.538 Y59.472 Z-9.000
G1 X248.725 Y59.430 Z-9.000
G1 X248.906 Y59.417 Z-9.000
G0 X248.906 Y59.417
G0 Z6.000
G1 X248.906 Y59.417 Z-10.000 F635.0
G1 X249.087 Y59.430 Z-10.000 F180.0
G1 X249.273 Y59.472 Z-10.000
G1 X249.457 Y59.545 Z-10.000
G1 X249.632 Y59.650 Z-10.000
G1 X249.790 Y59.783 Z-10.000
G1 X249.923 Y59.941 Z-10.000
G1 X250.027 Y60.115 Z-10.000
G1 X250.101 Y60.300 Z-10.000
G1 X250.143 Y60.486 Z-10.000
G1 X250.156 Y60.667 Z-10.000
G1 X250.143 Y60.848 Z-10.000
G1 X250.101 Y61.034 Z-10.000
G1 X250.027 Y61.218 Z-10.000
G1 X249.923 Y61.393 Z-10.000
G1 X249.790 Y61.551 Z-10.000
G1 X249.632 Y61.684 Z-10.000
G1 X249.457 Y61.789 Z-10.000
G1 X249.273 Y61.862 Z-10.000
G1 X249.087 Y61.904 Z-10.000
G1 X248.906 Y61.917 Z-10.000
G1 X248.725 Y61.904 Z-10.000
G1 X248.538 Y61.862 Z-10.000
G1 X248.354 Y61.789 Z-10.000
G1 X248.179 Y61.684 Z-10.000
G1 X248.022 Y61.551 Z-10.000
G1 X247.888 Y61.393 Z-10.000
G1 X247.784 Y61.218 Z-10.000
G1 X247.711 Y61.034 Z-10.000
G1 X247.669 Y60.848 Z-10.000
G1 X247.656 Y60.667 Z-10.000
G1 X247.669 Y60.486 Z-10.000
G1 X247.711 Y60.300 Z-10.000
G1 X247.784 Y60.115 Z-10.000
G1 X247.888 Y59.941 Z-10.000
G1 X248.022 Y59.783 Z-10.000
G1 X248.179 Y59.650 Z-10.000
G1 X248.354 Y59.545 Z-10.000
G1 X248.538 Y59.472 Z-10.000
G1 X248.725 Y59.430 Z-10.000
G1 X248.906 Y59.417 Z-10.000
G0 X248.906 Y59.417
G0 Z6.000
G1 X248.906 Y59.417 Z-11.000 F635.0
G1 X249.087 Y59.430 Z-11.000 F180.0
G1 X249.273 Y59.472 Z-11.000
G1 X249.457 Y59.545 Z-11.000
G1 X249.632 Y59.650 Z-11.000
G1 X249.790 Y59.783 Z-11.000
G1 X249.923 Y59.941 Z-11.000
G1 X250.027 Y60.115 Z-11.000
G1 X250.101 Y60.300 Z-11.000
G1 X250.143 Y60.486 Z-11.000
G1 X250.156 Y60.667 Z-11.000
G1 X250.143 Y60.848 Z-11.000
G1 X250.101 Y61.034 Z-11.000
G1 X250.027 Y61.218 Z-11.000
G1 X249.923 Y61.393 Z-11.000
G1 X249.790 Y61.551 Z-11.000
G1 X249.632 Y61.684 Z-11.000
G1 X249.457 Y61.789 Z-11.000
G1 X249.273 Y61.862 Z-11.000
G1 X249.087 Y61.904 Z-11.000
G1 X248.906 Y61.917 Z-11.000
G1 X248.725 Y61.904 Z-11.000
G1 X248.538 Y61.862 Z-11.000
G1 X248.354 Y61.789 Z-11.000
G1 X248.179 Y61.684 Z-11.000
G1 X248.022 Y61.551 Z-11.000
G1 X247.888 Y61.393 Z-11.000
G1 X247.784 Y61.218 Z-11.000
G1 X247.711 Y61.034 Z-11.000
G1 X247.669 Y60.848 Z-11.000
G1 X247.656 Y60.667 Z-11.000
G1 X247.669 Y60.486 Z-11.000
G1 X247.711 Y60.300 Z-11.000
G1 X247.784 Y60.115 Z-11.000
G1 X247.888 Y59.941 Z-11.000
G1 X248.022 Y59.783 Z-11.000
G1 X248.179 Y59.650 Z-11.000
G1 X248.354 Y59.545 Z-11.000
G1 X248.538 Y59.472 Z-11.000
G1 X248.725 Y59.430 Z-11.000
G1 X248.906 Y59.417 Z-11.000
G0 X248.906 Y59.417
G0 Z6.000
G1 X248.906 Y59.417 Z-12.000 F635.0
G1 X249.087 Y59.430 Z-12.000 F180.0
G1 X249.273 Y59.472 Z-12.000
G1 X249.457 Y59.545 Z-12.000
G1 X249.632 Y59.650 Z-12.000
G1 X249.790 Y59.783 Z-12.000
G1 X249.923 Y59.941 Z-12.000
G1 X250.027 Y60.115 Z-12.000
G1 X250.101 Y60.300 Z-12.000
G1 X250.143 Y60.486 Z-12.000
G1 X250.156 Y60.667 Z-12.000
G1 X250.143 Y60.848 Z-12.000
G1 X250.101 Y61.034 Z-12.000
G1 X250.027 Y61.218 Z-12.000
G1 X249.923 Y61.393 Z-12.000
G1 X249.790 Y61.551 Z-12.000
G1 X249.632 Y61.684 Z-12.000
G1 X249.457 Y61.789 Z-12.000
G1 X249.273 Y61.862 Z-12.000
G1 X249.087 Y61.904 Z-12.000
G1 X248.906 Y61.917 Z-12.000
G1 X248.725 Y61.904 Z-12.000
G1 X248.538 Y61.862 Z-12.000
G1 X248.354 Y61.789 Z-12.000
G1 X248.179 Y61.684 Z-12.000
G1 X248.022 Y61.551 Z-12.000
G1 X247.888 Y61.393 Z-12.000
G1 X247.784 Y61.218 Z-12.000
G1 X247.711 Y61.034 Z-12.000
G1 X247.669 Y60.848 Z-12.000
G1 X247.656 Y60.667 Z-12.000
G1 X247.669 Y60.486 Z-12.000
G1 X247.711 Y60.300 Z-12.000
G1 X247.784 Y60.115 Z-12.000
G1 X247.888 Y59.941 Z-12.000
G1 X248.022 Y59.783 Z-12.000
G1 X248.179 Y59.650 Z-12.000
G1 X248.354 Y59.545 Z-12.000
G1 X248.538 Y59.472 Z-12.000
G1 X248.725 Y59.430 Z-12.000
G1 X248.906 Y59.417 Z-12.000
G0 X248.906 Y59.417
G0 Z6.000
G0 X288.108 Y28.306
G0 Z6.000
G1 X288.108 Y28.306 Z-1.000 F635.0
G1 X288.119 Y28.142 Z-1.000 F180.0
G1 X288.153 Y27.973 Z-1.000
G1 X288.213 Y27.804 Z-1.000
G1 X288.299 Y27.641 Z-1.000
G1 X288.410 Y27.491 Z-1.000
G1 X288.543 Y27.358 Z-1.000
G1 X288.693 Y27.247 Z-1.000
G1 X288.856 Y27.161 Z-1.000
G1 X289.024 Y27.101 Z-1.000
G1 X289.193 Y27.067 Z-1.000
G1 X289.358 Y27.056 Z-1.000
G1 X289.522 Y27.067 Z-1.000
G1 X289.691 Y27.101 Z-1.000
G1 X289.860 Y27.161 Z-1.000
G1 X290.022 Y27.247 Z-1.000
G1 X290.173 Y27.358 Z-1.000
G1 X290.306 Y27.491 Z-1.000
G1 X290.417 Y27.641 Z-1.000
G1 X290.503 Y27.804 Z-1.000
G1 X290.562 Y27.973 Z-1.000
G1 X290.597 Y28.142 Z-1.000
G1 X290.608 Y28.306 Z-1.000
G1 X290.595 Y28.487 Z-1.000
G1 X290.553 Y28.673 Z-1.000
G1 X290.479 Y28.857 Z-1.000
G1 X290.375 Y29.032 Z-1.000
G1 X290.242 Y29.190 Z-1.000
G1 X290.084 Y29.323 Z-1.000
G1 X289.909 Y29.428 Z-1.000
G1 X289.725 Y29.501 Z-1.000
G1 X289.539 Y29.543 Z-1.000
G1 X289.358 Y29.556 Z-1.000
G1 X289.193 Y29.545 Z-1.000
G1 X289.024 Y29.511 Z-1.000
G1 X288.856 Y29.451 Z-1.000
G1 X288.693 Y29.365 Z-1.000
G1 X288.543 Y29.254 Z-1.000
G1 X288.410 Y29.121 Z-1.000
G1 X288.299 Y28.970 Z-1.000
G1 X288.213 Y28.808 Z-1.000
G1 X288.153 Y28.639 Z-1.000
G1 X288.119 Y28.470 Z-1.000
G1 X288.108 Y28.306 Z-1.000
G0 X288.108 Y28.306
G0 Z6.000
G1 X288.108 Y28.306 Z-2.000 F635.0
G1 X288.119 Y28.142 Z-2.000 F180.0
G1 X288.153 Y27.973 Z-2.000
G1 X288.213 Y27.804 Z-2.000
G1 X288.299 Y27.641 Z-2.000
G1 X288.410 Y27.491 Z-2.000
G1 X288.543 Y27.358 Z-2.000
G1 X288.693 Y27.247 Z-2.000
G1 X288.856 Y27.161 Z-2.000
G1 X289.024 Y27.101 Z-2.000
G1 X289.193 Y27.067 Z-2.000
G1 X289.358 Y27.056 Z-2.000
G1 X289.522 Y27.067 Z-2.000
G1 X289.691 Y27.101 Z-2.000
G1 X289.860 Y27.161 Z-2.000
G1 X290.022 Y27.247 Z-2.000
G1 X290.173 Y27.358 Z-2.000
G1 X290.306 Y27.491 Z-2.000
G1 X290.417 Y27.641 Z-2.000
G1 X290.503 Y27.804 Z-2.000
G1 X290.562 Y27.973 Z-2.000
G1 X290.597 Y28.142 Z-2.000
G1 X290.608 Y28.306 Z-2.000
G1 X290.595 Y28.487 Z-2.000
G1 X290.553 Y28.673 Z-2.000
G1 X290.479 Y28.857 Z-2.000
G1 X290.375 Y29.032 Z-2.000
G1 X290.242 Y29.190 Z-2.000
G1 X290.084 Y29.323 Z-2.000
G1 X289.909 Y29.428 Z-2.000
G1 X289.725 Y29.501 Z-2.000
G1 X289.539 Y29.543 Z-2.000
G1 X289.358 Y29.556 Z-2.000
G1 X289.193 Y29.545 Z-2.000
G1 X289.024 Y29.511 Z-2.000
G1 X288.856 Y29.451 Z-2.000
G1 X288.693 Y29.365 Z-2.000
G1 X288.543 Y29.254 Z-2.000
G1 X288.410 Y29.121 Z-2.000
G1 X288.299 Y28.970 Z-2.000
G1 X288.213 Y28.808 Z-2.000
G1 X288.153 Y28.639 Z-2.000
G1 X288.119 Y28.470 Z-2.000
G1 X288.108 Y28.306 Z-2.000
G0 X288.108 Y28.306
G0 Z6.000
G1 X288.108 Y28.306 Z-3.000 F635.0
G1 X288.119 Y28.142 Z-3.000 F180.0
G1 X288.153 Y27.973 Z-3.000
G1 X288.213 Y27.804 Z-3.000
G1 X288.299 Y27.641 Z-3.000
G1 X288.410 Y27.491 Z-3.000
G1 X288.543 Y27.358 Z-3.000
G1 X288.693 Y27.247 Z-3.000
G1 X288.856 Y27.161 Z-3.000
G1 X289.024 Y27.101 Z-3.000
G1 X289.193 Y27.067 Z-3.000
G1 X289.358 Y27.056 Z-3.000
G1 X289.522 Y27.067 Z-3.000
G1 X289.691 Y27.101 Z-3.000
G1 X289.860 Y27.161 Z-3.000
G1 X290.022 Y27.247 Z-3.000
G1 X290.173 Y27.358 Z-3.000
G1 X290.306 Y27.491 Z-3.000
G1 X290.417 Y27.641 Z-3.000
G1 X290.503 Y27.804 Z-3.000
G1 X290.562 Y27.973 Z-3.000
G1 X290.597 Y28.142 Z-3.000
G1 X290.608 Y28.306 Z-3.000
G1 X290.595 Y28.487 Z-3.000
G1 X290.553 Y28.673 Z-3.000
G1 X290.479 Y28.857 Z-3.000
G1 X290.375 Y29.032 Z-3.000
G1 X290.242 Y29.190 Z-3.000
G1 X290.084 Y29.323 Z-3.000
G1 X289.909 Y29.428 Z-3.000
G1 X289.725 Y29.501 Z-3.000
G1 X289.539 Y29.543 Z-3.000
G1 X289.358 Y29.556 Z-3.000
G1 X289.193 Y29.545 Z-3.000
G1 X289.024 Y29.511 Z-3.000
G1 X288.856 Y29.451 Z-3.000
G1 X288.693 Y29.365 Z-3.000
G1 X288.543 Y29.254 Z-3.000
G1 X288.410 Y29.121 Z-3.000
G1 X288.299 Y28.970 Z-3.000
G1 X288.213 Y28.808 Z-3.000
G1 X288.153 Y28.639 Z-3.000
G1 X288.119 Y28.470 Z-3.000
G1 X288.108 Y28.306 Z-3.000
G0 X288.108 Y28.306
G0 Z6.000
G1 X288.108 Y28.306 Z-4.000 F635.0
G1 X288.119 Y28.142 Z-4.000 F180.0
G1 X288.153 Y27.973 Z-4.000
G1 X288.213 Y27.804 Z-4.000
G1 X288.299 Y27.641 Z-4.000
G1 X288.410 Y27.491 Z-4.000
G1 X288.543 Y27.358 Z-4.000
G1 X288.693 Y27.247 Z-4.000
G1 X288.856 Y27.161 Z-4.000
G1 X289.024 Y27.101 Z-4.000
G1 X289.193 Y27.067 Z-4.000
G1 X289.358 Y27.056 Z-4.000
G1 X289.522 Y27.067 Z-4.000
G1 X289.691 Y27.101 Z-4.000
G1 X289.860 Y27.161 Z-4.000
G1 X290.022 Y27.247 Z-4.000
G1 X290.173 Y27.358 Z-4.000
G1 X290.306 Y27.491 Z-4.000
G1 X290.417 Y27.641 Z-4.000
G1 X290.503 Y27.804 Z-4.000
G1 X290.562 Y27.973 Z-4.000
G1 X290.597 Y28.142 Z-4.000
G1 X290.608 Y28.306 Z-4.000
G1 X290.595 Y28.487 Z-4.000
G1 X290.553 Y28.673 Z-4.000
G1 X290.479 Y28.857 Z-4.000
G1 X290.375 Y29.032 Z-4.000
G1 X290.242 Y29.190 Z-4.000
G1 X290.084 Y29.323 Z-4.000
G1 X289.909 Y29.428 Z-4.000
G1 X289.725 Y29.501 Z-4.000
G1 X289.539 Y29.543 Z-4.000
G1 X289.358 Y29.556 Z-4.000
G1 X289.193 Y29.545 Z-4.000
G1 X289.024 Y29.511 Z-4.000
G1 X288.856 Y29.451 Z-4.000
G1 X288.693 Y29.365 Z-4.000
G1 X288.543 Y29.254 Z-4.000
G1 X288.410 Y29.121 Z-4.000
G1 X288.299 Y28.970 Z-4.000
G1 X288.213 Y28.808 Z-4.000
G1 X288.153 Y28.639 Z-4.000
G1 X288.119 Y28.470 Z-4.000
G1 X288.108 Y28.306 Z-4.000
G0 X288.108 Y28.306
G0 Z6.000
G1 X288.108 Y28.306 Z-5.000 F635.0
G1 X288.119 Y28.142 Z-5.000 F180.0
G1 X288.153 Y27.973 Z-5.000
G1 X288.213 Y27.804 Z-5.000
G1 X288.299 Y27.641 Z-5.000
G1 X288.410 Y27.491 Z-5.000
G1 X288.543 Y27.358 Z-5.000
G1 X288.693 Y27.247 Z-5.000
G1 X288.856 Y27.161 Z-5.000
G1 X289.024 Y27.101 Z-5.000
G1 X289.193 Y27.067 Z-5.000
G1 X289.358 Y27.056 Z-5.000
G1 X289.522 Y27.067 Z-5.000
G1 X289.691 Y27.101 Z-5.000
G1 X289.860 Y27.161 Z-5.000
G1 X290.022 Y27.247 Z-5.000
G1 X290.173 Y27.358 Z-5.000
G1 X290.306 Y27.491 Z-5.000
G1 X290.417 Y27.641 Z-5.000
G1 X290.503 Y27.804 Z-5.000
G1 X290.562 Y27.973 Z-5.000
G1 X290.597 Y28.142 Z-5.000
G1 X290.608 Y28.306 Z-5.000
G1 X290.595 Y28.487 Z-5.000
G1 X290.553 Y28.673 Z-5.000
G1 X290.479 Y28.857 Z-5.000
G1 X290.375 Y29.032 Z-5.000
G1 X290.242 Y29.190 Z-5.000
G1 X290.084 Y29.323 Z-5.000
G1 X289.909 Y29.428 Z-5.000
G1 X289.725 Y29.501 Z-5.000
G1 X289.539 Y29.543 Z-5.000
G1 X289.358 Y29.556 Z-5.000
G1 X289.193 Y29.545 Z-5.000
G1 X289.024 Y29.511 Z-5.000
G1 X288.856 Y29.451 Z-5.000
G1 X288.693 Y29.365 Z-5.000
G1 X288.543 Y29.254 Z-5.000
G1 X288.410 Y29.121 Z-5.000
G1 X288.299 Y28.970 Z-5.000
G1 X288.213 Y28.808 Z-5.000
G1 X288.153 Y28.639 Z-5.000
G1 X288.119 Y28.470 Z-5.000
G1 X288.108 Y28.306 Z-5.000
G0 X288.108 Y28.306
G0 Z6.000
G1 X288.108 Y28.306 Z-6.000 F635.0
G1 X288.119 Y28.142 Z-6.000 F180.0
G1 X288.153 Y27.973 Z-6.000
G1 X288.213 Y27.804 Z-6.000
G1 X288.299 Y27.641 Z-6.000
G1 X288.410 Y27.491 Z-6.000
G1 X288.543 Y27.358 Z-6.000
G1 X288.693 Y27.247 Z-6.000
G1 X288.856 Y27.161 Z-6.000
G1 X289.024 Y27.101 Z-6.000
G1 X289.193 Y27.067 Z-6.000
G1 X289.358 Y27.056 Z-6.000
G1 X289.522 Y27.067 Z-6.000
G1 X289.691 Y27.101 Z-6.000
G1 X289.860 Y27.161 Z-6.000
G1 X290.022 Y27.247 Z-6.000
G1 X290.173 Y27.358 Z-6.000
G1 X290.306 Y27.491 Z-6.000
G1 X290.417 Y27.641 Z-6.000
G1 X290.503 Y27.804 Z-6.000
G1 X290.562 Y27.973 Z-6.000
G1 X290.597 Y28.142 Z-6.000
G1 X290.608 Y28.306 Z-6.000
G1 X290.595 Y28.487 Z-6.000
G1 X290.553 Y28.673 Z-6.000
G1 X290.479 Y28.857 Z-6.000
G1 X290.375 Y29.032 Z-6.000
G1 X290.242 Y29.190 Z-6.000
G1 X290.084 Y29.323 Z-6.000
G1 X289.909 Y29.428 Z-6.000
G1 X289.725 Y29.501 Z-6.000
G1 X289.539 Y29.543 Z-6.000
G1 X289.358 Y29.556 Z-6.000
G1 X289.193 Y29.545 Z-6.000
G1 X289.024 Y29.511 Z-6.000
G1 X288.856 Y29.451 Z-6.000
G1 X288.693 Y29.365 Z-6.000
G1 X288.543 Y29.254 Z-6.000
G1 X288.410 Y29.121 Z-6.000
G1 X288.299 Y28.970 Z-6.000
G1 X288.213 Y28.808 Z-6.000
G1 X288.153 Y28.639 Z-6.000
G1 X288.119 Y28.470 Z-6.000
G1 X288.108 Y28.306 Z-6.000
G0 X288.108 Y28.306
G0 Z6.000
G1 X288.108 Y28.306 Z-7.000 F635.0
G1 X288.119 Y28.142 Z-7.000 F180.0
G1 X288.153 Y27.973 Z-7.000
G1 X288.213 Y27.804 Z-7.000
G1 X288.299 Y27.641 Z-7.000
G1 X288.410 Y27.491 Z-7.000
G1 X288.543 Y27.358 Z-7.000
G1 X288.693 Y27.247 Z-7.000
G1 X288.856 Y27.161 Z-7.000
G1 X289.024 Y27.101 Z-7.000
G1 X289.193 Y27.067 Z-7.000
G1 X289.358 Y27.056 Z-7.000
G1 X289.522 Y27.067 Z-7.000
G1 X289.691 Y27.101 Z-7.000
G1 X289.860 Y27.161 Z-7.000
G1 X290.022 Y27.247 Z-7.000
G1 X290.173 Y27.358 Z-7.000
G1 X290.306 Y27.491 Z-7.000
G1 X290.417 Y27.641 Z-7.000
G1 X290.503 Y27.804 Z-7.000
G1 X290.562 Y27.973 Z-7.000
G1 X290.597 Y28.142 Z-7.000
G1 X290.608 Y28.306 Z-7.000
G1 X290.595 Y28.487 Z-7.000
G1 X290.553 Y28.673 Z-7.000
G1 X290.479 Y28.857 Z-7.000
G1 X290.375 Y29.032 Z-7.000
G1 X290.242 Y29.190 Z-7.000
G1 X290.084 Y29.323 Z-7.000
G1 X289.909 Y29.428 Z-7.000
G1 X289.725 Y29.501 Z-7.000
G1 X289.539 Y29.543 Z-7.000
G1 X289.358 Y29.556 Z-7.000
G1 X289.193 Y29.545 Z-7.000
G1 X289.024 Y29.511 Z-7.000
G1 X288.856 Y29.451 Z-7.000
G1 X288.693 Y29.365 Z-7.000
G1 X288.543 Y29.254 Z-7.000
G1 X288.410 Y29.121 Z-7.000
G1 X288.299 Y28.970 Z-7.000
G1 X288.213 Y28.808 Z-7.000
G1 X288.153 Y28.639 Z-7.000
G1 X288.119 Y28.470 Z-7.000
G1 X288.108 Y28.306 Z-7.000
G0 X288.108 Y28.306
G0 Z6.000
G1 X288.108 Y28.306 Z-8.000 F635.0
G1 X288.119 Y28.142 Z-8.000 F180.0
G1 X288.153 Y27.973 Z-8.000
G1 X288.213 Y27.804 Z-8.000
G1 X288.299 Y27.641 Z-8.000
G1 X288.410 Y27.491 Z-8.000
G1 X288.543 Y27.358 Z-8.000
G1 X288.693 Y27.247 Z-8.000
G1 X288.856 Y27.161 Z-8.000
G1 X289.024 Y27.101 Z-8.000
G1 X289.193 Y27.067 Z-8.000
G1 X289.358 Y27.056 Z-8.000
G1 X289.522 Y27.067 Z-8.000
G1 X289.691 Y27.101 Z-8.000
G1 X289.860 Y27.161 Z-8.000
G1 X290.022 Y27.247 Z-8.000
G1 X290.173 Y27.358 Z-8.000
G1 X290.306 Y27.491 Z-8.000
G1 X290.417 Y27.641 Z-8.000
G1 X290.503 Y27.804 Z-8.000
G1 X290.562 Y27.973 Z-8.000
G1 X290.597 Y28.142 Z-8.000
G1 X290.608 Y28.306 Z-8.000
G1 X290.595 Y28.487 Z-8.000
G1 X290.553 Y28.673 Z-8.000
G1 X290.479 Y28.857 Z-8.000
G1 X290.375 Y29.032 Z-8.000
G1 X290.242 Y29.190 Z-8.000
G1 X290.084 Y29.323 Z-8.000
G1 X289.909 Y29.428 Z-8.000
G1 X289.725 Y29.501 Z-8.000
G1 X289.539 Y29.543 Z-8.000
G1 X289.358 Y29.556 Z-8.000
G1 X289.193 Y29.545 Z-8.000
G1 X289.024 Y29.511 Z-8.000
G1 X288.856 Y29.451 Z-8.000
G1 X288.693 Y29.365 Z-8.000
G1 X288.543 Y29.254 Z-8.000
G1 X288.410 Y29.121 Z-8.000
G1 X288.299 Y28.970 Z-8.000
G1 X288.213 Y28.808 Z-8.000
G1 X288.153 Y28.639 Z-8.000
G1 X288.119 Y28.470 Z-8.000
G1 X288.108 Y28.306 Z-8.000
G0 X288.108 Y28.306
G0 Z6.000
G1 X288.108 Y28.306 Z-9.000 F635.0
G1 X288.119 Y28.142 Z-9.000 F180.0
G1 X288.153 Y27.973 Z-9.000
G1 X288.213 Y27.804 Z-9.000
G1 X288.299 Y27.641 Z-9.000
G1 X288.410 Y27.491 Z-9.000
G1 X288.543 Y27.358 Z-9.000
G1 X288.693 Y27.247 Z-9.000
G1 X288.856 Y27.161 Z-9.000
G1 X289.024 Y27.101 Z-9.000
G1 X289.193 Y27.067 Z-9.000
G1 X289.358 Y27.056 Z-9.000
G1 X289.522 Y27.067 Z-9.000
G1 X289.691 Y27.101 Z-9.000
G1 X289.860 Y27.161 Z-9.000
G1 X290.022 Y27.247 Z-9.000
G1 X290.173 Y27.358 Z-9.000
G1 X290.306 Y27.491 Z-9.000
G1 X290.417 Y27.641 Z-9.000
G1 X290.503 Y27.804 Z-9.000
G1 X290.562 Y27.973 Z-9.000
G1 X290.597 Y28.142 Z-9.000
G1 X290.608 Y28.306 Z-9.000
G1 X290.595 Y28.487 Z-9.000
G1 X290.553 Y28.673 Z-9.000
G1 X290.479 Y28.857 Z-9.000
G1 X290.375 Y29.032 Z-9.000
G1 X290.242 Y29.190 Z-9.000
G1 X290.084 Y29.323 Z-9.000
G1 X289.909 Y29.428 Z-9.000
G1 X289.725 Y29.501 Z-9.000
G1 X289.539 Y29.543 Z-9.000
G1 X289.358 Y29.556 Z-9.000
G1 X289.193 Y29.545 Z-9.000
G1 X289.024 Y29.511 Z-9.000
G1 X288.856 Y29.451 Z-9.000
G1 X288.693 Y29.365 Z-9.000
G1 X288.543 Y29.254 Z-9.000
G1 X288.410 Y29.121 Z-9.000
G1 X288.299 Y28.970 Z-9.000
G1 X288.213 Y28.808 Z-9.000
G1 X288.153 Y28.639 Z-9.000
G1 X288.119 Y28.470 Z-9.000
G1 X288.108 Y28.306 Z-9.000
G0 X288.108 Y28.306
G0 Z6.000
G1 X288.108 Y28.306 Z-10.000 F635.0
G1 X288.119 Y28.142 Z-10.000 F180.0
G1 X288.153 Y27.973 Z-10.000
G1 X288.213 Y27.804 Z-10.000
G1 X288.299 Y27.641 Z-10.000
G1 X288.410 Y27.491 Z-10.000
G1 X288.543 Y27.358 Z-10.000
G1 X288.693 Y27.247 Z-10.000
G1 X288.856 Y27.161 Z-10.000
G1 X289.024 Y27.101 Z-10.000
G1 X289.193 Y27.067 Z-10.000
G1 X289.358 Y27.056 Z-10.000
G1 X289.522 Y27.067 Z-10.000
G1 X289.691 Y27.101 Z-10.000
G1 X289.860 Y27.161 Z-10.000
G1 X290.022 Y27.247 Z-10.000
G1 X290.173 Y27.358 Z-10.000
G1 X290.306 Y27.491 Z-10.000
G1 X290.417 Y27.641 Z-10.000
G1 X290.503 Y27.804 Z-10.000
G1 X290.562 Y27.973 Z-10.000
G1 X290.597 Y28.142 Z-10.000
G1 X290.608 Y28.306 Z-10.000
G1 X290.595 Y28.487 Z-10.000
G1 X290.553 Y28.673 Z-10.000
G1 X290.479 Y28.857 Z-10.000
G1 X290.375 Y29.032 Z-10.000
G1 X290.242 Y29.190 Z-10.000
G1 X290.084 Y29.323 Z-10.000
G1 X289.909 Y29.428 Z-10.000
G1 X289.725 Y29.501 Z-10.000
G1 X289.539 Y29.543 Z-10.000
G1 X289.358 Y29.556 Z-10.000
G1 X289.193 Y29.545 Z-10.000
G1 X289.024 Y29.511 Z-10.000
G1 X288.856 Y29.451 Z-10.000
G1 X288.693 Y29.365 Z-10.000
G1 X288.543 Y29.254 Z-10.000
G1 X288.410 Y29.121 Z-10.000
G1 X288.299 Y28.970 Z-10.000
G1 X288.213 Y28.808 Z-10.000
G1 X288.153 Y28.639 Z-10.000
G1 X288.119 Y28.470 Z-10.000
G1 X288.108 Y28.306 Z-10.000
G0 X288.108 Y28.306
G0 Z6.000
G1 X288.108 Y28.306 Z-11.000 F635.0
G1 X288.119 Y28.142 Z-11.000 F180.0
G1 X288.153 Y27.973 Z-11.000
G1 X288.213 Y27.804 Z-11.000
G1 X288.299 Y27.641 Z-11.000
G1 X288.410 Y27.491 Z-11.000
G1 X288.543 Y27.358 Z-11.000
G1 X288.693 Y27.247 Z-11.000
G1 X288.856 Y27.161 Z-11.000
G1 X289.024 Y27.101 Z-11.000
G1 X289.193 Y27.067 Z-11.000
G1 X289.358 Y27.056 Z-11.000
G1 X289.522 Y27.067 Z-11.000
G1 X289.691 Y27.101 Z-11.000
G1 X289.860 Y27.161 Z-11.000
G1 X290.022 Y27.247 Z-11.000
G1 X290.173 Y27.358 Z-11.000
G1 X290.306 Y27.491 Z-11.000
G1 X290.417 Y27.641 Z-11.000
G1 X290.503 Y27.804 Z-11.000
G1 X290.562 Y27.973 Z-11.000
G1 X290.597 Y28.142 Z-11.000
G1 X290.608 Y28.306 Z-11.000
G1 X290.595 Y28.487 Z-11.000
G1 X290.553 Y28.673 Z-11.000
G1 X290.479 Y28.857 Z-11.000
G1 X290.375 Y29.032 Z-11.000
G1 X290.242 Y29.190 Z-11.000
G1 X290.084 Y29.323 Z-11.000
G1 X289.909 Y29.428 Z-11.000
G1 X289.725 Y29.501 Z-11.000
G1 X289.539 Y29.543 Z-11.000
G1 X289.358 Y29.556 Z-11.000
G1 X289.193 Y29.545 Z-11.000
G1 X289.024 Y29.511 Z-11.000
G1 X288.856 Y29.451 Z-11.000
G1 X288.693 Y29.365 Z-11.000
G1 X288.543 Y29.254 Z-11.000
G1 X288.410 Y29.121 Z-11.000
G1 X288.299 Y28.970 Z-11.000
G1 X288.213 Y28.808 Z-11.000
G1 X288.153 Y28.639 Z-11.000
G1 X288.119 Y28.470 Z-11.000
G1 X288.108 Y28.306 Z-11.000
G0 X288.108 Y28.306
G0 Z6.000
G1 X288.108 Y28.306 Z-12.000 F635.0
G1 X288.119 Y28.142 Z-12.000 F180.0
G1 X288.153 Y27.973 Z-12.000
G1 X288.213 Y27.804 Z-12.000
G1 X288.299 Y27.641 Z-12.000
G1 X288.410 Y27.491 Z-12.000
G1 X288.543 Y27.358 Z-12.000
G1 X288.693 Y27.247 Z-12.000
G1 X288.856 Y27.161 Z-12.000
G1 X289.024 Y27.101 Z-12.000
G1 X289.193 Y27.067 Z-12.000
G1 X289.358 Y27.056 Z-12.000
G1 X289.522 Y27.067 Z-12.000
G1 X289.691 Y27.101 Z-12.000
G1 X289.860 Y27.161 Z-12.000
G1 X290.022 Y27.247 Z-12.000
G1 X290.173 Y27.358 Z-12.000
G1 X290.306 Y27.491 Z-12.000
G1 X290.417 Y27.641 Z-12.000
G1 X290.503 Y27.804 Z-12.000
G1 X290.562 Y27.973 Z-12.000
G1 X290.597 Y28.142 Z-12.000
G1 X290.608 Y28.306 Z-12.000
G1 X290.595 Y28.487 Z-12.000
G1 X290.553 Y28.673 Z-12.000
G1 X290.479 Y28.857 Z-12.000
G1 X290.375 Y29.032 Z-12.000
G1 X290.242 Y29.190 Z-12.000
G1 X290.084 Y29.323 Z-12.000
G1 X289.909 Y29.428 Z-12.000
G1 X289.725 Y29.501 Z-12.000
G1 X289.539 Y29.543 Z-12.000
G1 X289.358 Y29.556 Z-12.000
G1 X289.193 Y29.545 Z-12.000
G1 X289.024 Y29.511 Z-12.000
G1 X288.856 Y29.451 Z-12.000
G1 X288.693 Y29.365 Z-12.000
G1 X288.543 Y29.254 Z-12.000
G1 X288.410 Y29.121 Z-12.000
G1 X288.299 Y28.970 Z-12.000
G1 X288.213 Y28.808 Z-12.000
G1 X288.153 Y28.639 Z-12.000
G1 X288.119 Y28.470 Z-12.000
G1 X288.108 Y28.306 Z-12.000
G0 X288.108 Y28.306
G0 Z6.000
G0 X293.605 Y177.333
G0 Z6.000
G1 X293.605 Y177.333 Z-1.000 F635.0
G1 X293.786 Y177.346 Z-1.000 F180.0
G1 X293.972 Y177.388 Z-1.000
G1 X294.156 Y177.461 Z-1.000
G1 X294.331 Y177.566 Z-1.000
G1 X294.489 Y177.699 Z-1.000
G1 X294.622 Y177.857 Z-1.000
G1 X294.726 Y178.031 Z-1.000
G1 X294.800 Y178.216 Z-1.000
G1 X294.842 Y178.402 Z-1.000
G1 X294.855 Y178.583 Z-1.000
G1 X294.842 Y178.764 Z-1.000
G1 X294.800 Y178.950 Z-1.000
G1 X294.726 Y179.134 Z-1.000
G1 X294.622 Y179.309 Z-1.000
G1 X294.489 Y179.467 Z-1.000
G1 X294.331 Y179.600 Z-1.000
G1 X294.156 Y179.705 Z-1.000
G1 X293.972 Y179.778 Z-1.000
G1 X293.786 Y179.820 Z-1.000
G1 X293.605 Y179.833 Z-1.000
G1 X293.424 Y179.820 Z-1.000
G1 X293.237 Y179.778 Z-1.000
G1 X293.053 Y179.705 Z-1.000
G1 X292.878 Y179.600 Z-1.000
G1 X292.721 Y179.467 Z-1.000
G1 X292.587 Y179.309 Z-1.000
G1 X292.483 Y179.134 Z-1.000
G1 X292.410 Y178.950 Z-1.000
G1 X292.368 Y178.764 Z-1.000
G1 X292.355 Y178.583 Z-1.000
G1 X292.368 Y178.402 Z-1.000
G1 X292.410 Y178.216 Z-1.000
G1 X292.483 Y178.031 Z-1.000
G1 X292.587 Y177.857 Z-1.000
G1 X292.721 Y177.699 Z-1.000
G1 X292.878 Y177.566 Z-1.000
G1 X293.053 Y177.461 Z-1.000
G1 X293.237 Y177.388 Z-1.000
G1 X293.424 Y177.346 Z-1.000
G1 X293.605 Y177.333 Z-1.000
G0 X293.605 Y177.333
G0 Z6.000
G1 X293.605 Y177.333 Z-2.000 F635.0
G1 X293.786 Y177.346 Z-2.000 F180.0
G1 X293.972 Y177.388 Z-2.000
G1 X294.156 Y177.461 Z-2.000
G1 X294.331 Y177.566 Z-2.000
G1 X294.489 Y177.699 Z-2.000
G1 X294.622 Y177.857 Z-2.000
G1 X294.726 Y178.031 Z-2.000
G1 X294.800 Y178.216 Z-2.000
G1 X294.842 Y178.402 Z-2.000
G1 X294.855 Y178.583 Z-2.000
G1 X294.842 Y178.764 Z-2.000
G1 X294.800 Y178.950 Z-2.000
G1 X294.726 Y179.134 Z-2.000
G1 X294.622 Y179.309 Z-2.000
G1 X294.489 Y179.467 Z-2.000
G1 X294.331 Y179.600 Z-2.000
G1 X294.156 Y179.705 Z-2.000
G1 X293.972 Y179.778 Z-2.000
G1 X293.786 Y179.820 Z-2.000
G1 X293.605 Y179.833 Z-2.000
G1 X293.424 Y179.820 Z-2.000
G1 X293.237 Y179.778 Z-2.000
G1 X293.053 Y179.705 Z-2.000
G1 X292.878 Y179.600 Z-2.000
G1 X292.721 Y179.467 Z-2.000
G1 X292.587 Y179.309 Z-2.000
G1 X292.483 Y179.134 Z-2.000
G1 X292.410 Y178.950 Z-2.000
G1 X292.368 Y178.764 Z-2.000
G1 X292.355 Y178.583 Z-2.000
G1 X292.368 Y178.402 Z-2.000
G1 X292.410 Y178.216 Z-2.000
G1 X292.483 Y178.031 Z-2.000
G1 X292.587 Y177.857 Z-2.000
G1 X292.721 Y177.699 Z-2.000
G1 X292.878 Y177.566 Z-2.000
G1 X293.053 Y177.461 Z-2.000
G1 X293.237 Y177.388 Z-2.000
G1 X293.424 Y177.346 Z-2.000
G1 X293.605 Y177.333 Z-2.000
G0 X293.605 Y177.333
G0 Z6.000
G1 X293.605 Y177.333 Z-3.000 F635.0
G1 X293.786 Y177.346 Z-3.000 F180.0
G1 X293.972 Y177.388 Z-3.000
G1 X294.156 Y177.461 Z-3.000
G1 X294.331 Y177.566 Z-3.000
G1 X294.489 Y177.699 Z-3.000
G1 X294.622 Y177.857 Z-3.000
G1 X294.726 Y178.031 Z-3.000
G1 X294.800 Y178.216 Z-3.000
G1 X294.842 Y178.402 Z-3.000
G1 X294.855 Y178.583 Z-3.000
G1 X294.842 Y178.764 Z-3.000
G1 X294.800 Y178.950 Z-3.000
G1 X294.726 Y179.134 Z-3.000
G1 X294.622 Y179.309 Z-3.000
G1 X294.489 Y179.467 Z-3.000
G1 X294.331 Y179.600 Z-3.000
G1 X294.156 Y179.705 Z-3.000
G1 X293.972 Y179.778 Z-3.000
G1 X293.786 Y179.820 Z-3.000
G1 X293.605 Y179.833 Z-3.000
G1 X293.424 Y179.820 Z-3.000
G1 X293.237 Y179.778 Z-3.000
G1 X293.053 Y179.705 Z-3.000
G1 X292.878 Y179.600 Z-3.000
G1 X292.721 Y179.467 Z-3.000
G1 X292.587 Y179.309 Z-3.000
G1 X292.483 Y179.134 Z-3.000
G1 X292.410 Y178.950 Z-3.000
G1 X292.368 Y178.764 Z-3.000
G1 X292.355 Y178.583 Z-3.000
G1 X292.368 Y178.402 Z-3.000
G1 X292.410 Y178.216 Z-3.000
G1 X292.483 Y178.031 Z-3.000
G1 X292.587 Y177.857 Z-3.000
G1 X292.721 Y177.699 Z-3.000
G1 X292.878 Y177.566 Z-3.000
G1 X293.053 Y177.461 Z-3.000
G1 X293.237 Y177.388 Z-3.000
G1 X293.424 Y177.346 Z-3.000
G1 X293.605 Y177.333 Z-3.000
G0 X293.605 Y177.333
G0 Z6.000
G1 X293.605 Y177.333 Z-4.000 F635.0
G1 X293.786 Y177.346 Z-4.000 F180.0
G1 X293.972 Y177.388 Z-4.000
G1 X294.156 Y177.461 Z-4.000
G1 X294.331 Y177.566 Z-4.000
G1 X294.489 Y177.699 Z-4.000
G1 X294.622 Y177.857 Z-4.000
G1 X294.726 Y178.031 Z-4.000
G1 X294.800 Y178.216 Z-4.000
G1 X294.842 Y178.402 Z-4.000
G1 X294.855 Y178.583 Z-4.000
G1 X294.842 Y178.764 Z-4.000
G1 X294.800 Y178.950 Z-4.000
G1 X294.726 Y179.134 Z-4.000
G1 X294.622 Y179.309 Z-4.000
G1 X294.489 Y179.467 Z-4.000
G1 X294.331 Y179.600 Z-4.000
G1 X294.156 Y179.705 Z-4.000
G1 X293.972 Y179.778 Z-4.000
G1 X293.786 Y179.820 Z-4.000
G1 X293.605 Y179.833 Z-4.000
G1 X293.424 Y179.820 Z-4.000
G1 X293.237 Y179.778 Z-4.000
G1 X293.053 Y179.705 Z-4.000
G1 X292.878 Y179.600 Z-4.000
G1 X292.721 Y179.467 Z-4.000
G1 X292.587 Y179.309 Z-4.000
G1 X292.483 Y179.134 Z-4.000
G1 X292.410 Y178.950 Z-4.000
G1 X292.368 Y178.764 Z-4.000
G1 X292.355 Y178.583 Z-4.000
G1 X292.368 Y178.402 Z-4.000
G1 X292.410 Y178.216 Z-4.000
G1 X292.483 Y178.031 Z-4.000
G1 X292.587 Y177.857 Z-4.000
G1 X292.721 Y177.699 Z-4.000
G1 X292.878 Y177.566 Z-4.000
G1 X293.053 Y177.461 Z-4.000
G1 X293.237 Y177.388 Z-4.000
G1 X293.424 Y177.346 Z-4.000
G1 X293.605 Y177.333 Z-4.000
G0 X293.605 Y177.333
G0 Z6.000
G1 X293.605 Y177.333 Z-5.000 F635.0
G1 X293.786 Y177.346 Z-5.000 F180.0
G1 X293.972 Y177.388 Z-5.000
G1 X294.156 Y177.461 Z-5.000
G1 X294.331 Y177.566 Z-5.000
G1 X294.489 Y177.699 Z-5.000
G1 X294.622 Y177.857 Z-5.000
G1 X294.726 Y178.031 Z-5.000
G1 X294.800 Y178.216 Z-5.000
G1 X294.842 Y178.402 Z-5.000
G1 X294.855 Y178.583 Z-5.000
G1 X294.842 Y178.764 Z-5.000
G1 X294.800 Y178.950 Z-5.000
G1 X294.726 Y179.134 Z-5.000
G1 X294.622 Y179.309 Z-5.000
G1 X294.489 Y179.467 Z-5.000
G1 X294.331 Y179.600 Z-5.000
G1 X294.156 Y179.705 Z-5.000
G1 X293.972 Y179.778 Z-5.000
G1 X293.786 Y179.820 Z-5.000
G1 X293.605 Y179.833 Z-5.000
G1 X293.424 Y179.820 Z-5.000
G1 X293.237 Y179.778 Z-5.000
G1 X293.053 Y179.705 Z-5.000
G1 X292.878 Y179.600 Z-5.000
G1 X292.721 Y179.467 Z-5.000
G1 X292.587 Y179.309 Z-5.000
G1 X292.483 Y179.134 Z-5.000
G1 X292.410 Y178.950 Z-5.000
G1 X292.368 Y178.764 Z-5.000
G1 X292.355 Y178.583 Z-5.000
G1 X292.368 Y178.402 Z-5.000
G1 X292.410 Y178.216 Z-5.000
G1 X292.483 Y178.031 Z-5.000
G1 X292.587 Y177.857 Z-5.000
G1 X292.721 Y177.699 Z-5.000
G1 X292.878 Y177.566 Z-5.000
G1 X293.053 Y177.461 Z-5.000
G1 X293.237 Y177.388 Z-5.000
G1 X293.424 Y177.346 Z-5.000
G1 X293.605 Y177.333 Z-5.000
G0 X293.605 Y177.333
G0 Z6.000
G1 X293.605 Y177.333 Z-6.000 F635.0
G1 X293.786 Y177.346 Z-6.000 F180.0
G1 X293.972 Y177.388 Z-6.000
G1 X294.156 Y177.461 Z-6.000
G1 X294.331 Y177.566 Z-6.000
G1 X294.489 Y177.699 Z-6.000
G1 X294.622 Y177.857 Z-6.000
G1 X294.726 Y178.031 Z-6.000
G1 X294.800 Y178.216 Z-6.000
G1 X294.842 Y178.402 Z-6.000
G1 X294.855 Y178.583 Z-6.000
G1 X294.842 Y178.764 Z-6.000
G1 X294.800 Y178.950 Z-6.000
G1 X294.726 Y179.134 Z-6.000
G1 X294.622 Y179.309 Z-6.000
G1 X294.489 Y179.467 Z-6.000
G1 X294.331 Y179.600 Z-6.000
G1 X294.156 Y179.705 Z-6.000
G1 X293.972 Y179.778 Z-6.000
G1 X293.786 Y179.820 Z-6.000
G1 X293.605 Y179.833 Z-6.000
G1 X293.424 Y179.820 Z-6.000
G1 X293.237 Y179.778 Z-6.000
G1 X293.053 Y179.705 Z-6.000
G1 X292.878 Y179.600 Z-6.000
G1 X292.721 Y179.467 Z-6.000
G1 X292.587 Y179.309 Z-6.000
G1 X292.483 Y179.134 Z-6.000
G1 X292.410 Y178.950 Z-6.000
G1 X292.368 Y178.764 Z-6.000
G1 X292.355 Y178.583 Z-6.000
G1 X292.368 Y178.402 Z-6.000
G1 X292.410 Y178.216 Z-6.000
G1 X292.483 Y178.031 Z-6.000
G1 X292.587 Y177.857 Z-6.000
G1 X292.721 Y177.699 Z-6.000
G1 X292.878 Y177.566 Z-6.000
G1 X293.053 Y177.461 Z-6.000
G1 X293.237 Y177.388 Z-6.000
G1 X293.424 Y177.346 Z-6.000
G1 X293.605 Y177.333 Z-6.000
G0 X293.605 Y177.333
G0 Z6.000
G1 X293.605 Y177.333 Z-7.000 F635.0
G1 X293.786 Y177.346 Z-7.000 F180.0
G1 X293.972 Y177.388 Z-7.000
G1 X294.156 Y177.461 Z-7.000
G1 X294.331 Y177.566 Z-7.000
G1 X294.489 Y177.699 Z-7.000
G1 X294.622 Y177.857 Z-7.000
G1 X294.726 Y178.031 Z-7.000
G1 X294.800 Y178.216 Z-7.000
G1 X294.842 Y178.402 Z-7.000
G1 X294.855 Y178.583 Z-7.000
G1 X294.842 Y178.764 Z-7.000
G1 X294.800 Y178.950 Z-7.000
G1 X294.726 Y179.134 Z-7.000
G1 X294.622 Y179.309 Z-7.000
G1 X294.489 Y179.467 Z-7.000
G1 X294.331 Y179.600 Z-7.000
G1 X294.156 Y179.705 Z-7.000
G1 X293.972 Y179.778 Z-7.000
G1 X293.786 Y179.820 Z-7.000
G1 X293.605 Y179.833 Z-7.000
G1 X293.424 Y179.820 Z-7.000
G1 X293.237 Y179.778 Z-7.000
G1 X293.053 Y179.705 Z-7.000
G1 X292.878 Y179.600 Z-7.000
G1 X292.721 Y179.467 Z-7.000
G1 X292.587 Y179.309 Z-7.000
G1 X292.483 Y179.134 Z-7.000
G1 X292.410 Y178.950 Z-7.000
G1 X292.368 Y178.764 Z-7.000
G1 X292.355 Y178.583 Z-7.000
G1 X292.368 Y178.402 Z-7.000
G1 X292.410 Y178.216 Z-7.000
G1 X292.483 Y178.031 Z-7.000
G1 X292.587 Y177.857 Z-7.000
G1 X292.721 Y177.699 Z-7.000
G1 X292.878 Y177.566 Z-7.000
G1 X293.053 Y177.461 Z-7.000
G1 X293.237 Y177.388 Z-7.000
G1 X293.424 Y177.346 Z-7.000
G1 X293.605 Y177.333 Z-7.000
G0 X293.605 Y177.333
G0 Z6.000
G1 X293.605 Y177.333 Z-8.000 F635.0
G1 X293.786 Y177.346 Z-8.000 F180.0
G1 X293.972 Y177.388 Z-8.000
G1 X294.156 Y177.461 Z-8.000
G1 X294.331 Y177.566 Z-8.000
G1 X294.489 Y177.699 Z-8.000
G1 X294.622 Y177.857 Z-8.000
G1 X294.726 Y178.031 Z-8.000
G1 X294.800 Y178.216 Z-8.000
G1 X294.842 Y178.402 Z-8.000
G1 X294.855 Y178.583 Z-8.000
G1 X294.842 Y178.764 Z-8.000
G1 X294.800 Y178.950 Z-8.000
G1 X294.726 Y179.134 Z-8.000
G1 X294.622 Y179.309 Z-8.000
G1 X294.489 Y179.467 Z-8.000
G1 X294.331 Y179.600 Z-8.000
G1 X294.156 Y179.705 Z-8.000
G1 X293.972 Y179.778 Z-8.000
G1 X293.786 Y179.820 Z-8.000
G1 X293.605 Y179.833 Z-8.000
G1 X293.424 Y179.820 Z-8.000
G1 X293.237 Y179.778 Z-8.000
G1 X293.053 Y179.705 Z-8.000
G1 X292.878 Y179.600 Z-8.000
G1 X292.721 Y179.467 Z-8.000
G1 X292.587 Y179.309 Z-8.000
G1 X292.483 Y179.134 Z-8.000
G1 X292.410 Y178.950 Z-8.000
G1 X292.368 Y178.764 Z-8.000
G1 X292.355 Y178.583 Z-8.000
G1 X292.368 Y178.402 Z-8.000
G1 X292.410 Y178.216 Z-8.000
G1 X292.483 Y178.031 Z-8.000
G1 X292.587 Y177.857 Z-8.000
G1 X292.721 Y177.699 Z-8.000
G1 X292.878 Y177.566 Z-8.000
G1 X293.053 Y177.461 Z-8.000
G1 X293.237 Y177.388 Z-8.000
G1 X293.424 Y177.346 Z-8.000
G1 X293.605 Y177.333 Z-8.000
G0 X293.605 Y177.333
G0 Z6.000
G1 X293.605 Y177.333 Z-9.000 F635.0
G1 X293.786 Y177.346 Z-9.000 F180.0
G1 X293.972 Y177.388 Z-9.000
G1 X294.156 Y177.461 Z-9.000
G1 X294.331 Y177.566 Z-9.000
G1 X294.489 Y177.699 Z-9.000
G1 X294.622 Y177.857 Z-9.000
G1 X294.726 Y178.031 Z-9.000
G1 X294.800 Y178.216 Z-9.000
G1 X294.842 Y178.402 Z-9.000
G1 X294.855 Y178.583 Z-9.000
G1 X294.842 Y178.764 Z-9.000
G1 X294.800 Y178.950 Z-9.000
G1 X294.726 Y179.134 Z-9.000
G1 X294.622 Y179.309 Z-9.000
G1 X294.489 Y179.467 Z-9.000
G1 X294.331 Y179.600 Z-9.000
G1 X294.156 Y179.705 Z-9.000
G1 X293.972 Y179.778 Z-9.000
G1 X293.786 Y179.820 Z-9.000
G1 X293.605 Y179.833 Z-9.000
G1 X293.424 Y179.820 Z-9.000
G1 X293.237 Y179.778 Z-9.000
G1 X293.053 Y179.705 Z-9.000
G1 X292.878 Y179.600 Z-9.000
G1 X292.721 Y179.467 Z-9.000
G1 X292.587 Y179.309 Z-9.000
G1 X292.483 Y179.134 Z-9.000
G1 X292.410 Y178.950 Z-9.000
G1 X292.368 Y178.764 Z-9.000
G1 X292.355 Y178.583 Z-9.000
G1 X292.368 Y178.402 Z-9.000
G1 X292.410 Y178.216 Z-9.000
G1 X292.483 Y178.031 Z-9.000
G1 X292.587 Y177.857 Z-9.000
G1 X292.721 Y177.699 Z-9.000
G1 X292.878 Y177.566 Z-9.000
G1 X293.053 Y177.461 Z-9.000
G1 X293.237 Y177.388 Z-9.000
G1 X293.424 Y177.346 Z-9.000
G1 X293.605 Y177.333 Z-9.000
G0 X293.605 Y177.333
G0 Z6.000
G1 X293.605 Y177.333 Z-10.000 F635.0
G1 X293.786 Y177.346 Z-10.000 F180.0
G1 X293.972 Y177.388 Z-10.000
G1 X294.156 Y177.461 Z-10.000
G1 X294.331 Y177.566 Z-10.000
G1 X294.489 Y177.699 Z-10.000
G1 X294.622 Y177.857 Z-10.000
G1 X294.726 Y178.031 Z-10.000
G1 X294.800 Y178.216 Z-10.000
G1 X294.842 Y178.402 Z-10.000
G1 X294.855 Y178.583 Z-10.000
G1 X294.842 Y178.764 Z-10.000
G1 X294.800 Y178.950 Z-10.000
G1 X294.726 Y179.134 Z-10.000
G1 X294.622 Y179.309 Z-10.000
G1 X294.489 Y179.467 Z-10.000
G1 X294.331 Y179.600 Z-10.000
G1 X294.156 Y179.705 Z-10.000
G1 X293.972 Y179.778 Z-10.000
G1 X293.786 Y179.820 Z-10.000
G1 X293.605 Y179.833 Z-10.000
G1 X293.424 Y179.820 Z-10.000
G1 X293.237 Y179.778 Z-10.000
G1 X293.053 Y179.705 Z-10.000
G1 X292.878 Y179.600 Z-10.000
G1 X292.721 Y179.467 Z-10.000
G1 X292.587 Y179.309 Z-10.000
G1 X292.483 Y179.134 Z-10.000
G1 X292.410 Y178.950 Z-10.000
G1 X292.368 Y178.764 Z-10.000
G1 X292.355 Y178.583 Z-10.000
G1 X292.368 Y178.402 Z-10.000
G1 X292.410 Y178.216 Z-10.000
G1 X292.483 Y178.031 Z-10.000
G1 X292.587 Y177.857 Z-10.000
G1 X292.721 Y177.699 Z-10.000
G1 X292.878 Y177.566 Z-10.000
G1 X293.053 Y177.461 Z-10.000
G1 X293.237 Y177.388 Z-10.000
G1 X293.424 Y177.346 Z-10.000
G1 X293.605 Y177.333 Z-10.000
G0 X293.605 Y177.333
G0 Z6.000
G1 X293.605 Y177.333 Z-11.000 F635.0
G1 X293.786 Y177.346 Z-11.000 F180.0
G1 X293.972 Y177.388 Z-11.000
G1 X294.156 Y177.461 Z-11.000
G1 X294.331 Y177.566 Z-11.000
G1 X294.489 Y177.699 Z-11.000
G1 X294.622 Y177.857 Z-11.000
G1 X294.726 Y178.031 Z-11.000
G1 X294.800 Y178.216 Z-11.000
G1 X294.842 Y178.402 Z-11.000
G1 X294.855 Y178.583 Z-11.000
G1 X294.842 Y178.764 Z-11.000
G1 X294.800 Y178.950 Z-11.000
G1 X294.726 Y179.134 Z-11.000
G1 X294.622 Y179.309 Z-11.000
G1 X294.489 Y179.467 Z-11.000
G1 X294.331 Y179.600 Z-11.000
G1 X294.156 Y179.705 Z-11.000
G1 X293.972 Y179.778 Z-11.000
G1 X293.786 Y179.820 Z-11.000
G1 X293.605 Y179.833 Z-11.000
G1 X293.424 Y179.820 Z-11.000
G1 X293.237 Y179.778 Z-11.000
G1 X293.053 Y179.705 Z-11.000
G1 X292.878 Y179.600 Z-11.000
G1 X292.721 Y179.467 Z-11.000
G1 X292.587 Y179.309 Z-11.000
G1 X292.483 Y179.134 Z-11.000
G1 X292.410 Y178.950 Z-11.000
G1 X292.368 Y178.764 Z-11.000
G1 X292.355 Y178.583 Z-11.000
G1 X292.368 Y178.402 Z-11.000
G1 X292.410 Y178.216 Z-11.000
G1 X292.483 Y178.031 Z-11.000
G1 X292.587 Y177.857 Z-11.000
G1 X292.721 Y177.699 Z-11.000
G1 X292.878 Y177.566 Z-11.000
G1 X293.053 Y177.461 Z-11.000
G1 X293.237 Y177.388 Z-11.000
G1 X293.424 Y177.346 Z-11.000
G1 X293.605 Y177.333 Z-11.000
G0 X293.605 Y177.333
G0 Z6.000
G1 X293.605 Y177.333 Z-12.000 F635.0
G1 X293.786 Y177.346 Z-12.000 F180.0
G1 X293.972 Y177.388 Z-12.000
G1 X294.156 Y177.461 Z-12.000
G1 X294.331 Y177.566 Z-12.000
G1 X294.489 Y177.699 Z-12.000
G1 X294.622 Y177.857 Z-12.000
G1 X294.726 Y178.031 Z-12.000
G1 X294.800 Y178.216 Z-12.000
G1 X294.842 Y178.402 Z-12.000
G1 X294.855 Y178.583 Z-12.000
G1 X294.842 Y178.764 Z-12.000
G1 X294.800 Y178.950 Z-12.000
G1 X294.726 Y179.134 Z-12.000
G1 X294.622 Y179.309 Z-12.000
G1 X294.489 Y179.467 Z-12.000
G1 X294.331 Y179.600 Z-12.000
G1 X294.156 Y179.705 Z-12.000
G1 X293.972 Y179.778 Z-12.000
G1 X293.786 Y179.820 Z-12.000
G1 X293.605 Y179.833 Z-12.000
G1 X293.424 Y179.820 Z-12.000
G1 X293.237 Y179.778 Z-12.000
G1 X293.053 Y179.705 Z-12.000
G1 X292.878 Y179.600 Z-12.000
G1 X292.721 Y179.467 Z-12.000
G1 X292.587 Y179.309 Z-12.000
G1 X292.483 Y179.134 Z-12.000
G1 X292.410 Y178.950 Z-12.000
G1 X292.368 Y178.764 Z-12.000
G1 X292.355 Y178.583 Z-12.000
G1 X292.368 Y178.402 Z-12.000
G1 X292.410 Y178.216 Z-12.000
G1 X292.483 Y178.031 Z-12.000
G1 X292.587 Y177.857 Z-12.000
G1 X292.721 Y177.699 Z-12.000
G1 X292.878 Y177.566 Z-12.000
G1 X293.053 Y177.461 Z-12.000
G1 X293.237 Y177.388 Z-12.000
G1 X293.424 Y177.346 Z-12.000
G1 X293.605 Y177.333 Z-12.000
G0 X293.605 Y177.333
G0 Z6.000
G0 X185.000 Y36.258
G0 Z6.000
G1 X185.000 Y36.258 Z-1.000 F635.0
G1 X185.005 Y40.036 Z-1.000 F180.0
G1 X185.009 Y40.330 Z-1.000
G1 X185.020 Y40.626 Z-1.000
G1 X185.038 Y40.924 Z-1.000
G1 X185.064 Y41.222 Z-1.000
G1 X185.097 Y41.522 Z-1.000
G1 X185.139 Y41.823 Z-1.000
G1 X185.188 Y42.124 Z-1.000
G1 X185.245 Y42.425 Z-1.000
G1 X185.311 Y42.726 Z-1.000
G1 X185.384 Y43.027 Z-1.000
G1 X185.465 Y43.327 Z-1.000
G1 X185.555 Y43.625 Z-1.000
G1 X185.652 Y43.923 Z-1.000
G1 X185.758 Y44.218 Z-1.000
G1 X185.871 Y44.512 Z-1.000
G1 X185.993 Y44.803 Z-1.000
G1 X186.123 Y45.092 Z-1.000
G1 X186.260 Y45.377 Z-1.000
G1 X186.405 Y45.659 Z-1.000
G1 X186.557 Y45.938 Z-1.000
G1 X186.717 Y46.213 Z-1.000
G1 X186.885 Y46.483 Z-1.000
G1 X187.059 Y46.749 Z-1.000
G1 X187.240 Y47.010 Z-1.000
G1 X187.428 Y47.266 Z-1.000
G1 X187.623 Y47.516 Z-1.000
G1 X187.824 Y47.761 Z-1.000
G1 X188.030 Y48.001 Z-1.000
G1 X188.243 Y48.234 Z-1.000
G1 X188.461 Y48.461 Z-1.000
G1 X188.684 Y48.682 Z-1.000
G1 X188.913 Y48.896 Z-1.000
G1 X189.146 Y49.103 Z-1.000
G1 X189.383 Y49.303 Z-1.000
G1 X189.625 Y49.497 Z-1.000
G1 X189.870 Y49.683 Z-1.000
G1 X190.119 Y49.862 Z-1.000
G1 X190.371 Y50.034 Z-1.000
G1 X190.626 Y50.199 Z-1.000
G1 X190.883 Y50.356 Z-1.000
G1 X191.143 Y50.506 Z-1.000
G1 X191.405 Y50.648 Z-1.000
G1 X191.669 Y50.783 Z-1.000
G1 X191.934 Y50.911 Z-1.000
G1 X199.856 Y54.605 Z-1.000
G1 X214.357 Y61.367 Z-1.000
G1 X234.852 Y70.924 Z-1.000
G1 X234.852 Y72.650 Z-1.000
G1 X234.855 Y72.764 Z-1.000
G1 X234.865 Y72.880 Z-1.000
G1 X234.883 Y72.999 Z-1.000
G1 X234.907 Y73.118 Z-1.000
G1 X234.940 Y73.237 Z-1.000
G1 X234.981 Y73.356 Z-1.000
G1 X235.030 Y73.474 Z-1.000
G1 X235.087 Y73.590 Z-1.000
G1 X235.152 Y73.703 Z-1.000
G1 X235.224 Y73.812 Z-1.000
G1 X235.304 Y73.917 Z-1.000
G1 X235.392 Y74.016 Z-1.000
G1 X235.485 Y74.110 Z-1.000
G1 X235.585 Y74.197 Z-1.000
G1 X235.690 Y74.277 Z-1.000
G1 X235.799 Y74.350 Z-1.000
G1 X235.912 Y74.415 Z-1.000
G1 X236.028 Y74.472 Z-1.000
G1 X236.145 Y74.521 Z-1.000
G1 X236.264 Y74.561 Z-1.000
G1 X236.384 Y74.594 Z-1.000
G1 X236.503 Y74.619 Z-1.000
G1 X236.621 Y74.636 Z-1.000
G1 X236.738 Y74.646 Z-1.000
G1 X236.852 Y74.650 Z-1.000
G1 X245.814 Y74.649 Z-1.000
G1 X246.896 Y74.653 Z-1.000
G1 X247.930 Y74.709 Z-1.000
G1 X248.962 Y74.819 Z-1.000
G1 X250.000 Y74.984 Z-1.000
G1 X250.498 Y75.083 Z-1.000
G1 X251.006 Y75.197 Z-1.000
G1 X251.511 Y75.326 Z-1.000
G1 X252.013 Y75.467 Z-1.000
G1 X252.512 Y75.623 Z-1.000
G1 X253.007 Y75.791 Z-1.000
G1 X253.499 Y75.974 Z-1.000
G1 X253.986 Y76.170 Z-1.000
G1 X254.469 Y76.379 Z-1.000
G1 X254.948 Y76.602 Z-1.000
G1 X255.421 Y76.839 Z-1.000
G1 X255.889 Y77.090 Z-1.000
G1 X256.351 Y77.355 Z-1.000
G1 X256.807 Y77.633 Z-1.000
G1 X257.258 Y77.926 Z-1.000
G1 X257.702 Y78.232 Z-1.000
G1 X258.139 Y78.553 Z-1.000
G1 X258.569 Y78.887 Z-1.000
G1 X258.992 Y79.236 Z-1.000
G1 X259.408 Y79.600 Z-1.000
G1 X259.816 Y79.977 Z-1.000
G1 X260.216 Y80.370 Z-1.000
G1 X260.607 Y80.776 Z-1.000
G1 X260.989 Y81.196 Z-1.000
G1 X261.416 Y81.697 Z-1.000
G1 X261.826 Y82.210 Z-1.000
G1 X262.221 Y82.738 Z-1.000
G1 X262.600 Y83.281 Z-1.000
G1 X262.964 Y83.839 Z-1.000
G1 X263.313 Y84.411 Z-1.000
G1 X263.647 Y84.998 Z-1.000
G1 X263.994 Y85.653 Z-1.000
G1 X264.415 Y86.391 Z-1.000
G1 X264.792 Y87.095 Z-1.000
G1 X265.154 Y87.818 Z-1.000
G1 X265.500 Y88.558 Z-1.000
G1 X265.832 Y89.315 Z-1.000
G1 X266.147 Y90.088 Z-1.000
G1 X266.447 Y90.876 Z-1.000
G1 X266.732 Y91.679 Z-1.000
G1 X267.000 Y92.496 Z-1.000
G1 X267.251 Y93.326 Z-1.000
G1 X267.487 Y94.169 Z-1.000
G1 X267.706 Y95.024 Z-1.000
G1 X267.908 Y95.889 Z-1.000
G1 X268.094 Y96.765 Z-1.000
G1 X268.263 Y97.651 Z-1.000
G1 X268.424 Y98.602 Z-1.000
G1 X284.850 Y177.346 Z-1.000
G1 X286.988 Y187.594 Z-1.000
G1 X288.004 Y193.031 Z-1.000
G1 X303.510 Y276.024 Z-1.000
G1 X303.743 Y276.656 Z-1.000
G1 X303.801 Y276.805 Z-1.000
G1 X303.865 Y276.955 Z-1.000
G1 X303.933 Y277.107 Z-1.000
G1 X304.006 Y277.260 Z-1.000
G1 X304.085 Y277.415 Z-1.000
G1 X304.170 Y277.570 Z-1.000
G1 X304.261 Y277.727 Z-1.000
G1 X304.358 Y277.884 Z-1.000
G1 X304.461 Y278.041 Z-1.000
G1 X304.571 Y278.198 Z-1.000
G1 X304.688 Y278.355 Z-1.000
G1 X304.811 Y278.512 Z-1.000
G1 X304.942 Y278.667 Z-1.000
G1 X305.080 Y278.822 Z-1.000
G1 X305.225 Y278.975 Z-1.000
G1 X305.378 Y279.126 Z-1.000
G1 X305.538 Y279.274 Z-1.000
G1 X305.706 Y279.420 Z-1.000
G1 X305.882 Y279.562 Z-1.000
G1 X306.066 Y279.701 Z-1.000
G1 X306.257 Y279.835 Z-1.000
G1 X306.456 Y279.964 Z-1.000
G1 X306.662 Y280.088 Z-1.000
G1 X306.876 Y280.206 Z-1.000
G1 X307.098 Y280.318 Z-1.000
G1 X307.326 Y280.423 Z-1.000
G1 X307.561 Y280.520 Z-1.000
G1 X307.802 Y280.609 Z-1.000
G1 X308.050 Y280.690 Z-1.000
G1 X308.303 Y280.762 Z-1.000
G1 X308.561 Y280.824 Z-1.000
G1 X308.825 Y280.877 Z-1.000
G1 X309.092 Y280.919 Z-1.000
G1 X309.363 Y280.951 Z-1.000
G1 X309.636 Y280.972 Z-1.000
G1 X309.912 Y280.981 Z-1.000
G1 X310.190 Y280.979 Z-1.000
G1 X310.469 Y280.966 Z-1.000
G1 X310.747 Y280.940 Z-1.000
G1 X311.025 Y280.903 Z-1.000
G1 X311.302 Y280.855 Z-1.000
G1 X311.577 Y280.794 Z-1.000
G1 X311.849 Y280.722 Z-1.000
G1 X312.118 Y280.639 Z-1.000
G1 X312.382 Y280.545 Z-1.000
G1 X312.641 Y280.440 Z-1.000
G1 X312.895 Y280.325 Z-1.000
G1 X313.143 Y280.200 Z-1.000
G1 X313.384 Y280.065 Z-1.000
G1 X313.618 Y279.922 Z-1.000
G1 X313.845 Y279.770 Z-1.000
G1 X314.063 Y279.610 Z-1.000
G1 X314.273 Y279.443 Z-1.000
G1 X314.475 Y279.270 Z-1.000
G1 X314.667 Y279.090 Z-1.000
G1 X314.850 Y278.905 Z-1.000
G1 X315.024 Y278.715 Z-1.000
G1 X315.189 Y278.521 Z-1.000
G1 X315.344 Y278.324 Z-1.000
G1 X315.490 Y278.123 Z-1.000
G1 X315.626 Y277.920 Z-1.000
G1 X315.753 Y277.716 Z-1.000
G1 X315.871 Y277.510 Z-1.000
G1 X315.980 Y277.303 Z-1.000
G1 X316.080 Y277.096 Z-1.000
G1 X316.171 Y276.889 Z-1.000
G1 X316.254 Y276.683 Z-1.000
G1 X316.329 Y276.477 Z-1.000
G1 X316.396 Y276.273 Z-1.000
G1 X316.455 Y276.071 Z-1.000
G1 X316.507 Y275.870 Z-1.000
G1 X316.552 Y275.672 Z-1.000
G1 X316.591 Y275.477 Z-1.000
G1 X316.623 Y275.284 Z-1.000
G1 X316.648 Y275.093 Z-1.000
G1 X316.668 Y274.906 Z-1.000
G1 X316.683 Y274.723 Z-1.000
G1 X316.692 Y274.542 Z-1.000
G1 X316.697 Y274.365 Z-1.000
G1 X316.696 Y274.191 Z-1.000
G1 X316.692 Y274.021 Z-1.000
G1 X316.683 Y273.855 Z-1.000
G1 X316.670 Y273.693 Z-1.000
G1 X316.654 Y273.534 Z-1.000
G1 X316.581 Y273.180 Z-1.000
G1 X314.601 Y262.566 Z-1.000
G1 X312.287 Y250.347 Z-1.000
G1 X309.855 Y237.450 Z-1.000
G1 X308.649 Y230.967 Z-1.000
G1 X307.479 Y224.579 Z-1.000
G1 X306.366 Y218.371 Z-1.000
G1 X306.226 Y217.571 Z-1.000
G1 X305.331 Y212.435 Z-1.000
G1 X304.397 Y206.857 Z-1.000
G1 X303.596 Y201.789 Z-1.000
G1 X303.585 Y201.725 Z-1.000
G1 X303.233 Y199.359 Z-1.000
G1 X302.919 Y197.138 Z-1.000
G1 X302.646 Y195.074 Z-1.000
G1 X302.418 Y193.182 Z-1.000
G1 X302.237 Y191.473 Z-1.000
G1 X302.106 Y189.963 Z-1.000
G1 X302.027 Y188.669 Z-1.000
G1 X302.000 Y187.584 Z-1.000
G1 X302.000 Y186.633 Z-1.000
G1 X301.900 Y183.634 Z-1.000
G1 X301.753 Y180.436 Z-1.000
G1 X301.443 Y174.262 Z-1.000
G1 X294.159 Y92.384 Z-1.000
G1 X299.583 Y47.888 Z-1.000
G1 X301.519 Y32.006 Z-1.000
G1 X301.687 Y30.626 Z-1.000
G1 X301.687 Y26.202 Z-1.000
G1 X301.684 Y25.940 Z-1.000
G1 X301.675 Y25.677 Z-1.000
G1 X301.661 Y25.410 Z-1.000
G1 X301.640 Y25.140 Z-1.000
G1 X301.613 Y24.868 Z-1.000
G1 X301.579 Y24.594 Z-1.000
G1 X301.538 Y24.318 Z-1.000
G1 X301.491 Y24.040 Z-1.000
G1 X301.436 Y23.760 Z-1.000
G1 X301.374 Y23.479 Z-1.000
G1 X301.305 Y23.196 Z-1.000
G1 X301.228 Y22.913 Z-1.000
G1 X301.143 Y22.629 Z-1.000
G1 X301.050 Y22.345 Z-1.000
G1 X300.950 Y22.060 Z-1.000
G1 X300.841 Y21.776 Z-1.000
G1 X300.724 Y21.492 Z-1.000
G1 X300.599 Y21.209 Z-1.000
G1 X300.466 Y20.927 Z-1.000
G1 X300.324 Y20.647 Z-1.000
G1 X300.174 Y20.369 Z-1.000
G1 X300.016 Y20.093 Z-1.000
G1 X299.849 Y19.819 Z-1.000
G1 X299.674 Y19.549 Z-1.000
G1 X299.491 Y19.281 Z-1.000
G1 X299.299 Y19.018 Z-1.000
G1 X299.099 Y18.758 Z-1.000
G1 X298.892 Y18.503 Z-1.000
G1 X298.676 Y18.252 Z-1.000
G1 X298.453 Y18.007 Z-1.000
G1 X298.223 Y17.767 Z-1.000
G1 X297.985 Y17.533 Z-1.000
G1 X297.740 Y17.305 Z-1.000
G1 X297.488 Y17.083 Z-1.000
G1 X297.229 Y16.868 Z-1.000
G1 X296.964 Y16.660 Z-1.000
G1 X296.693 Y16.459 Z-1.000
G1 X296.417 Y16.266 Z-1.000
G1 X296.134 Y16.081 Z-1.000
G1 X295.847 Y15.903 Z-1.000
G1 X295.555 Y15.734 Z-1.000
G1 X295.259 Y15.574 Z-1.000
G1 X294.958 Y15.421 Z-1.000
G1 X294.654 Y15.278 Z-1.000
G1 X294.347 Y15.143 Z-1.000
G1 X294.037 Y15.018 Z-1.000
G1 X293.724 Y14.901 Z-1.000
G1 X293.409 Y14.793 Z-1.000
G1 X293.092 Y14.695 Z-1.000
G1 X292.774 Y14.605 Z-1.000
G1 X292.455 Y14.525 Z-1.000
G1 X292.135 Y14.454 Z-1.000
G1 X291.816 Y14.392 Z-1.000
G1 X291.496 Y14.339 Z-1.000
G1 X291.177 Y14.294 Z-1.000
G1 X290.858 Y14.259 Z-1.000
G1 X290.541 Y14.232 Z-1.000
G1 X290.225 Y14.214 Z-1.000
G1 X289.912 Y14.204 Z-1.000
G1 X289.600 Y14.202 Z-1.000
G1 X289.291 Y14.208 Z-1.000
G1 X288.984 Y14.222 Z-1.000
G1 X288.681 Y14.244 Z-1.000
G1 X288.380 Y14.273 Z-1.000
G1 X288.083 Y14.309 Z-1.000
G1 X287.790 Y14.352 Z-1.000
G1 X287.501 Y14.402 Z-1.000
G1 X287.215 Y14.459 Z-1.000
G1 X286.934 Y14.521 Z-1.000
G1 X286.658 Y14.590 Z-1.000
G1 X286.385 Y14.665 Z-1.000
G1 X286.118 Y14.745 Z-1.000
G1 X285.855 Y14.830 Z-1.000
G1 X285.597 Y14.920 Z-1.000
G1 X285.344 Y15.015 Z-1.000
G1 X285.096 Y15.114 Z-1.000
G1 X284.853 Y15.218 Z-1.000
G1 X284.615 Y15.326 Z-1.000
G1 X241.115 Y35.610 Z-1.000
G1 X240.775 Y35.765 Z-1.000
G1 X240.430 Y35.913 Z-1.000
G1 X240.082 Y36.054 Z-1.000
G1 X239.729 Y36.188 Z-1.000
G1 X239.373 Y36.314 Z-1.000
G1 X239.014 Y36.434 Z-1.000
G1 X238.652 Y36.546 Z-1.000
G1 X238.286 Y36.651 Z-1.000
G1 X237.918 Y36.748 Z-1.000
G1 X237.548 Y36.838 Z-1.000
G1 X237.175 Y36.919 Z-1.000
G1 X236.801 Y36.993 Z-1.000
G1 X236.425 Y37.059 Z-1.000
G1 X236.047 Y37.117 Z-1.000
G1 X235.668 Y37.167 Z-1.000
G1 X235.288 Y37.209 Z-1.000
G1 X234.908 Y37.242 Z-1.000
G1 X234.527 Y37.268 Z-1.000
G1 X234.146 Y37.285 Z-1.000
G1 X233.765 Y37.295 Z-1.000
G1 X233.384 Y37.296 Z-1.000
G1 X233.004 Y37.290 Z-1.000
G1 X232.625 Y37.275 Z-1.000
G1 X232.247 Y37.253 Z-1.000
G1 X231.871 Y37.222 Z-1.000
G1 X231.496 Y37.184 Z-1.000
G1 X231.122 Y37.138 Z-1.000
G1 X230.751 Y37.084 Z-1.000
G1 X230.382 Y37.023 Z-1.000
G1 X192.150 Y30.281 Z-1.000
G1 X191.907 Y30.276 Z-1.000
G1 X191.289 Y30.304 Z-1.000
G1 X190.662 Y30.390 Z-1.000
G1 X190.052 Y30.530 Z-1.000
G1 X189.464 Y30.722 Z-1.000
G1 X188.900 Y30.964 Z-1.000
G1 X188.362 Y31.252 Z-1.000
G1 X187.855 Y31.583 Z-1.000
G1 X187.379 Y31.956 Z-1.000
G1 X186.938 Y32.368 Z-1.000
G1 X186.534 Y32.817 Z-1.000
G1 X186.168 Y33.300 Z-1.000
G1 X185.845 Y33.815 Z-1.000
G1 X185.566 Y34.359 Z-1.000
G1 X185.335 Y34.931 Z-1.000
G1 X185.153 Y35.526 Z-1.000
G1 X185.000 Y36.258 Z-1.000
G1 X185.000 Y36.258 Z-2.000 F635.0
G1 X185.005 Y40.036 Z-2.000 F180.0
G1 X185.009 Y40.330 Z-2.000
G1 X185.020 Y40.626 Z-2.000
G1 X185.038 Y40.924 Z-2.000
G1 X185.064 Y41.222 Z-2.000
G1 X185.097 Y41.522 Z-2.000
G1 X185.139 Y41.823 Z-2.000
G1 X185.188 Y42.124 Z-2.000
G1 X185.245 Y42.425 Z-2.000
G1 X185.311 Y42.726 Z-2.000
G1 X185.384 Y43.027 Z-2.000
G1 X185.465 Y43.327 Z-2.000
G1 X185.555 Y43.625 Z-2.000
G1 X185.652 Y43.923 Z-2.000
G1 X185.758 Y44.218 Z-2.000
G1 X185.871 Y44.512 Z-2.000
G1 X185.993 Y44.803 Z-2.000
G1 X186.123 Y45.092 Z-2.000
G1 X186.260 Y45.377 Z-2.000
G1 X186.405 Y45.659 Z-2.000
G1 X186.557 Y45.938 Z-2.000
G1 X186.717 Y46.213 Z-2.000
G1 X186.885 Y46.483 Z-2.000
G1 X187.059 Y46.749 Z-2.000
G1 X187.240 Y47.010 Z-2.000
G1 X187.428 Y47.266 Z-2.000
G1 X187.623 Y47.516 Z-2.000
G1 X187.824 Y47.761 Z-2.000
G1 X188.030 Y48.001 Z-2.000
G1 X188.243 Y48.234 Z-2.000
G1 X188.461 Y48.461 Z-2.000
G1 X188.684 Y48.682 Z-2.000
G1 X188.913 Y48.896 Z-2.000
G1 X189.146 Y49.103 Z-2.000
G1 X189.383 Y49.303 Z-2.000
G1 X189.625 Y49.497 Z-2.000
G1 X189.870 Y49.683 Z-2.000
G1 X190.119 Y49.862 Z-2.000
G1 X190.371 Y50.034 Z-2.000
G1 X190.626 Y50.199 Z-2.000
G1 X190.883 Y50.356 Z-2.000
G1 X191.143 Y50.506 Z-2.000
G1 X191.405 Y50.648 Z-2.000
G1 X191.669 Y50.783 Z-2.000
G1 X191.934 Y50.911 Z-2.000
G1 X199.856 Y54.605 Z-2.000
G1 X214.357 Y61.367 Z-2.000
G1 X234.852 Y70.924 Z-2.000
G1 X234.852 Y72.650 Z-2.000
G1 X234.855 Y72.764 Z-2.000
G1 X234.865 Y72.880 Z-2.000
G1 X234.883 Y72.999 Z-2.000
G1 X234.907 Y73.118 Z-2.000
G1 X234.940 Y73.237 Z-2.000
G1 X234.981 Y73.356 Z-2.000
G1 X235.030 Y73.474 Z-2.000
G1 X235.087 Y73.590 Z-2.000
G1 X235.152 Y73.703 Z-2.000
G1 X235.224 Y73.812 Z-2.000
G1 X235.304 Y73.917 Z-2.000
G1 X235.392 Y74.016 Z-2.000
G1 X235.485 Y74.110 Z-2.000
G1 X235.585 Y74.197 Z-2.000
G1 X235.690 Y74.277 Z-2.000
G1 X235.799 Y74.350 Z-2.000
G1 X235.912 Y74.415 Z-2.000
G1 X236.028 Y74.472 Z-2.000
G1 X236.145 Y74.521 Z-2.000
G1 X236.264 Y74.561 Z-2.000
G1 X236.384 Y74.594 Z-2.000
G1 X236.503 Y74.619 Z-2.000
G1 X236.621 Y74.636 Z-2.000
G1 X236.738 Y74.646 Z-2.000
G1 X236.852 Y74.650 Z-2.000
G1 X245.814 Y74.649 Z-2.000
G1 X246.896 Y74.653 Z-2.000
G1 X247.930 Y74.709 Z-2.000
G1 X248.962 Y74.819 Z-2.000
G1 X250.000 Y74.984 Z-2.000
G1 X250.498 Y75.083 Z-2.000
G1 X251.006 Y75.197 Z-2.000
G1 X251.511 Y75.326 Z-2.000
G1 X252.013 Y75.467 Z-2.000
G1 X252.512 Y75.623 Z-2.000
G1 X253.007 Y75.791 Z-2.000
G1 X253.499 Y75.974 Z-2.000
G1 X253.986 Y76.170 Z-2.000
G1 X254.469 Y76.379 Z-2.000
G1 X254.948 Y76.602 Z-2.000
G1 X255.421 Y76.839 Z-2.000
G1 X255.889 Y77.090 Z-2.000
G1 X256.351 Y77.355 Z-2.000
G1 X256.807 Y77.633 Z-2.000
G1 X257.258 Y77.926 Z-2.000
G1 X257.702 Y78.232 Z-2.000
G1 X258.139 Y78.553 Z-2.000
G1 X258.569 Y78.887 Z-2.000
G1 X258.992 Y79.236 Z-2.000
G1 X259.408 Y79.600 Z-2.000
G1 X259.816 Y79.977 Z-2.000
G1 X260.216 Y80.370 Z-2.000
G1 X260.607 Y80.776 Z-2.000
G1 X260.989 Y81.196 Z-2.000
G1 X261.416 Y81.697 Z-2.000
G1 X261.826 Y82.210 Z-2.000
G1 X262.221 Y82.738 Z-2.000
G1 X262.600 Y83.281 Z-2.000
G1 X262.964 Y83.839 Z-2.000
G1 X263.313 Y84.411 Z-2.000
G1 X263.647 Y84.998 Z-2.000
G1 X263.994 Y85.653 Z-2.000
G1 X264.415 Y86.391 Z-2.000
G1 X264.792 Y87.095 Z-2.000
G1 X265.154 Y87.818 Z-2.000
G1 X265.500 Y88.558 Z-2.000
G1 X265.832 Y89.315 Z-2.000
G1 X266.147 Y90.088 Z-2.000
G1 X266.447 Y90.876 Z-2.000
G1 X266.732 Y91.679 Z-2.000
G1 X267.000 Y92.496 Z-2.000
G1 X267.251 Y93.326 Z-2.000
G1 X267.487 Y94.169 Z-2.000
G1 X267.706 Y95.024 Z-2.000
G1 X267.908 Y95.889 Z-2.000
G1 X268.094 Y96.765 Z-2.000
G1 X268.263 Y97.651 Z-2.000
G1 X268.424 Y98.602 Z-2.000
G1 X284.850 Y177.346 Z-2.000
G1 X286.988 Y187.594 Z-2.000
G1 X288.004 Y193.031 Z-2.000
G1 X303.510 Y276.024 Z-2.000
G1 X303.743 Y276.656 Z-2.000
G1 X303.801 Y276.805 Z-2.000
G1 X303.865 Y276.955 Z-2.000
G1 X303.933 Y277.107 Z-2.000
G1 X304.006 Y277.260 Z-2.000
G1 X304.085 Y277.415 Z-2.000
G1 X304.170 Y277.570 Z-2.000
G1 X304.261 Y277.727 Z-2.000
G1 X304.358 Y277.884 Z-2.000
G1 X304.461 Y278.041 Z-2.000
G1 X304.571 Y278.198 Z-2.000
G1 X304.688 Y278.355 Z-2.000
G1 X304.811 Y278.512 Z-2.000
G1 X304.942 Y278.667 Z-2.000
G1 X305.080 Y278.822 Z-2.000
G1 X305.225 Y278.975 Z-2.000
G1 X305.378 Y279.126 Z-2.000
G1 X305.538 Y279.274 Z-2.000
G1 X305.706 Y279.420 Z-2.000
G1 X305.882 Y279.562 Z-2.000
G1 X306.066 Y279.701 Z-2.000
G1 X306.257 Y279.835 Z-2.000
G1 X306.456 Y279.964 Z-2.000
G1 X306.662 Y280.088 Z-2.000
G1 X306.876 Y280.206 Z-2.000
G1 X307.098 Y280.318 Z-2.000
G1 X307.326 Y280.423 Z-2.000
G1 X307.561 Y280.520 Z-2.000
G1 X307.802 Y280.609 Z-2.000
G1 X308.050 Y280.690 Z-2.000
G1 X308.303 Y280.762 Z-2.000
G1 X308.561 Y280.824 Z-2.000
G1 X308.825 Y280.877 Z-2.000
G1 X309.092 Y280.919 Z-2.000
G1 X309.363 Y280.951 Z-2.000
G1 X309.636 Y280.972 Z-2.000
G1 X309.912 Y280.981 Z-2.000
G1 X310.190 Y280.979 Z-2.000
G1 X310.469 Y280.966 Z-2.000
G1 X310.747 Y280.940 Z-2.000
G1 X311.025 Y280.903 Z-2.000
G1 X311.302 Y280.855 Z-2.000
G1 X311.577 Y280.794 Z-2.000
G1 X311.849 Y280.722 Z-2.000
G1 X312.118 Y280.639 Z-2.000
G1 X312.382 Y280.545 Z-2.000
G1 X312.641 Y280.440 Z-2.000
G1 X312.895 Y280.325 Z-2.000
G1 X313.143 Y280.200 Z-2.000
G1 X313.384 Y280.065 Z-2.000
G1 X313.618 Y279.922 Z-2.000
G1 X313.845 Y279.770 Z-2.000
G1 X314.063 Y279.610 Z-2.000
G1 X314.273 Y279.443 Z-2.000
G1 X314.475 Y279.270 Z-2.000
G1 X314.667 Y279.090 Z-2.000
G1 X314.850 Y278.905 Z-2.000
G1 X315.024 Y278.715 Z-2.000
G1 X315.189 Y278.521 Z-2.000
G1 X315.344 Y278.324 Z-2.000
G1 X315.490 Y278.123 Z-2.000
G1 X315.626 Y277.920 Z-2.000
G1 X315.753 Y277.716 Z-2.000
G1 X315.871 Y277.510 Z-2.000
G1 X315.980 Y277.303 Z-2.000
G1 X316.080 Y277.096 Z-2.000
G1 X316.171 Y276.889 Z-2.000
G1 X316.254 Y276.683 Z-2.000
G1 X316.329 Y276.477 Z-2.000
G1 X316.396 Y276.273 Z-2.000
G1 X316.455 Y276.071 Z-2.000
G1 X316.507 Y275.870 Z-2.000
G1 X316.552 Y275.672 Z-2.000
G1 X316.591 Y275.477 Z-2.000
G1 X316.623 Y275.284 Z-2.000
G1 X316.648 Y275.093 Z-2.000
G1 X316.668 Y274.906 Z-2.000
G1 X316.683 Y274.723 Z-2.000
G1 X316.692 Y274.542 Z-2.000
G1 X316.697 Y274.365 Z-2.000
G1 X316.696 Y274.191 Z-2.000
G1 X316.692 Y274.021 Z-2.000
G1 X316.683 Y273.855 Z-2.000
G1 X316.670 Y273.693 Z-2.000
G1 X316.654 Y273.534 Z-2.000
G1 X316.581 Y273.180 Z-2.000
G1 X314.601 Y262.566 Z-2.000
G1 X312.287 Y250.347 Z-2.000
G1 X309.855 Y237.450 Z-2.000
G1 X308.649 Y230.967 Z-2.000
G1 X307.479 Y224.579 Z-2.000
G1 X306.366 Y218.371 Z-2.000
G1 X306.226 Y217.571 Z-2.000
G1 X305.331 Y212.435 Z-2.000
G1 X304.397 Y206.857 Z-2.000
G1 X303.596 Y201.789 Z-2.000
G1 X303.585 Y201.725 Z-2.000
G1 X303.233 Y199.359 Z-2.000
G1 X302.919 Y197.138 Z-2.000
G1 X302.646 Y195.074 Z-2.000
G1 X302.418 Y193.182 Z-2.000
G1 X302.237 Y191.473 Z-2.000
G1 X302.106 Y189.963 Z-2.000
G1 X302.027 Y188.669 Z-2.000
G1 X302.000 Y187.584 Z-2.000
G1 X302.000 Y186.633 Z-2.000
G1 X301.900 Y183.634 Z-2.000
G1 X301.753 Y180.436 Z-2.000
G1 X301.443 Y174.262 Z-2.000
G1 X294.159 Y92.384 Z-2.000
G1 X299.583 Y47.888 Z-2.000
G1 X301.519 Y32.006 Z-2.000
G1 X301.687 Y30.626 Z-2.000
G1 X301.687 Y26.202 Z-2.000
G1 X301.684 Y25.940 Z-2.000
G1 X301.675 Y25.677 Z-2.000
G1 X301.661 Y25.410 Z-2.000
G1 X301.640 Y25.140 Z-2.000
G1 X301.613 Y24.868 Z-2.000
G1 X301.579 Y24.594 Z-2.000
G1 X301.538 Y24.318 Z-2.000
G1 X301.491 Y24.040 Z-2.000
G1 X301.436 Y23.760 Z-2.000
G1 X301.374 Y23.479 Z-2.000
G1 X301.305 Y23.196 Z-2.000
G1 X301.228 Y22.913 Z-2.000
G1 X301.143 Y22.629 Z-2.000
G1 X301.050 Y22.345 Z-2.000
G1 X300.950 Y22.060 Z-2.000
G1 X300.841 Y21.776 Z-2.000
G1 X300.724 Y21.492 Z-2.000
G1 X300.599 Y21.209 Z-2.000
G1 X300.466 Y20.927 Z-2.000
G1 X300.324 Y20.647 Z-2.000
G1 X300.174 Y20.369 Z-2.000
G1 X300.016 Y20.093 Z-2.000
G1 X299.849 Y19.819 Z-2.000
G1 X299.674 Y19.549 Z-2.000
G1 X299.491 Y19.281 Z-2.000
G1 X299.299 Y19.018 Z-2.000
G1 X299.099 Y18.758 Z-2.000
G1 X298.892 Y18.503 Z-2.000
G1 X298.676 Y18.252 Z-2.000
G1 X298.453 Y18.007 Z-2.000
G1 X298.223 Y17.767 Z-2.000
G1 X297.985 Y17.533 Z-2.000
G1 X297.740 Y17.305 Z-2.000
G1 X297.488 Y17.083 Z-2.000
G1 X297.229 Y16.868 Z-2.000
G1 X296.964 Y16.660 Z-2.000
G1 X296.693 Y16.459 Z-2.000
G1 X296.417 Y16.266 Z-2.000
G1 X296.134 Y16.081 Z-2.000
G1 X295.847 Y15.903 Z-2.000
G1 X295.555 Y15.734 Z-2.000
G1 X295.259 Y15.574 Z-2.000
G1 X294.958 Y15.421 Z-2.000
G1 X294.654 Y15.278 Z-2.000
G1 X294.347 Y15.143 Z-2.000
G1 X294.037 Y15.018 Z-2.000
G1 X293.724 Y14.901 Z-2.000
G1 X293.409 Y14.793 Z-2.000
G1 X293.092 Y14.695 Z-2.000
G1 X292.774 Y14.605 Z-2.000
G1 X292.455 Y14.525 Z-2.000
G1 X292.135 Y14.454 Z-2.000
G1 X291.816 Y14.392 Z-2.000
G1 X291.496 Y14.339 Z-2.000
G1 X291.177 Y14.294 Z-2.000
G1 X290.858 Y14.259 Z-2.000
G1 X290.541 Y14.232 Z-2.000
G1 X290.225 Y14.214 Z-2.000
G1 X289.912 Y14.204 Z-2.000
G1 X289.600 Y14.202 Z-2.000
G1 X289.291 Y14.208 Z-2.000
G1 X288.984 Y14.222 Z-2.000
G1 X288.681 Y14.244 Z-2.000
G1 X288.380 Y14.273 Z-2.000
G1 X288.083 Y14.309 Z-2.000
G1 X287.790 Y14.352 Z-2.000
G1 X287.501 Y14.402 Z-2.000
G1 X287.215 Y14.459 Z-2.000
G1 X286.934 Y14.521 Z-2.000
G1 X286.658 Y14.590 Z-2.000
G1 X286.385 Y14.665 Z-2.000
G1 X286.118 Y14.745 Z-2.000
G1 X285.855 Y14.830 Z-2.000
G1 X285.597 Y14.920 Z-2.000
G1 X285.344 Y15.015 Z-2.000
G1 X285.096 Y15.114 Z-2.000
G1 X284.853 Y15.218 Z-2.000
G1 X284.615 Y15.326 Z-2.000
G1 X241.115 Y35.610 Z-2.000
G1 X240.775 Y35.765 Z-2.000
G1 X240.430 Y35.913 Z-2.000
G1 X240.082 Y36.054 Z-2.000
G1 X239.729 Y36.188 Z-2.000
G1 X239.373 Y36.314 Z-2.000
G1 X239.014 Y36.434 Z-2.000
G1 X238.652 Y36.546 Z-2.000
G1 X238.286 Y36.651 Z-2.000
G1 X237.918 Y36.748 Z-2.000
G1 X237.548 Y36.838 Z-2.000
G1 X237.175 Y36.919 Z-2.000
G1 X236.801 Y36.993 Z-2.000
G1 X236.425 Y37.059 Z-2.000
G1 X236.047 Y37.117 Z-2.000
G1 X235.668 Y37.167 Z-2.000
G1 X235.288 Y37.209 Z-2.000
G1 X234.908 Y37.242 Z-2.000
G1 X234.527 Y37.268 Z-2.000
G1 X234.146 Y37.285 Z-2.000
G1 X233.765 Y37.295 Z-2.000
G1 X233.384 Y37.296 Z-2.000
G1 X233.004 Y37.290 Z-2.000
G1 X232.625 Y37.275 Z-2.000
G1 X232.247 Y37.253 Z-2.000
G1 X231.871 Y37.222 Z-2.000
G1 X231.496 Y37.184 Z-2.000
G1 X231.122 Y37.138 Z-2.000
G1 X230.751 Y37.084 Z-2.000
G1 X230.382 Y37.023 Z-2.000
G1 X192.150 Y30.281 Z-2.000
G1 X191.907 Y30.276 Z-2.000
G1 X191.289 Y30.304 Z-2.000
G1 X190.662 Y30.390 Z-2.000
G1 X190.052 Y30.530 Z-2.000
G1 X189.464 Y30.722 Z-2.000
G1 X188.900 Y30.964 Z-2.000
G1 X188.362 Y31.252 Z-2.000
G1 X187.855 Y31.583 Z-2.000
G1 X187.379 Y31.956 Z-2.000
G1 X186.938 Y32.368 Z-2.000
G1 X186.534 Y32.817 Z-2.000
G1 X186.168 Y33.300 Z-2.000
G1 X185.845 Y33.815 Z-2.000
G1 X185.566 Y34.359 Z-2.000
G1 X185.335 Y34.931 Z-2.000
G1 X185.153 Y35.526 Z-2.000
G1 X185.000 Y36.258 Z-2.000
G1 X185.000 Y36.258 Z-3.000 F635.0
G1 X185.005 Y40.036 Z-3.000 F180.0
G1 X185.009 Y40.330 Z-3.000
G1 X185.020 Y40.626 Z-3.000
G1 X185.038 Y40.924 Z-3.000
G1 X185.064 Y41.222 Z-3.000
G1 X185.097 Y41.522 Z-3.000
G1 X185.139 Y41.823 Z-3.000
G1 X185.188 Y42.124 Z-3.000
G1 X185.245 Y42.425 Z-3.000
G1 X185.311 Y42.726 Z-3.000
G1 X185.384 Y43.027 Z-3.000
G1 X185.465 Y43.327 Z-3.000
G1 X185.555 Y43.625 Z-3.000
G1 X185.652 Y43.923 Z-3.000
G1 X185.758 Y44.218 Z-3.000
G1 X185.871 Y44.512 Z-3.000
G1 X185.993 Y44.803 Z-3.000
G1 X186.123 Y45.092 Z-3.000
G1 X186.260 Y45.377 Z-3.000
G1 X186.405 Y45.659 Z-3.000
G1 X186.557 Y45.938 Z-3.000
G1 X186.717 Y46.213 Z-3.000
G1 X186.885 Y46.483 Z-3.000
G1 X187.059 Y46.749 Z-3.000
G1 X187.240 Y47.010 Z-3.000
G1 X187.428 Y47.266 Z-3.000
G1 X187.623 Y47.516 Z-3.000
G1 X187.824 Y47.761 Z-3.000
G1 X188.030 Y48.001 Z-3.000
G1 X188.243 Y48.234 Z-3.000
G1 X188.461 Y48.461 Z-3.000
G1 X188.684 Y48.682 Z-3.000
G1 X188.913 Y48.896 Z-3.000
G1 X189.146 Y49.103 Z-3.000
G1 X189.383 Y49.303 Z-3.000
G1 X189.625 Y49.497 Z-3.000
G1 X189.870 Y49.683 Z-3.000
G1 X190.119 Y49.862 Z-3.000
G1 X190.371 Y50.034 Z-3.000
G1 X190.626 Y50.199 Z-3.000
G1 X190.883 Y50.356 Z-3.000
G1 X191.143 Y50.506 Z-3.000
G1 X191.405 Y50.648 Z-3.000
G1 X191.669 Y50.783 Z-3.000
G1 X191.934 Y50.911 Z-3.000
G1 X199.856 Y54.605 Z-3.000
G1 X214.357 Y61.367 Z-3.000
G1 X234.852 Y70.924 Z-3.000
G1 X234.852 Y72.650 Z-3.000
G1 X234.855 Y72.764 Z-3.000
G1 X234.865 Y72.880 Z-3.000
G1 X234.883 Y72.999 Z-3.000
G1 X234.907 Y73.118 Z-3.000
G1 X234.940 Y73.237 Z-3.000
G1 X234.981 Y73.356 Z-3.000
G1 X235.030 Y73.474 Z-3.000
G1 X235.087 Y73.590 Z-3.000
G1 X235.152 Y73.703 Z-3.000
G1 X235.224 Y73.812 Z-3.000
G1 X235.304 Y73.917 Z-3.000
G1 X235.392 Y74.016 Z-3.000
G1 X235.485 Y74.110 Z-3.000
G1 X235.585 Y74.197 Z-3.000
G1 X235.690 Y74.277 Z-3.000
G1 X235.799 Y74.350 Z-3.000
G1 X235.912 Y74.415 Z-3.000
G1 X236.028 Y74.472 Z-3.000
G1 X236.145 Y74.521 Z-3.000
G1 X236.264 Y74.561 Z-3.000
G1 X236.384 Y74.594 Z-3.000
G1 X236.503 Y74.619 Z-3.000
G1 X236.621 Y74.636 Z-3.000
G1 X236.738 Y74.646 Z-3.000
G1 X236.852 Y74.650 Z-3.000
G1 X245.814 Y74.649 Z-3.000
G1 X246.896 Y74.653 Z-3.000
G1 X247.930 Y74.709 Z-3.000
G1 X248.962 Y74.819 Z-3.000
G1 X250.000 Y74.984 Z-3.000
G1 X250.498 Y75.083 Z-3.000
G1 X251.006 Y75.197 Z-3.000
G1 X251.511 Y75.326 Z-3.000
G1 X252.013 Y75.467 Z-3.000
G1 X252.512 Y75.623 Z-3.000
G1 X253.007 Y75.791 Z-3.000
G1 X253.499 Y75.974 Z-3.000
G1 X253.986 Y76.170 Z-3.000
G1 X254.469 Y76.379 Z-3.000
G1 X254.948 Y76.602 Z-3.000
G1 X255.421 Y76.839 Z-3.000
G1 X255.889 Y77.090 Z-3.000
G1 X256.351 Y77.355 Z-3.000
G1 X256.807 Y77.633 Z-3.000
G1 X257.258 Y77.926 Z-3.000
G1 X257.702 Y78.232 Z-3.000
G1 X258.139 Y78.553 Z-3.000
G1 X258.569 Y78.887 Z-3.000
G1 X258.992 Y79.236 Z-3.000
G1 X259.408 Y79.600 Z-3.000
G1 X259.816 Y79.977 Z-3.000
G1 X260.216 Y80.370 Z-3.000
G1 X260.607 Y80.776 Z-3.000
G1 X260.989 Y81.196 Z-3.000
G1 X261.416 Y81.697 Z-3.000
G1 X261.826 Y82.210 Z-3.000
G1 X262.221 Y82.738 Z-3.000
G1 X262.600 Y83.281 Z-3.000
G1 X262.964 Y83.839 Z-3.000
G1 X263.313 Y84.411 Z-3.000
G1 X263.647 Y84.998 Z-3.000
G1 X263.994 Y85.653 Z-3.000
G1 X264.415 Y86.391 Z-3.000
G1 X264.792 Y87.095 Z-3.000
G1 X265.154 Y87.818 Z-3.000
G1 X265.500 Y88.558 Z-3.000
G1 X265.832 Y89.315 Z-3.000
G1 X266.147 Y90.088 Z-3.000
G1 X266.447 Y90.876 Z-3.000
G1 X266.732 Y91.679 Z-3.000
G1 X267.000 Y92.496 Z-3.000
G1 X267.251 Y93.326 Z-3.000
G1 X267.487 Y94.169 Z-3.000
G1 X267.706 Y95.024 Z-3.000
G1 X267.908 Y95.889 Z-3.000
G1 X268.094 Y96.765 Z-3.000
G1 X268.263 Y97.651 Z-3.000
G1 X268.424 Y98.602 Z-3.000
G1 X284.850 Y177.346 Z-3.000
G1 X286.988 Y187.594 Z-3.000
G1 X288.004 Y193.031 Z-3.000
G1 X303.510 Y276.024 Z-3.000
G1 X303.743 Y276.656 Z-3.000
G1 X303.801 Y276.805 Z-3.000
G1 X303.865 Y276.955 Z-3.000
G1 X303.933 Y277.107 Z-3.000
G1 X304.006 Y277.260 Z-3.000
G1 X304.085 Y277.415 Z-3.000
G1 X304.170 Y277.570 Z-3.000
G1 X304.261 Y277.727 Z-3.000
G1 X304.358 Y277.884 Z-3.000
G1 X304.461 Y278.041 Z-3.000
G1 X304.571 Y278.198 Z-3.000
G1 X304.688 Y278.355 Z-3.000
G1 X304.811 Y278.512 Z-3.000
G1 X304.942 Y278.667 Z-3.000
G1 X305.080 Y278.822 Z-3.000
G1 X305.225 Y278.975 Z-3.000
G1 X305.378 Y279.126 Z-3.000
G1 X305.538 Y279.274 Z-3.000
G1 X305.706 Y279.420 Z-3.000
G1 X305.882 Y279.562 Z-3.000
G1 X306.066 Y279.701 Z-3.000
G1 X306.257 Y279.835 Z-3.000
G1 X306.456 Y279.964 Z-3.000
G1 X306.662 Y280.088 Z-3.000
G1 X306.876 Y280.206 Z-3.000
G1 X307.098 Y280.318 Z-3.000
G1 X307.326 Y280.423 Z-3.000
G1 X307.561 Y280.520 Z-3.000
G1 X307.802 Y280.609 Z-3.000
G1 X308.050 Y280.690 Z-3.000
G1 X308.303 Y280.762 Z-3.000
G1 X308.561 Y280.824 Z-3.000
G1 X308.825 Y280.877 Z-3.000
G1 X309.092 Y280.919 Z-3.000
G1 X309.363 Y280.951 Z-3.000
G1 X309.636 Y280.972 Z-3.000
G1 X309.912 Y280.981 Z-3.000
G1 X310.190 Y280.979 Z-3.000
G1 X310.469 Y280.966 Z-3.000
G1 X310.747 Y280.940 Z-3.000
G1 X311.025 Y280.903 Z-3.000
G1 X311.302 Y280.855 Z-3.000
G1 X311.577 Y280.794 Z-3.000
G1 X311.849 Y280.722 Z-3.000
G1 X312.118 Y280.639 Z-3.000
G1 X312.382 Y280.545 Z-3.000
G1 X312.641 Y280.440 Z-3.000
G1 X312.895 Y280.325 Z-3.000
G1 X313.143 Y280.200 Z-3.000
G1 X313.384 Y280.065 Z-3.000
G1 X313.618 Y279.922 Z-3.000
G1 X313.845 Y279.770 Z-3.000
G1 X314.063 Y279.610 Z-3.000
G1 X314.273 Y279.443 Z-3.000
G1 X314.475 Y279.270 Z-3.000
G1 X314.667 Y279.090 Z-3.000
G1 X314.850 Y278.905 Z-3.000
G1 X315.024 Y278.715 Z-3.000
G1 X315.189 Y278.521 Z-3.000
G1 X315.344 Y278.324 Z-3.000
G1 X315.490 Y278.123 Z-3.000
G1 X315.626 Y277.920 Z-3.000
G1 X315.753 Y277.716 Z-3.000
G1 X315.871 Y277.510 Z-3.000
G1 X315.980 Y277.303 Z-3.000
G1 X316.080 Y277.096 Z-3.000
G1 X316.171 Y276.889 Z-3.000
G1 X316.254 Y276.683 Z-3.000
G1 X316.329 Y276.477 Z-3.000
G1 X316.396 Y276.273 Z-3.000
G1 X316.455 Y276.071 Z-3.000
G1 X316.507 Y275.870 Z-3.000
G1 X316.552 Y275.672 Z-3.000
G1 X316.591 Y275.477 Z-3.000
G1 X316.623 Y275.284 Z-3.000
G1 X316.648 Y275.093 Z-3.000
G1 X316.668 Y274.906 Z-3.000
G1 X316.683 Y274.723 Z-3.000
G1 X316.692 Y274.542 Z-3.000
G1 X316.697 Y274.365 Z-3.000
G1 X316.696 Y274.191 Z-3.000
G1 X316.692 Y274.021 Z-3.000
G1 X316.683 Y273.855 Z-3.000
G1 X316.670 Y273.693 Z-3.000
G1 X316.654 Y273.534 Z-3.000
G1 X316.581 Y273.180 Z-3.000
G1 X314.601 Y262.566 Z-3.000
G1 X312.287 Y250.347 Z-3.000
G1 X309.855 Y237.450 Z-3.000
G1 X308.649 Y230.967 Z-3.000
G1 X307.479 Y224.579 Z-3.000
G1 X306.366 Y218.371 Z-3.000
G1 X306.226 Y217.571 Z-3.000
G1 X305.331 Y212.435 Z-3.000
G1 X304.397 Y206.857 Z-3.000
G1 X303.596 Y201.789 Z-3.000
G1 X303.585 Y201.725 Z-3.000
G1 X303.233 Y199.359 Z-3.000
G1 X302.919 Y197.138 Z-3.000
G1 X302.646 Y195.074 Z-3.000
G1 X302.418 Y193.182 Z-3.000
G1 X302.237 Y191.473 Z-3.000
G1 X302.106 Y189.963 Z-3.000
G1 X302.027 Y188.669 Z-3.000
G1 X302.000 Y187.584 Z-3.000
G1 X302.000 Y186.633 Z-3.000
G1 X301.900 Y183.634 Z-3.000
G1 X301.753 Y180.436 Z-3.000
G1 X301.443 Y174.262 Z-3.000
G1 X294.159 Y92.384 Z-3.000
G1 X299.583 Y47.888 Z-3.000
G1 X301.519 Y32.006 Z-3.000
G1 X301.687 Y30.626 Z-3.000
G1 X301.687 Y26.202 Z-3.000
G1 X301.684 Y25.940 Z-3.000
G1 X301.675 Y25.677 Z-3.000
G1 X301.661 Y25.410 Z-3.000
G1 X301.640 Y25.140 Z-3.000
G1 X301.613 Y24.868 Z-3.000
G1 X301.579 Y24.594 Z-3.000
G1 X301.538 Y24.318 Z-3.000
G1 X301.491 Y24.040 Z-3.000
G1 X301.436 Y23.760 Z-3.000
G1 X301.374 Y23.479 Z-3.000
G1 X301.305 Y23.196 Z-3.000
G1 X301.228 Y22.913 Z-3.000
G1 X301.143 Y22.629 Z-3.000
G1 X301.050 Y22.345 Z-3.000
G1 X300.950 Y22.060 Z-3.000
G1 X300.841 Y21.776 Z-3.000
G1 X300.724 Y21.492 Z-3.000
G1 X300.599 Y21.209 Z-3.000
G1 X300.466 Y20.927 Z-3.000
G1 X300.324 Y20.647 Z-3.000
G1 X300.174 Y20.369 Z-3.000
G1 X300.016 Y20.093 Z-3.000
G1 X299.849 Y19.819 Z-3.000
G1 X299.674 Y19.549 Z-3.000
G1 X299.491 Y19.281 Z-3.000
G1 X299.299 Y19.018 Z-3.000
G1 X299.099 Y18.758 Z-3.000
G1 X298.892 Y18.503 Z-3.000
G1 X298.676 Y18.252 Z-3.000
G1 X298.453 Y18.007 Z-3.000
G1 X298.223 Y17.767 Z-3.000
G1 X297.985 Y17.533 Z-3.000
G1 X297.740 Y17.305 Z-3.000
G1 X297.488 Y17.083 Z-3.000
G1 X297.229 Y16.868 Z-3.000
G1 X296.964 Y16.660 Z-3.000
G1 X296.693 Y16.459 Z-3.000
G1 X296.417 Y16.266 Z-3.000
G1 X296.134 Y16.081 Z-3.000
G1 X295.847 Y15.903 Z-3.000
G1 X295.555 Y15.734 Z-3.000
G1 X295.259 Y15.574 Z-3.000
G1 X294.958 Y15.421 Z-3.000
G1 X294.654 Y15.278 Z-3.000
G1 X294.347 Y15.143 Z-3.000
G1 X294.037 Y15.018 Z-3.000
G1 X293.724 Y14.901 Z-3.000
G1 X293.409 Y14.793 Z-3.000
G1 X293.092 Y14.695 Z-3.000
G1 X292.774 Y14.605 Z-3.000
G1 X292.455 Y14.525 Z-3.000
G1 X292.135 Y14.454 Z-3.000
G1 X291.816 Y14.392 Z-3.000
G1 X291.496 Y14.339 Z-3.000
G1 X291.177 Y14.294 Z-3.000
G1 X290.858 Y14.259 Z-3.000
G1 X290.541 Y14.232 Z-3.000
G1 X290.225 Y14.214 Z-3.000
G1 X289.912 Y14.204 Z-3.000
G1 X289.600 Y14.202 Z-3.000
G1 X289.291 Y14.208 Z-3.000
G1 X288.984 Y14.222 Z-3.000
G1 X288.681 Y14.244 Z-3.000
G1 X288.380 Y14.273 Z-3.000
G1 X288.083 Y14.309 Z-3.000
G1 X287.790 Y14.352 Z-3.000
G1 X287.501 Y14.402 Z-3.000
G1 X287.215 Y14.459 Z-3.000
G1 X286.934 Y14.521 Z-3.000
G1 X286.658 Y14.590 Z-3.000
G1 X286.385 Y14.665 Z-3.000
G1 X286.118 Y14.745 Z-3.000
G1 X285.855 Y14.830 Z-3.000
G1 X285.597 Y14.920 Z-3.000
G1 X285.344 Y15.015 Z-3.000
G1 X285.096 Y15.114 Z-3.000
G1 X284.853 Y15.218 Z-3.000
G1 X284.615 Y15.326 Z-3.000
G1 X241.115 Y35.610 Z-3.000
G1 X240.775 Y35.765 Z-3.000
G1 X240.430 Y35.913 Z-3.000
G1 X240.082 Y36.054 Z-3.000
G1 X239.729 Y36.188 Z-3.000
G1 X239.373 Y36.314 Z-3.000
G1 X239.014 Y36.434 Z-3.000
G1 X238.652 Y36.546 Z-3.000
G1 X238.286 Y36.651 Z-3.000
G1 X237.918 Y36.748 Z-3.000
G1 X237.548 Y36.838 Z-3.000
G1 X237.175 Y36.919 Z-3.000
G1 X236.801 Y36.993 Z-3.000
G1 X236.425 Y37.059 Z-3.000
G1 X236.047 Y37.117 Z-3.000
G1 X235.668 Y37.167 Z-3.000
G1 X235.288 Y37.209 Z-3.000
G1 X234.908 Y37.242 Z-3.000
G1 X234.527 Y37.268 Z-3.000
G1 X234.146 Y37.285 Z-3.000
G1 X233.765 Y37.295 Z-3.000
G1 X233.384 Y37.296 Z-3.000
G1 X233.004 Y37.290 Z-3.000
G1 X232.625 Y37.275 Z-3.000
G1 X232.247 Y37.253 Z-3.000
G1 X231.871 Y37.222 Z-3.000
G1 X231.496 Y37.184 Z-3.000
G1 X231.122 Y37.138 Z-3.000
G1 X230.751 Y37.084 Z-3.000
G1 X230.382 Y37.023 Z-3.000
G1 X192.150 Y30.281 Z-3.000
G1 X191.907 Y30.276 Z-3.000
G1 X191.289 Y30.304 Z-3.000
G1 X190.662 Y30.390 Z-3.000
G1 X190.052 Y30.530 Z-3.000
G1 X189.464 Y30.722 Z-3.000
G1 X188.900 Y30.964 Z-3.000
G1 X188.362 Y31.252 Z-3.000
G1 X187.855 Y31.583 Z-3.000
G1 X187.379 Y31.956 Z-3.000
G1 X186.938 Y32.368 Z-3.000
G1 X186.534 Y32.817 Z-3.000
G1 X186.168 Y33.300 Z-3.000
G1 X185.845 Y33.815 Z-3.000
G1 X185.566 Y34.359 Z-3.000
G1 X185.335 Y34.931 Z-3.000
G1 X185.153 Y35.526 Z-3.000
G1 X185.000 Y36.258 Z-3.000
G1 X185.000 Y36.258 Z-4.000 F635.0
G1 X185.005 Y40.036 Z-4.000 F180.0
G1 X185.009 Y40.330 Z-4.000
G1 X185.020 Y40.626 Z-4.000
G1 X185.038 Y40.924 Z-4.000
G1 X185.064 Y41.222 Z-4.000
G1 X185.097 Y41.522 Z-4.000
G1 X185.139 Y41.823 Z-4.000
G1 X185.188 Y42.124 Z-4.000
G1 X185.245 Y42.425 Z-4.000
G1 X185.311 Y42.726 Z-4.000
G1 X185.384 Y43.027 Z-4.000
G1 X185.465 Y43.327 Z-4.000
G1 X185.555 Y43.625 Z-4.000
G1 X185.652 Y43.923 Z-4.000
G1 X185.758 Y44.218 Z-4.000
G1 X185.871 Y44.512 Z-4.000
G1 X185.993 Y44.803 Z-4.000
G1 X186.123 Y45.092 Z-4.000
G1 X186.260 Y45.377 Z-4.000
G1 X186.405 Y45.659 Z-4.000
G1 X186.557 Y45.938 Z-4.000
G1 X186.717 Y46.213 Z-4.000
G1 X186.885 Y46.483 Z-4.000
G1 X187.059 Y46.749 Z-4.000
G1 X187.240 Y47.010 Z-4.000
G1 X187.428 Y47.266 Z-4.000
G1 X187.623 Y47.516 Z-4.000
G1 X187.824 Y47.761 Z-4.000
G1 X188.030 Y48.001 Z-4.000
G1 X188.243 Y48.234 Z-4.000
G1 X188.461 Y48.461 Z-4.000
G1 X188.684 Y48.682 Z-4.000
G1 X188.913 Y48.896 Z-4.000
G1 X189.146 Y49.103 Z-4.000
G1 X189.383 Y49.303 Z-4.000
G1 X189.625 Y49.497 Z-4.000
G1 X189.870 Y49.683 Z-4.000
G1 X190.119 Y49.862 Z-4.000
G1 X190.371 Y50.034 Z-4.000
G1 X190.626 Y50.199 Z-4.000
G1 X190.883 Y50.356 Z-4.000
G1 X191.143 Y50.506 Z-4.000
G1 X191.405 Y50.648 Z-4.000
G1 X191.669 Y50.783 Z-4.000
G1 X191.934 Y50.911 Z-4.000
G1 X199.856 Y54.605 Z-4.000
G1 X214.357 Y61.367 Z-4.000
G1 X234.852 Y70.924 Z-4.000
G1 X234.852 Y72.650 Z-4.000
G1 X234.855 Y72.764 Z-4.000
G1 X234.865 Y72.880 Z-4.000
G1 X234.883 Y72.999 Z-4.000
G1 X234.907 Y73.118 Z-4.000
G1 X234.940 Y73.237 Z-4.000
G1 X234.981 Y73.356 Z-4.000
G1 X235.030 Y73.474 Z-4.000
G1 X235.087 Y73.590 Z-4.000
G1 X235.152 Y73.703 Z-4.000
G1 X235.224 Y73.812 Z-4.000
G1 X235.304 Y73.917 Z-4.000
G1 X235.392 Y74.016 Z-4.000
G1 X235.485 Y74.110 Z-4.000
G1 X235.585 Y74.197 Z-4.000
G1 X235.690 Y74.277 Z-4.000
G1 X235.799 Y74.350 Z-4.000
G1 X235.912 Y74.415 Z-4.000
G1 X236.028 Y74.472 Z-4.000
G1 X236.145 Y74.521 Z-4.000
G1 X236.264 Y74.561 Z-4.000
G1 X236.384 Y74.594 Z-4.000
G1 X236.503 Y74.619 Z-4.000
G1 X236.621 Y74.636 Z-4.000
G1 X236.738 Y74.646 Z-4.000
G1 X236.852 Y74.650 Z-4.000
G1 X245.814 Y74.649 Z-4.000
G1 X246.896 Y74.653 Z-4.000
G1 X247.930 Y74.709 Z-4.000
G1 X248.962 Y74.819 Z-4.000
G1 X250.000 Y74.984 Z-4.000
G1 X250.498 Y75.083 Z-4.000
G1 X251.006 Y75.197 Z-4.000
G1 X251.511 Y75.326 Z-4.000
G1 X252.013 Y75.467 Z-4.000
G1 X252.512 Y75.623 Z-4.000
G1 X253.007 Y75.791 Z-4.000
G1 X253.499 Y75.974 Z-4.000
G1 X253.986 Y76.170 Z-4.000
G1 X254.469 Y76.379 Z-4.000
G1 X254.948 Y76.602 Z-4.000
G1 X255.421 Y76.839 Z-4.000
G1 X255.889 Y77.090 Z-4.000
G1 X256.351 Y77.355 Z-4.000
G1 X256.807 Y77.633 Z-4.000
G1 X257.258 Y77.926 Z-4.000
G1 X257.702 Y78.232 Z-4.000
G1 X258.139 Y78.553 Z-4.000
G1 X258.569 Y78.887 Z-4.000
G1 X258.992 Y79.236 Z-4.000
G1 X259.408 Y79.600 Z-4.000
G1 X259.816 Y79.977 Z-4.000
G1 X260.216 Y80.370 Z-4.000
G1 X260.607 Y80.776 Z-4.000
G1 X260.989 Y81.196 Z-4.000
G1 X261.416 Y81.697 Z-4.000
G1 X261.826 Y82.210 Z-4.000
G1 X262.221 Y82.738 Z-4.000
G1 X262.600 Y83.281 Z-4.000
G1 X262.964 Y83.839 Z-4.000
G1 X263.313 Y84.411 Z-4.000
G1 X263.647 Y84.998 Z-4.000
G1 X263.994 Y85.653 Z-4.000
G1 X264.415 Y86.391 Z-4.000
G1 X264.792 Y87.095 Z-4.000
G1 X265.154 Y87.818 Z-4.000
G1 X265.500 Y88.558 Z-4.000
G1 X265.832 Y89.315 Z-4.000
G1 X266.147 Y90.088 Z-4.000
G1 X266.447 Y90.876 Z-4.000
G1 X266.732 Y91.679 Z-4.000
G1 X267.000 Y92.496 Z-4.000
G1 X267.251 Y93.326 Z-4.000
G1 X267.487 Y94.169 Z-4.000
G1 X267.706 Y95.024 Z-4.000
G1 X267.908 Y95.889 Z-4.000
G1 X268.094 Y96.765 Z-4.000
G1 X268.263 Y97.651 Z-4.000
G1 X268.424 Y98.602 Z-4.000
G1 X284.850 Y177.346 Z-4.000
G1 X286.988 Y187.594 Z-4.000
G1 X288.004 Y193.031 Z-4.000
G1 X303.510 Y276.024 Z-4.000
G1 X303.743 Y276.656 Z-4.000
G1 X303.801 Y276.805 Z-4.000
G1 X303.865 Y276.955 Z-4.000
G1 X303.933 Y277.107 Z-4.000
G1 X304.006 Y277.260 Z-4.000
G1 X304.085 Y277.415 Z-4.000
G1 X304.170 Y277.570 Z-4.000
G1 X304.261 Y277.727 Z-4.000
G1 X304.358 Y277.884 Z-4.000
G1 X304.461 Y278.041 Z-4.000
G1 X304.571 Y278.198 Z-4.000
G1 X304.688 Y278.355 Z-4.000
G1 X304.811 Y278.512 Z-4.000
G1 X304.942 Y278.667 Z-4.000
G1 X305.080 Y278.822 Z-4.000
G1 X305.225 Y278.975 Z-4.000
G1 X305.378 Y279.126 Z-4.000
G1 X305.538 Y279.274 Z-4.000
G1 X305.706 Y279.420 Z-4.000
G1 X305.882 Y279.562 Z-4.000
G1 X306.066 Y279.701 Z-4.000
G1 X306.257 Y279.835 Z-4.000
G1 X306.456 Y279.964 Z-4.000
G1 X306.662 Y280.088 Z-4.000
G1 X306.876 Y280.206 Z-4.000
G1 X307.098 Y280.318 Z-4.000
G1 X307.326 Y280.423 Z-4.000
G1 X307.561 Y280.520 Z-4.000
G1 X307.802 Y280.609 Z-4.000
G1 X308.050 Y280.690 Z-4.000
G1 X308.303 Y280.762 Z-4.000
G1 X308.561 Y280.824 Z-4.000
G1 X308.825 Y280.877 Z-4.000
G1 X309.092 Y280.919 Z-4.000
G1 X309.363 Y280.951 Z-4.000
G1 X309.636 Y280.972 Z-4.000
G1 X309.912 Y280.981 Z-4.000
G1 X310.190 Y280.979 Z-4.000
G1 X310.469 Y280.966 Z-4.000
G1 X310.747 Y280.940 Z-4.000
G1 X311.025 Y280.903 Z-4.000
G1 X311.302 Y280.855 Z-4.000
G1 X311.577 Y280.794 Z-4.000
G1 X311.849 Y280.722 Z-4.000
G1 X312.118 Y280.639 Z-4.000
G1 X312.382 Y280.545 Z-4.000
G1 X312.641 Y280.440 Z-4.000
G1 X312.895 Y280.325 Z-4.000
G1 X313.143 Y280.200 Z-4.000
G1 X313.384 Y280.065 Z-4.000
G1 X313.618 Y279.922 Z-4.000
G1 X313.845 Y279.770 Z-4.000
G1 X314.063 Y279.610 Z-4.000
G1 X314.273 Y279.443 Z-4.000
G1 X314.475 Y279.270 Z-4.000
G1 X314.667 Y279.090 Z-4.000
G1 X314.850 Y278.905 Z-4.000
G1 X315.024 Y278.715 Z-4.000
G1 X315.189 Y278.521 Z-4.000
G1 X315.344 Y278.324 Z-4.000
G1 X315.490 Y278.123 Z-4.000
G1 X315.626 Y277.920 Z-4.000
G1 X315.753 Y277.716 Z-4.000
G1 X315.871 Y277.510 Z-4.000
G1 X315.980 Y277.303 Z-4.000
G1 X316.080 Y277.096 Z-4.000
G1 X316.171 Y276.889 Z-4.000
G1 X316.254 Y276.683 Z-4.000
G1 X316.329 Y276.477 Z-4.000
G1 X316.396 Y276.273 Z-4.000
G1 X316.455 Y276.071 Z-4.000
G1 X316.507 Y275.870 Z-4.000
G1 X316.552 Y275.672 Z-4.000
G1 X316.591 Y275.477 Z-4.000
G1 X316.623 Y275.284 Z-4.000
G1 X316.648 Y275.093 Z-4.000
G1 X316.668 Y274.906 Z-4.000
G1 X316.683 Y274.723 Z-4.000
G1 X316.692 Y274.542 Z-4.000
G1 X316.697 Y274.365 Z-4.000
G1 X316.696 Y274.191 Z-4.000
G1 X316.692 Y274.021 Z-4.000
G1 X316.683 Y273.855 Z-4.000
G1 X316.670 Y273.693 Z-4.000
G1 X316.654 Y273.534 Z-4.000
G1 X316.581 Y273.180 Z-4.000
G1 X314.601 Y262.566 Z-4.000
G1 X312.287 Y250.347 Z-4.000
G1 X309.855 Y237.450 Z-4.000
G1 X308.649 Y230.967 Z-4.000
G1 X307.479 Y224.579 Z-4.000
G1 X306.366 Y218.371 Z-4.000
G1 X306.226 Y217.571 Z-4.000
G1 X305.331 Y212.435 Z-4.000
G1 X304.397 Y206.857 Z-4.000
G1 X303.596 Y201.789 Z-4.000
G1 X303.585 Y201.725 Z-4.000
G1 X303.233 Y199.359 Z-4.000
G1 X302.919 Y197.138 Z-4.000
G1 X302.646 Y195.074 Z-4.000
G1 X302.418 Y193.182 Z-4.000
G1 X302.237 Y191.473 Z-4.000
G1 X302.106 Y189.963 Z-4.000
G1 X302.027 Y188.669 Z-4.000
G1 X302.000 Y187.584 Z-4.000
G1 X302.000 Y186.633 Z-4.000
G1 X301.900 Y183.634 Z-4.000
G1 X301.753 Y180.436 Z-4.000
G1 X301.443 Y174.262 Z-4.000
G1 X294.159 Y92.384 Z-4.000
G1 X299.583 Y47.888 Z-4.000
G1 X301.519 Y32.006 Z-4.000
G1 X301.687 Y30.626 Z-4.000
G1 X301.687 Y26.202 Z-4.000
G1 X301.684 Y25.940 Z-4.000
G1 X301.675 Y25.677 Z-4.000
G1 X301.661 Y25.410 Z-4.000
G1 X301.640 Y25.140 Z-4.000
G1 X301.613 Y24.868 Z-4.000
G1 X301.579 Y24.594 Z-4.000
G1 X301.538 Y24.318 Z-4.000
G1 X301.491 Y24.040 Z-4.000
G1 X301.436 Y23.760 Z-4.000
G1 X301.374 Y23.479 Z-4.000
G1 X301.305 Y23.196 Z-4.000
G1 X301.228 Y22.913 Z-4.000
G1 X301.143 Y22.629 Z-4.000
G1 X301.050 Y22.345 Z-4.000
G1 X300.950 Y22.060 Z-4.000
G1 X300.841 Y21.776 Z-4.000
G1 X300.724 Y21.492 Z-4.000
G1 X300.599 Y21.209 Z-4.000
G1 X300.466 Y20.927 Z-4.000
G1 X300.324 Y20.647 Z-4.000
G1 X300.174 Y20.369 Z-4.000
G1 X300.016 Y20.093 Z-4.000
G1 X299.849 Y19.819 Z-4.000
G1 X299.674 Y19.549 Z-4.000
G1 X299.491 Y19.281 Z-4.000
G1 X299.299 Y19.018 Z-4.000
G1 X299.099 Y18.758 Z-4.000
G1 X298.892 Y18.503 Z-4.000
G1 X298.676 Y18.252 Z-4.000
G1 X298.453 Y18.007 Z-4.000
G1 X298.223 Y17.767 Z-4.000
G1 X297.985 Y17.533 Z-4.000
G1 X297.740 Y17.305 Z-4.000
G1 X297.488 Y17.083 Z-4.000
G1 X297.229 Y16.868 Z-4.000
G1 X296.964 Y16.660 Z-4.000
G1 X296.693 Y16.459 Z-4.000
G1 X296.417 Y16.266 Z-4.000
G1 X296.134 Y16.081 Z-4.000
G1 X295.847 Y15.903 Z-4.000
G1 X295.555 Y15.734 Z-4.000
G1 X295.259 Y15.574 Z-4.000
G1 X294.958 Y15.421 Z-4.000
G1 X294.654 Y15.278 Z-4.000
G1 X294.347 Y15.143 Z-4.000
G1 X294.037 Y15.018 Z-4.000
G1 X293.724 Y14.901 Z-4.000
G1 X293.409 Y14.793 Z-4.000
G1 X293.092 Y14.695 Z-4.000
G1 X292.774 Y14.605 Z-4.000
G1 X292.455 Y14.525 Z-4.000
G1 X292.135 Y14.454 Z-4.000
G1 X291.816 Y14.392 Z-4.000
G1 X291.496 Y14.339 Z-4.000
G1 X291.177 Y14.294 Z-4.000
G1 X290.858 Y14.259 Z-4.000
G1 X290.541 Y14.232 Z-4.000
G1 X290.225 Y14.214 Z-4.000
G1 X289.912 Y14.204 Z-4.000
G1 X289.600 Y14.202 Z-4.000
G1 X289.291 Y14.208 Z-4.000
G1 X288.984 Y14.222 Z-4.000
G1 X288.681 Y14.244 Z-4.000
G1 X288.380 Y14.273 Z-4.000
G1 X288.083 Y14.309 Z-4.000
G1 X287.790 Y14.352 Z-4.000
