(VECTRIC POST REVISION)
(AE8C5706166A14C0DE23454C54EBD95B)
%
G21
G40
G94
G97
G64
G90
T1 M6
M8
M3 S10000
G0 X23.365 Y29.093
G0 Z6.000
G1 X23.365 Y29.093 Z-1.000 F635.0
G1 X23.352 Y29.274 Z-1.000 F180.0
G1 X23.310 Y29.460 Z-1.000
G1 X23.237 Y29.645 Z-1.000
G1 X23.132 Y29.819 Z-1.000
G1 X22.999 Y29.977 Z-1.000
G1 X22.842 Y30.110 Z-1.000
G1 X22.667 Y30.215 Z-1.000
G1 X22.482 Y30.288 Z-1.000
G1 X22.296 Y30.330 Z-1.000
G1 X22.115 Y30.343 Z-1.000
G1 X21.951 Y30.332 Z-1.000
G1 X21.782 Y30.298 Z-1.000
G1 X21.613 Y30.238 Z-1.000
G1 X21.451 Y30.152 Z-1.000
G1 X21.300 Y30.041 Z-1.000
G1 X21.167 Y29.908 Z-1.000
G1 X21.056 Y29.758 Z-1.000
G1 X20.970 Y29.595 Z-1.000
G1 X20.910 Y29.426 Z-1.000
G1 X20.876 Y29.257 Z-1.000
G1 X20.865 Y29.093 Z-1.000
G1 X20.878 Y28.912 Z-1.000
G1 X20.920 Y28.726 Z-1.000
G1 X20.993 Y28.542 Z-1.000
G1 X21.098 Y28.367 Z-1.000
G1 X21.231 Y28.209 Z-1.000
G1 X21.389 Y28.076 Z-1.000
G1 X21.564 Y27.971 Z-1.000
G1 X21.748 Y27.898 Z-1.000
G1 X21.934 Y27.856 Z-1.000
G1 X22.115 Y27.843 Z-1.000
G1 X22.280 Y27.854 Z-1.000
G1 X22.449 Y27.888 Z-1.000
G1 X22.617 Y27.948 Z-1.000
G1 X22.780 Y28.034 Z-1.000
G1 X22.930 Y28.145 Z-1.000
G1 X23.063 Y28.278 Z-1.000
G1 X23.174 Y28.429 Z-1.000
G1 X23.260 Y28.591 Z-1.000
G1 X23.320 Y28.760 Z-1.000
G1 X23.354 Y28.929 Z-1.000
G1 X23.365 Y29.093 Z-1.000
G0 X23.365 Y29.093
G0 Z6.000
G0 X117.037 Y30.707
G0 Z6.000
G1 X117.037 Y30.707 Z-1.000 F635.0
G1 X116.856 Y30.693 Z-1.000 F180.0
G1 X116.670 Y30.651 Z-1.000
G1 X116.486 Y30.578 Z-1.000
G1 X116.311 Y30.474 Z-1.000
G1 X116.153 Y30.341 Z-1.000
G1 X116.020 Y30.183 Z-1.000
G1 X115.916 Y30.008 Z-1.000
G1 X115.843 Y29.824 Z-1.000
G1 X115.801 Y29.638 Z-1.000
G1 X115.787 Y29.457 Z-1.000
G1 X115.801 Y29.276 Z-1.000
G1 X115.843 Y29.089 Z-1.000
G1 X115.916 Y28.905 Z-1.000
G1 X116.020 Y28.730 Z-1.000
G1 X116.153 Y28.573 Z-1.000
G1 X116.311 Y28.439 Z-1.000
G1 X116.486 Y28.335 Z-1.000
G1 X116.670 Y28.262 Z-1.000
G1 X116.856 Y28.220 Z-1.000
G1 X117.037 Y28.207 Z-1.000
G1 X117.219 Y28.220 Z-1.000
G1 X117.405 Y28.262 Z-1.000
G1 X117.589 Y28.335 Z-1.000
G1 X117.764 Y28.439 Z-1.000
G1 X117.921 Y28.573 Z-1.000
G1 X118.055 Y28.730 Z-1.000
G1 X118.159 Y28.905 Z-1.000
G1 X118.232 Y29.089 Z-1.000
G1 X118.274 Y29.276 Z-1.000
G1 X118.287 Y29.457 Z-1.000
G1 X118.274 Y29.638 Z-1.000
G1 X118.232 Y29.824 Z-1.000
G1 X118.159 Y30.008 Z-1.000
G1 X118.055 Y30.183 Z-1.000
G1 X117.921 Y30.341 Z-1.000
G1 X117.764 Y30.474 Z-1.000
G1 X117.589 Y30.578 Z-1.000
G1 X117.405 Y30.651 Z-1.000
G1 X117.219 Y30.693 Z-1.000
G1 X117.037 Y30.707 Z-1.000
G0 X117.037 Y30.707
G0 Z6.000
G0 X74.538 Y114.101
G0 Z6.000
G1 X74.538 Y114.101 Z-1.000 F635.0
G1 X74.720 Y114.114 Z-1.000 F180.0
G1 X74.906 Y114.156 Z-1.000
G1 X75.090 Y114.229 Z-1.000
G1 X75.265 Y114.334 Z-1.000
G1 X75.422 Y114.467 Z-1.000
G1 X75.556 Y114.625 Z-1.000
G1 X75.660 Y114.799 Z-1.000
G1 X75.733 Y114.984 Z-1.000
G1 X75.775 Y115.170 Z-1.000
G1 X75.788 Y115.351 Z-1.000
G1 X75.775 Y115.532 Z-1.000
G1 X75.733 Y115.718 Z-1.000
G1 X75.660 Y115.903 Z-1.000
G1 X75.556 Y116.077 Z-1.000
G1 X75.422 Y116.235 Z-1.000
G1 X75.265 Y116.368 Z-1.000
G1 X75.090 Y116.473 Z-1.000
G1 X74.906 Y116.546 Z-1.000
G1 X74.720 Y116.588 Z-1.000
G1 X74.538 Y116.601 Z-1.000
G1 X74.357 Y116.588 Z-1.000
G1 X74.171 Y116.546 Z-1.000
G1 X73.987 Y116.473 Z-1.000
G1 X73.812 Y116.368 Z-1.000
G1 X73.655 Y116.235 Z-1.000
G1 X73.521 Y116.077 Z-1.000
G1 X73.417 Y115.903 Z-1.000
G1 X73.344 Y115.718 Z-1.000
G1 X73.302 Y115.532 Z-1.000
G1 X73.288 Y115.351 Z-1.000
G1 X73.302 Y115.170 Z-1.000
G1 X73.344 Y114.984 Z-1.000
G1 X73.417 Y114.799 Z-1.000
G1 X73.521 Y114.625 Z-1.000
G1 X73.655 Y114.467 Z-1.000
G1 X73.812 Y114.334 Z-1.000
G1 X73.987 Y114.229 Z-1.000
G1 X74.171 Y114.156 Z-1.000
G1 X74.357 Y114.114 Z-1.000
G1 X74.538 Y114.101 Z-1.000
G0 X74.538 Y114.101
G0 Z6.000
G0 X66.814 Y145.759
G0 Z6.000
G1 X66.814 Y145.759 Z-1.000 F635.0
G1 X66.995 Y145.772 Z-1.000 F180.0
G1 X67.181 Y145.814 Z-1.000
G1 X67.366 Y145.887 Z-1.000
G1 X67.541 Y145.992 Z-1.000
G1 X67.698 Y146.125 Z-1.000
G1 X67.831 Y146.283 Z-1.000
G1 X67.936 Y146.458 Z-1.000
G1 X68.009 Y146.642 Z-1.000
G1 X68.051 Y146.828 Z-1.000
G1 X68.064 Y147.009 Z-1.000
G1 X68.053 Y147.173 Z-1.000
G1 X68.019 Y147.342 Z-1.000
G1 X67.959 Y147.511 Z-1.000
G1 X67.873 Y147.674 Z-1.000
G1 X67.762 Y147.824 Z-1.000
G1 X67.629 Y147.957 Z-1.000
G1 X67.479 Y148.068 Z-1.000
G1 X67.316 Y148.154 Z-1.000
G1 X67.148 Y148.214 Z-1.000
G1 X66.979 Y148.248 Z-1.000
G1 X66.814 Y148.259 Z-1.000
G1 X66.633 Y148.246 Z-1.000
G1 X66.447 Y148.204 Z-1.000
G1 X66.263 Y148.131 Z-1.000
G1 X66.088 Y148.026 Z-1.000
G1 X65.930 Y147.893 Z-1.000
G1 X65.797 Y147.735 Z-1.000
G1 X65.692 Y147.561 Z-1.000
G1 X65.619 Y147.376 Z-1.000
G1 X65.577 Y147.190 Z-1.000
G1 X65.564 Y147.009 Z-1.000
G1 X65.575 Y146.845 Z-1.000
G1 X65.609 Y146.676 Z-1.000
G1 X65.669 Y146.507 Z-1.000
G1 X65.755 Y146.345 Z-1.000
G1 X65.866 Y146.194 Z-1.000
G1 X65.999 Y146.061 Z-1.000
G1 X66.150 Y145.950 Z-1.000
G1 X66.312 Y145.864 Z-1.000
G1 X66.481 Y145.804 Z-1.000
G1 X66.650 Y145.770 Z-1.000
G1 X66.814 Y145.759 Z-1.000
G0 X66.814 Y145.759
G0 Z6.000
G0 X115.962 Y163.760
G0 Z6.000
G1 X115.962 Y163.760 Z-1.000 F635.0
G1 X116.143 Y163.773 Z-1.000 F180.0
G1 X116.329 Y163.815 Z-1.000
G1 X116.514 Y163.888 Z-1.000
G1 X116.689 Y163.993 Z-1.000
G1 X116.846 Y164.126 Z-1.000
G1 X116.979 Y164.284 Z-1.000
G1 X117.084 Y164.459 Z-1.000
G1 X117.157 Y164.643 Z-1.000
G1 X117.199 Y164.829 Z-1.000
G1 X117.212 Y165.010 Z-1.000
G1 X117.199 Y165.191 Z-1.000
G1 X117.157 Y165.377 Z-1.000
G1 X117.084 Y165.562 Z-1.000
G1 X116.979 Y165.736 Z-1.000
G1 X116.846 Y165.894 Z-1.000
G1 X116.689 Y166.027 Z-1.000
G1 X116.514 Y166.132 Z-1.000
G1 X116.329 Y166.205 Z-1.000
G1 X116.143 Y166.247 Z-1.000
G1 X115.962 Y166.260 Z-1.000
G1 X115.781 Y166.247 Z-1.000
G1 X115.595 Y166.205 Z-1.000
G1 X115.411 Y166.132 Z-1.000
G1 X115.236 Y166.027 Z-1.000
G1 X115.078 Y165.894 Z-1.000
G1 X114.945 Y165.736 Z-1.000
G1 X114.840 Y165.562 Z-1.000
G1 X114.767 Y165.377 Z-1.000
G1 X114.725 Y165.191 Z-1.000
G1 X114.712 Y165.010 Z-1.000
G1 X114.725 Y164.829 Z-1.000
G1 X114.767 Y164.643 Z-1.000
G1 X114.840 Y164.459 Z-1.000
G1 X114.945 Y164.284 Z-1.000
G1 X115.078 Y164.126 Z-1.000
G1 X115.236 Y163.993 Z-1.000
G1 X115.411 Y163.888 Z-1.000
G1 X115.595 Y163.815 Z-1.000
G1 X115.781 Y163.773 Z-1.000
G1 X115.962 Y163.760 Z-1.000
G0 X115.962 Y163.760
G0 Z6.000
G0 X26.362 Y178.120
G0 Z6.000
G1 X26.362 Y178.120 Z-1.000 F635.0
G1 X26.543 Y178.133 Z-1.000 F180.0
G1 X26.729 Y178.175 Z-1.000
G1 X26.914 Y178.248 Z-1.000
G1 X27.089 Y178.353 Z-1.000
G1 X27.246 Y178.486 Z-1.000
G1 X27.379 Y178.644 Z-1.000
G1 X27.484 Y178.819 Z-1.000
G1 X27.557 Y179.003 Z-1.000
G1 X27.599 Y179.189 Z-1.000
G1 X27.612 Y179.370 Z-1.000
G1 X27.599 Y179.551 Z-1.000
G1 X27.557 Y179.737 Z-1.000
G1 X27.484 Y179.922 Z-1.000
G1 X27.379 Y180.096 Z-1.000
G1 X27.246 Y180.254 Z-1.000
G1 X27.089 Y180.387 Z-1.000
G1 X26.914 Y180.492 Z-1.000
G1 X26.729 Y180.565 Z-1.000
G1 X26.543 Y180.607 Z-1.000
G1 X26.362 Y180.620 Z-1.000
G1 X26.181 Y180.607 Z-1.000
G1 X25.995 Y180.565 Z-1.000
G1 X25.811 Y180.492 Z-1.000
G1 X25.636 Y180.387 Z-1.000
G1 X25.478 Y180.254 Z-1.000
G1 X25.345 Y180.096 Z-1.000
G1 X25.240 Y179.922 Z-1.000
G1 X25.167 Y179.737 Z-1.000
G1 X25.125 Y179.551 Z-1.000
G1 X25.112 Y179.370 Z-1.000
G1 X25.125 Y179.189 Z-1.000
G1 X25.167 Y179.003 Z-1.000
G1 X25.240 Y178.819 Z-1.000
G1 X25.345 Y178.644 Z-1.000
G1 X25.478 Y178.486 Z-1.000
G1 X25.636 Y178.353 Z-1.000
G1 X25.811 Y178.248 Z-1.000
G1 X25.995 Y178.175 Z-1.000
G1 X26.181 Y178.133 Z-1.000
G1 X26.362 Y178.120 Z-1.000
G0 X26.362 Y178.120
G0 Z6.000
G0 X16.063 Y16.542
G0 Z6.000
G1 X16.063 Y16.542 Z-1.000 F635.0
G1 X15.630 Y17.039 Z-1.000 F180.0
G1 X15.242 Y17.574 Z-1.000
G1 X14.900 Y18.143 Z-1.000
G1 X14.609 Y18.744 Z-1.000
G1 X14.371 Y19.374 Z-1.000
G1 X14.190 Y20.030 Z-1.000
G1 X14.050 Y20.807 Z-1.000
G1 X14.241 Y33.405 Z-1.000
G1 X20.539 Y104.208 Z-1.000
G1 X21.528 Y115.318 Z-1.000
G1 X20.941 Y120.129 Z-1.000
G1 X14.000 Y177.076 Z-1.000
G1 X14.000 Y181.500 Z-1.000
G1 X14.003 Y181.761 Z-1.000
G1 X14.011 Y182.025 Z-1.000
G1 X14.026 Y182.292 Z-1.000
G1 X14.047 Y182.561 Z-1.000
G1 X14.074 Y182.833 Z-1.000
G1 X14.108 Y183.107 Z-1.000
G1 X14.149 Y183.384 Z-1.000
G1 X14.196 Y183.662 Z-1.000
G1 X14.251 Y183.942 Z-1.000
G1 X14.313 Y184.223 Z-1.000
G1 X14.382 Y184.505 Z-1.000
G1 X14.459 Y184.789 Z-1.000
G1 X14.544 Y185.073 Z-1.000
G1 X14.637 Y185.357 Z-1.000
G1 X14.737 Y185.642 Z-1.000
G1 X14.846 Y185.926 Z-1.000
G1 X14.963 Y186.210 Z-1.000
G1 X15.088 Y186.493 Z-1.000
G1 X15.221 Y186.774 Z-1.000
G1 X15.363 Y187.055 Z-1.000
G1 X15.513 Y187.333 Z-1.000
G1 X15.671 Y187.609 Z-1.000
G1 X15.838 Y187.883 Z-1.000
G1 X16.013 Y188.153 Z-1.000
G1 X16.196 Y188.420 Z-1.000
G1 X16.388 Y188.684 Z-1.000
G1 X16.587 Y188.944 Z-1.000
G1 X16.795 Y189.199 Z-1.000
G1 X17.010 Y189.449 Z-1.000
G1 X17.234 Y189.695 Z-1.000
G1 X17.464 Y189.935 Z-1.000
G1 X17.702 Y190.169 Z-1.000
G1 X17.947 Y190.397 Z-1.000
G1 X18.199 Y190.619 Z-1.000
G1 X18.458 Y190.834 Z-1.000
G1 X18.723 Y191.042 Z-1.000
G1 X18.994 Y191.242 Z-1.000
G1 X19.270 Y191.436 Z-1.000
G1 X19.552 Y191.621 Z-1.000
G1 X19.840 Y191.798 Z-1.000
G1 X20.132 Y191.967 Z-1.000
G1 X20.428 Y192.128 Z-1.000
G1 X20.728 Y192.280 Z-1.000
G1 X21.033 Y192.424 Z-1.000
G1 X21.340 Y192.558 Z-1.000
G1 X21.650 Y192.684 Z-1.000
G1 X21.963 Y192.801 Z-1.000
G1 X22.278 Y192.908 Z-1.000
G1 X22.595 Y193.007 Z-1.000
G1 X22.913 Y193.096 Z-1.000
G1 X23.232 Y193.177 Z-1.000
G1 X23.552 Y193.248 Z-1.000
G1 X23.871 Y193.310 Z-1.000
G1 X24.191 Y193.363 Z-1.000
G1 X24.510 Y193.407 Z-1.000
G1 X24.829 Y193.443 Z-1.000
G1 X25.146 Y193.470 Z-1.000
G1 X25.462 Y193.488 Z-1.000
G1 X25.775 Y193.498 Z-1.000
G1 X26.087 Y193.500 Z-1.000
G1 X26.396 Y193.494 Z-1.000
G1 X26.703 Y193.480 Z-1.000
G1 X27.006 Y193.458 Z-1.000
G1 X27.307 Y193.429 Z-1.000
G1 X27.604 Y193.393 Z-1.000
G1 X27.897 Y193.349 Z-1.000
G1 X28.186 Y193.299 Z-1.000
G1 X28.472 Y193.243 Z-1.000
G1 X28.753 Y193.180 Z-1.000
G1 X29.029 Y193.112 Z-1.000
G1 X29.302 Y193.037 Z-1.000
G1 X29.569 Y192.957 Z-1.000
G1 X29.832 Y192.872 Z-1.000
G1 X30.090 Y192.782 Z-1.000
G1 X30.343 Y192.687 Z-1.000
G1 X30.591 Y192.587 Z-1.000
G1 X30.834 Y192.484 Z-1.000
G1 X31.071 Y192.376 Z-1.000
G1 X67.344 Y175.462 Z-1.000
G1 X74.572 Y172.091 Z-1.000
G1 X74.902 Y171.941 Z-1.000
G1 X75.236 Y171.798 Z-1.000
G1 X75.574 Y171.661 Z-1.000
G1 X75.915 Y171.530 Z-1.000
G1 X76.259 Y171.406 Z-1.000
G1 X76.606 Y171.289 Z-1.000
G1 X76.956 Y171.180 Z-1.000
G1 X77.308 Y171.077 Z-1.000
G1 X77.662 Y170.981 Z-1.000
G1 X78.018 Y170.892 Z-1.000
G1 X78.376 Y170.811 Z-1.000
G1 X78.736 Y170.737 Z-1.000
G1 X79.097 Y170.671 Z-1.000
G1 X79.459 Y170.612 Z-1.000
G1 X79.822 Y170.560 Z-1.000
G1 X80.186 Y170.516 Z-1.000
G1 X80.550 Y170.479 Z-1.000
G1 X80.915 Y170.449 Z-1.000
G1 X81.279 Y170.428 Z-1.000
G1 X81.643 Y170.413 Z-1.000
G1 X82.007 Y170.406 Z-1.000
G1 X82.370 Y170.406 Z-1.000
G1 X82.738 Y170.414 Z-1.000
G1 X83.107 Y170.429 Z-1.000
G1 X83.475 Y170.452 Z-1.000
G1 X83.843 Y170.482 Z-1.000
G1 X84.210 Y170.520 Z-1.000
G1 X84.576 Y170.565 Z-1.000
G1 X84.941 Y170.618 Z-1.000
G1 X85.304 Y170.678 Z-1.000
G1 X123.537 Y177.420 Z-1.000
G1 X123.779 Y177.426 Z-1.000
G1 X124.398 Y177.398 Z-1.000
G1 X125.025 Y177.312 Z-1.000
G1 X125.634 Y177.172 Z-1.000
G1 X126.223 Y176.979 Z-1.000
G1 X126.787 Y176.738 Z-1.000
G1 X127.325 Y176.450 Z-1.000
G1 X127.832 Y176.119 Z-1.000
G1 X128.308 Y175.746 Z-1.000
G1 X128.749 Y175.334 Z-1.000
G1 X129.153 Y174.885 Z-1.000
G1 X129.519 Y174.402 Z-1.000
G1 X129.842 Y173.887 Z-1.000
G1 X130.121 Y173.343 Z-1.000
G1 X130.352 Y172.771 Z-1.000
G1 X130.534 Y172.175 Z-1.000
G1 X130.687 Y171.444 Z-1.000
G1 X130.682 Y167.663 Z-1.000
G1 X130.660 Y160.033 Z-1.000
G1 X125.541 Y101.521 Z-1.000
G1 X125.651 Y99.421 Z-1.000
G1 X126.492 Y83.443 Z-1.000
G1 X128.952 Y36.657 Z-1.000
G1 X128.675 Y29.311 Z-1.000
G1 X128.679 Y28.782 Z-1.000
G1 X128.668 Y28.190 Z-1.000
G1 X128.639 Y27.610 Z-1.000
G1 X128.593 Y27.041 Z-1.000
G1 X128.529 Y26.483 Z-1.000
G1 X128.446 Y25.936 Z-1.000
G1 X128.344 Y25.400 Z-1.000
G1 X128.222 Y24.877 Z-1.000
G1 X128.079 Y24.365 Z-1.000
G1 X127.914 Y23.865 Z-1.000
G1 X127.728 Y23.379 Z-1.000
G1 X127.518 Y22.906 Z-1.000
G1 X127.284 Y22.449 Z-1.000
G1 X127.026 Y22.007 Z-1.000
G1 X126.742 Y21.582 Z-1.000
G1 X126.436 Y21.179 Z-1.000
G1 X126.142 Y20.838 Z-1.000
G1 X125.837 Y20.521 Z-1.000
G1 X125.521 Y20.226 Z-1.000
G1 X125.194 Y19.953 Z-1.000
G1 X124.859 Y19.701 Z-1.000
G1 X124.498 Y19.457 Z-1.000
G1 X123.822 Y19.067 Z-1.000
G1 X123.112 Y18.739 Z-1.000
G1 X122.399 Y18.482 Z-1.000
G1 X121.692 Y18.288 Z-1.000
G1 X120.995 Y18.152 Z-1.000
G1 X120.315 Y18.071 Z-1.000
G1 X119.655 Y18.041 Z-1.000
G1 X119.019 Y18.058 Z-1.000
G1 X118.407 Y18.123 Z-1.000
G1 X117.818 Y18.238 Z-1.000
G1 X117.245 Y18.412 Z-1.000
G1 X116.834 Y18.597 Z-1.000
G1 X116.652 Y18.691 Z-1.000
G1 X69.917 Y28.097 Z-1.000
G1 X69.557 Y28.165 Z-1.000
G1 X69.195 Y28.227 Z-1.000
G1 X68.831 Y28.281 Z-1.000
G1 X68.467 Y28.327 Z-1.000
G1 X68.101 Y28.367 Z-1.000
G1 X67.735 Y28.398 Z-1.000
G1 X67.369 Y28.422 Z-1.000
G1 X67.002 Y28.439 Z-1.000
G1 X66.635 Y28.448 Z-1.000
G1 X66.273 Y28.450 Z-1.000
G1 X65.910 Y28.445 Z-1.000
G1 X65.547 Y28.432 Z-1.000
G1 X65.184 Y28.411 Z-1.000
G1 X64.820 Y28.384 Z-1.000
G1 X64.458 Y28.349 Z-1.000
G1 X64.095 Y28.307 Z-1.000
G1 X63.734 Y28.257 Z-1.000
G1 X63.373 Y28.200 Z-1.000
G1 X63.014 Y28.135 Z-1.000
G1 X62.656 Y28.064 Z-1.000
G1 X62.300 Y27.985 Z-1.000
G1 X61.946 Y27.899 Z-1.000
G1 X61.594 Y27.806 Z-1.000
G1 X61.244 Y27.706 Z-1.000
G1 X60.896 Y27.599 Z-1.000
G1 X60.552 Y27.485 Z-1.000
G1 X60.210 Y27.365 Z-1.000
G1 X60.195 Y27.359 Z-1.000
G1 X51.293 Y24.201 Z-1.000
G1 X22.990 Y14.160 Z-1.000
G1 X21.748 Y14.213 Z-1.000
G1 X21.434 Y14.216 Z-1.000
G1 X20.790 Y14.246 Z-1.000
G1 X20.104 Y14.342 Z-1.000
G1 X19.439 Y14.499 Z-1.000
G1 X18.798 Y14.713 Z-1.000
G1 X18.184 Y14.982 Z-1.000
G1 X17.601 Y15.302 Z-1.000
G1 X17.051 Y15.671 Z-1.000
G1 X16.538 Y16.085 Z-1.000
G1 X16.063 Y16.542 Z-1.000
G1 X16.063 Y16.542 Z-2.000 F635.0
G1 X15.630 Y17.039 Z-2.000 F180.0
G1 X15.242 Y17.574 Z-2.000
G1 X14.900 Y18.143 Z-2.000
G1 X14.609 Y18.744 Z-2.000
G1 X14.371 Y19.374 Z-2.000
G1 X14.190 Y20.030 Z-2.000
G1 X14.050 Y20.807 Z-2.000
G1 X14.241 Y33.405 Z-2.000
G1 X20.539 Y104.208 Z-2.000
G1 X21.528 Y115.318 Z-2.000
G1 X20.941 Y120.129 Z-2.000
G1 X14.000 Y177.076 Z-2.000
G1 X14.000 Y181.500 Z-2.000
G1 X14.003 Y181.761 Z-2.000
G1 X14.011 Y182.025 Z-2.000
G1 X14.026 Y182.292 Z-2.000
G1 X14.047 Y182.561 Z-2.000
G1 X14.074 Y182.833 Z-2.000
G1 X14.108 Y183.107 Z-2.000
G1 X14.149 Y183.384 Z-2.000
G1 X14.196 Y183.662 Z-2.000
G1 X14.251 Y183.942 Z-2.000
G1 X14.313 Y184.223 Z-2.000
G1 X14.382 Y184.505 Z-2.000
G1 X14.459 Y184.789 Z-2.000
G1 X14.544 Y185.073 Z-2.000
G1 X14.637 Y185.357 Z-2.000
G1 X14.737 Y185.642 Z-2.000
G1 X14.846 Y185.926 Z-2.000
G1 X14.963 Y186.210 Z-2.000
G1 X15.088 Y186.493 Z-2.000
G1 X15.221 Y186.774 Z-2.000
G1 X15.363 Y187.055 Z-2.000
G1 X15.513 Y187.333 Z-2.000
G1 X15.671 Y187.609 Z-2.000
G1 X15.838 Y187.883 Z-2.000
G1 X16.013 Y188.153 Z-2.000
G1 X16.196 Y188.420 Z-2.000
G1 X16.388 Y188.684 Z-2.000
G1 X16.587 Y188.944 Z-2.000
G1 X16.795 Y189.199 Z-2.000
G1 X17.010 Y189.449 Z-2.000
G1 X17.234 Y189.695 Z-2.000
G1 X17.464 Y189.935 Z-2.000
G1 X17.702 Y190.169 Z-2.000
G1 X17.947 Y190.397 Z-2.000
G1 X18.199 Y190.619 Z-2.000
G1 X18.458 Y190.834 Z-2.000
G1 X18.723 Y191.042 Z-2.000
G1 X18.994 Y191.242 Z-2.000
G1 X19.270 Y191.436 Z-2.000
G1 X19.552 Y191.621 Z-2.000
G1 X19.840 Y191.798 Z-2.000
G1 X20.132 Y191.967 Z-2.000
G1 X20.428 Y192.128 Z-2.000
G1 X20.728 Y192.280 Z-2.000
G1 X21.033 Y192.424 Z-2.000
G1 X21.340 Y192.558 Z-2.000
G1 X21.650 Y192.684 Z-2.000
G1 X21.963 Y192.801 Z-2.000
G1 X22.278 Y192.908 Z-2.000
G1 X22.595 Y193.007 Z-2.000
G1 X22.913 Y193.096 Z-2.000
G1 X23.232 Y193.177 Z-2.000
G1 X23.552 Y193.248 Z-2.000
G1 X23.871 Y193.310 Z-2.000
G1 X24.191 Y193.363 Z-2.000
G1 X24.510 Y193.407 Z-2.000
G1 X24.829 Y193.443 Z-2.000
G1 X25.146 Y193.470 Z-2.000
G1 X25.462 Y193.488 Z-2.000
G1 X25.775 Y193.498 Z-2.000
G1 X26.087 Y193.500 Z-2.000
G1 X26.396 Y193.494 Z-2.000
G1 X26.703 Y193.480 Z-2.000
G1 X27.006 Y193.458 Z-2.000
G1 X27.307 Y193.429 Z-2.000
G1 X27.604 Y193.393 Z-2.000
G1 X27.897 Y193.349 Z-2.000
G1 X28.186 Y193.299 Z-2.000
G1 X28.472 Y193.243 Z-2.000
G1 X28.753 Y193.180 Z-2.000
G1 X29.029 Y193.112 Z-2.000
G1 X29.302 Y193.037 Z-2.000
G1 X29.569 Y192.957 Z-2.000
G1 X29.832 Y192.872 Z-2.000
G1 X30.090 Y192.782 Z-2.000
G1 X30.343 Y192.687 Z-2.000
G1 X30.591 Y192.587 Z-2.000
G1 X30.834 Y192.484 Z-2.000
G1 X31.071 Y192.376 Z-2.000
G1 X67.344 Y175.462 Z-2.000
G1 X74.572 Y172.091 Z-2.000
G1 X74.902 Y171.941 Z-2.000
G1 X75.236 Y171.798 Z-2.000
G1 X75.574 Y171.661 Z-2.000
G1 X75.915 Y171.530 Z-2.000
G1 X76.259 Y171.406 Z-2.000
G1 X76.606 Y171.289 Z-2.000
G1 X76.956 Y171.180 Z-2.000
G1 X77.308 Y171.077 Z-2.000
G1 X77.662 Y170.981 Z-2.000
G1 X78.018 Y170.892 Z-2.000
G1 X78.376 Y170.811 Z-2.000
G1 X78.736 Y170.737 Z-2.000
G1 X79.097 Y170.671 Z-2.000
G1 X79.459 Y170.612 Z-2.000
G1 X79.822 Y170.560 Z-2.000
G1 X80.186 Y170.516 Z-2.000
G1 X80.550 Y170.479 Z-2.000
G1 X80.915 Y170.449 Z-2.000
G1 X81.279 Y170.428 Z-2.000
G1 X81.643 Y170.413 Z-2.000
G1 X82.007 Y170.406 Z-2.000
G1 X82.370 Y170.406 Z-2.000
G1 X82.738 Y170.414 Z-2.000
G1 X83.107 Y170.429 Z-2.000
G1 X83.475 Y170.452 Z-2.000
G1 X83.843 Y170.482 Z-2.000
G1 X84.210 Y170.520 Z-2.000
G1 X84.576 Y170.565 Z-2.000
G1 X84.941 Y170.618 Z-2.000
G1 X85.304 Y170.678 Z-2.000
G1 X123.537 Y177.420 Z-2.000
G1 X123.779 Y177.426 Z-2.000
G1 X124.398 Y177.398 Z-2.000
G1 X125.025 Y177.312 Z-2.000
G1 X125.634 Y177.172 Z-2.000
G1 X126.223 Y176.979 Z-2.000
G1 X126.787 Y176.738 Z-2.000
G1 X127.325 Y176.450 Z-2.000
G1 X127.832 Y176.119 Z-2.000
G1 X128.308 Y175.746 Z-2.000
G1 X128.749 Y175.334 Z-2.000
G1 X129.153 Y174.885 Z-2.000
G1 X129.519 Y174.402 Z-2.000
G1 X129.842 Y173.887 Z-2.000
G1 X130.121 Y173.343 Z-2.000
G1 X130.352 Y172.771 Z-2.000
G1 X130.534 Y172.175 Z-2.000
G1 X130.687 Y171.444 Z-2.000
G1 X130.682 Y167.663 Z-2.000
G1 X130.660 Y160.033 Z-2.000
G1 X125.541 Y101.521 Z-2.000
G1 X125.651 Y99.421 Z-2.000
G1 X126.492 Y83.443 Z-2.000
G1 X128.952 Y36.657 Z-2.000
G1 X128.675 Y29.311 Z-2.000
G1 X128.679 Y28.782 Z-2.000
G1 X128.668 Y28.190 Z-2.000
G1 X128.639 Y27.610 Z-2.000
G1 X128.593 Y27.041 Z-2.000
G1 X128.529 Y26.483 Z-2.000
G1 X128.446 Y25.936 Z-2.000
G1 X128.344 Y25.400 Z-2.000
G1 X128.222 Y24.877 Z-2.000
G1 X128.079 Y24.365 Z-2.000
G1 X127.914 Y23.865 Z-2.000
G1 X127.728 Y23.379 Z-2.000
G1 X127.518 Y22.906 Z-2.000
G1 X127.284 Y22.449 Z-2.000
G1 X127.026 Y22.007 Z-2.000
G1 X126.742 Y21.582 Z-2.000
G1 X126.436 Y21.179 Z-2.000
G1 X126.142 Y20.838 Z-2.000
G1 X125.837 Y20.521 Z-2.000
G1 X125.521 Y20.226 Z-2.000
G1 X125.194 Y19.953 Z-2.000
G1 X124.859 Y19.701 Z-2.000
G1 X124.498 Y19.457 Z-2.000
G1 X123.822 Y19.067 Z-2.000
G1 X123.112 Y18.739 Z-2.000
G1 X122.399 Y18.482 Z-2.000
G1 X121.692 Y18.288 Z-2.000
G1 X120.995 Y18.152 Z-2.000
G1 X120.315 Y18.071 Z-2.000
G1 X119.655 Y18.041 Z-2.000
G1 X119.019 Y18.058 Z-2.000
G1 X118.407 Y18.123 Z-2.000
G1 X117.818 Y18.238 Z-2.000
G1 X117.245 Y18.412 Z-2.000
G1 X116.834 Y18.597 Z-2.000
G1 X116.652 Y18.691 Z-2.000
G1 X69.917 Y28.097 Z-2.000
G1 X69.557 Y28.165 Z-2.000
G1 X69.195 Y28.227 Z-2.000
G1 X68.831 Y28.281 Z-2.000
G1 X68.467 Y28.327 Z-2.000
G1 X68.101 Y28.367 Z-2.000
G1 X67.735 Y28.398 Z-2.000
G1 X67.369 Y28.422 Z-2.000
G1 X67.002 Y28.439 Z-2.000
G1 X66.635 Y28.448 Z-2.000
G1 X66.273 Y28.450 Z-2.000
G1 X65.910 Y28.445 Z-2.000
G1 X65.547 Y28.432 Z-2.000
G1 X65.184 Y28.411 Z-2.000
G1 X64.820 Y28.384 Z-2.000
G1 X64.458 Y28.349 Z-2.000
G1 X64.095 Y28.307 Z-2.000
G1 X63.734 Y28.257 Z-2.000
G1 X63.373 Y28.200 Z-2.000
G1 X63.014 Y28.135 Z-2.000
G1 X62.656 Y28.064 Z-2.000
G1 X62.300 Y27.985 Z-2.000
G1 X61.946 Y27.899 Z-2.000
G1 X61.594 Y27.806 Z-2.000
G1 X61.244 Y27.706 Z-2.000
G1 X60.896 Y27.599 Z-2.000
G1 X60.552 Y27.485 Z-2.000
G1 X60.210 Y27.365 Z-2.000
G1 X60.195 Y27.359 Z-2.000
G1 X51.293 Y24.201 Z-2.000
G1 X22.990 Y14.160 Z-2.000
G1 X21.748 Y14.213 Z-2.000
G1 X21.434 Y14.216 Z-2.000
G1 X20.790 Y14.246 Z-2.000
G1 X20.104 Y14.342 Z-2.000
G1 X19.439 Y14.499 Z-2.000
G1 X18.798 Y14.713 Z-2.000
G1 X18.184 Y14.982 Z-2.000
G1 X17.601 Y15.302 Z-2.000
G1 X17.051 Y15.671 Z-2.000
G1 X16.538 Y16.085 Z-2.000
G1 X16.063 Y16.542 Z-2.000
G1 X16.063 Y16.542 Z-3.000 F635.0
G1 X15.630 Y17.039 Z-3.000 F180.0
G1 X15.242 Y17.574 Z-3.000
G1 X14.900 Y18.143 Z-3.000
G1 X14.609 Y18.744 Z-3.000
G1 X14.371 Y19.374 Z-3.000
G1 X14.190 Y20.030 Z-3.000
G1 X14.050 Y20.807 Z-3.000
G1 X14.241 Y33.405 Z-3.000
G1 X20.539 Y104.208 Z-3.000
G1 X21.528 Y115.318 Z-3.000
G1 X20.941 Y120.129 Z-3.000
G1 X14.000 Y177.076 Z-3.000
G1 X14.000 Y181.500 Z-3.000
G1 X14.003 Y181.761 Z-3.000
G1 X14.011 Y182.025 Z-3.000
G1 X14.026 Y182.292 Z-3.000
G1 X14.047 Y182.561 Z-3.000
G1 X14.074 Y182.833 Z-3.000
G1 X14.108 Y183.107 Z-3.000
G1 X14.149 Y183.384 Z-3.000
G1 X14.196 Y183.662 Z-3.000
G1 X14.251 Y183.942 Z-3.000
G1 X14.313 Y184.223 Z-3.000
G1 X14.382 Y184.505 Z-3.000
G1 X14.459 Y184.789 Z-3.000
G1 X14.544 Y185.073 Z-3.000
G1 X14.637 Y185.357 Z-3.000
G1 X14.737 Y185.642 Z-3.000
G1 X14.846 Y185.926 Z-3.000
G1 X14.963 Y186.210 Z-3.000
G1 X15.088 Y186.493 Z-3.000
G1 X15.221 Y186.774 Z-3.000
G1 X15.363 Y187.055 Z-3.000
G1 X15.513 Y187.333 Z-3.000
G1 X15.671 Y187.609 Z-3.000
G1 X15.838 Y187.883 Z-3.000
G1 X16.013 Y188.153 Z-3.000
G1 X16.196 Y188.420 Z-3.000
G1 X16.388 Y188.684 Z-3.000
G1 X16.587 Y188.944 Z-3.000
G1 X16.795 Y189.199 Z-3.000
G1 X17.010 Y189.449 Z-3.000
G1 X17.234 Y189.695 Z-3.000
G1 X17.464 Y189.935 Z-3.000
G1 X17.702 Y190.169 Z-3.000
G1 X17.947 Y190.397 Z-3.000
G1 X18.199 Y190.619 Z-3.000
G1 X18.458 Y190.834 Z-3.000
G1 X18.723 Y191.042 Z-3.000
G1 X18.994 Y191.242 Z-3.000
G1 X19.270 Y191.436 Z-3.000
G1 X19.552 Y191.621 Z-3.000
G1 X19.840 Y191.798 Z-3.000
G1 X20.132 Y191.967 Z-3.000
G1 X20.428 Y192.128 Z-3.000
G1 X20.728 Y192.280 Z-3.000
G1 X21.033 Y192.424 Z-3.000
G1 X21.340 Y192.558 Z-3.000
G1 X21.650 Y192.684 Z-3.000
G1 X21.963 Y192.801 Z-3.000
G1 X22.278 Y192.908 Z-3.000
G1 X22.595 Y193.007 Z-3.000
G1 X22.913 Y193.096 Z-3.000
G1 X23.232 Y193.177 Z-3.000
G1 X23.552 Y193.248 Z-3.000
G1 X23.871 Y193.310 Z-3.000
G1 X24.191 Y193.363 Z-3.000
G1 X24.510 Y193.407 Z-3.000
G1 X24.829 Y193.443 Z-3.000
G1 X25.146 Y193.470 Z-3.000
G1 X25.462 Y193.488 Z-3.000
G1 X25.775 Y193.498 Z-3.000
G1 X26.087 Y193.500 Z-3.000
G1 X26.396 Y193.494 Z-3.000
G1 X26.703 Y193.480 Z-3.000
G1 X27.006 Y193.458 Z-3.000
G1 X27.307 Y193.429 Z-3.000
G1 X27.604 Y193.393 Z-3.000
G1 X27.897 Y193.349 Z-3.000
G1 X28.186 Y193.299 Z-3.000
G1 X28.472 Y193.243 Z-3.000
G1 X28.753 Y193.180 Z-3.000
G1 X29.029 Y193.112 Z-3.000
G1 X29.302 Y193.037 Z-3.000
G1 X29.569 Y192.957 Z-3.000
G1 X29.832 Y192.872 Z-3.000
G1 X30.090 Y192.782 Z-3.000
G1 X30.343 Y192.687 Z-3.000
G1 X30.591 Y192.587 Z-3.000
G1 X30.834 Y192.484 Z-3.000
G1 X31.071 Y192.376 Z-3.000
G1 X67.344 Y175.462 Z-3.000
G1 X74.572 Y172.091 Z-3.000
G1 X74.902 Y171.941 Z-3.000
G1 X75.236 Y171.798 Z-3.000
G1 X75.574 Y171.661 Z-3.000
G1 X75.915 Y171.530 Z-3.000
G1 X76.259 Y171.406 Z-3.000
G1 X76.606 Y171.289 Z-3.000
G1 X76.956 Y171.180 Z-3.000
G1 X77.308 Y171.077 Z-3.000
G1 X77.662 Y170.981 Z-3.000
G1 X78.018 Y170.892 Z-3.000
G1 X78.376 Y170.811 Z-3.000
G1 X78.736 Y170.737 Z-3.000
G1 X79.097 Y170.671 Z-3.000
G1 X79.459 Y170.612 Z-3.000
G1 X79.822 Y170.560 Z-3.000
G1 X80.186 Y170.516 Z-3.000
G1 X80.550 Y170.479 Z-3.000
G1 X80.915 Y170.449 Z-3.000
G1 X81.279 Y170.428 Z-3.000
G1 X81.643 Y170.413 Z-3.000
G1 X82.007 Y170.406 Z-3.000
G1 X82.370 Y170.406 Z-3.000
G1 X82.738 Y170.414 Z-3.000
G1 X83.107 Y170.429 Z-3.000
G1 X83.475 Y170.452 Z-3.000
G1 X83.843 Y170.482 Z-3.000
G1 X84.210 Y170.520 Z-3.000
G1 X84.576 Y170.565 Z-3.000
G1 X84.941 Y170.618 Z-3.000
G1 X85.304 Y170.678 Z-3.000
G1 X123.537 Y177.420 Z-3.000
G1 X123.779 Y177.426 Z-3.000
G1 X124.398 Y177.398 Z-3.000
G1 X125.025 Y177.312 Z-3.000
G1 X125.634 Y177.172 Z-3.000
G1 X126.223 Y176.979 Z-3.000
G1 X126.787 Y176.738 Z-3.000
G1 X127.325 Y176.450 Z-3.000
G1 X127.832 Y176.119 Z-3.000
G1 X128.308 Y175.746 Z-3.000
G1 X128.749 Y175.334 Z-3.000
G1 X129.153 Y174.885 Z-3.000
G1 X129.519 Y174.402 Z-3.000
G1 X129.842 Y173.887 Z-3.000
G1 X130.121 Y173.343 Z-3.000
G1 X130.352 Y172.771 Z-3.000
G1 X130.534 Y172.175 Z-3.000
G1 X130.687 Y171.444 Z-3.000
G1 X130.682 Y167.663 Z-3.000
G1 X130.660 Y160.033 Z-3.000
G1 X125.541 Y101.521 Z-3.000
G1 X125.651 Y99.421 Z-3.000
G1 X126.492 Y83.443 Z-3.000
G1 X128.952 Y36.657 Z-3.000
G1 X128.675 Y29.311 Z-3.000
G1 X128.679 Y28.782 Z-3.000
G1 X128.668 Y28.190 Z-3.000
G1 X128.639 Y27.610 Z-3.000
G1 X128.593 Y27.041 Z-3.000
G1 X128.529 Y26.483 Z-3.000
G1 X128.446 Y25.936 Z-3.000
G1 X128.344 Y25.400 Z-3.000
G1 X128.222 Y24.877 Z-3.000
G1 X128.079 Y24.365 Z-3.000
G1 X127.914 Y23.865 Z-3.000
G1 X127.728 Y23.379 Z-3.000
G1 X127.518 Y22.906 Z-3.000
G1 X127.284 Y22.449 Z-3.000
G1 X127.026 Y22.007 Z-3.000
G1 X126.742 Y21.582 Z-3.000
G1 X126.436 Y21.179 Z-3.000
G1 X126.142 Y20.838 Z-3.000
G1 X125.837 Y20.521 Z-3.000
G1 X125.521 Y20.226 Z-3.000
G1 X125.194 Y19.953 Z-3.000
G1 X124.859 Y19.701 Z-3.000
G1 X124.498 Y19.457 Z-3.000
G1 X123.822 Y19.067 Z-3.000
G1 X123.112 Y18.739 Z-3.000
G1 X122.399 Y18.482 Z-3.000
G1 X121.692 Y18.288 Z-3.000
G1 X120.995 Y18.152 Z-3.000
G1 X120.315 Y18.071 Z-3.000
G1 X119.655 Y18.041 Z-3.000
G1 X119.019 Y18.058 Z-3.000
G1 X118.407 Y18.123 Z-3.000
G1 X117.818 Y18.238 Z-3.000
G1 X117.245 Y18.412 Z-3.000
G1 X116.834 Y18.597 Z-3.000
G1 X116.652 Y18.691 Z-3.000
G1 X69.917 Y28.097 Z-3.000
G1 X69.557 Y28.165 Z-3.000
G1 X69.195 Y28.227 Z-3.000
G1 X68.831 Y28.281 Z-3.000
G1 X68.467 Y28.327 Z-3.000
G1 X68.101 Y28.367 Z-3.000
G1 X67.735 Y28.398 Z-3.000
G1 X67.369 Y28.422 Z-3.000
G1 X67.002 Y28.439 Z-3.000
G1 X66.635 Y28.448 Z-3.000
G1 X66.273 Y28.450 Z-3.000
G1 X65.910 Y28.445 Z-3.000
G1 X65.547 Y28.432 Z-3.000
G1 X65.184 Y28.411 Z-3.000
G1 X64.820 Y28.384 Z-3.000
G1 X64.458 Y28.349 Z-3.000
G1 X64.095 Y28.307 Z-3.000
G1 X63.734 Y28.257 Z-3.000
G1 X63.373 Y28.200 Z-3.000
G1 X63.014 Y28.135 Z-3.000
G1 X62.656 Y28.064 Z-3.000
G1 X62.300 Y27.985 Z-3.000
G1 X61.946 Y27.899 Z-3.000
G1 X61.594 Y27.806 Z-3.000
G1 X61.244 Y27.706 Z-3.000
G1 X60.896 Y27.599 Z-3.000
G1 X60.552 Y27.485 Z-3.000
G1 X60.210 Y27.365 Z-3.000
G1 X60.195 Y27.359 Z-3.000
G1 X51.293 Y24.201 Z-3.000
G1 X22.990 Y14.160 Z-3.000
G1 X21.748 Y14.213 Z-3.000
G1 X21.434 Y14.216 Z-3.000
G1 X20.790 Y14.246 Z-3.000
G1 X20.104 Y14.342 Z-3.000
G1 X19.439 Y14.499 Z-3.000
G1 X18.798 Y14.713 Z-3.000
G1 X18.184 Y14.982 Z-3.000
G1 X17.601 Y15.302 Z-3.000
G1 X17.051 Y15.671 Z-3.000
G1 X16.538 Y16.085 Z-3.000
G1 X16.063 Y16.542 Z-3.000
G1 X16.063 Y16.542 Z-4.000 F635.0
G1 X15.630 Y17.039 Z-4.000 F180.0
G1 X15.242 Y17.574 Z-4.000
G1 X14.900 Y18.143 Z-4.000
G1 X14.609 Y18.744 Z-4.000
G1 X14.371 Y19.374 Z-4.000
G1 X14.190 Y20.030 Z-4.000
G1 X14.050 Y20.807 Z-4.000
G1 X14.241 Y33.405 Z-4.000
G1 X20.539 Y104.208 Z-4.000
G1 X21.528 Y115.318 Z-4.000
G1 X20.941 Y120.129 Z-4.000
G1 X14.000 Y177.076 Z-4.000
G1 X14.000 Y181.500 Z-4.000
G1 X14.003 Y181.761 Z-4.000
G1 X14.011 Y182.025 Z-4.000
G1 X14.026 Y182.292 Z-4.000
G1 X14.047 Y182.561 Z-4.000
G1 X14.074 Y182.833 Z-4.000
G1 X14.108 Y183.107 Z-4.000
G1 X14.149 Y183.384 Z-4.000
G1 X14.196 Y183.662 Z-4.000
G1 X14.251 Y183.942 Z-4.000
G1 X14.313 Y184.223 Z-4.000
G1 X14.382 Y184.505 Z-4.000
G1 X14.459 Y184.789 Z-4.000
G1 X14.544 Y185.073 Z-4.000
G1 X14.637 Y185.357 Z-4.000
G1 X14.737 Y185.642 Z-4.000
G1 X14.846 Y185.926 Z-4.000
G1 X14.963 Y186.210 Z-4.000
G1 X15.088 Y186.493 Z-4.000
G1 X15.221 Y186.774 Z-4.000
G1 X15.363 Y187.055 Z-4.000
G1 X15.513 Y187.333 Z-4.000
G1 X15.671 Y187.609 Z-4.000
G1 X15.838 Y187.883 Z-4.000
G1 X16.013 Y188.153 Z-4.000
G1 X16.196 Y188.420 Z-4.000
G1 X16.388 Y188.684 Z-4.000
G1 X16.587 Y188.944 Z-4.000
G1 X16.795 Y189.199 Z-4.000
G1 X17.010 Y189.449 Z-4.000
G1 X17.234 Y189.695 Z-4.000
G1 X17.464 Y189.935 Z-4.000
G1 X17.702 Y190.169 Z-4.000
G1 X17.947 Y190.397 Z-4.000
G1 X18.199 Y190.619 Z-4.000
G1 X18.458 Y190.834 Z-4.000
G1 X18.723 Y191.042 Z-4.000
G1 X18.994 Y191.242 Z-4.000
G1 X19.270 Y191.436 Z-4.000
G1 X19.552 Y191.621 Z-4.000
G1 X19.840 Y191.798 Z-4.000
G1 X20.132 Y191.967 Z-4.000
G1 X20.428 Y192.128 Z-4.000
G1 X20.728 Y192.280 Z-4.000
G1 X21.033 Y192.424 Z-4.000
G1 X21.340 Y192.558 Z-4.000
G1 X21.650 Y192.684 Z-4.000
G1 X21.963 Y192.801 Z-4.000
G1 X22.278 Y192.908 Z-4.000
G1 X22.595 Y193.007 Z-4.000
G1 X22.913 Y193.096 Z-4.000
G1 X23.232 Y193.177 Z-4.000
G1 X23.552 Y193.248 Z-4.000
G1 X23.871 Y193.310 Z-4.000
G1 X24.191 Y193.363 Z-4.000
G1 X24.510 Y193.407 Z-4.000
G1 X24.829 Y193.443 Z-4.000
G1 X25.146 Y193.470 Z-4.000
G1 X25.462 Y193.488 Z-4.000
G1 X25.775 Y193.498 Z-4.000
G1 X26.087 Y193.500 Z-4.000
G1 X26.396 Y193.494 Z-4.000
G1 X26.703 Y193.480 Z-4.000
G1 X27.006 Y193.458 Z-4.000
G1 X27.307 Y193.429 Z-4.000
G1 X27.604 Y193.393 Z-4.000
G1 X27.897 Y193.349 Z-4.000
G1 X28.186 Y193.299 Z-4.000
G1 X28.472 Y193.243 Z-4.000
G1 X28.753 Y193.180 Z-4.000
G1 X29.029 Y193.112 Z-4.000
G1 X29.302 Y193.037 Z-4.000
G1 X29.569 Y192.957 Z-4.000
G1 X29.832 Y192.872 Z-4.000
G1 X30.090 Y192.782 Z-4.000
G1 X30.343 Y192.687 Z-4.000
G1 X30.591 Y192.587 Z-4.000
G1 X30.834 Y192.484 Z-4.000
G1 X31.071 Y192.376 Z-4.000
G1 X67.344 Y175.462 Z-4.000
G1 X74.572 Y172.091 Z-4.000
G1 X74.902 Y171.941 Z-4.000
G1 X75.236 Y171.798 Z-4.000
G1 X75.574 Y171.661 Z-4.000
G1 X75.915 Y171.530 Z-4.000
G1 X76.259 Y171.406 Z-4.000
G1 X76.606 Y171.289 Z-4.000
G1 X76.956 Y171.180 Z-4.000
G1 X77.308 Y171.077 Z-4.000
G1 X77.662 Y170.981 Z-4.000
G1 X78.018 Y170.892 Z-4.000
G1 X78.376 Y170.811 Z-4.000
G1 X78.736 Y170.737 Z-4.000
G1 X79.097 Y170.671 Z-4.000
G1 X79.459 Y170.612 Z-4.000
G1 X79.822 Y170.560 Z-4.000
G1 X80.186 Y170.516 Z-4.000
G1 X80.550 Y170.479 Z-4.000
G1 X80.915 Y170.449 Z-4.000
G1 X81.279 Y170.428 Z-4.000
G1 X81.643 Y170.413 Z-4.000
G1 X82.007 Y170.406 Z-4.000
G1 X82.370 Y170.406 Z-4.000
G1 X82.738 Y170.414 Z-4.000
G1 X83.107 Y170.429 Z-4.000
G1 X83.475 Y170.452 Z-4.000
G1 X83.843 Y170.482 Z-4.000
G1 X84.210 Y170.520 Z-4.000
G1 X84.576 Y170.565 Z-4.000
G1 X84.941 Y170.618 Z-4.000
G1 X85.304 Y170.678 Z-4.000
G1 X123.537 Y177.420 Z-4.000
G1 X123.779 Y177.426 Z-4.000
G1 X124.398 Y177.398 Z-4.000
G1 X125.025 Y177.312 Z-4.000
G1 X125.634 Y177.172 Z-4.000
G1 X126.223 Y176.979 Z-4.000
G1 X126.787 Y176.738 Z-4.000
G1 X127.325 Y176.450 Z-4.000
G1 X127.832 Y176.119 Z-4.000
G1 X128.308 Y175.746 Z-4.000
G1 X128.749 Y175.334 Z-4.000
G1 X129.153 Y174.885 Z-4.000
G1 X129.519 Y174.402 Z-4.000
G1 X129.842 Y173.887 Z-4.000
G1 X130.121 Y173.343 Z-4.000
G1 X130.352 Y172.771 Z-4.000
G1 X130.534 Y172.175 Z-4.000
G1 X130.687 Y171.444 Z-4.000
G1 X130.682 Y167.663 Z-4.000
G1 X130.660 Y160.033 Z-4.000
G1 X125.541 Y101.521 Z-4.000
G1 X125.651 Y99.421 Z-4.000
G1 X126.492 Y83.443 Z-4.000
G1 X128.952 Y36.657 Z-4.000
G1 X128.675 Y29.311 Z-4.000
G1 X128.679 Y28.782 Z-4.000
G1 X128.668 Y28.190 Z-4.000
G1 X128.639 Y27.610 Z-4.000
G1 X128.593 Y27.041 Z-4.000
G1 X128.529 Y26.483 Z-4.000
G1 X128.446 Y25.936 Z-4.000
G1 X128.344 Y25.400 Z-4.000
G1 X128.222 Y24.877 Z-4.000
G1 X128.079 Y24.365 Z-4.000
G1 X127.914 Y23.865 Z-4.000
G1 X127.728 Y23.379 Z-4.000
G1 X127.518 Y22.906 Z-4.000
G1 X127.284 Y22.449 Z-4.000
G1 X127.026 Y22.007 Z-4.000
G1 X126.742 Y21.582 Z-4.000
G1 X126.436 Y21.179 Z-4.000
G1 X126.142 Y20.838 Z-4.000
G1 X125.837 Y20.521 Z-4.000
G1 X125.521 Y20.226 Z-4.000
G1 X125.194 Y19.953 Z-4.000
G1 X124.859 Y19.701 Z-4.000
G1 X124.498 Y19.457 Z-4.000
G1 X123.822 Y19.067 Z-4.000
G1 X123.112 Y18.739 Z-4.000
G1 X122.399 Y18.482 Z-4.000
G1 X121.692 Y18.288 Z-4.000
G1 X120.995 Y18.152 Z-4.000
G1 X120.315 Y18.071 Z-4.000
G1 X119.655 Y18.041 Z-4.000
G1 X119.019 Y18.058 Z-4.000
G1 X118.407 Y18.123 Z-4.000
G1 X117.818 Y18.238 Z-4.000
G1 X117.245 Y18.412 Z-4.000
G1 X116.834 Y18.597 Z-4.000
G1 X116.652 Y18.691 Z-4.000
G1 X69.917 Y28.097 Z-4.000
G1 X69.557 Y28.165 Z-4.000
G1 X69.195 Y28.227 Z-4.000
G1 X68.831 Y28.281 Z-4.000
G1 X68.467 Y28.327 Z-4.000
G1 X68.101 Y28.367 Z-4.000
G1 X67.735 Y28.398 Z-4.000
G1 X67.369 Y28.422 Z-4.000
G1 X67.002 Y28.439 Z-4.000
G1 X66.635 Y28.448 Z-4.000
G1 X66.273 Y28.450 Z-4.000
G1 X65.910 Y28.445 Z-4.000
G1 X65.547 Y28.432 Z-4.000
G1 X65.184 Y28.411 Z-4.000
G1 X64.820 Y28.384 Z-4.000
G1 X64.458 Y28.349 Z-4.000
G1 X64.095 Y28.307 Z-4.000
G1 X63.734 Y28.257 Z-4.000
G1 X63.373 Y28.200 Z-4.000
G1 X63.014 Y28.135 Z-4.000
G1 X62.656 Y28.064 Z-4.000
G1 X62.300 Y27.985 Z-4.000
G1 X61.946 Y27.899 Z-4.000
G1 X61.594 Y27.806 Z-4.000
G1 X61.244 Y27.706 Z-4.000
G1 X60.896 Y27.599 Z-4.000
G1 X60.552 Y27.485 Z-4.000
G1 X60.210 Y27.365 Z-4.000
G1 X60.195 Y27.359 Z-4.000
G1 X51.293 Y24.201 Z-4.000
G1 X22.990 Y14.160 Z-4.000
G1 X21.748 Y14.213 Z-4.000
G1 X21.434 Y14.216 Z-4.000
G1 X20.790 Y14.246 Z-4.000
G1 X20.104 Y14.342 Z-4.000
G1 X19.439 Y14.499 Z-4.000
G1 X18.798 Y14.713 Z-4.000
G1 X18.184 Y14.982 Z-4.000
G1 X17.601 Y15.302 Z-4.000
G1 X17.051 Y15.671 Z-4.000
G1 X16.538 Y16.085 Z-4.000
G1 X16.063 Y16.542 Z-4.000
G1 X16.063 Y16.542 Z-5.000 F635.0
G1 X15.630 Y17.039 Z-5.000 F180.0
G1 X15.242 Y17.574 Z-5.000
G1 X14.900 Y18.143 Z-5.000
G1 X14.609 Y18.744 Z-5.000
G1 X14.371 Y19.374 Z-5.000
G1 X14.190 Y20.030 Z-5.000
G1 X14.050 Y20.807 Z-5.000
G1 X14.241 Y33.405 Z-5.000
G1 X20.539 Y104.208 Z-5.000
G1 X21.528 Y115.318 Z-5.000
G1 X20.941 Y120.129 Z-5.000
G1 X14.000 Y177.076 Z-5.000
G1 X14.000 Y181.500 Z-5.000
G1 X14.003 Y181.761 Z-5.000
G1 X14.011 Y182.025 Z-5.000
G1 X14.026 Y182.292 Z-5.000
G1 X14.047 Y182.561 Z-5.000
G1 X14.074 Y182.833 Z-5.000
G1 X14.108 Y183.107 Z-5.000
G1 X14.149 Y183.384 Z-5.000
G1 X14.196 Y183.662 Z-5.000
G1 X14.251 Y183.942 Z-5.000
G1 X14.313 Y184.223 Z-5.000
G1 X14.382 Y184.505 Z-5.000
G1 X14.459 Y184.789 Z-5.000
G1 X14.544 Y185.073 Z-5.000
G1 X14.637 Y185.357 Z-5.000
G1 X14.737 Y185.642 Z-5.000
G1 X14.846 Y185.926 Z-5.000
G1 X14.963 Y186.210 Z-5.000
G1 X15.088 Y186.493 Z-5.000
G1 X15.221 Y186.774 Z-5.000
G1 X15.363 Y187.055 Z-5.000
G1 X15.513 Y187.333 Z-5.000
G1 X15.671 Y187.609 Z-5.000
G1 X15.838 Y187.883 Z-5.000
G1 X16.013 Y188.153 Z-5.000
G1 X16.196 Y188.420 Z-5.000
G1 X16.388 Y188.684 Z-5.000
G1 X16.587 Y188.944 Z-5.000
G1 X16.795 Y189.199 Z-5.000
G1 X17.010 Y189.449 Z-5.000
G1 X17.234 Y189.695 Z-5.000
G1 X17.464 Y189.935 Z-5.000
G1 X17.702 Y190.169 Z-5.000
G1 X17.947 Y190.397 Z-5.000
G1 X18.199 Y190.619 Z-5.000
G1 X18.458 Y190.834 Z-5.000
G1 X18.723 Y191.042 Z-5.000
G1 X18.994 Y191.242 Z-5.000
G1 X19.270 Y191.436 Z-5.000
G1 X19.552 Y191.621 Z-5.000
G1 X19.840 Y191.798 Z-5.000
G1 X20.132 Y191.967 Z-5.000
G1 X20.428 Y192.128 Z-5.000
G1 X20.728 Y192.280 Z-5.000
G1 X21.033 Y192.424 Z-5.000
G1 X21.340 Y192.558 Z-5.000
G1 X21.650 Y192.684 Z-5.000
G1 X21.963 Y192.801 Z-5.000
G1 X22.278 Y192.908 Z-5.000
G1 X22.595 Y193.007 Z-5.000
G1 X22.913 Y193.096 Z-5.000
G1 X23.232 Y193.177 Z-5.000
G1 X23.552 Y193.248 Z-5.000
G1 X23.871 Y193.310 Z-5.000
G1 X24.191 Y193.363 Z-5.000
G1 X24.510 Y193.407 Z-5.000
G1 X24.829 Y193.443 Z-5.000
G1 X25.146 Y193.470 Z-5.000
G1 X25.462 Y193.488 Z-5.000
G1 X25.775 Y193.498 Z-5.000
G1 X26.087 Y193.500 Z-5.000
G1 X26.396 Y193.494 Z-5.000
G1 X26.703 Y193.480 Z-5.000
G1 X27.006 Y193.458 Z-5.000
G1 X27.307 Y193.429 Z-5.000
G1 X27.604 Y193.393 Z-5.000
G1 X27.897 Y193.349 Z-5.000
G1 X28.186 Y193.299 Z-5.000
G1 X28.472 Y193.243 Z-5.000
G1 X28.753 Y193.180 Z-5.000
G1 X29.029 Y193.112 Z-5.000
G1 X29.302 Y193.037 Z-5.000
G1 X29.569 Y192.957 Z-5.000
G1 X29.832 Y192.872 Z-5.000
G1 X30.090 Y192.782 Z-5.000
G1 X30.343 Y192.687 Z-5.000
G1 X30.591 Y192.587 Z-5.000
G1 X30.834 Y192.484 Z-5.000
G1 X31.071 Y192.376 Z-5.000
G1 X67.344 Y175.462 Z-5.000
G1 X74.572 Y172.091 Z-5.000
G1 X74.902 Y171.941 Z-5.000
G1 X75.236 Y171.798 Z-5.000
G1 X75.574 Y171.661 Z-5.000
G1 X75.915 Y171.530 Z-5.000
G1 X76.259 Y171.406 Z-5.000
G1 X76.606 Y171.289 Z-5.000
G1 X76.956 Y171.180 Z-5.000
G1 X77.308 Y171.077 Z-5.000
G1 X77.662 Y170.981 Z-5.000
G1 X78.018 Y170.892 Z-5.000
G1 X78.376 Y170.811 Z-5.000
G1 X78.736 Y170.737 Z-5.000
G1 X79.097 Y170.671 Z-5.000
G1 X79.459 Y170.612 Z-5.000
G1 X79.822 Y170.560 Z-5.000
G1 X80.186 Y170.516 Z-5.000
G1 X80.550 Y170.479 Z-5.000
G1 X80.915 Y170.449 Z-5.000
G1 X81.279 Y170.428 Z-5.000
G1 X81.643 Y170.413 Z-5.000
G1 X82.007 Y170.406 Z-5.000
G1 X82.370 Y170.406 Z-5.000
G1 X82.738 Y170.414 Z-5.000
G1 X83.107 Y170.429 Z-5.000
G1 X83.475 Y170.452 Z-5.000
G1 X83.843 Y170.482 Z-5.000
G1 X84.210 Y170.520 Z-5.000
G1 X84.576 Y170.565 Z-5.000
G1 X84.941 Y170.618 Z-5.000
G1 X85.304 Y170.678 Z-5.000
G1 X123.537 Y177.420 Z-5.000
G1 X123.779 Y177.426 Z-5.000
G1 X124.398 Y177.398 Z-5.000
G1 X125.025 Y177.312 Z-5.000
G1 X125.634 Y177.172 Z-5.000
G1 X126.223 Y176.979 Z-5.000
G1 X126.787 Y176.738 Z-5.000
G1 X127.325 Y176.450 Z-5.000
G1 X127.832 Y176.119 Z-5.000
G1 X128.308 Y175.746 Z-5.000
G1 X128.749 Y175.334 Z-5.000
G1 X129.153 Y174.885 Z-5.000
G1 X129.519 Y174.402 Z-5.000
G1 X129.842 Y173.887 Z-5.000
G1 X130.121 Y173.343 Z-5.000
G1 X130.352 Y172.771 Z-5.000
G1 X130.534 Y172.175 Z-5.000
G1 X130.687 Y171.444 Z-5.000
G1 X130.682 Y167.663 Z-5.000
G1 X130.660 Y160.033 Z-5.000
G1 X125.541 Y101.521 Z-5.000
G1 X125.651 Y99.421 Z-5.000
G1 X126.492 Y83.443 Z-5.000
G1 X128.952 Y36.657 Z-5.000
G1 X128.675 Y29.311 Z-5.000
G1 X128.679 Y28.782 Z-5.000
G1 X128.668 Y28.190 Z-5.000
G1 X128.639 Y27.610 Z-5.000
G1 X128.593 Y27.041 Z-5.000
G1 X128.529 Y26.483 Z-5.000
G1 X128.446 Y25.936 Z-5.000
G1 X128.344 Y25.400 Z-5.000
G1 X128.222 Y24.877 Z-5.000
G1 X128.079 Y24.365 Z-5.000
G1 X127.914 Y23.865 Z-5.000
G1 X127.728 Y23.379 Z-5.000
G1 X127.518 Y22.906 Z-5.000
G1 X127.284 Y22.449 Z-5.000
G1 X127.026 Y22.007 Z-5.000
G1 X126.742 Y21.582 Z-5.000
G1 X126.436 Y21.179 Z-5.000
G1 X126.142 Y20.838 Z-5.000
G1 X125.837 Y20.521 Z-5.000
G1 X125.521 Y20.226 Z-5.000
G1 X125.194 Y19.953 Z-5.000
G1 X124.859 Y19.701 Z-5.000
G1 X124.498 Y19.457 Z-5.000
G1 X123.822 Y19.067 Z-5.000
G1 X123.112 Y18.739 Z-5.000
G1 X122.399 Y18.482 Z-5.000
G1 X121.692 Y18.288 Z-5.000
G1 X120.995 Y18.152 Z-5.000
G1 X120.315 Y18.071 Z-5.000
G1 X119.655 Y18.041 Z-5.000
G1 X119.019 Y18.058 Z-5.000
G1 X118.407 Y18.123 Z-5.000
G1 X117.818 Y18.238 Z-5.000
G1 X117.245 Y18.412 Z-5.000
G1 X116.834 Y18.597 Z-5.000
G1 X116.652 Y18.691 Z-5.000
G1 X69.917 Y28.097 Z-5.000
G1 X69.557 Y28.165 Z-5.000
G1 X69.195 Y28.227 Z-5.000
G1 X68.831 Y28.281 Z-5.000
G1 X68.467 Y28.327 Z-5.000
G1 X68.101 Y28.367 Z-5.000
G1 X67.735 Y28.398 Z-5.000
G1 X67.369 Y28.422 Z-5.000
G1 X67.002 Y28.439 Z-5.000
G1 X66.635 Y28.448 Z-5.000
G1 X66.273 Y28.450 Z-5.000
G1 X65.910 Y28.445 Z-5.000
G1 X65.547 Y28.432 Z-5.000
G1 X65.184 Y28.411 Z-5.000
G1 X64.820 Y28.384 Z-5.000
G1 X64.458 Y28.349 Z-5.000
G1 X64.095 Y28.307 Z-5.000
G1 X63.734 Y28.257 Z-5.000
G1 X63.373 Y28.200 Z-5.000
G1 X63.014 Y28.135 Z-5.000
G1 X62.656 Y28.064 Z-5.000
G1 X62.300 Y27.985 Z-5.000
G1 X61.946 Y27.899 Z-5.000
G1 X61.594 Y27.806 Z-5.000
G1 X61.244 Y27.706 Z-5.000
G1 X60.896 Y27.599 Z-5.000
G1 X60.552 Y27.485 Z-5.000
G1 X60.210 Y27.365 Z-5.000
G1 X60.195 Y27.359 Z-5.000
G1 X51.293 Y24.201 Z-5.000
G1 X22.990 Y14.160 Z-5.000
G1 X21.748 Y14.213 Z-5.000
G1 X21.434 Y14.216 Z-5.000
G1 X20.790 Y14.246 Z-5.000
G1 X20.104 Y14.342 Z-5.000
G1 X19.439 Y14.499 Z-5.000
G1 X18.798 Y14.713 Z-5.000
G1 X18.184 Y14.982 Z-5.000
G1 X17.601 Y15.302 Z-5.000
G1 X17.051 Y15.671 Z-5.000
G1 X16.538 Y16.085 Z-5.000
G1 X16.063 Y16.542 Z-5.000
G1 X16.063 Y16.542 Z-6.000 F635.0
G1 X15.630 Y17.039 Z-6.000 F180.0
G1 X15.242 Y17.574 Z-6.000
G1 X14.900 Y18.143 Z-6.000
G1 X14.609 Y18.744 Z-6.000
G1 X14.371 Y19.374 Z-6.000
G1 X14.190 Y20.030 Z-6.000
G1 X14.050 Y20.807 Z-6.000
G1 X14.241 Y33.405 Z-6.000
G1 X20.539 Y104.208 Z-6.000
G1 X21.528 Y115.318 Z-6.000
G1 X20.941 Y120.129 Z-6.000
G1 X14.000 Y177.076 Z-6.000
G1 X14.000 Y181.500 Z-6.000
G1 X14.003 Y181.761 Z-6.000
G1 X14.011 Y182.025 Z-6.000
G1 X14.026 Y182.292 Z-6.000
G1 X14.047 Y182.561 Z-6.000
G1 X14.074 Y182.833 Z-6.000
G1 X14.108 Y183.107 Z-6.000
G1 X14.149 Y183.384 Z-6.000
G1 X14.196 Y183.662 Z-6.000
G1 X14.251 Y183.942 Z-6.000
G1 X14.313 Y184.223 Z-6.000
G1 X14.382 Y184.505 Z-6.000
G1 X14.459 Y184.789 Z-6.000
G1 X14.544 Y185.073 Z-6.000
G1 X14.637 Y185.357 Z-6.000
G1 X14.737 Y185.642 Z-6.000
G1 X14.846 Y185.926 Z-6.000
G1 X14.963 Y186.210 Z-6.000
G1 X15.088 Y186.493 Z-6.000
G1 X15.221 Y186.774 Z-6.000
G1 X15.363 Y187.055 Z-6.000
G1 X15.513 Y187.333 Z-6.000
G1 X15.671 Y187.609 Z-6.000
G1 X15.838 Y187.883 Z-6.000
G1 X16.013 Y188.153 Z-6.000
G1 X16.196 Y188.420 Z-6.000
G1 X16.388 Y188.684 Z-6.000
G1 X16.587 Y188.944 Z-6.000
G1 X16.795 Y189.199 Z-6.000
G1 X17.010 Y189.449 Z-6.000
G1 X17.234 Y189.695 Z-6.000
G1 X17.464 Y189.935 Z-6.000
G1 X17.702 Y190.169 Z-6.000
G1 X17.947 Y190.397 Z-6.000
G1 X18.199 Y190.619 Z-6.000
G1 X18.458 Y190.834 Z-6.000
G1 X18.723 Y191.042 Z-6.000
G1 X18.994 Y191.242 Z-6.000
G1 X19.270 Y191.436 Z-6.000
G1 X19.552 Y191.621 Z-6.000
G1 X19.840 Y191.798 Z-6.000
G1 X20.132 Y191.967 Z-6.000
G1 X20.428 Y192.128 Z-6.000
G1 X20.728 Y192.280 Z-6.000
G1 X21.033 Y192.424 Z-6.000
G1 X21.340 Y192.558 Z-6.000
G1 X21.650 Y192.684 Z-6.000
G1 X21.963 Y192.801 Z-6.000
G1 X22.278 Y192.908 Z-6.000
G1 X22.595 Y193.007 Z-6.000
G1 X22.913 Y193.096 Z-6.000
G1 X23.232 Y193.177 Z-6.000
G1 X23.552 Y193.248 Z-6.000
G1 X23.871 Y193.310 Z-6.000
G1 X24.191 Y193.363 Z-6.000
G1 X24.510 Y193.407 Z-6.000
G1 X24.829 Y193.443 Z-6.000
G1 X25.146 Y193.470 Z-6.000
G1 X25.462 Y193.488 Z-6.000
G1 X25.775 Y193.498 Z-6.000
G1 X26.087 Y193.500 Z-6.000
G1 X26.396 Y193.494 Z-6.000
G1 X26.703 Y193.480 Z-6.000
G1 X27.006 Y193.458 Z-6.000
G1 X27.307 Y193.429 Z-6.000
G1 X27.604 Y193.393 Z-6.000
G1 X27.897 Y193.349 Z-6.000
G1 X28.186 Y193.299 Z-6.000
G1 X28.472 Y193.243 Z-6.000
G1 X28.753 Y193.180 Z-6.000
G1 X29.029 Y193.112 Z-6.000
G1 X29.302 Y193.037 Z-6.000
G1 X29.569 Y192.957 Z-6.000
G1 X29.832 Y192.872 Z-6.000
G1 X30.090 Y192.782 Z-6.000
G1 X30.343 Y192.687 Z-6.000
G1 X30.591 Y192.587 Z-6.000
G1 X30.834 Y192.484 Z-6.000
G1 X31.071 Y192.376 Z-6.000
G1 X67.344 Y175.462 Z-6.000
G1 X74.572 Y172.091 Z-6.000
G1 X74.902 Y171.941 Z-6.000
G1 X75.236 Y171.798 Z-6.000
G1 X75.574 Y171.661 Z-6.000
G1 X75.915 Y171.530 Z-6.000
G1 X76.259 Y171.406 Z-6.000
G1 X76.606 Y171.289 Z-6.000
G1 X76.956 Y171.180 Z-6.000
G1 X77.308 Y171.077 Z-6.000
G1 X77.662 Y170.981 Z-6.000
G1 X78.018 Y170.892 Z-6.000
G1 X78.376 Y170.811 Z-6.000
G1 X78.736 Y170.737 Z-6.000
G1 X79.097 Y170.671 Z-6.000
G1 X79.459 Y170.612 Z-6.000
G1 X79.822 Y170.560 Z-6.000
G1 X80.186 Y170.516 Z-6.000
G1 X80.550 Y170.479 Z-6.000
G1 X80.915 Y170.449 Z-6.000
G1 X81.279 Y170.428 Z-6.000
G1 X81.643 Y170.413 Z-6.000
G1 X82.007 Y170.406 Z-6.000
G1 X82.370 Y170.406 Z-6.000
G1 X82.738 Y170.414 Z-6.000
G1 X83.107 Y170.429 Z-6.000
G1 X83.475 Y170.452 Z-6.000
G1 X83.843 Y170.482 Z-6.000
G1 X84.210 Y170.520 Z-6.000
G1 X84.576 Y170.565 Z-6.000
G1 X84.941 Y170.618 Z-6.000
G1 X85.304 Y170.678 Z-6.000
G1 X123.537 Y177.420 Z-6.000
G1 X123.779 Y177.426 Z-6.000
G1 X124.398 Y177.398 Z-6.000
G1 X125.025 Y177.312 Z-6.000
G1 X125.634 Y177.172 Z-6.000
G1 X126.223 Y176.979 Z-6.000
G1 X126.787 Y176.738 Z-6.000
G1 X127.325 Y176.450 Z-6.000
G1 X127.832 Y176.119 Z-6.000
G1 X128.308 Y175.746 Z-6.000
G1 X128.749 Y175.334 Z-6.000
G1 X129.153 Y174.885 Z-6.000
G1 X129.519 Y174.402 Z-6.000
G1 X129.842 Y173.887 Z-6.000
G1 X130.121 Y173.343 Z-6.000
G1 X130.352 Y172.771 Z-6.000
G1 X130.534 Y172.175 Z-6.000
G1 X130.687 Y171.444 Z-6.000
G1 X130.682 Y167.663 Z-6.000
G1 X130.660 Y160.033 Z-6.000
G1 X125.541 Y101.521 Z-6.000
G1 X125.651 Y99.421 Z-6.000
G1 X126.492 Y83.443 Z-6.000
G1 X128.952 Y36.657 Z-6.000
G1 X128.675 Y29.311 Z-6.000
G1 X128.679 Y28.782 Z-6.000
G1 X128.668 Y28.190 Z-6.000
G1 X128.639 Y27.610 Z-6.000
G1 X128.593 Y27.041 Z-6.000
G1 X128.529 Y26.483 Z-6.000
G1 X128.446 Y25.936 Z-6.000
G1 X128.344 Y25.400 Z-6.000
G1 X128.222 Y24.877 Z-6.000
G1 X128.079 Y24.365 Z-6.000
G1 X127.914 Y23.865 Z-6.000
G1 X127.728 Y23.379 Z-6.000
G1 X127.518 Y22.906 Z-6.000
G1 X127.284 Y22.449 Z-6.000
G1 X127.026 Y22.007 Z-6.000
G1 X126.742 Y21.582 Z-6.000
G1 X126.436 Y21.179 Z-6.000
G1 X126.142 Y20.838 Z-6.000
G1 X125.837 Y20.521 Z-6.000
G1 X125.521 Y20.226 Z-6.000
G1 X125.194 Y19.953 Z-6.000
G1 X124.859 Y19.701 Z-6.000
G1 X124.498 Y19.457 Z-6.000
G1 X123.822 Y19.067 Z-6.000
G1 X123.112 Y18.739 Z-6.000
G1 X122.399 Y18.482 Z-6.000
G1 X121.692 Y18.288 Z-6.000
G1 X120.995 Y18.152 Z-6.000
G1 X120.315 Y18.071 Z-6.000
G1 X119.655 Y18.041 Z-6.000
G1 X119.019 Y18.058 Z-6.000
G1 X118.407 Y18.123 Z-6.000
G1 X117.818 Y18.238 Z-6.000
G1 X117.245 Y18.412 Z-6.000
G1 X116.834 Y18.597 Z-6.000
G1 X116.652 Y18.691 Z-6.000
G1 X69.917 Y28.097 Z-6.000
G1 X69.557 Y28.165 Z-6.000
G1 X69.195 Y28.227 Z-6.000
G1 X68.831 Y28.281 Z-6.000
G1 X68.467 Y28.327 Z-6.000
G1 X68.101 Y28.367 Z-6.000
G1 X67.735 Y28.398 Z-6.000
G1 X67.369 Y28.422 Z-6.000
G1 X67.002 Y28.439 Z-6.000
G1 X66.635 Y28.448 Z-6.000
G1 X66.273 Y28.450 Z-6.000
G1 X65.910 Y28.445 Z-6.000
G1 X65.547 Y28.432 Z-6.000
G1 X65.184 Y28.411 Z-6.000
G1 X64.820 Y28.384 Z-6.000
G1 X64.458 Y28.349 Z-6.000
G1 X64.095 Y28.307 Z-6.000
G1 X63.734 Y28.257 Z-6.000
G1 X63.373 Y28.200 Z-6.000
G1 X63.014 Y28.135 Z-6.000
G1 X62.656 Y28.064 Z-6.000
G1 X62.300 Y27.985 Z-6.000
G1 X61.946 Y27.899 Z-6.000
G1 X61.594 Y27.806 Z-6.000
G1 X61.244 Y27.706 Z-6.000
G1 X60.896 Y27.599 Z-6.000
G1 X60.552 Y27.485 Z-6.000
G1 X60.210 Y27.365 Z-6.000
G1 X60.195 Y27.359 Z-6.000
G1 X51.293 Y24.201 Z-6.000
G1 X22.990 Y14.160 Z-6.000
G1 X21.748 Y14.213 Z-6.000
G1 X21.434 Y14.216 Z-6.000
G1 X20.790 Y14.246 Z-6.000
G1 X20.104 Y14.342 Z-6.000
G1 X19.439 Y14.499 Z-6.000
G1 X18.798 Y14.713 Z-6.000
G1 X18.184 Y14.982 Z-6.000
G1 X17.601 Y15.302 Z-6.000
G1 X17.051 Y15.671 Z-6.000
G1 X16.538 Y16.085 Z-6.000
G1 X16.063 Y16.542 Z-6.000
G1 X16.063 Y16.542 Z-7.000 F635.0
G1 X15.630 Y17.039 Z-7.000 F180.0
G1 X15.242 Y17.574 Z-7.000
G1 X14.900 Y18.143 Z-7.000
G1 X14.609 Y18.744 Z-7.000
G1 X14.371 Y19.374 Z-7.000
G1 X14.190 Y20.030 Z-7.000
G1 X14.050 Y20.807 Z-7.000
G1 X14.241 Y33.405 Z-7.000
G1 X20.539 Y104.208 Z-7.000
G1 X21.528 Y115.318 Z-7.000
G1 X20.941 Y120.129 Z-7.000
G1 X14.000 Y177.076 Z-7.000
G1 X14.000 Y181.500 Z-7.000
G1 X14.003 Y181.761 Z-7.000
G1 X14.011 Y182.025 Z-7.000
G1 X14.026 Y182.292 Z-7.000
G1 X14.047 Y182.561 Z-7.000
G1 X14.074 Y182.833 Z-7.000
G1 X14.108 Y183.107 Z-7.000
G1 X14.149 Y183.384 Z-7.000
G1 X14.196 Y183.662 Z-7.000
G1 X14.251 Y183.942 Z-7.000
G1 X14.313 Y184.223 Z-7.000
G1 X14.382 Y184.505 Z-7.000
G1 X14.459 Y184.789 Z-7.000
G1 X14.544 Y185.073 Z-7.000
G1 X14.637 Y185.357 Z-7.000
G1 X14.737 Y185.642 Z-7.000
G1 X14.846 Y185.926 Z-7.000
G1 X14.963 Y186.210 Z-7.000
G1 X15.088 Y186.493 Z-7.000
G1 X15.221 Y186.774 Z-7.000
G1 X15.363 Y187.055 Z-7.000
G1 X15.513 Y187.333 Z-7.000
G1 X15.671 Y187.609 Z-7.000
G1 X15.838 Y187.883 Z-7.000
G1 X16.013 Y188.153 Z-7.000
G1 X16.196 Y188.420 Z-7.000
G1 X16.388 Y188.684 Z-7.000
G1 X16.587 Y188.944 Z-7.000
G1 X16.795 Y189.199 Z-7.000
G1 X17.010 Y189.449 Z-7.000
G1 X17.234 Y189.695 Z-7.000
G1 X17.464 Y189.935 Z-7.000
G1 X17.702 Y190.169 Z-7.000
G1 X17.947 Y190.397 Z-7.000
G1 X18.199 Y190.619 Z-7.000
G1 X18.458 Y190.834 Z-7.000
G1 X18.723 Y191.042 Z-7.000
G1 X18.994 Y191.242 Z-7.000
G1 X19.270 Y191.436 Z-7.000
G1 X19.552 Y191.621 Z-7.000
G1 X19.840 Y191.798 Z-7.000
G1 X20.132 Y191.967 Z-7.000
G1 X20.428 Y192.128 Z-7.000
G1 X20.728 Y192.280 Z-7.000
G1 X21.033 Y192.424 Z-7.000
G1 X21.340 Y192.558 Z-7.000
G1 X21.650 Y192.684 Z-7.000
G1 X21.963 Y192.801 Z-7.000
G1 X22.278 Y192.908 Z-7.000
G1 X22.595 Y193.007 Z-7.000
G1 X22.913 Y193.096 Z-7.000
G1 X23.232 Y193.177 Z-7.000
G1 X23.552 Y193.248 Z-7.000
G1 X23.871 Y193.310 Z-7.000
G1 X24.191 Y193.363 Z-7.000
G1 X24.510 Y193.407 Z-7.000
G1 X24.829 Y193.443 Z-7.000
G1 X25.146 Y193.470 Z-7.000
G1 X25.462 Y193.488 Z-7.000
G1 X25.775 Y193.498 Z-7.000
G1 X26.087 Y193.500 Z-7.000
G1 X26.396 Y193.494 Z-7.000
G1 X26.703 Y193.480 Z-7.000
G1 X27.006 Y193.458 Z-7.000
G1 X27.307 Y193.429 Z-7.000
G1 X27.604 Y193.393 Z-7.000
G1 X27.897 Y193.349 Z-7.000
G1 X28.186 Y193.299 Z-7.000
G1 X28.472 Y193.243 Z-7.000
G1 X28.753 Y193.180 Z-7.000
G1 X29.029 Y193.112 Z-7.000
G1 X29.302 Y193.037 Z-7.000
G1 X29.569 Y192.957 Z-7.000
G1 X29.832 Y192.872 Z-7.000
G1 X30.090 Y192.782 Z-7.000
G1 X30.343 Y192.687 Z-7.000
G1 X30.591 Y192.587 Z-7.000
G1 X30.834 Y192.484 Z-7.000
G1 X31.071 Y192.376 Z-7.000
G1 X67.344 Y175.462 Z-7.000
G1 X74.572 Y172.091 Z-7.000
G1 X74.902 Y171.941 Z-7.000
G1 X75.236 Y171.798 Z-7.000
G1 X75.574 Y171.661 Z-7.000
G1 X75.915 Y171.530 Z-7.000
G1 X76.259 Y171.406 Z-7.000
G1 X76.606 Y171.289 Z-7.000
G1 X76.956 Y171.180 Z-7.000
G1 X77.308 Y171.077 Z-7.000
G1 X77.662 Y170.981 Z-7.000
G1 X78.018 Y170.892 Z-7.000
G1 X78.376 Y170.811 Z-7.000
G1 X78.736 Y170.737 Z-7.000
G1 X79.097 Y170.671 Z-7.000
G1 X79.459 Y170.612 Z-7.000
G1 X79.822 Y170.560 Z-7.000
G1 X80.186 Y170.516 Z-7.000
G1 X80.550 Y170.479 Z-7.000
G1 X80.915 Y170.449 Z-7.000
G1 X81.279 Y170.428 Z-7.000
G1 X81.643 Y170.413 Z-7.000
G1 X82.007 Y170.406 Z-7.000
G1 X82.370 Y170.406 Z-7.000
G1 X82.738 Y170.414 Z-7.000
G1 X83.107 Y170.429 Z-7.000
G1 X83.475 Y170.452 Z-7.000
G1 X83.843 Y170.482 Z-7.000
G1 X84.210 Y170.520 Z-7.000
G1 X84.576 Y170.565 Z-7.000
G1 X84.941 Y170.618 Z-7.000
G1 X85.304 Y170.678 Z-7.000
G1 X123.537 Y177.420 Z-7.000
G1 X123.779 Y177.426 Z-7.000
G1 X124.398 Y177.398 Z-7.000
G1 X125.025 Y177.312 Z-7.000
G1 X125.634 Y177.172 Z-7.000
G1 X126.223 Y176.979 Z-7.000
G1 X126.787 Y176.738 Z-7.000
G1 X127.325 Y176.450 Z-7.000
G1 X127.832 Y176.119 Z-7.000
G1 X128.308 Y175.746 Z-7.000
G1 X128.749 Y175.334 Z-7.000
G1 X129.153 Y174.885 Z-7.000
G1 X129.519 Y174.402 Z-7.000
G1 X129.842 Y173.887 Z-7.000
G1 X130.121 Y173.343 Z-7.000
G1 X130.352 Y172.771 Z-7.000
G1 X130.534 Y172.175 Z-7.000
G1 X130.687 Y171.444 Z-7.000
G1 X130.682 Y167.663 Z-7.000
G1 X130.660 Y160.033 Z-7.000
G1 X125.541 Y101.521 Z-7.000
G1 X125.651 Y99.421 Z-7.000
G1 X126.492 Y83.443 Z-7.000
G1 X128.952 Y36.657 Z-7.000
G1 X128.675 Y29.311 Z-7.000
G1 X128.679 Y28.782 Z-7.000
G1 X128.668 Y28.190 Z-7.000
G1 X128.639 Y27.610 Z-7.000
G1 X128.593 Y27.041 Z-7.000
G1 X128.529 Y26.483 Z-7.000
G1 X128.446 Y25.936 Z-7.000
G1 X128.344 Y25.400 Z-7.000
G1 X128.222 Y24.877 Z-7.000
G1 X128.079 Y24.365 Z-7.000
G1 X127.914 Y23.865 Z-7.000
G1 X127.728 Y23.379 Z-7.000
G1 X127.518 Y22.906 Z-7.000
G1 X127.284 Y22.449 Z-7.000
G1 X127.026 Y22.007 Z-7.000
G1 X126.742 Y21.582 Z-7.000
G1 X126.436 Y21.179 Z-7.000
G1 X126.142 Y20.838 Z-7.000
G1 X125.837 Y20.521 Z-7.000
G1 X125.521 Y20.226 Z-7.000
G1 X125.194 Y19.953 Z-7.000
G1 X124.859 Y19.701 Z-7.000
G1 X124.498 Y19.457 Z-7.000
G1 X123.822 Y19.067 Z-7.000
G1 X123.112 Y18.739 Z-7.000
G1 X122.399 Y18.482 Z-7.000
G1 X121.692 Y18.288 Z-7.000
G1 X120.995 Y18.152 Z-7.000
G1 X120.315 Y18.071 Z-7.000
G1 X119.655 Y18.041 Z-7.000
G1 X119.019 Y18.058 Z-7.000
G1 X118.407 Y18.123 Z-7.000
G1 X117.818 Y18.238 Z-7.000
G1 X117.245 Y18.412 Z-7.000
G1 X116.834 Y18.597 Z-7.000
G1 X116.652 Y18.691 Z-7.000
G1 X69.917 Y28.097 Z-7.000
G1 X69.557 Y28.165 Z-7.000
G1 X69.195 Y28.227 Z-7.000
G1 X68.831 Y28.281 Z-7.000
G1 X68.467 Y28.327 Z-7.000
G1 X68.101 Y28.367 Z-7.000
G1 X67.735 Y28.398 Z-7.000
G1 X67.369 Y28.422 Z-7.000
G1 X67.002 Y28.439 Z-7.000
G1 X66.635 Y28.448 Z-7.000
G1 X66.273 Y28.450 Z-7.000
G1 X65.910 Y28.445 Z-7.000
G1 X65.547 Y28.432 Z-7.000
G1 X65.184 Y28.411 Z-7.000
G1 X64.820 Y28.384 Z-7.000
G1 X64.458 Y28.349 Z-7.000
G1 X64.095 Y28.307 Z-7.000
G1 X63.734 Y28.257 Z-7.000
G1 X63.373 Y28.200 Z-7.000
G1 X63.014 Y28.135 Z-7.000
G1 X62.656 Y28.064 Z-7.000
G1 X62.300 Y27.985 Z-7.000
G1 X61.946 Y27.899 Z-7.000
G1 X61.594 Y27.806 Z-7.000
G1 X61.244 Y27.706 Z-7.000
G1 X60.896 Y27.599 Z-7.000
G1 X60.552 Y27.485 Z-7.000
G1 X60.210 Y27.365 Z-7.000
G1 X60.195 Y27.359 Z-7.000
G1 X51.293 Y24.201 Z-7.000
G1 X22.990 Y14.160 Z-7.000
G1 X21.748 Y14.213 Z-7.000
G1 X21.434 Y14.216 Z-7.000
G1 X20.790 Y14.246 Z-7.000
G1 X20.104 Y14.342 Z-7.000
G1 X19.439 Y14.499 Z-7.000
G1 X18.798 Y14.713 Z-7.000
G1 X18.184 Y14.982 Z-7.000
G1 X17.601 Y15.302 Z-7.000
G1 X17.051 Y15.671 Z-7.000
G1 X16.538 Y16.085 Z-7.000
G1 X16.063 Y16.542 Z-7.000
G1 X16.063 Y16.542 Z-8.000 F635.0
G1 X15.630 Y17.039 Z-8.000 F180.0
G1 X15.242 Y17.574 Z-8.000
G1 X14.900 Y18.143 Z-8.000
G1 X14.609 Y18.744 Z-8.000
G1 X14.371 Y19.374 Z-8.000
G1 X14.190 Y20.030 Z-8.000
G1 X14.050 Y20.807 Z-8.000
G1 X14.241 Y33.405 Z-8.000
G1 X20.539 Y104.208 Z-8.000
G1 X21.528 Y115.318 Z-8.000
G1 X20.941 Y120.129 Z-8.000
G1 X14.000 Y177.076 Z-8.000
G1 X14.000 Y181.500 Z-8.000
G1 X14.003 Y181.761 Z-8.000
G1 X14.011 Y182.025 Z-8.000
G1 X14.026 Y182.292 Z-8.000
G1 X14.047 Y182.561 Z-8.000
G1 X14.074 Y182.833 Z-8.000
G1 X14.108 Y183.107 Z-8.000
G1 X14.149 Y183.384 Z-8.000
G1 X14.196 Y183.662 Z-8.000
G1 X14.251 Y183.942 Z-8.000
G1 X14.313 Y184.223 Z-8.000
G1 X14.382 Y184.505 Z-8.000
G1 X14.459 Y184.789 Z-8.000
G1 X14.544 Y185.073 Z-8.000
G1 X14.637 Y185.357 Z-8.000
G1 X14.737 Y185.642 Z-8.000
G1 X14.846 Y185.926 Z-8.000
G1 X14.963 Y186.210 Z-8.000
G1 X15.088 Y186.493 Z-8.000
G1 X15.221 Y186.774 Z-8.000
G1 X15.363 Y187.055 Z-8.000
G1 X15.513 Y187.333 Z-8.000
G1 X15.671 Y187.609 Z-8.000
G1 X15.838 Y187.883 Z-8.000
G1 X16.013 Y188.153 Z-8.000
G1 X16.196 Y188.420 Z-8.000
G1 X16.388 Y188.684 Z-8.000
G1 X16.587 Y188.944 Z-8.000
G1 X16.795 Y189.199 Z-8.000
G1 X17.010 Y189.449 Z-8.000
G1 X17.234 Y189.695 Z-8.000
G1 X17.464 Y189.935 Z-8.000
G1 X17.702 Y190.169 Z-8.000
G1 X17.947 Y190.397 Z-8.000
G1 X18.199 Y190.619 Z-8.000
G1 X18.458 Y190.834 Z-8.000
G1 X18.723 Y191.042 Z-8.000
G1 X18.994 Y191.242 Z-8.000
G1 X19.270 Y191.436 Z-8.000
G1 X19.552 Y191.621 Z-8.000
G1 X19.840 Y191.798 Z-8.000
G1 X20.132 Y191.967 Z-8.000
G1 X20.428 Y192.128 Z-8.000
G1 X20.728 Y192.280 Z-8.000
G1 X21.033 Y192.424 Z-8.000
G1 X21.340 Y192.558 Z-8.000
G1 X21.650 Y192.684 Z-8.000
G1 X21.963 Y192.801 Z-8.000
G1 X22.278 Y192.908 Z-8.000
G1 X22.595 Y193.007 Z-8.000
G1 X22.913 Y193.096 Z-8.000
G1 X23.232 Y193.177 Z-8.000
G1 X23.552 Y193.248 Z-8.000
G1 X23.871 Y193.310 Z-8.000
G1 X24.191 Y193.363 Z-8.000
G1 X24.510 Y193.407 Z-8.000
G1 X24.829 Y193.443 Z-8.000
G1 X25.146 Y193.470 Z-8.000
G1 X25.462 Y193.488 Z-8.000
G1 X25.775 Y193.498 Z-8.000
G1 X26.087 Y193.500 Z-8.000
G1 X26.396 Y193.494 Z-8.000
G1 X26.703 Y193.480 Z-8.000
G1 X27.006 Y193.458 Z-8.000
G1 X27.307 Y193.429 Z-8.000
G1 X27.604 Y193.393 Z-8.000
G1 X27.897 Y193.349 Z-8.000
G1 X28.186 Y193.299 Z-8.000
G1 X28.472 Y193.243 Z-8.000
G1 X28.753 Y193.180 Z-8.000
G1 X29.029 Y193.112 Z-8.000
G1 X29.302 Y193.037 Z-8.000
G1 X29.569 Y192.957 Z-8.000
G1 X29.832 Y192.872 Z-8.000
G1 X30.090 Y192.782 Z-8.000
G1 X30.343 Y192.687 Z-8.000
G1 X30.591 Y192.587 Z-8.000
G1 X30.834 Y192.484 Z-8.000
G1 X31.071 Y192.376 Z-8.000
G1 X67.344 Y175.462 Z-8.000
G1 X74.572 Y172.091 Z-8.000
G1 X74.902 Y171.941 Z-8.000
G1 X75.236 Y171.798 Z-8.000
G1 X75.574 Y171.661 Z-8.000
G1 X75.915 Y171.530 Z-8.000
G1 X76.259 Y171.406 Z-8.000
G1 X76.606 Y171.289 Z-8.000
G1 X76.956 Y171.180 Z-8.000
G1 X77.308 Y171.077 Z-8.000
G1 X77.662 Y170.981 Z-8.000
G1 X78.018 Y170.892 Z-8.000
G1 X78.376 Y170.811 Z-8.000
G1 X78.736 Y170.737 Z-8.000
G1 X79.097 Y170.671 Z-8.000
G1 X79.459 Y170.612 Z-8.000
G1 X79.822 Y170.560 Z-8.000
G1 X80.186 Y170.516 Z-8.000
G1 X80.550 Y170.479 Z-8.000
G1 X80.915 Y170.449 Z-8.000
G1 X81.279 Y170.428 Z-8.000
G1 X81.643 Y170.413 Z-8.000
G1 X82.007 Y170.406 Z-8.000
G1 X82.370 Y170.406 Z-8.000
G1 X82.738 Y170.414 Z-8.000
G1 X83.107 Y170.429 Z-8.000
G1 X83.475 Y170.452 Z-8.000
G1 X83.843 Y170.482 Z-8.000
G1 X84.210 Y170.520 Z-8.000
G1 X84.576 Y170.565 Z-8.000
G1 X84.941 Y170.618 Z-8.000
G1 X85.304 Y170.678 Z-8.000
G1 X123.537 Y177.420 Z-8.000
G1 X123.779 Y177.426 Z-8.000
G1 X124.398 Y177.398 Z-8.000
G1 X125.025 Y177.312 Z-8.000
G1 X125.634 Y177.172 Z-8.000
G1 X126.223 Y176.979 Z-8.000
G1 X126.787 Y176.738 Z-8.000
G1 X127.325 Y176.450 Z-8.000
G1 X127.832 Y176.119 Z-8.000
G1 X128.308 Y175.746 Z-8.000
G1 X128.749 Y175.334 Z-8.000
G1 X129.153 Y174.885 Z-8.000
G1 X129.519 Y174.402 Z-8.000
G1 X129.842 Y173.887 Z-8.000
G1 X130.121 Y173.343 Z-8.000
G1 X130.352 Y172.771 Z-8.000
G1 X130.534 Y172.175 Z-8.000
G1 X130.687 Y171.444 Z-8.000
G1 X130.682 Y167.663 Z-8.000
G1 X130.660 Y160.033 Z-8.000
G1 X125.541 Y101.521 Z-8.000
G1 X125.651 Y99.421 Z-8.000
G1 X126.492 Y83.443 Z-8.000
G1 X128.952 Y36.657 Z-8.000
G1 X128.675 Y29.311 Z-8.000
G1 X128.679 Y28.782 Z-8.000
G1 X128.668 Y28.190 Z-8.000
G1 X128.639 Y27.610 Z-8.000
G1 X128.593 Y27.041 Z-8.000
G1 X128.529 Y26.483 Z-8.000
G1 X128.446 Y25.936 Z-8.000
G1 X128.344 Y25.400 Z-8.000
G1 X128.222 Y24.877 Z-8.000
G1 X128.079 Y24.365 Z-8.000
G1 X127.914 Y23.865 Z-8.000
G1 X127.728 Y23.379 Z-8.000
G1 X127.518 Y22.906 Z-8.000
G1 X127.284 Y22.449 Z-8.000
G1 X127.026 Y22.007 Z-8.000
G1 X126.742 Y21.582 Z-8.000
G1 X126.436 Y21.179 Z-8.000
G1 X126.142 Y20.838 Z-8.000
G1 X125.837 Y20.521 Z-8.000
G1 X125.521 Y20.226 Z-8.000
G1 X125.194 Y19.953 Z-8.000
G1 X124.859 Y19.701 Z-8.000
G1 X124.498 Y19.457 Z-8.000
G1 X123.822 Y19.067 Z-8.000
G1 X123.112 Y18.739 Z-8.000
G1 X122.399 Y18.482 Z-8.000
G1 X121.692 Y18.288 Z-8.000
G1 X120.995 Y18.152 Z-8.000
G1 X120.315 Y18.071 Z-8.000
G1 X119.655 Y18.041 Z-8.000
G1 X119.019 Y18.058 Z-8.000
G1 X118.407 Y18.123 Z-8.000
G1 X117.818 Y18.238 Z-8.000
G1 X117.245 Y18.412 Z-8.000
G1 X116.834 Y18.597 Z-8.000
G1 X116.652 Y18.691 Z-8.000
G1 X69.917 Y28.097 Z-8.000
G1 X69.557 Y28.165 Z-8.000
G1 X69.195 Y28.227 Z-8.000
G1 X68.831 Y28.281 Z-8.000
G1 X68.467 Y28.327 Z-8.000
G1 X68.101 Y28.367 Z-8.000
G1 X67.735 Y28.398 Z-8.000
G1 X67.369 Y28.422 Z-8.000
G1 X67.002 Y28.439 Z-8.000
G1 X66.635 Y28.448 Z-8.000
G1 X66.273 Y28.450 Z-8.000
G1 X65.910 Y28.445 Z-8.000
G1 X65.547 Y28.432 Z-8.000
G1 X65.184 Y28.411 Z-8.000
G1 X64.820 Y28.384 Z-8.000
G1 X64.458 Y28.349 Z-8.000
G1 X64.095 Y28.307 Z-8.000
G1 X63.734 Y28.257 Z-8.000
G1 X63.373 Y28.200 Z-8.000
G1 X63.014 Y28.135 Z-8.000
G1 X62.656 Y28.064 Z-8.000
G1 X62.300 Y27.985 Z-8.000
G1 X61.946 Y27.899 Z-8.000
G1 X61.594 Y27.806 Z-8.000
G1 X61.244 Y27.706 Z-8.000
G1 X60.896 Y27.599 Z-8.000
G1 X60.552 Y27.485 Z-8.000
G1 X60.210 Y27.365 Z-8.000
G1 X60.195 Y27.359 Z-8.000
G1 X51.293 Y24.201 Z-8.000
G1 X22.990 Y14.160 Z-8.000
G1 X21.748 Y14.213 Z-8.000
G1 X21.434 Y14.216 Z-8.000
G1 X20.790 Y14.246 Z-8.000
G1 X20.104 Y14.342 Z-8.000
G1 X19.439 Y14.499 Z-8.000
G1 X18.798 Y14.713 Z-8.000
G1 X18.184 Y14.982 Z-8.000
G1 X17.601 Y15.302 Z-8.000
G1 X17.051 Y15.671 Z-8.000
G1 X16.538 Y16.085 Z-8.000
G1 X16.063 Y16.542 Z-8.000
G1 X16.063 Y16.542 Z-9.000 F635.0
G1 X15.630 Y17.039 Z-9.000 F180.0
G1 X15.242 Y17.574 Z-9.000
G1 X14.900 Y18.143 Z-9.000
G1 X14.609 Y18.744 Z-9.000
G1 X14.371 Y19.374 Z-9.000
G1 X14.190 Y20.030 Z-9.000
G1 X14.050 Y20.807 Z-9.000
G1 X14.241 Y33.405 Z-9.000
G1 X20.539 Y104.208 Z-9.000
G1 X21.528 Y115.318 Z-9.000
G1 X20.941 Y120.129 Z-9.000
G1 X14.000 Y177.076 Z-9.000
G1 X14.000 Y181.500 Z-9.000
G1 X14.003 Y181.761 Z-9.000
G1 X14.011 Y182.025 Z-9.000
G1 X14.026 Y182.292 Z-9.000
G1 X14.047 Y182.561 Z-9.000
G1 X14.074 Y182.833 Z-9.000
G1 X14.108 Y183.107 Z-9.000
G1 X14.149 Y183.384 Z-9.000
G1 X14.196 Y183.662 Z-9.000
G1 X14.251 Y183.942 Z-9.000
G1 X14.313 Y184.223 Z-9.000
G1 X14.382 Y184.505 Z-9.000
G1 X14.459 Y184.789 Z-9.000
G1 X14.544 Y185.073 Z-9.000
G1 X14.637 Y185.357 Z-9.000
G1 X14.737 Y185.642 Z-9.000
G1 X14.846 Y185.926 Z-9.000
G1 X14.963 Y186.210 Z-9.000
G1 X15.088 Y186.493 Z-9.000
G1 X15.221 Y186.774 Z-9.000
G1 X15.363 Y187.055 Z-9.000
G1 X15.513 Y187.333 Z-9.000
G1 X15.671 Y187.609 Z-9.000
G1 X15.838 Y187.883 Z-9.000
G1 X16.013 Y188.153 Z-9.000
G1 X16.196 Y188.420 Z-9.000
G1 X16.388 Y188.684 Z-9.000
G1 X16.587 Y188.944 Z-9.000
G1 X16.795 Y189.199 Z-9.000
G1 X17.010 Y189.449 Z-9.000
G1 X17.234 Y189.695 Z-9.000
G1 X17.464 Y189.935 Z-9.000
G1 X17.702 Y190.169 Z-9.000
G1 X17.947 Y190.397 Z-9.000
G1 X18.199 Y190.619 Z-9.000
G1 X18.458 Y190.834 Z-9.000
G1 X18.723 Y191.042 Z-9.000
G1 X18.994 Y191.242 Z-9.000
G1 X19.270 Y191.436 Z-9.000
G1 X19.552 Y191.621 Z-9.000
G1 X19.840 Y191.798 Z-9.000
G1 X20.132 Y191.967 Z-9.000
G1 X20.428 Y192.128 Z-9.000
G1 X20.728 Y192.280 Z-9.000
G1 X21.033 Y192.424 Z-9.000
G1 X21.340 Y192.558 Z-9.000
G1 X21.650 Y192.684 Z-9.000
G1 X21.963 Y192.801 Z-9.000
G1 X22.278 Y192.908 Z-9.000
G1 X22.595 Y193.007 Z-9.000
G1 X22.913 Y193.096 Z-9.000
G1 X23.232 Y193.177 Z-9.000
G1 X23.552 Y193.248 Z-9.000
G1 X23.871 Y193.310 Z-9.000
G1 X24.191 Y193.363 Z-9.000
G1 X24.510 Y193.407 Z-9.000
G1 X24.829 Y193.443 Z-9.000
G1 X25.146 Y193.470 Z-9.000
G1 X25.462 Y193.488 Z-9.000
G1 X25.775 Y193.498 Z-9.000
G1 X26.087 Y193.500 Z-9.000
G1 X26.396 Y193.494 Z-9.000
G1 X26.703 Y193.480 Z-9.000
G1 X27.006 Y193.458 Z-9.000
G1 X27.307 Y193.429 Z-9.000
G1 X27.604 Y193.393 Z-9.000
G1 X27.897 Y193.349 Z-9.000
G1 X28.186 Y193.299 Z-9.000
G1 X28.472 Y193.243 Z-9.000
G1 X28.753 Y193.180 Z-9.000
G1 X29.029 Y193.112 Z-9.000
G1 X29.302 Y193.037 Z-9.000
G1 X29.569 Y192.957 Z-9.000
G1 X29.832 Y192.872 Z-9.000
G1 X30.090 Y192.782 Z-9.000
G1 X30.343 Y192.687 Z-9.000
G1 X30.591 Y192.587 Z-9.000
G1 X30.834 Y192.484 Z-9.000
G1 X31.071 Y192.376 Z-9.000
G1 X67.344 Y175.462 Z-9.000
G1 X74.572 Y172.091 Z-9.000
G1 X74.902 Y171.941 Z-9.000
G1 X75.236 Y171.798 Z-9.000
G1 X75.574 Y171.661 Z-9.000
G1 X75.915 Y171.530 Z-9.000
G1 X76.259 Y171.406 Z-9.000
G1 X76.606 Y171.289 Z-9.000
G1 X76.956 Y171.180 Z-9.000
G1 X77.308 Y171.077 Z-9.000
G1 X77.662 Y170.981 Z-9.000
G1 X78.018 Y170.892 Z-9.000
G1 X78.376 Y170.811 Z-9.000
G1 X78.736 Y170.737 Z-9.000
G1 X79.097 Y170.671 Z-9.000
G1 X79.459 Y170.612 Z-9.000
G1 X79.822 Y170.560 Z-9.000
G1 X80.186 Y170.516 Z-9.000
G1 X80.550 Y170.479 Z-9.000
G1 X80.915 Y170.449 Z-9.000
G1 X81.279 Y170.428 Z-9.000
G1 X81.643 Y170.413 Z-9.000
G1 X82.007 Y170.406 Z-9.000
G1 X82.370 Y170.406 Z-9.000
G1 X82.738 Y170.414 Z-9.000
G1 X83.107 Y170.429 Z-9.000
G1 X83.475 Y170.452 Z-9.000
G1 X83.843 Y170.482 Z-9.000
G1 X84.210 Y170.520 Z-9.000
G1 X84.576 Y170.565 Z-9.000
G1 X84.941 Y170.618 Z-9.000
G1 X85.304 Y170.678 Z-9.000
G1 X123.537 Y177.420 Z-9.000
G1 X123.779 Y177.426 Z-9.000
G1 X124.398 Y177.398 Z-9.000
G1 X125.025 Y177.312 Z-9.000
G1 X125.634 Y177.172 Z-9.000
G1 X126.223 Y176.979 Z-9.000
G1 X126.787 Y176.738 Z-9.000
G1 X127.325 Y176.450 Z-9.000
G1 X127.832 Y176.119 Z-9.000
G1 X128.308 Y175.746 Z-9.000
G1 X128.749 Y175.334 Z-9.000
G1 X129.153 Y174.885 Z-9.000
G1 X129.519 Y174.402 Z-9.000
G1 X129.842 Y173.887 Z-9.000
G1 X130.121 Y173.343 Z-9.000
G1 X130.352 Y172.771 Z-9.000
G1 X130.534 Y172.175 Z-9.000
G1 X130.687 Y171.444 Z-9.000
G1 X130.682 Y167.663 Z-9.000
G1 X130.660 Y160.033 Z-9.000
G1 X125.541 Y101.521 Z-9.000
G1 X125.651 Y99.421 Z-9.000
G1 X126.492 Y83.443 Z-9.000
G1 X128.952 Y36.657 Z-9.000
G1 X128.675 Y29.311 Z-9.000
G1 X128.679 Y28.782 Z-9.000
G1 X128.668 Y28.190 Z-9.000
G1 X128.639 Y27.610 Z-9.000
G1 X128.593 Y27.041 Z-9.000
G1 X128.529 Y26.483 Z-9.000
G1 X128.446 Y25.936 Z-9.000
G1 X128.344 Y25.400 Z-9.000
G1 X128.222 Y24.877 Z-9.000
G1 X128.079 Y24.365 Z-9.000
G1 X127.914 Y23.865 Z-9.000
G1 X127.728 Y23.379 Z-9.000
G1 X127.518 Y22.906 Z-9.000
G1 X127.284 Y22.449 Z-9.000
G1 X127.026 Y22.007 Z-9.000
G1 X126.742 Y21.582 Z-9.000
G1 X126.436 Y21.179 Z-9.000
G1 X126.142 Y20.838 Z-9.000
G1 X125.837 Y20.521 Z-9.000
G1 X125.521 Y20.226 Z-9.000
G1 X125.194 Y19.953 Z-9.000
G1 X124.859 Y19.701 Z-9.000
G1 X124.498 Y19.457 Z-9.000
G1 X123.822 Y19.067 Z-9.000
G1 X123.112 Y18.739 Z-9.000
G1 X122.399 Y18.482 Z-9.000
G1 X121.692 Y18.288 Z-9.000
G1 X120.995 Y18.152 Z-9.000
G1 X120.315 Y18.071 Z-9.000
G1 X119.655 Y18.041 Z-9.000
G1 X119.019 Y18.058 Z-9.000
G1 X118.407 Y18.123 Z-9.000
G1 X117.818 Y18.238 Z-9.000
G1 X117.245 Y18.412 Z-9.000
G1 X116.834 Y18.597 Z-9.000
G1 X116.652 Y18.691 Z-9.000
G1 X69.917 Y28.097 Z-9.000
G1 X69.557 Y28.165 Z-9.000
G1 X69.195 Y28.227 Z-9.000
G1 X68.831 Y28.281 Z-9.000
G1 X68.467 Y28.327 Z-9.000
G1 X68.101 Y28.367 Z-9.000
G1 X67.735 Y28.398 Z-9.000
G1 X67.369 Y28.422 Z-9.000
G1 X67.002 Y28.439 Z-9.000
G1 X66.635 Y28.448 Z-9.000
G1 X66.273 Y28.450 Z-9.000
G1 X65.910 Y28.445 Z-9.000
G1 X65.547 Y28.432 Z-9.000
G1 X65.184 Y28.411 Z-9.000
G1 X64.820 Y28.384 Z-9.000
G1 X64.458 Y28.349 Z-9.000
G1 X64.095 Y28.307 Z-9.000
G1 X63.734 Y28.257 Z-9.000
G1 X63.373 Y28.200 Z-9.000
G1 X63.014 Y28.135 Z-9.000
G1 X62.656 Y28.064 Z-9.000
G1 X62.300 Y27.985 Z-9.000
G1 X61.946 Y27.899 Z-9.000
G1 X61.594 Y27.806 Z-9.000
G1 X61.244 Y27.706 Z-9.000
G1 X60.896 Y27.599 Z-9.000
G1 X60.552 Y27.485 Z-9.000
G1 X60.210 Y27.365 Z-9.000
G1 X60.195 Y27.359 Z-9.000
G1 X51.293 Y24.201 Z-9.000
G1 X22.990 Y14.160 Z-9.000
G1 X21.748 Y14.213 Z-9.000
G1 X21.434 Y14.216 Z-9.000
G1 X20.790 Y14.246 Z-9.000
G1 X20.104 Y14.342 Z-9.000
G1 X19.439 Y14.499 Z-9.000
G1 X18.798 Y14.713 Z-9.000
G1 X18.184 Y14.982 Z-9.000
G1 X17.601 Y15.302 Z-9.000
G1 X17.051 Y15.671 Z-9.000
G1 X16.538 Y16.085 Z-9.000
G1 X16.063 Y16.542 Z-9.000
G1 X16.063 Y16.542 Z-10.000 F635.0
G1 X15.630 Y17.039 Z-10.000 F180.0
G1 X15.242 Y17.574 Z-10.000
G1 X14.900 Y18.143 Z-10.000
G1 X14.609 Y18.744 Z-10.000
G1 X14.371 Y19.374 Z-10.000
G1 X14.190 Y20.030 Z-10.000
G1 X14.050 Y20.807 Z-10.000
G1 X14.241 Y33.405 Z-10.000
G1 X20.539 Y104.208 Z-10.000
G1 X21.528 Y115.318 Z-10.000
G1 X20.941 Y120.129 Z-10.000
G1 X14.000 Y177.076 Z-10.000
G1 X14.000 Y181.500 Z-10.000
G1 X14.003 Y181.761 Z-10.000
G1 X14.011 Y182.025 Z-10.000
G1 X14.026 Y182.292 Z-10.000
G1 X14.047 Y182.561 Z-10.000
G1 X14.074 Y182.833 Z-10.000
G1 X14.108 Y183.107 Z-10.000
G1 X14.149 Y183.384 Z-10.000
G1 X14.196 Y183.662 Z-10.000
G1 X14.251 Y183.942 Z-10.000
G1 X14.313 Y184.223 Z-10.000
G1 X14.382 Y184.505 Z-10.000
G1 X14.459 Y184.789 Z-10.000
G1 X14.544 Y185.073 Z-10.000
G1 X14.637 Y185.357 Z-10.000
G1 X14.737 Y185.642 Z-10.000
G1 X14.846 Y185.926 Z-10.000
G1 X14.963 Y186.210 Z-10.000
G1 X15.088 Y186.493 Z-10.000
G1 X15.221 Y186.774 Z-10.000
G1 X15.363 Y187.055 Z-10.000
G1 X15.513 Y187.333 Z-10.000
G1 X15.671 Y187.609 Z-10.000
G1 X15.838 Y187.883 Z-10.000
G1 X16.013 Y188.153 Z-10.000
G1 X16.196 Y188.420 Z-10.000
G1 X16.388 Y188.684 Z-10.000
G1 X16.587 Y188.944 Z-10.000
G1 X16.795 Y189.199 Z-10.000
G1 X17.010 Y189.449 Z-10.000
G1 X17.234 Y189.695 Z-10.000
G1 X17.464 Y189.935 Z-10.000
G1 X17.702 Y190.169 Z-10.000
G1 X17.947 Y190.397 Z-10.000
G1 X18.199 Y190.619 Z-10.000
G1 X18.458 Y190.834 Z-10.000
G1 X18.723 Y191.042 Z-10.000
G1 X18.994 Y191.242 Z-10.000
G1 X19.270 Y191.436 Z-10.000
G1 X19.552 Y191.621 Z-10.000
G1 X19.840 Y191.798 Z-10.000
G1 X20.132 Y191.967 Z-10.000
G1 X20.428 Y192.128 Z-10.000
G1 X20.728 Y192.280 Z-10.000
G1 X21.033 Y192.424 Z-10.000
G1 X21.340 Y192.558 Z-10.000
G1 X21.650 Y192.684 Z-10.000
G1 X21.963 Y192.801 Z-10.000
G1 X22.278 Y192.908 Z-10.000
G1 X22.595 Y193.007 Z-10.000
G1 X22.913 Y193.096 Z-10.000
G1 X23.232 Y193.177 Z-10.000
G1 X23.552 Y193.248 Z-10.000
G1 X23.871 Y193.310 Z-10.000
G1 X24.191 Y193.363 Z-10.000
G1 X24.510 Y193.407 Z-10.000
G1 X24.829 Y193.443 Z-10.000
G1 X25.146 Y193.470 Z-10.000
G1 X25.462 Y193.488 Z-10.000
G1 X25.775 Y193.498 Z-10.000
G1 X26.087 Y193.500 Z-10.000
G1 X26.396 Y193.494 Z-10.000
G1 X26.703 Y193.480 Z-10.000
G1 X27.006 Y193.458 Z-10.000
G1 X27.307 Y193.429 Z-10.000
G1 X27.604 Y193.393 Z-10.000
G1 X27.897 Y193.349 Z-10.000
G1 X28.186 Y193.299 Z-10.000
G1 X28.472 Y193.243 Z-10.000
G1 X28.753 Y193.180 Z-10.000
G1 X29.029 Y193.112 Z-10.000
G1 X29.302 Y193.037 Z-10.000
G1 X29.569 Y192.957 Z-10.000
G1 X29.832 Y192.872 Z-10.000
G1 X30.090 Y192.782 Z-10.000
G1 X30.343 Y192.687 Z-10.000
G1 X30.591 Y192.587 Z-10.000
G1 X30.834 Y192.484 Z-10.000
G1 X31.071 Y192.376 Z-10.000
G1 X67.344 Y175.462 Z-10.000
G1 X74.572 Y172.091 Z-10.000
G1 X74.902 Y171.941 Z-10.000
G1 X75.236 Y171.798 Z-10.000
G1 X75.574 Y171.661 Z-10.000
G1 X75.915 Y171.530 Z-10.000
G1 X76.259 Y171.406 Z-10.000
G1 X76.606 Y171.289 Z-10.000
G1 X76.956 Y171.180 Z-10.000
G1 X77.308 Y171.077 Z-10.000
G1 X77.662 Y170.981 Z-10.000
G1 X78.018 Y170.892 Z-10.000
G1 X78.376 Y170.811 Z-10.000
G1 X78.736 Y170.737 Z-10.000
G1 X79.097 Y170.671 Z-10.000
G1 X79.459 Y170.612 Z-10.000
G1 X79.822 Y170.560 Z-10.000
G1 X80.186 Y170.516 Z-10.000
G1 X80.550 Y170.479 Z-10.000
G1 X80.915 Y170.449 Z-10.000
G1 X81.279 Y170.428 Z-10.000
G1 X81.643 Y170.413 Z-10.000
G1 X82.007 Y170.406 Z-10.000
G1 X82.370 Y170.406 Z-10.000
G1 X82.738 Y170.414 Z-10.000
G1 X83.107 Y170.429 Z-10.000
G1 X83.475 Y170.452 Z-10.000
G1 X83.843 Y170.482 Z-10.000
G1 X84.210 Y170.520 Z-10.000
G1 X84.576 Y170.565 Z-10.000
G1 X84.941 Y170.618 Z-10.000
G1 X85.304 Y170.678 Z-10.000
G1 X123.537 Y177.420 Z-10.000
G1 X123.779 Y177.426 Z-10.000
G1 X124.398 Y177.398 Z-10.000
G1 X125.025 Y177.312 Z-10.000
G1 X125.634 Y177.172 Z-10.000
G1 X126.223 Y176.979 Z-10.000
G1 X126.787 Y176.738 Z-10.000
G1 X127.325 Y176.450 Z-10.000
G1 X127.832 Y176.119 Z-10.000
G1 X128.308 Y175.746 Z-10.000
G1 X128.749 Y175.334 Z-10.000
G1 X129.153 Y174.885 Z-10.000
G1 X129.519 Y174.402 Z-10.000
G1 X129.842 Y173.887 Z-10.000
G1 X130.121 Y173.343 Z-10.000
G1 X130.352 Y172.771 Z-10.000
G1 X130.534 Y172.175 Z-10.000
G1 X130.687 Y171.444 Z-10.000
G1 X130.682 Y167.663 Z-10.000
G1 X130.660 Y160.033 Z-10.000
G1 X125.541 Y101.521 Z-10.000
G1 X125.651 Y99.421 Z-10.000
G1 X126.492 Y83.443 Z-10.000
G1 X128.952 Y36.657 Z-10.000
G1 X128.675 Y29.311 Z-10.000
G1 X128.679 Y28.782 Z-10.000
G1 X128.668 Y28.190 Z-10.000
G1 X128.639 Y27.610 Z-10.000
G1 X128.593 Y27.041 Z-10.000
G1 X128.529 Y26.483 Z-10.000
G1 X128.446 Y25.936 Z-10.000
G1 X128.344 Y25.400 Z-10.000
G1 X128.222 Y24.877 Z-10.000
G1 X128.079 Y24.365 Z-10.000
G1 X127.914 Y23.865 Z-10.000
G1 X127.728 Y23.379 Z-10.000
G1 X127.518 Y22.906 Z-10.000
G1 X127.284 Y22.449 Z-10.000
G1 X127.026 Y22.007 Z-10.000
G1 X126.742 Y21.582 Z-10.000
G1 X126.436 Y21.179 Z-10.000
G1 X126.142 Y20.838 Z-10.000
G1 X125.837 Y20.521 Z-10.000
G1 X125.521 Y20.226 Z-10.000
G1 X125.194 Y19.953 Z-10.000
G1 X124.859 Y19.701 Z-10.000
G1 X124.498 Y19.457 Z-10.000
G1 X123.822 Y19.067 Z-10.000
G1 X123.112 Y18.739 Z-10.000
G1 X122.399 Y18.482 Z-10.000
G1 X121.692 Y18.288 Z-10.000
G1 X120.995 Y18.152 Z-10.000
G1 X120.315 Y18.071 Z-10.000
G1 X119.655 Y18.041 Z-10.000
G1 X119.019 Y18.058 Z-10.000
G1 X118.407 Y18.123 Z-10.000
G1 X117.818 Y18.238 Z-10.000
G1 X117.245 Y18.412 Z-10.000
G1 X116.834 Y18.597 Z-10.000
G1 X116.652 Y18.691 Z-10.000
G1 X69.917 Y28.097 Z-10.000
G1 X69.557 Y28.165 Z-10.000
G1 X69.195 Y28.227 Z-10.000
G1 X68.831 Y28.281 Z-10.000
G1 X68.467 Y28.327 Z-10.000
G1 X68.101 Y28.367 Z-10.000
G1 X67.735 Y28.398 Z-10.000
G1 X67.369 Y28.422 Z-10.000
G1 X67.002 Y28.439 Z-10.000
G1 X66.635 Y28.448 Z-10.000
G1 X66.273 Y28.450 Z-10.000
G1 X65.910 Y28.445 Z-10.000
G1 X65.547 Y28.432 Z-10.000
G1 X65.184 Y28.411 Z-10.000
G1 X64.820 Y28.384 Z-10.000
G1 X64.458 Y28.349 Z-10.000
G1 X64.095 Y28.307 Z-10.000
G1 X63.734 Y28.257 Z-10.000
G1 X63.373 Y28.200 Z-10.000
G1 X63.014 Y28.135 Z-10.000
G1 X62.656 Y28.064 Z-10.000
G1 X62.300 Y27.985 Z-10.000
G1 X61.946 Y27.899 Z-10.000
G1 X61.594 Y27.806 Z-10.000
G1 X61.244 Y27.706 Z-10.000
G1 X60.896 Y27.599 Z-10.000
G1 X60.552 Y27.485 Z-10.000
G1 X60.210 Y27.365 Z-10.000
G1 X60.195 Y27.359 Z-10.000
G1 X51.293 Y24.201 Z-10.000
G1 X22.990 Y14.160 Z-10.000
G1 X21.748 Y14.213 Z-10.000
G1 X21.434 Y14.216 Z-10.000
G1 X20.790 Y14.246 Z-10.000
G1 X20.104 Y14.342 Z-10.000
G1 X19.439 Y14.499 Z-10.000
G1 X18.798 Y14.713 Z-10.000
G1 X18.184 Y14.982 Z-10.000
G1 X17.601 Y15.302 Z-10.000
G1 X17.051 Y15.671 Z-10.000
G1 X16.538 Y16.085 Z-10.000
G1 X16.063 Y16.542 Z-10.000
G1 X16.063 Y16.542 Z-11.000 F635.0
G1 X15.630 Y17.039 Z-11.000 F180.0
G1 X15.242 Y17.574 Z-11.000
G1 X14.900 Y18.143 Z-11.000
G1 X14.609 Y18.744 Z-11.000
G1 X14.371 Y19.374 Z-11.000
G1 X14.190 Y20.030 Z-11.000
G1 X14.050 Y20.807 Z-11.000
G1 X14.241 Y33.405 Z-11.000
G1 X20.539 Y104.208 Z-11.000
G1 X20.539 Y104.208 Z-10.500
G1 X21.528 Y115.318 Z-10.500
G1 X20.941 Y120.129 Z-10.500
G1 X20.941 Y120.129 Z-11.000 F635.0
G1 X14.000 Y177.076 Z-11.000 F180.0
G1 X14.000 Y181.500 Z-11.000
G1 X14.003 Y181.761 Z-11.000
G1 X14.011 Y182.025 Z-11.000
G1 X14.026 Y182.292 Z-11.000
G1 X14.047 Y182.561 Z-11.000
G1 X14.074 Y182.833 Z-11.000
G1 X14.108 Y183.107 Z-11.000
G1 X14.149 Y183.384 Z-11.000
G1 X14.196 Y183.662 Z-11.000
G1 X14.251 Y183.942 Z-11.000
G1 X14.313 Y184.223 Z-11.000
G1 X14.382 Y184.505 Z-11.000
G1 X14.459 Y184.789 Z-11.000
G1 X14.544 Y185.073 Z-11.000
G1 X14.637 Y185.357 Z-11.000
G1 X14.737 Y185.642 Z-11.000
G1 X14.846 Y185.926 Z-11.000
G1 X14.963 Y186.210 Z-11.000
G1 X15.088 Y186.493 Z-11.000
G1 X15.221 Y186.774 Z-11.000
G1 X15.363 Y187.055 Z-11.000
G1 X15.513 Y187.333 Z-11.000
G1 X15.671 Y187.609 Z-11.000
G1 X15.838 Y187.883 Z-11.000
G1 X16.013 Y188.153 Z-11.000
G1 X16.196 Y188.420 Z-11.000
G1 X16.388 Y188.684 Z-11.000
G1 X16.587 Y188.944 Z-11.000
G1 X16.795 Y189.199 Z-11.000
G1 X17.010 Y189.449 Z-11.000
G1 X17.234 Y189.695 Z-11.000
G1 X17.464 Y189.935 Z-11.000
G1 X17.702 Y190.169 Z-11.000
G1 X17.947 Y190.397 Z-11.000
G1 X18.199 Y190.619 Z-11.000
G1 X18.458 Y190.834 Z-11.000
G1 X18.723 Y191.042 Z-11.000
G1 X18.994 Y191.242 Z-11.000
G1 X19.270 Y191.436 Z-11.000
G1 X19.552 Y191.621 Z-11.000
G1 X19.840 Y191.798 Z-11.000
G1 X20.132 Y191.967 Z-11.000
G1 X20.428 Y192.128 Z-11.000
G1 X20.728 Y192.280 Z-11.000
G1 X21.033 Y192.424 Z-11.000
G1 X21.340 Y192.558 Z-11.000
G1 X21.650 Y192.684 Z-11.000
G1 X21.963 Y192.801 Z-11.000
G1 X22.278 Y192.908 Z-11.000
G1 X22.595 Y193.007 Z-11.000
G1 X22.913 Y193.096 Z-11.000
G1 X23.232 Y193.177 Z-11.000
G1 X23.552 Y193.248 Z-11.000
G1 X23.871 Y193.310 Z-11.000
G1 X24.191 Y193.363 Z-11.000
G1 X24.510 Y193.407 Z-11.000
G1 X24.829 Y193.443 Z-11.000
G1 X25.146 Y193.470 Z-11.000
G1 X25.462 Y193.488 Z-11.000
G1 X25.775 Y193.498 Z-11.000
G1 X26.087 Y193.500 Z-11.000
G1 X26.396 Y193.494 Z-11.000
G1 X26.703 Y193.480 Z-11.000
G1 X27.006 Y193.458 Z-11.000
G1 X27.307 Y193.429 Z-11.000
G1 X27.604 Y193.393 Z-11.000
G1 X27.897 Y193.349 Z-11.000
G1 X28.186 Y193.299 Z-11.000
G1 X28.472 Y193.243 Z-11.000
G1 X28.753 Y193.180 Z-11.000
G1 X29.029 Y193.112 Z-11.000
G1 X29.302 Y193.037 Z-11.000
G1 X29.569 Y192.957 Z-11.000
G1 X29.832 Y192.872 Z-11.000
G1 X30.090 Y192.782 Z-11.000
G1 X30.343 Y192.687 Z-11.000
G1 X30.591 Y192.587 Z-11.000
G1 X30.834 Y192.484 Z-11.000
G1 X31.071 Y192.376 Z-11.000
G1 X67.344 Y175.462 Z-11.000
G1 X67.344 Y175.462 Z-10.500
G1 X74.572 Y172.091 Z-10.500
G1 X74.902 Y171.941 Z-10.500
G1 X75.236 Y171.798 Z-10.500
G1 X75.574 Y171.661 Z-10.500
G1 X75.915 Y171.530 Z-10.500
G1 X76.259 Y171.406 Z-10.500
G1 X76.606 Y171.289 Z-10.500
G1 X76.956 Y171.180 Z-10.500
G1 X77.308 Y171.077 Z-10.500
G1 X77.662 Y170.981 Z-10.500
G1 X78.018 Y170.892 Z-10.500
G1 X78.376 Y170.811 Z-10.500
G1 X78.736 Y170.737 Z-10.500
G1 X79.097 Y170.671 Z-10.500
G1 X79.459 Y170.612 Z-10.500
G1 X79.822 Y170.560 Z-10.500
G1 X80.186 Y170.516 Z-10.500
G1 X80.550 Y170.479 Z-10.500
G1 X80.915 Y170.449 Z-10.500
G1 X81.279 Y170.428 Z-10.500
G1 X81.643 Y170.413 Z-10.500
G1 X82.007 Y170.406 Z-10.500
G1 X82.370 Y170.406 Z-10.500
G1 X82.370 Y170.406 Z-11.000 F635.0
G1 X82.738 Y170.414 Z-11.000 F180.0
G1 X83.107 Y170.429 Z-11.000
G1 X83.475 Y170.452 Z-11.000
G1 X83.843 Y170.482 Z-11.000
G1 X84.210 Y170.520 Z-11.000
G1 X84.576 Y170.565 Z-11.000
G1 X84.941 Y170.618 Z-11.000
G1 X85.304 Y170.678 Z-11.000
G1 X123.537 Y177.420 Z-11.000
G1 X123.779 Y177.426 Z-11.000
G1 X124.398 Y177.398 Z-11.000
G1 X125.025 Y177.312 Z-11.000
G1 X125.634 Y177.172 Z-11.000
G1 X126.223 Y176.979 Z-11.000
G1 X126.787 Y176.738 Z-11.000
G1 X127.325 Y176.450 Z-11.000
G1 X127.832 Y176.119 Z-11.000
G1 X128.308 Y175.746 Z-11.000
G1 X128.749 Y175.334 Z-11.000
G1 X129.153 Y174.885 Z-11.000
G1 X129.519 Y174.402 Z-11.000
G1 X129.842 Y173.887 Z-11.000
G1 X130.121 Y173.343 Z-11.000
G1 X130.352 Y172.771 Z-11.000
G1 X130.534 Y172.175 Z-11.000
G1 X130.687 Y171.444 Z-11.000
G1 X130.682 Y167.663 Z-11.000
G1 X130.660 Y160.033 Z-11.000
G1 X125.541 Y101.521 Z-11.000
G1 X125.651 Y99.421 Z-11.000
G1 X125.651 Y99.421 Z-10.500
G1 X126.492 Y83.443 Z-10.500
G1 X126.492 Y83.443 Z-11.000 F635.0
G1 X128.952 Y36.657 Z-11.000 F180.0
G1 X128.675 Y29.311 Z-11.000
G1 X128.679 Y28.782 Z-11.000
G1 X128.668 Y28.190 Z-11.000
G1 X128.639 Y27.610 Z-11.000
G1 X128.593 Y27.041 Z-11.000
G1 X128.529 Y26.483 Z-11.000
G1 X128.446 Y25.936 Z-11.000
G1 X128.344 Y25.400 Z-11.000
G1 X128.222 Y24.877 Z-11.000
G1 X128.079 Y24.365 Z-11.000
G1 X127.914 Y23.865 Z-11.000
G1 X127.728 Y23.379 Z-11.000
G1 X127.518 Y22.906 Z-11.000
G1 X127.284 Y22.449 Z-11.000
G1 X127.026 Y22.007 Z-11.000
G1 X126.742 Y21.582 Z-11.000
G1 X126.436 Y21.179 Z-11.000
G1 X126.142 Y20.838 Z-11.000
G1 X125.837 Y20.521 Z-11.000
G1 X125.521 Y20.226 Z-11.000
G1 X125.194 Y19.953 Z-11.000
G1 X124.859 Y19.701 Z-11.000
G1 X124.498 Y19.457 Z-11.000
G1 X123.822 Y19.067 Z-11.000
G1 X123.112 Y18.739 Z-11.000
G1 X122.399 Y18.482 Z-11.000
G1 X121.692 Y18.288 Z-11.000
G1 X120.995 Y18.152 Z-11.000
G1 X120.315 Y18.071 Z-11.000
G1 X119.655 Y18.041 Z-11.000
G1 X119.019 Y18.058 Z-11.000
G1 X118.407 Y18.123 Z-11.000
G1 X117.818 Y18.238 Z-11.000
G1 X117.245 Y18.412 Z-11.000
G1 X116.834 Y18.597 Z-11.000
G1 X116.652 Y18.691 Z-11.000
G1 X69.917 Y28.097 Z-11.000
G1 X69.557 Y28.165 Z-11.000
G1 X69.195 Y28.227 Z-11.000
G1 X68.831 Y28.281 Z-11.000
G1 X68.467 Y28.327 Z-11.000
G1 X68.101 Y28.367 Z-11.000
G1 X67.735 Y28.398 Z-11.000
G1 X67.369 Y28.422 Z-11.000
G1 X67.002 Y28.439 Z-11.000
G1 X66.635 Y28.448 Z-11.000
G1 X66.635 Y28.448 Z-10.500
G1 X66.273 Y28.450 Z-10.500
G1 X65.910 Y28.445 Z-10.500
G1 X65.547 Y28.432 Z-10.500
G1 X65.184 Y28.411 Z-10.500
G1 X64.820 Y28.384 Z-10.500
G1 X64.458 Y28.349 Z-10.500
G1 X64.095 Y28.307 Z-10.500
G1 X63.734 Y28.257 Z-10.500
G1 X63.373 Y28.200 Z-10.500
G1 X63.014 Y28.135 Z-10.500
G1 X62.656 Y28.064 Z-10.500
G1 X62.300 Y27.985 Z-10.500
G1 X61.946 Y27.899 Z-10.500
G1 X61.594 Y27.806 Z-10.500
G1 X61.244 Y27.706 Z-10.500
G1 X60.896 Y27.599 Z-10.500
G1 X60.552 Y27.485 Z-10.500
G1 X60.210 Y27.365 Z-10.500
G1 X60.195 Y27.359 Z-10.500
G1 X51.293 Y24.201 Z-10.500
G1 X51.293 Y24.201 Z-11.000 F635.0
G1 X22.990 Y14.160 Z-11.000 F180.0
G1 X21.748 Y14.213 Z-11.000
G1 X21.434 Y14.216 Z-11.000
G1 X20.790 Y14.246 Z-11.000
G1 X20.104 Y14.342 Z-11.000
G1 X19.439 Y14.499 Z-11.000
G1 X18.798 Y14.713 Z-11.000
G1 X18.184 Y14.982 Z-11.000
G1 X17.601 Y15.302 Z-11.000
G1 X17.051 Y15.671 Z-11.000
G1 X16.538 Y16.085 Z-11.000
G1 X16.063 Y16.542 Z-11.000
G1 X16.063 Y16.542 Z-12.000 F635.0
G1 X15.630 Y17.039 Z-12.000 F180.0
G1 X15.242 Y17.574 Z-12.000
G1 X14.900 Y18.143 Z-12.000
G1 X14.609 Y18.744 Z-12.000
G1 X14.371 Y19.374 Z-12.000
G1 X14.190 Y20.030 Z-12.000
G1 X14.050 Y20.807 Z-12.000
G1 X14.241 Y33.405 Z-12.000
G1 X20.539 Y104.208 Z-12.000
G1 X20.539 Y104.208 Z-10.500
G1 X21.528 Y115.318 Z-10.500
G1 X20.941 Y120.129 Z-10.500
G1 X20.941 Y120.129 Z-12.000 F635.0
G1 X14.000 Y177.076 Z-12.000 F180.0
G1 X14.000 Y181.500 Z-12.000
G1 X14.003 Y181.761 Z-12.000
G1 X14.011 Y182.025 Z-12.000
G1 X14.026 Y182.292 Z-12.000
G1 X14.047 Y182.561 Z-12.000
G1 X14.074 Y182.833 Z-12.000
G1 X14.108 Y183.107 Z-12.000
G1 X14.149 Y183.384 Z-12.000
G1 X14.196 Y183.662 Z-12.000
G1 X14.251 Y183.942 Z-12.000
G1 X14.313 Y184.223 Z-12.000
G1 X14.382 Y184.505 Z-12.000
G1 X14.459 Y184.789 Z-12.000
G1 X14.544 Y185.073 Z-12.000
G1 X14.637 Y185.357 Z-12.000
G1 X14.737 Y185.642 Z-12.000
G1 X14.846 Y185.926 Z-12.000
G1 X14.963 Y186.210 Z-12.000
G1 X15.088 Y186.493 Z-12.000
G1 X15.221 Y186.774 Z-12.000
G1 X15.363 Y187.055 Z-12.000
G1 X15.513 Y187.333 Z-12.000
G1 X15.671 Y187.609 Z-12.000
G1 X15.838 Y187.883 Z-12.000
G1 X16.013 Y188.153 Z-12.000
G1 X16.196 Y188.420 Z-12.000
G1 X16.388 Y188.684 Z-12.000
G1 X16.587 Y188.944 Z-12.000
G1 X16.795 Y189.199 Z-12.000
G1 X17.010 Y189.449 Z-12.000
G1 X17.234 Y189.695 Z-12.000
G1 X17.464 Y189.935 Z-12.000
G1 X17.702 Y190.169 Z-12.000
G1 X17.947 Y190.397 Z-12.000
G1 X18.199 Y190.619 Z-12.000
G1 X18.458 Y190.834 Z-12.000
G1 X18.723 Y191.042 Z-12.000
G1 X18.994 Y191.242 Z-12.000
G1 X19.270 Y191.436 Z-12.000
G1 X19.552 Y191.621 Z-12.000
G1 X19.840 Y191.798 Z-12.000
G1 X20.132 Y191.967 Z-12.000
G1 X20.428 Y192.128 Z-12.000
G1 X20.728 Y192.280 Z-12.000
G1 X21.033 Y192.424 Z-12.000
G1 X21.340 Y192.558 Z-12.000
G1 X21.650 Y192.684 Z-12.000
G1 X21.963 Y192.801 Z-12.000
G1 X22.278 Y192.908 Z-12.000
G1 X22.595 Y193.007 Z-12.000
G1 X22.913 Y193.096 Z-12.000
G1 X23.232 Y193.177 Z-12.000
G1 X23.552 Y193.248 Z-12.000
G1 X23.871 Y193.310 Z-12.000
G1 X24.191 Y193.363 Z-12.000
G1 X24.510 Y193.407 Z-12.000
G1 X24.829 Y193.443 Z-12.000
G1 X25.146 Y193.470 Z-12.000
G1 X25.462 Y193.488 Z-12.000
G1 X25.775 Y193.498 Z-12.000
G1 X26.087 Y193.500 Z-12.000
G1 X26.396 Y193.494 Z-12.000
G1 X26.703 Y193.480 Z-12.000
G1 X27.006 Y193.458 Z-12.000
G1 X27.307 Y193.429 Z-12.000
G1 X27.604 Y193.393 Z-12.000
G1 X27.897 Y193.349 Z-12.000
G1 X28.186 Y193.299 Z-12.000
G1 X28.472 Y193.243 Z-12.000
G1 X28.753 Y193.180 Z-12.000
G1 X29.029 Y193.112 Z-12.000
G1 X29.302 Y193.037 Z-12.000
G1 X29.569 Y192.957 Z-12.000
G1 X29.832 Y192.872 Z-12.000
G1 X30.090 Y192.782 Z-12.000
G1 X30.343 Y192.687 Z-12.000
G1 X30.591 Y192.587 Z-12.000
G1 X30.834 Y192.484 Z-12.000
G1 X31.071 Y192.376 Z-12.000
G1 X67.344 Y175.462 Z-12.000
G1 X67.344 Y175.462 Z-10.500
G1 X74.572 Y172.091 Z-10.500
G1 X74.902 Y171.941 Z-10.500
G1 X75.236 Y171.798 Z-10.500
G1 X75.574 Y171.661 Z-10.500
G1 X75.915 Y171.530 Z-10.500
G1 X76.259 Y171.406 Z-10.500
G1 X76.606 Y171.289 Z-10.500
G1 X76.956 Y171.180 Z-10.500
G1 X77.308 Y171.077 Z-10.500
G1 X77.662 Y170.981 Z-10.500
G1 X78.018 Y170.892 Z-10.500
G1 X78.376 Y170.811 Z-10.500
G1 X78.736 Y170.737 Z-10.500
G1 X79.097 Y170.671 Z-10.500
G1 X79.459 Y170.612 Z-10.500
G1 X79.822 Y170.560 Z-10.500
G1 X80.186 Y170.516 Z-10.500
G1 X80.550 Y170.479 Z-10.500
G1 X80.915 Y170.449 Z-10.500
G1 X81.279 Y170.428 Z-10.500
G1 X81.643 Y170.413 Z-10.500
G1 X82.007 Y170.406 Z-10.500
G1 X82.370 Y170.406 Z-10.500
G1 X82.370 Y170.406 Z-12.000 F635.0
G1 X82.738 Y170.414 Z-12.000 F180.0
G1 X83.107 Y170.429 Z-12.000
G1 X83.475 Y170.452 Z-12.000
G1 X83.843 Y170.482 Z-12.000
G1 X84.210 Y170.520 Z-12.000
G1 X84.576 Y170.565 Z-12.000
G1 X84.941 Y170.618 Z-12.000
G1 X85.304 Y170.678 Z-12.000
G1 X123.537 Y177.420 Z-12.000
G1 X123.779 Y177.426 Z-12.000
G1 X124.398 Y177.398 Z-12.000
G1 X125.025 Y177.312 Z-12.000
G1 X125.634 Y177.172 Z-12.000
G1 X126.223 Y176.979 Z-12.000
G1 X126.787 Y176.738 Z-12.000
G1 X127.325 Y176.450 Z-12.000
G1 X127.832 Y176.119 Z-12.000
G1 X128.308 Y175.746 Z-12.000
G1 X128.749 Y175.334 Z-12.000
G1 X129.153 Y174.885 Z-12.000
G1 X129.519 Y174.402 Z-12.000
G1 X129.842 Y173.887 Z-12.000
G1 X130.121 Y173.343 Z-12.000
G1 X130.352 Y172.771 Z-12.000
G1 X130.534 Y172.175 Z-12.000
G1 X130.687 Y171.444 Z-12.000
G1 X130.682 Y167.663 Z-12.000
G1 X130.660 Y160.033 Z-12.000
G1 X125.541 Y101.521 Z-12.000
G1 X125.651 Y99.421 Z-12.000
G1 X125.651 Y99.421 Z-10.500
G1 X126.492 Y83.443 Z-10.500
G1 X126.492 Y83.443 Z-12.000 F635.0
G1 X128.952 Y36.657 Z-12.000 F180.0
G1 X128.675 Y29.311 Z-12.000
G1 X128.679 Y28.782 Z-12.000
G1 X128.668 Y28.190 Z-12.000
G1 X128.639 Y27.610 Z-12.000
G1 X128.593 Y27.041 Z-12.000
G1 X128.529 Y26.483 Z-12.000
G1 X128.446 Y25.936 Z-12.000
G1 X128.344 Y25.400 Z-12.000
G1 X128.222 Y24.877 Z-12.000
G1 X128.079 Y24.365 Z-12.000
G1 X127.914 Y23.865 Z-12.000
G1 X127.728 Y23.379 Z-12.000
G1 X127.518 Y22.906 Z-12.000
G1 X127.284 Y22.449 Z-12.000
G1 X127.026 Y22.007 Z-12.000
G1 X126.742 Y21.582 Z-12.000
G1 X126.436 Y21.179 Z-12.000
G1 X126.142 Y20.838 Z-12.000
G1 X125.837 Y20.521 Z-12.000
G1 X125.521 Y20.226 Z-12.000
G1 X125.194 Y19.953 Z-12.000
G1 X124.859 Y19.701 Z-12.000
G1 X124.498 Y19.457 Z-12.000
G1 X123.822 Y19.067 Z-12.000
G1 X123.112 Y18.739 Z-12.000
G1 X122.399 Y18.482 Z-12.000
G1 X121.692 Y18.288 Z-12.000
G1 X120.995 Y18.152 Z-12.000
G1 X120.315 Y18.071 Z-12.000
G1 X119.655 Y18.041 Z-12.000
G1 X119.019 Y18.058 Z-12.000
G1 X118.407 Y18.123 Z-12.000
G1 X117.818 Y18.238 Z-12.000
G1 X117.245 Y18.412 Z-12.000
G1 X116.834 Y18.597 Z-12.000
G1 X116.652 Y18.691 Z-12.000
G1 X69.917 Y28.097 Z-12.000
G1 X69.557 Y28.165 Z-12.000
G1 X69.195 Y28.227 Z-12.000
G1 X68.831 Y28.281 Z-12.000
G1 X68.467 Y28.327 Z-12.000
G1 X68.101 Y28.367 Z-12.000
G1 X67.735 Y28.398 Z-12.000
G1 X67.369 Y28.422 Z-12.000
G1 X67.002 Y28.439 Z-12.000
G1 X66.635 Y28.448 Z-12.000
G1 X66.635 Y28.448 Z-10.500
G1 X66.273 Y28.450 Z-10.500
G1 X65.910 Y28.445 Z-10.500
G1 X65.547 Y28.432 Z-10.500
G1 X65.184 Y28.411 Z-10.500
G1 X64.820 Y28.384 Z-10.500
G1 X64.458 Y28.349 Z-10.500
G1 X64.095 Y28.307 Z-10.500
G1 X63.734 Y28.257 Z-10.500
G1 X63.373 Y28.200 Z-10.500
G1 X63.014 Y28.135 Z-10.500
G1 X62.656 Y28.064 Z-10.500
G1 X62.300 Y27.985 Z-10.500
G1 X61.946 Y27.899 Z-10.500
G1 X61.594 Y27.806 Z-10.500
G1 X61.244 Y27.706 Z-10.500
G1 X60.896 Y27.599 Z-10.500
G1 X60.552 Y27.485 Z-10.500
G1 X60.210 Y27.365 Z-10.500
G1 X60.195 Y27.359 Z-10.500
G1 X51.293 Y24.201 Z-10.500
G1 X51.293 Y24.201 Z-12.000 F635.0
G1 X22.990 Y14.160 Z-12.000 F180.0
G1 X21.748 Y14.213 Z-12.000
G1 X21.434 Y14.216 Z-12.000
G1 X20.790 Y14.246 Z-12.000
G1 X20.104 Y14.342 Z-12.000
G1 X19.439 Y14.499 Z-12.000
G1 X18.798 Y14.713 Z-12.000
G1 X18.184 Y14.982 Z-12.000
G1 X17.601 Y15.302 Z-12.000
G1 X17.051 Y15.671 Z-12.000
G1 X16.538 Y16.085 Z-12.000
G1 X16.063 Y16.542 Z-12.000
G0 X16.063 Y16.542
G0 Z6.000
M9 (Khlung aus)
M5 (Spindel aus)
G0 Z20.000
G28
M30 (Programmende)
