(VECTRIC POST REVISION)
(AE8C5706166A14C0DE23454C54EBD95B)
%
G21
G40
G94
G97
G64
G90
T3 M6
M8
M3 S17000
G0 X151.255 Y90.781
G0 Z6.000
G1 X151.255 Y90.781 Z-0.750 F254.0
G1 X151.251 Y90.837 Z-0.750 F177.8
G1 X151.237 Y90.896 Z-0.750
G1 X151.214 Y90.954 Z-0.750
G1 X151.182 Y91.009 Z-0.750
G1 X151.140 Y91.058 Z-0.750
G1 X151.090 Y91.100 Z-0.750
G1 X151.035 Y91.133 Z-0.750
G1 X150.978 Y91.156 Z-0.750
G1 X150.919 Y91.169 Z-0.750
G1 X150.862 Y91.173 Z-0.750
G1 X150.805 Y91.169 Z-0.750
G1 X150.747 Y91.156 Z-0.750
G1 X150.689 Y91.133 Z-0.750
G1 X150.634 Y91.100 Z-0.750
G1 X150.585 Y91.058 Z-0.750
G1 X150.543 Y91.009 Z-0.750
G1 X150.510 Y90.954 Z-0.750
G1 X150.487 Y90.896 Z-0.750
G1 X150.474 Y90.837 Z-0.750
G1 X150.470 Y90.781 Z-0.750
G1 X150.474 Y90.724 Z-0.750
G1 X150.487 Y90.665 Z-0.750
G1 X150.510 Y90.607 Z-0.750
G1 X150.543 Y90.553 Z-0.750
G1 X150.585 Y90.503 Z-0.750
G1 X150.634 Y90.461 Z-0.750
G1 X150.689 Y90.428 Z-0.750
G1 X150.747 Y90.405 Z-0.750
G1 X150.805 Y90.392 Z-0.750
G1 X150.862 Y90.388 Z-0.750
G1 X150.919 Y90.392 Z-0.750
G1 X150.978 Y90.405 Z-0.750
G1 X151.035 Y90.428 Z-0.750
G1 X151.090 Y90.461 Z-0.750
G1 X151.140 Y90.503 Z-0.750
G1 X151.182 Y90.553 Z-0.750
G1 X151.214 Y90.607 Z-0.750
G1 X151.237 Y90.665 Z-0.750
G1 X151.251 Y90.724 Z-0.750
G1 X151.255 Y90.781 Z-0.750
G1 X152.525 Y90.781 Z-0.750
G1 X152.507 Y91.022 Z-0.750
G1 X152.451 Y91.269 Z-0.750
G1 X152.354 Y91.514 Z-0.750
G1 X152.215 Y91.747 Z-0.750
G1 X152.038 Y91.956 Z-0.750
G1 X151.828 Y92.134 Z-0.750
G1 X151.596 Y92.272 Z-0.750
G1 X151.351 Y92.370 Z-0.750
G1 X151.103 Y92.426 Z-0.750
G1 X150.862 Y92.443 Z-0.750
G1 X150.621 Y92.426 Z-0.750
G1 X150.374 Y92.370 Z-0.750
G1 X150.129 Y92.272 Z-0.750
G1 X149.896 Y92.134 Z-0.750
G1 X149.687 Y91.956 Z-0.750
G1 X149.509 Y91.747 Z-0.750
G1 X149.370 Y91.514 Z-0.750
G1 X149.273 Y91.269 Z-0.750
G1 X149.217 Y91.022 Z-0.750
G1 X149.200 Y90.781 Z-0.750
G1 X149.217 Y90.540 Z-0.750
G1 X149.273 Y90.292 Z-0.750
G1 X149.370 Y90.047 Z-0.750
G1 X149.509 Y89.815 Z-0.750
G1 X149.687 Y89.605 Z-0.750
G1 X149.896 Y89.428 Z-0.750
G1 X150.129 Y89.289 Z-0.750
G1 X150.374 Y89.191 Z-0.750
G1 X150.621 Y89.136 Z-0.750
G1 X150.862 Y89.118 Z-0.750
G1 X151.103 Y89.136 Z-0.750
G1 X151.351 Y89.191 Z-0.750
G1 X151.596 Y89.289 Z-0.750
G1 X151.828 Y89.428 Z-0.750
G1 X152.038 Y89.605 Z-0.750
G1 X152.215 Y89.815 Z-0.750
G1 X152.354 Y90.047 Z-0.750
G1 X152.451 Y90.292 Z-0.750
G1 X152.507 Y90.540 Z-0.750
G1 X152.525 Y90.781 Z-0.750
G0 X152.525 Y90.781
G0 Z6.000
G0 X151.255 Y90.781
G0 Z6.000
G1 X151.255 Y90.781 Z-1.500 F254.0
G1 X151.251 Y90.837 Z-1.500 F177.8
G1 X151.237 Y90.896 Z-1.500
G1 X151.214 Y90.954 Z-1.500
G1 X151.182 Y91.009 Z-1.500
G1 X151.140 Y91.058 Z-1.500
G1 X151.090 Y91.100 Z-1.500
G1 X151.035 Y91.133 Z-1.500
G1 X150.978 Y91.156 Z-1.500
G1 X150.919 Y91.169 Z-1.500
G1 X150.862 Y91.173 Z-1.500
G1 X150.805 Y91.169 Z-1.500
G1 X150.747 Y91.156 Z-1.500
G1 X150.689 Y91.133 Z-1.500
G1 X150.634 Y91.100 Z-1.500
G1 X150.585 Y91.058 Z-1.500
G1 X150.543 Y91.009 Z-1.500
G1 X150.510 Y90.954 Z-1.500
G1 X150.487 Y90.896 Z-1.500
G1 X150.474 Y90.837 Z-1.500
G1 X150.470 Y90.781 Z-1.500
G1 X150.474 Y90.724 Z-1.500
G1 X150.487 Y90.665 Z-1.500
G1 X150.510 Y90.607 Z-1.500
G1 X150.543 Y90.553 Z-1.500
G1 X150.585 Y90.503 Z-1.500
G1 X150.634 Y90.461 Z-1.500
G1 X150.689 Y90.428 Z-1.500
G1 X150.747 Y90.405 Z-1.500
G1 X150.805 Y90.392 Z-1.500
G1 X150.862 Y90.388 Z-1.500
G1 X150.919 Y90.392 Z-1.500
G1 X150.978 Y90.405 Z-1.500
G1 X151.035 Y90.428 Z-1.500
G1 X151.090 Y90.461 Z-1.500
G1 X151.140 Y90.503 Z-1.500
G1 X151.182 Y90.553 Z-1.500
G1 X151.214 Y90.607 Z-1.500
G1 X151.237 Y90.665 Z-1.500
G1 X151.251 Y90.724 Z-1.500
G1 X151.255 Y90.781 Z-1.500
G1 X152.525 Y90.781 Z-1.500
G1 X152.507 Y91.022 Z-1.500
G1 X152.451 Y91.269 Z-1.500
G1 X152.354 Y91.514 Z-1.500
G1 X152.215 Y91.747 Z-1.500
G1 X152.038 Y91.956 Z-1.500
G1 X151.828 Y92.134 Z-1.500
G1 X151.596 Y92.272 Z-1.500
G1 X151.351 Y92.370 Z-1.500
G1 X151.103 Y92.426 Z-1.500
G1 X150.862 Y92.443 Z-1.500
G1 X150.621 Y92.426 Z-1.500
G1 X150.374 Y92.370 Z-1.500
G1 X150.129 Y92.272 Z-1.500
G1 X149.896 Y92.134 Z-1.500
G1 X149.687 Y91.956 Z-1.500
G1 X149.509 Y91.747 Z-1.500
G1 X149.370 Y91.514 Z-1.500
G1 X149.273 Y91.269 Z-1.500
G1 X149.217 Y91.022 Z-1.500
G1 X149.200 Y90.781 Z-1.500
G1 X149.217 Y90.540 Z-1.500
G1 X149.273 Y90.292 Z-1.500
G1 X149.370 Y90.047 Z-1.500
G1 X149.509 Y89.815 Z-1.500
G1 X149.687 Y89.605 Z-1.500
G1 X149.896 Y89.428 Z-1.500
G1 X150.129 Y89.289 Z-1.500
G1 X150.374 Y89.191 Z-1.500
G1 X150.621 Y89.136 Z-1.500
G1 X150.862 Y89.118 Z-1.500
G1 X151.103 Y89.136 Z-1.500
G1 X151.351 Y89.191 Z-1.500
G1 X151.596 Y89.289 Z-1.500
G1 X151.828 Y89.428 Z-1.500
G1 X152.038 Y89.605 Z-1.500
G1 X152.215 Y89.815 Z-1.500
G1 X152.354 Y90.047 Z-1.500
G1 X152.451 Y90.292 Z-1.500
G1 X152.507 Y90.540 Z-1.500
G1 X152.525 Y90.781 Z-1.500
G0 X152.525 Y90.781
G0 Z6.000
G0 X151.255 Y90.781
G0 Z6.000
G1 X151.255 Y90.781 Z-2.250 F254.0
G1 X151.251 Y90.837 Z-2.250 F177.8
G1 X151.237 Y90.896 Z-2.250
G1 X151.214 Y90.954 Z-2.250
G1 X151.182 Y91.009 Z-2.250
G1 X151.140 Y91.058 Z-2.250
G1 X151.090 Y91.100 Z-2.250
G1 X151.035 Y91.133 Z-2.250
G1 X150.978 Y91.156 Z-2.250
G1 X150.919 Y91.169 Z-2.250
G1 X150.862 Y91.173 Z-2.250
G1 X150.805 Y91.169 Z-2.250
G1 X150.747 Y91.156 Z-2.250
G1 X150.689 Y91.133 Z-2.250
G1 X150.634 Y91.100 Z-2.250
G1 X150.585 Y91.058 Z-2.250
G1 X150.543 Y91.009 Z-2.250
G1 X150.510 Y90.954 Z-2.250
G1 X150.487 Y90.896 Z-2.250
G1 X150.474 Y90.837 Z-2.250
G1 X150.470 Y90.781 Z-2.250
G1 X150.474 Y90.724 Z-2.250
G1 X150.487 Y90.665 Z-2.250
G1 X150.510 Y90.607 Z-2.250
G1 X150.543 Y90.553 Z-2.250
G1 X150.585 Y90.503 Z-2.250
G1 X150.634 Y90.461 Z-2.250
G1 X150.689 Y90.428 Z-2.250
G1 X150.747 Y90.405 Z-2.250
G1 X150.805 Y90.392 Z-2.250
G1 X150.862 Y90.388 Z-2.250
G1 X150.919 Y90.392 Z-2.250
G1 X150.978 Y90.405 Z-2.250
G1 X151.035 Y90.428 Z-2.250
G1 X151.090 Y90.461 Z-2.250
G1 X151.140 Y90.503 Z-2.250
G1 X151.182 Y90.553 Z-2.250
G1 X151.214 Y90.607 Z-2.250
G1 X151.237 Y90.665 Z-2.250
G1 X151.251 Y90.724 Z-2.250
G1 X151.255 Y90.781 Z-2.250
G1 X152.525 Y90.781 Z-2.250
G1 X152.507 Y91.022 Z-2.250
G1 X152.451 Y91.269 Z-2.250
G1 X152.354 Y91.514 Z-2.250
G1 X152.215 Y91.747 Z-2.250
G1 X152.038 Y91.956 Z-2.250
G1 X151.828 Y92.134 Z-2.250
G1 X151.596 Y92.272 Z-2.250
G1 X151.351 Y92.370 Z-2.250
G1 X151.103 Y92.426 Z-2.250
G1 X150.862 Y92.443 Z-2.250
G1 X150.621 Y92.426 Z-2.250
G1 X150.374 Y92.370 Z-2.250
G1 X150.129 Y92.272 Z-2.250
G1 X149.896 Y92.134 Z-2.250
G1 X149.687 Y91.956 Z-2.250
G1 X149.509 Y91.747 Z-2.250
G1 X149.370 Y91.514 Z-2.250
G1 X149.273 Y91.269 Z-2.250
G1 X149.217 Y91.022 Z-2.250
G1 X149.200 Y90.781 Z-2.250
G1 X149.217 Y90.540 Z-2.250
G1 X149.273 Y90.292 Z-2.250
G1 X149.370 Y90.047 Z-2.250
G1 X149.509 Y89.815 Z-2.250
G1 X149.687 Y89.605 Z-2.250
G1 X149.896 Y89.428 Z-2.250
G1 X150.129 Y89.289 Z-2.250
G1 X150.374 Y89.191 Z-2.250
G1 X150.621 Y89.136 Z-2.250
G1 X150.862 Y89.118 Z-2.250
G1 X151.103 Y89.136 Z-2.250
G1 X151.351 Y89.191 Z-2.250
G1 X151.596 Y89.289 Z-2.250
G1 X151.828 Y89.428 Z-2.250
G1 X152.038 Y89.605 Z-2.250
G1 X152.215 Y89.815 Z-2.250
G1 X152.354 Y90.047 Z-2.250
G1 X152.451 Y90.292 Z-2.250
G1 X152.507 Y90.540 Z-2.250
G1 X152.525 Y90.781 Z-2.250
G0 X152.525 Y90.781
G0 Z6.000
G0 X151.255 Y90.781
G0 Z6.000
G1 X151.255 Y90.781 Z-3.000 F254.0
G1 X151.251 Y90.837 Z-3.000 F177.8
G1 X151.237 Y90.896 Z-3.000
G1 X151.214 Y90.954 Z-3.000
G1 X151.182 Y91.009 Z-3.000
G1 X151.140 Y91.058 Z-3.000
G1 X151.090 Y91.100 Z-3.000
G1 X151.035 Y91.133 Z-3.000
G1 X150.978 Y91.156 Z-3.000
G1 X150.919 Y91.169 Z-3.000
G1 X150.862 Y91.173 Z-3.000
G1 X150.805 Y91.169 Z-3.000
G1 X150.747 Y91.156 Z-3.000
G1 X150.689 Y91.133 Z-3.000
G1 X150.634 Y91.100 Z-3.000
G1 X150.585 Y91.058 Z-3.000
G1 X150.543 Y91.009 Z-3.000
G1 X150.510 Y90.954 Z-3.000
G1 X150.487 Y90.896 Z-3.000
G1 X150.474 Y90.837 Z-3.000
G1 X150.470 Y90.781 Z-3.000
G1 X150.474 Y90.724 Z-3.000
G1 X150.487 Y90.665 Z-3.000
G1 X150.510 Y90.607 Z-3.000
G1 X150.543 Y90.553 Z-3.000
G1 X150.585 Y90.503 Z-3.000
G1 X150.634 Y90.461 Z-3.000
G1 X150.689 Y90.428 Z-3.000
G1 X150.747 Y90.405 Z-3.000
G1 X150.805 Y90.392 Z-3.000
G1 X150.862 Y90.388 Z-3.000
G1 X150.919 Y90.392 Z-3.000
G1 X150.978 Y90.405 Z-3.000
G1 X151.035 Y90.428 Z-3.000
G1 X151.090 Y90.461 Z-3.000
G1 X151.140 Y90.503 Z-3.000
G1 X151.182 Y90.553 Z-3.000
G1 X151.214 Y90.607 Z-3.000
G1 X151.237 Y90.665 Z-3.000
G1 X151.251 Y90.724 Z-3.000
G1 X151.255 Y90.781 Z-3.000
G1 X152.525 Y90.781 Z-3.000
G1 X152.507 Y91.022 Z-3.000
G1 X152.451 Y91.269 Z-3.000
G1 X152.354 Y91.514 Z-3.000
G1 X152.215 Y91.747 Z-3.000
G1 X152.038 Y91.956 Z-3.000
G1 X151.828 Y92.134 Z-3.000
G1 X151.596 Y92.272 Z-3.000
G1 X151.351 Y92.370 Z-3.000
G1 X151.103 Y92.426 Z-3.000
G1 X150.862 Y92.443 Z-3.000
G1 X150.621 Y92.426 Z-3.000
G1 X150.374 Y92.370 Z-3.000
G1 X150.129 Y92.272 Z-3.000
G1 X149.896 Y92.134 Z-3.000
G1 X149.687 Y91.956 Z-3.000
G1 X149.509 Y91.747 Z-3.000
G1 X149.370 Y91.514 Z-3.000
G1 X149.273 Y91.269 Z-3.000
G1 X149.217 Y91.022 Z-3.000
G1 X149.200 Y90.781 Z-3.000
G1 X149.217 Y90.540 Z-3.000
G1 X149.273 Y90.292 Z-3.000
G1 X149.370 Y90.047 Z-3.000
G1 X149.509 Y89.815 Z-3.000
G1 X149.687 Y89.605 Z-3.000
G1 X149.896 Y89.428 Z-3.000
G1 X150.129 Y89.289 Z-3.000
G1 X150.374 Y89.191 Z-3.000
G1 X150.621 Y89.136 Z-3.000
G1 X150.862 Y89.118 Z-3.000
G1 X151.103 Y89.136 Z-3.000
G1 X151.351 Y89.191 Z-3.000
G1 X151.596 Y89.289 Z-3.000
G1 X151.828 Y89.428 Z-3.000
G1 X152.038 Y89.605 Z-3.000
G1 X152.215 Y89.815 Z-3.000
G1 X152.354 Y90.047 Z-3.000
G1 X152.451 Y90.292 Z-3.000
G1 X152.507 Y90.540 Z-3.000
G1 X152.525 Y90.781 Z-3.000
G0 X152.525 Y90.781
G0 Z6.000
G0 X151.255 Y90.781
G0 Z6.000
G1 X151.255 Y90.781 Z-3.750 F254.0
G1 X151.251 Y90.837 Z-3.750 F177.8
G1 X151.237 Y90.896 Z-3.750
G1 X151.214 Y90.954 Z-3.750
G1 X151.182 Y91.009 Z-3.750
G1 X151.140 Y91.058 Z-3.750
G1 X151.090 Y91.100 Z-3.750
G1 X151.035 Y91.133 Z-3.750
G1 X150.978 Y91.156 Z-3.750
G1 X150.919 Y91.169 Z-3.750
G1 X150.862 Y91.173 Z-3.750
G1 X150.805 Y91.169 Z-3.750
G1 X150.747 Y91.156 Z-3.750
G1 X150.689 Y91.133 Z-3.750
G1 X150.634 Y91.100 Z-3.750
G1 X150.585 Y91.058 Z-3.750
G1 X150.543 Y91.009 Z-3.750
G1 X150.510 Y90.954 Z-3.750
G1 X150.487 Y90.896 Z-3.750
G1 X150.474 Y90.837 Z-3.750
G1 X150.470 Y90.781 Z-3.750
G1 X150.474 Y90.724 Z-3.750
G1 X150.487 Y90.665 Z-3.750
G1 X150.510 Y90.607 Z-3.750
G1 X150.543 Y90.553 Z-3.750
G1 X150.585 Y90.503 Z-3.750
G1 X150.634 Y90.461 Z-3.750
G1 X150.689 Y90.428 Z-3.750
G1 X150.747 Y90.405 Z-3.750
G1 X150.805 Y90.392 Z-3.750
G1 X150.862 Y90.388 Z-3.750
G1 X150.919 Y90.392 Z-3.750
G1 X150.978 Y90.405 Z-3.750
G1 X151.035 Y90.428 Z-3.750
G1 X151.090 Y90.461 Z-3.750
G1 X151.140 Y90.503 Z-3.750
G1 X151.182 Y90.553 Z-3.750
G1 X151.214 Y90.607 Z-3.750
G1 X151.237 Y90.665 Z-3.750
G1 X151.251 Y90.724 Z-3.750
G1 X151.255 Y90.781 Z-3.750
G1 X152.525 Y90.781 Z-3.750
G1 X152.507 Y91.022 Z-3.750
G1 X152.451 Y91.269 Z-3.750
G1 X152.354 Y91.514 Z-3.750
G1 X152.215 Y91.747 Z-3.750
G1 X152.038 Y91.956 Z-3.750
G1 X151.828 Y92.134 Z-3.750
G1 X151.596 Y92.272 Z-3.750
G1 X151.351 Y92.370 Z-3.750
G1 X151.103 Y92.426 Z-3.750
G1 X150.862 Y92.443 Z-3.750
G1 X150.621 Y92.426 Z-3.750
G1 X150.374 Y92.370 Z-3.750
G1 X150.129 Y92.272 Z-3.750
G1 X149.896 Y92.134 Z-3.750
G1 X149.687 Y91.956 Z-3.750
G1 X149.509 Y91.747 Z-3.750
G1 X149.370 Y91.514 Z-3.750
G1 X149.273 Y91.269 Z-3.750
G1 X149.217 Y91.022 Z-3.750
G1 X149.200 Y90.781 Z-3.750
G1 X149.217 Y90.540 Z-3.750
G1 X149.273 Y90.292 Z-3.750
G1 X149.370 Y90.047 Z-3.750
G1 X149.509 Y89.815 Z-3.750
G1 X149.687 Y89.605 Z-3.750
G1 X149.896 Y89.428 Z-3.750
G1 X150.129 Y89.289 Z-3.750
G1 X150.374 Y89.191 Z-3.750
G1 X150.621 Y89.136 Z-3.750
G1 X150.862 Y89.118 Z-3.750
G1 X151.103 Y89.136 Z-3.750
G1 X151.351 Y89.191 Z-3.750
G1 X151.596 Y89.289 Z-3.750
G1 X151.828 Y89.428 Z-3.750
G1 X152.038 Y89.605 Z-3.750
G1 X152.215 Y89.815 Z-3.750
G1 X152.354 Y90.047 Z-3.750
G1 X152.451 Y90.292 Z-3.750
G1 X152.507 Y90.540 Z-3.750
G1 X152.525 Y90.781 Z-3.750
G0 X152.525 Y90.781
G0 Z6.000
G0 X151.255 Y90.781
G0 Z6.000
G1 X151.255 Y90.781 Z-4.500 F254.0
G1 X151.251 Y90.837 Z-4.500 F177.8
G1 X151.237 Y90.896 Z-4.500
G1 X151.214 Y90.954 Z-4.500
G1 X151.182 Y91.009 Z-4.500
G1 X151.140 Y91.058 Z-4.500
G1 X151.090 Y91.100 Z-4.500
G1 X151.035 Y91.133 Z-4.500
G1 X150.978 Y91.156 Z-4.500
G1 X150.919 Y91.169 Z-4.500
G1 X150.862 Y91.173 Z-4.500
G1 X150.805 Y91.169 Z-4.500
G1 X150.747 Y91.156 Z-4.500
G1 X150.689 Y91.133 Z-4.500
G1 X150.634 Y91.100 Z-4.500
G1 X150.585 Y91.058 Z-4.500
G1 X150.543 Y91.009 Z-4.500
G1 X150.510 Y90.954 Z-4.500
G1 X150.487 Y90.896 Z-4.500
G1 X150.474 Y90.837 Z-4.500
G1 X150.470 Y90.781 Z-4.500
G1 X150.474 Y90.724 Z-4.500
G1 X150.487 Y90.665 Z-4.500
G1 X150.510 Y90.607 Z-4.500
G1 X150.543 Y90.553 Z-4.500
G1 X150.585 Y90.503 Z-4.500
G1 X150.634 Y90.461 Z-4.500
G1 X150.689 Y90.428 Z-4.500
G1 X150.747 Y90.405 Z-4.500
G1 X150.805 Y90.392 Z-4.500
G1 X150.862 Y90.388 Z-4.500
G1 X150.919 Y90.392 Z-4.500
G1 X150.978 Y90.405 Z-4.500
G1 X151.035 Y90.428 Z-4.500
G1 X151.090 Y90.461 Z-4.500
G1 X151.140 Y90.503 Z-4.500
G1 X151.182 Y90.553 Z-4.500
G1 X151.214 Y90.607 Z-4.500
G1 X151.237 Y90.665 Z-4.500
G1 X151.251 Y90.724 Z-4.500
G1 X151.255 Y90.781 Z-4.500
G1 X152.525 Y90.781 Z-4.500
G1 X152.507 Y91.022 Z-4.500
G1 X152.451 Y91.269 Z-4.500
G1 X152.354 Y91.514 Z-4.500
G1 X152.215 Y91.747 Z-4.500
G1 X152.038 Y91.956 Z-4.500
G1 X151.828 Y92.134 Z-4.500
G1 X151.596 Y92.272 Z-4.500
G1 X151.351 Y92.370 Z-4.500
G1 X151.103 Y92.426 Z-4.500
G1 X150.862 Y92.443 Z-4.500
G1 X150.621 Y92.426 Z-4.500
G1 X150.374 Y92.370 Z-4.500
G1 X150.129 Y92.272 Z-4.500
G1 X149.896 Y92.134 Z-4.500
G1 X149.687 Y91.956 Z-4.500
G1 X149.509 Y91.747 Z-4.500
G1 X149.370 Y91.514 Z-4.500
G1 X149.273 Y91.269 Z-4.500
G1 X149.217 Y91.022 Z-4.500
G1 X149.200 Y90.781 Z-4.500
G1 X149.217 Y90.540 Z-4.500
G1 X149.273 Y90.292 Z-4.500
G1 X149.370 Y90.047 Z-4.500
G1 X149.509 Y89.815 Z-4.500
G1 X149.687 Y89.605 Z-4.500
G1 X149.896 Y89.428 Z-4.500
G1 X150.129 Y89.289 Z-4.500
G1 X150.374 Y89.191 Z-4.500
G1 X150.621 Y89.136 Z-4.500
G1 X150.862 Y89.118 Z-4.500
G1 X151.103 Y89.136 Z-4.500
G1 X151.351 Y89.191 Z-4.500
G1 X151.596 Y89.289 Z-4.500
G1 X151.828 Y89.428 Z-4.500
G1 X152.038 Y89.605 Z-4.500
G1 X152.215 Y89.815 Z-4.500
G1 X152.354 Y90.047 Z-4.500
G1 X152.451 Y90.292 Z-4.500
G1 X152.507 Y90.540 Z-4.500
G1 X152.525 Y90.781 Z-4.500
G0 X152.525 Y90.781
G0 Z6.000
G0 X151.255 Y90.781
G0 Z6.000
G1 X151.255 Y90.781 Z-5.250 F254.0
G1 X151.251 Y90.837 Z-5.250 F177.8
G1 X151.237 Y90.896 Z-5.250
G1 X151.214 Y90.954 Z-5.250
G1 X151.182 Y91.009 Z-5.250
G1 X151.140 Y91.058 Z-5.250
G1 X151.090 Y91.100 Z-5.250
G1 X151.035 Y91.133 Z-5.250
G1 X150.978 Y91.156 Z-5.250
G1 X150.919 Y91.169 Z-5.250
G1 X150.862 Y91.173 Z-5.250
G1 X150.805 Y91.169 Z-5.250
G1 X150.747 Y91.156 Z-5.250
G1 X150.689 Y91.133 Z-5.250
G1 X150.634 Y91.100 Z-5.250
G1 X150.585 Y91.058 Z-5.250
G1 X150.543 Y91.009 Z-5.250
G1 X150.510 Y90.954 Z-5.250
G1 X150.487 Y90.896 Z-5.250
G1 X150.474 Y90.837 Z-5.250
G1 X150.470 Y90.781 Z-5.250
G1 X150.474 Y90.724 Z-5.250
G1 X150.487 Y90.665 Z-5.250
G1 X150.510 Y90.607 Z-5.250
G1 X150.543 Y90.553 Z-5.250
G1 X150.585 Y90.503 Z-5.250
G1 X150.634 Y90.461 Z-5.250
G1 X150.689 Y90.428 Z-5.250
G1 X150.747 Y90.405 Z-5.250
G1 X150.805 Y90.392 Z-5.250
G1 X150.862 Y90.388 Z-5.250
G1 X150.919 Y90.392 Z-5.250
G1 X150.978 Y90.405 Z-5.250
G1 X151.035 Y90.428 Z-5.250
G1 X151.090 Y90.461 Z-5.250
G1 X151.140 Y90.503 Z-5.250
G1 X151.182 Y90.553 Z-5.250
G1 X151.214 Y90.607 Z-5.250
G1 X151.237 Y90.665 Z-5.250
G1 X151.251 Y90.724 Z-5.250
G1 X151.255 Y90.781 Z-5.250
G1 X152.525 Y90.781 Z-5.250
G1 X152.507 Y91.022 Z-5.250
G1 X152.451 Y91.269 Z-5.250
G1 X152.354 Y91.514 Z-5.250
G1 X152.215 Y91.747 Z-5.250
G1 X152.038 Y91.956 Z-5.250
G1 X151.828 Y92.134 Z-5.250
G1 X151.596 Y92.272 Z-5.250
G1 X151.351 Y92.370 Z-5.250
G1 X151.103 Y92.426 Z-5.250
G1 X150.862 Y92.443 Z-5.250
G1 X150.621 Y92.426 Z-5.250
G1 X150.374 Y92.370 Z-5.250
G1 X150.129 Y92.272 Z-5.250
G1 X149.896 Y92.134 Z-5.250
G1 X149.687 Y91.956 Z-5.250
G1 X149.509 Y91.747 Z-5.250
G1 X149.370 Y91.514 Z-5.250
G1 X149.273 Y91.269 Z-5.250
G1 X149.217 Y91.022 Z-5.250
G1 X149.200 Y90.781 Z-5.250
G1 X149.217 Y90.540 Z-5.250
G1 X149.273 Y90.292 Z-5.250
G1 X149.370 Y90.047 Z-5.250
G1 X149.509 Y89.815 Z-5.250
G1 X149.687 Y89.605 Z-5.250
G1 X149.896 Y89.428 Z-5.250
G1 X150.129 Y89.289 Z-5.250
G1 X150.374 Y89.191 Z-5.250
G1 X150.621 Y89.136 Z-5.250
G1 X150.862 Y89.118 Z-5.250
G1 X151.103 Y89.136 Z-5.250
G1 X151.351 Y89.191 Z-5.250
G1 X151.596 Y89.289 Z-5.250
G1 X151.828 Y89.428 Z-5.250
G1 X152.038 Y89.605 Z-5.250
G1 X152.215 Y89.815 Z-5.250
G1 X152.354 Y90.047 Z-5.250
G1 X152.451 Y90.292 Z-5.250
G1 X152.507 Y90.540 Z-5.250
G1 X152.525 Y90.781 Z-5.250
G0 X152.525 Y90.781
G0 Z6.000
G0 X151.255 Y90.781
G0 Z6.000
G1 X151.255 Y90.781 Z-6.000 F254.0
G1 X151.251 Y90.837 Z-6.000 F177.8
G1 X151.237 Y90.896 Z-6.000
G1 X151.214 Y90.954 Z-6.000
G1 X151.182 Y91.009 Z-6.000
G1 X151.140 Y91.058 Z-6.000
G1 X151.090 Y91.100 Z-6.000
G1 X151.035 Y91.133 Z-6.000
G1 X150.978 Y91.156 Z-6.000
G1 X150.919 Y91.169 Z-6.000
G1 X150.862 Y91.173 Z-6.000
G1 X150.805 Y91.169 Z-6.000
G1 X150.747 Y91.156 Z-6.000
G1 X150.689 Y91.133 Z-6.000
G1 X150.634 Y91.100 Z-6.000
G1 X150.585 Y91.058 Z-6.000
G1 X150.543 Y91.009 Z-6.000
G1 X150.510 Y90.954 Z-6.000
G1 X150.487 Y90.896 Z-6.000
G1 X150.474 Y90.837 Z-6.000
G1 X150.470 Y90.781 Z-6.000
G1 X150.474 Y90.724 Z-6.000
G1 X150.487 Y90.665 Z-6.000
G1 X150.510 Y90.607 Z-6.000
G1 X150.543 Y90.553 Z-6.000
G1 X150.585 Y90.503 Z-6.000
G1 X150.634 Y90.461 Z-6.000
G1 X150.689 Y90.428 Z-6.000
G1 X150.747 Y90.405 Z-6.000
G1 X150.805 Y90.392 Z-6.000
G1 X150.862 Y90.388 Z-6.000
G1 X150.919 Y90.392 Z-6.000
G1 X150.978 Y90.405 Z-6.000
G1 X151.035 Y90.428 Z-6.000
G1 X151.090 Y90.461 Z-6.000
G1 X151.140 Y90.503 Z-6.000
G1 X151.182 Y90.553 Z-6.000
G1 X151.214 Y90.607 Z-6.000
G1 X151.237 Y90.665 Z-6.000
G1 X151.251 Y90.724 Z-6.000
G1 X151.255 Y90.781 Z-6.000
G1 X152.525 Y90.781 Z-6.000
G1 X152.507 Y91.022 Z-6.000
G1 X152.451 Y91.269 Z-6.000
G1 X152.354 Y91.514 Z-6.000
G1 X152.215 Y91.747 Z-6.000
G1 X152.038 Y91.956 Z-6.000
G1 X151.828 Y92.134 Z-6.000
G1 X151.596 Y92.272 Z-6.000
G1 X151.351 Y92.370 Z-6.000
G1 X151.103 Y92.426 Z-6.000
G1 X150.862 Y92.443 Z-6.000
G1 X150.621 Y92.426 Z-6.000
G1 X150.374 Y92.370 Z-6.000
G1 X150.129 Y92.272 Z-6.000
G1 X149.896 Y92.134 Z-6.000
G1 X149.687 Y91.956 Z-6.000
G1 X149.509 Y91.747 Z-6.000
G1 X149.370 Y91.514 Z-6.000
G1 X149.273 Y91.269 Z-6.000
G1 X149.217 Y91.022 Z-6.000
G1 X149.200 Y90.781 Z-6.000
G1 X149.217 Y90.540 Z-6.000
G1 X149.273 Y90.292 Z-6.000
G1 X149.370 Y90.047 Z-6.000
G1 X149.509 Y89.815 Z-6.000
G1 X149.687 Y89.605 Z-6.000
G1 X149.896 Y89.428 Z-6.000
G1 X150.129 Y89.289 Z-6.000
G1 X150.374 Y89.191 Z-6.000
G1 X150.621 Y89.136 Z-6.000
G1 X150.862 Y89.118 Z-6.000
G1 X151.103 Y89.136 Z-6.000
G1 X151.351 Y89.191 Z-6.000
G1 X151.596 Y89.289 Z-6.000
G1 X151.828 Y89.428 Z-6.000
G1 X152.038 Y89.605 Z-6.000
G1 X152.215 Y89.815 Z-6.000
G1 X152.354 Y90.047 Z-6.000
G1 X152.451 Y90.292 Z-6.000
G1 X152.507 Y90.540 Z-6.000
G1 X152.525 Y90.781 Z-6.000
G0 X152.525 Y90.781
G0 Z6.000
G0 X151.255 Y90.781
G0 Z6.000
G1 X151.255 Y90.781 Z-6.750 F254.0
G1 X151.251 Y90.837 Z-6.750 F177.8
G1 X151.237 Y90.896 Z-6.750
G1 X151.214 Y90.954 Z-6.750
G1 X151.182 Y91.009 Z-6.750
G1 X151.140 Y91.058 Z-6.750
G1 X151.090 Y91.100 Z-6.750
G1 X151.035 Y91.133 Z-6.750
G1 X150.978 Y91.156 Z-6.750
G1 X150.919 Y91.169 Z-6.750
G1 X150.862 Y91.173 Z-6.750
G1 X150.805 Y91.169 Z-6.750
G1 X150.747 Y91.156 Z-6.750
G1 X150.689 Y91.133 Z-6.750
G1 X150.634 Y91.100 Z-6.750
G1 X150.585 Y91.058 Z-6.750
G1 X150.543 Y91.009 Z-6.750
G1 X150.510 Y90.954 Z-6.750
G1 X150.487 Y90.896 Z-6.750
G1 X150.474 Y90.837 Z-6.750
G1 X150.470 Y90.781 Z-6.750
G1 X150.474 Y90.724 Z-6.750
G1 X150.487 Y90.665 Z-6.750
G1 X150.510 Y90.607 Z-6.750
G1 X150.543 Y90.553 Z-6.750
G1 X150.585 Y90.503 Z-6.750
G1 X150.634 Y90.461 Z-6.750
G1 X150.689 Y90.428 Z-6.750
G1 X150.747 Y90.405 Z-6.750
G1 X150.805 Y90.392 Z-6.750
G1 X150.862 Y90.388 Z-6.750
G1 X150.919 Y90.392 Z-6.750
G1 X150.978 Y90.405 Z-6.750
G1 X151.035 Y90.428 Z-6.750
G1 X151.090 Y90.461 Z-6.750
G1 X151.140 Y90.503 Z-6.750
G1 X151.182 Y90.553 Z-6.750
G1 X151.214 Y90.607 Z-6.750
G1 X151.237 Y90.665 Z-6.750
G1 X151.251 Y90.724 Z-6.750
G1 X151.255 Y90.781 Z-6.750
G1 X152.525 Y90.781 Z-6.750
G1 X152.507 Y91.022 Z-6.750
G1 X152.451 Y91.269 Z-6.750
G1 X152.354 Y91.514 Z-6.750
G1 X152.215 Y91.747 Z-6.750
G1 X152.038 Y91.956 Z-6.750
G1 X151.828 Y92.134 Z-6.750
G1 X151.596 Y92.272 Z-6.750
G1 X151.351 Y92.370 Z-6.750
G1 X151.103 Y92.426 Z-6.750
G1 X150.862 Y92.443 Z-6.750
G1 X150.621 Y92.426 Z-6.750
G1 X150.374 Y92.370 Z-6.750
G1 X150.129 Y92.272 Z-6.750
G1 X149.896 Y92.134 Z-6.750
G1 X149.687 Y91.956 Z-6.750
G1 X149.509 Y91.747 Z-6.750
G1 X149.370 Y91.514 Z-6.750
G1 X149.273 Y91.269 Z-6.750
G1 X149.217 Y91.022 Z-6.750
G1 X149.200 Y90.781 Z-6.750
G1 X149.217 Y90.540 Z-6.750
G1 X149.273 Y90.292 Z-6.750
G1 X149.370 Y90.047 Z-6.750
G1 X149.509 Y89.815 Z-6.750
G1 X149.687 Y89.605 Z-6.750
G1 X149.896 Y89.428 Z-6.750
G1 X150.129 Y89.289 Z-6.750
G1 X150.374 Y89.191 Z-6.750
G1 X150.621 Y89.136 Z-6.750
G1 X150.862 Y89.118 Z-6.750
G1 X151.103 Y89.136 Z-6.750
G1 X151.351 Y89.191 Z-6.750
G1 X151.596 Y89.289 Z-6.750
G1 X151.828 Y89.428 Z-6.750
G1 X152.038 Y89.605 Z-6.750
G1 X152.215 Y89.815 Z-6.750
G1 X152.354 Y90.047 Z-6.750
G1 X152.451 Y90.292 Z-6.750
G1 X152.507 Y90.540 Z-6.750
G1 X152.525 Y90.781 Z-6.750
G0 X152.525 Y90.781
G0 Z6.000
G0 X151.255 Y90.781
G0 Z6.000
G1 X151.255 Y90.781 Z-7.500 F254.0
G1 X151.251 Y90.837 Z-7.500 F177.8
G1 X151.237 Y90.896 Z-7.500
G1 X151.214 Y90.954 Z-7.500
G1 X151.182 Y91.009 Z-7.500
G1 X151.140 Y91.058 Z-7.500
G1 X151.090 Y91.100 Z-7.500
G1 X151.035 Y91.133 Z-7.500
G1 X150.978 Y91.156 Z-7.500
G1 X150.919 Y91.169 Z-7.500
G1 X150.862 Y91.173 Z-7.500
G1 X150.805 Y91.169 Z-7.500
G1 X150.747 Y91.156 Z-7.500
G1 X150.689 Y91.133 Z-7.500
G1 X150.634 Y91.100 Z-7.500
G1 X150.585 Y91.058 Z-7.500
G1 X150.543 Y91.009 Z-7.500
G1 X150.510 Y90.954 Z-7.500
G1 X150.487 Y90.896 Z-7.500
G1 X150.474 Y90.837 Z-7.500
G1 X150.470 Y90.781 Z-7.500
G1 X150.474 Y90.724 Z-7.500
G1 X150.487 Y90.665 Z-7.500
G1 X150.510 Y90.607 Z-7.500
G1 X150.543 Y90.553 Z-7.500
G1 X150.585 Y90.503 Z-7.500
G1 X150.634 Y90.461 Z-7.500
G1 X150.689 Y90.428 Z-7.500
G1 X150.747 Y90.405 Z-7.500
G1 X150.805 Y90.392 Z-7.500
G1 X150.862 Y90.388 Z-7.500
G1 X150.919 Y90.392 Z-7.500
G1 X150.978 Y90.405 Z-7.500
G1 X151.035 Y90.428 Z-7.500
G1 X151.090 Y90.461 Z-7.500
G1 X151.140 Y90.503 Z-7.500
G1 X151.182 Y90.553 Z-7.500
G1 X151.214 Y90.607 Z-7.500
G1 X151.237 Y90.665 Z-7.500
G1 X151.251 Y90.724 Z-7.500
G1 X151.255 Y90.781 Z-7.500
G1 X152.525 Y90.781 Z-7.500
G1 X152.507 Y91.022 Z-7.500
G1 X152.451 Y91.269 Z-7.500
G1 X152.354 Y91.514 Z-7.500
G1 X152.215 Y91.747 Z-7.500
G1 X152.038 Y91.956 Z-7.500
G1 X151.828 Y92.134 Z-7.500
G1 X151.596 Y92.272 Z-7.500
G1 X151.351 Y92.370 Z-7.500
G1 X151.103 Y92.426 Z-7.500
G1 X150.862 Y92.443 Z-7.500
G1 X150.621 Y92.426 Z-7.500
G1 X150.374 Y92.370 Z-7.500
G1 X150.129 Y92.272 Z-7.500
G1 X149.896 Y92.134 Z-7.500
G1 X149.687 Y91.956 Z-7.500
G1 X149.509 Y91.747 Z-7.500
G1 X149.370 Y91.514 Z-7.500
G1 X149.273 Y91.269 Z-7.500
G1 X149.217 Y91.022 Z-7.500
G1 X149.200 Y90.781 Z-7.500
G1 X149.217 Y90.540 Z-7.500
G1 X149.273 Y90.292 Z-7.500
G1 X149.370 Y90.047 Z-7.500
G1 X149.509 Y89.815 Z-7.500
G1 X149.687 Y89.605 Z-7.500
G1 X149.896 Y89.428 Z-7.500
G1 X150.129 Y89.289 Z-7.500
G1 X150.374 Y89.191 Z-7.500
G1 X150.621 Y89.136 Z-7.500
G1 X150.862 Y89.118 Z-7.500
G1 X151.103 Y89.136 Z-7.500
G1 X151.351 Y89.191 Z-7.500
G1 X151.596 Y89.289 Z-7.500
G1 X151.828 Y89.428 Z-7.500
G1 X152.038 Y89.605 Z-7.500
G1 X152.215 Y89.815 Z-7.500
G1 X152.354 Y90.047 Z-7.500
G1 X152.451 Y90.292 Z-7.500
G1 X152.507 Y90.540 Z-7.500
G1 X152.525 Y90.781 Z-7.500
G0 X152.525 Y90.781
G0 Z6.000
G0 X151.255 Y90.781
G0 Z6.000
G1 X151.255 Y90.781 Z-8.250 F254.0
G1 X151.251 Y90.837 Z-8.250 F177.8
G1 X151.237 Y90.896 Z-8.250
G1 X151.214 Y90.954 Z-8.250
G1 X151.182 Y91.009 Z-8.250
G1 X151.140 Y91.058 Z-8.250
G1 X151.090 Y91.100 Z-8.250
G1 X151.035 Y91.133 Z-8.250
G1 X150.978 Y91.156 Z-8.250
G1 X150.919 Y91.169 Z-8.250
G1 X150.862 Y91.173 Z-8.250
G1 X150.805 Y91.169 Z-8.250
G1 X150.747 Y91.156 Z-8.250
G1 X150.689 Y91.133 Z-8.250
G1 X150.634 Y91.100 Z-8.250
G1 X150.585 Y91.058 Z-8.250
G1 X150.543 Y91.009 Z-8.250
G1 X150.510 Y90.954 Z-8.250
G1 X150.487 Y90.896 Z-8.250
G1 X150.474 Y90.837 Z-8.250
G1 X150.470 Y90.781 Z-8.250
G1 X150.474 Y90.724 Z-8.250
G1 X150.487 Y90.665 Z-8.250
G1 X150.510 Y90.607 Z-8.250
G1 X150.543 Y90.553 Z-8.250
G1 X150.585 Y90.503 Z-8.250
G1 X150.634 Y90.461 Z-8.250
G1 X150.689 Y90.428 Z-8.250
G1 X150.747 Y90.405 Z-8.250
G1 X150.805 Y90.392 Z-8.250
G1 X150.862 Y90.388 Z-8.250
G1 X150.919 Y90.392 Z-8.250
G1 X150.978 Y90.405 Z-8.250
G1 X151.035 Y90.428 Z-8.250
G1 X151.090 Y90.461 Z-8.250
G1 X151.140 Y90.503 Z-8.250
G1 X151.182 Y90.553 Z-8.250
G1 X151.214 Y90.607 Z-8.250
G1 X151.237 Y90.665 Z-8.250
G1 X151.251 Y90.724 Z-8.250
G1 X151.255 Y90.781 Z-8.250
G1 X152.525 Y90.781 Z-8.250
G1 X152.507 Y91.022 Z-8.250
G1 X152.451 Y91.269 Z-8.250
G1 X152.354 Y91.514 Z-8.250
G1 X152.215 Y91.747 Z-8.250
G1 X152.038 Y91.956 Z-8.250
G1 X151.828 Y92.134 Z-8.250
G1 X151.596 Y92.272 Z-8.250
G1 X151.351 Y92.370 Z-8.250
G1 X151.103 Y92.426 Z-8.250
G1 X150.862 Y92.443 Z-8.250
G1 X150.621 Y92.426 Z-8.250
G1 X150.374 Y92.370 Z-8.250
G1 X150.129 Y92.272 Z-8.250
G1 X149.896 Y92.134 Z-8.250
G1 X149.687 Y91.956 Z-8.250
G1 X149.509 Y91.747 Z-8.250
G1 X149.370 Y91.514 Z-8.250
G1 X149.273 Y91.269 Z-8.250
G1 X149.217 Y91.022 Z-8.250
G1 X149.200 Y90.781 Z-8.250
G1 X149.217 Y90.540 Z-8.250
G1 X149.273 Y90.292 Z-8.250
G1 X149.370 Y90.047 Z-8.250
G1 X149.509 Y89.815 Z-8.250
G1 X149.687 Y89.605 Z-8.250
G1 X149.896 Y89.428 Z-8.250
G1 X150.129 Y89.289 Z-8.250
G1 X150.374 Y89.191 Z-8.250
G1 X150.621 Y89.136 Z-8.250
G1 X150.862 Y89.118 Z-8.250
G1 X151.103 Y89.136 Z-8.250
G1 X151.351 Y89.191 Z-8.250
G1 X151.596 Y89.289 Z-8.250
G1 X151.828 Y89.428 Z-8.250
G1 X152.038 Y89.605 Z-8.250
G1 X152.215 Y89.815 Z-8.250
G1 X152.354 Y90.047 Z-8.250
G1 X152.451 Y90.292 Z-8.250
G1 X152.507 Y90.540 Z-8.250
G1 X152.525 Y90.781 Z-8.250
G0 X152.525 Y90.781
G0 Z6.000
G0 X151.255 Y90.781
G0 Z6.000
G1 X151.255 Y90.781 Z-9.000 F254.0
G1 X151.251 Y90.837 Z-9.000 F177.8
G1 X151.237 Y90.896 Z-9.000
G1 X151.214 Y90.954 Z-9.000
G1 X151.182 Y91.009 Z-9.000
G1 X151.140 Y91.058 Z-9.000
G1 X151.090 Y91.100 Z-9.000
G1 X151.035 Y91.133 Z-9.000
G1 X150.978 Y91.156 Z-9.000
G1 X150.919 Y91.169 Z-9.000
G1 X150.862 Y91.173 Z-9.000
G1 X150.805 Y91.169 Z-9.000
G1 X150.747 Y91.156 Z-9.000
G1 X150.689 Y91.133 Z-9.000
G1 X150.634 Y91.100 Z-9.000
G1 X150.585 Y91.058 Z-9.000
G1 X150.543 Y91.009 Z-9.000
G1 X150.510 Y90.954 Z-9.000
G1 X150.487 Y90.896 Z-9.000
G1 X150.474 Y90.837 Z-9.000
G1 X150.470 Y90.781 Z-9.000
G1 X150.474 Y90.724 Z-9.000
G1 X150.487 Y90.665 Z-9.000
G1 X150.510 Y90.607 Z-9.000
G1 X150.543 Y90.553 Z-9.000
G1 X150.585 Y90.503 Z-9.000
G1 X150.634 Y90.461 Z-9.000
G1 X150.689 Y90.428 Z-9.000
G1 X150.747 Y90.405 Z-9.000
G1 X150.805 Y90.392 Z-9.000
G1 X150.862 Y90.388 Z-9.000
G1 X150.919 Y90.392 Z-9.000
G1 X150.978 Y90.405 Z-9.000
G1 X151.035 Y90.428 Z-9.000
G1 X151.090 Y90.461 Z-9.000
G1 X151.140 Y90.503 Z-9.000
G1 X151.182 Y90.553 Z-9.000
G1 X151.214 Y90.607 Z-9.000
G1 X151.237 Y90.665 Z-9.000
G1 X151.251 Y90.724 Z-9.000
G1 X151.255 Y90.781 Z-9.000
G1 X152.525 Y90.781 Z-9.000
G1 X152.507 Y91.022 Z-9.000
G1 X152.451 Y91.269 Z-9.000
G1 X152.354 Y91.514 Z-9.000
G1 X152.215 Y91.747 Z-9.000
G1 X152.038 Y91.956 Z-9.000
G1 X151.828 Y92.134 Z-9.000
G1 X151.596 Y92.272 Z-9.000
G1 X151.351 Y92.370 Z-9.000
G1 X151.103 Y92.426 Z-9.000
G1 X150.862 Y92.443 Z-9.000
G1 X150.621 Y92.426 Z-9.000
G1 X150.374 Y92.370 Z-9.000
G1 X150.129 Y92.272 Z-9.000
G1 X149.896 Y92.134 Z-9.000
G1 X149.687 Y91.956 Z-9.000
G1 X149.509 Y91.747 Z-9.000
G1 X149.370 Y91.514 Z-9.000
G1 X149.273 Y91.269 Z-9.000
G1 X149.217 Y91.022 Z-9.000
G1 X149.200 Y90.781 Z-9.000
G1 X149.217 Y90.540 Z-9.000
G1 X149.273 Y90.292 Z-9.000
G1 X149.370 Y90.047 Z-9.000
G1 X149.509 Y89.815 Z-9.000
G1 X149.687 Y89.605 Z-9.000
G1 X149.896 Y89.428 Z-9.000
G1 X150.129 Y89.289 Z-9.000
G1 X150.374 Y89.191 Z-9.000
G1 X150.621 Y89.136 Z-9.000
G1 X150.862 Y89.118 Z-9.000
G1 X151.103 Y89.136 Z-9.000
G1 X151.351 Y89.191 Z-9.000
G1 X151.596 Y89.289 Z-9.000
G1 X151.828 Y89.428 Z-9.000
G1 X152.038 Y89.605 Z-9.000
G1 X152.215 Y89.815 Z-9.000
G1 X152.354 Y90.047 Z-9.000
G1 X152.451 Y90.292 Z-9.000
G1 X152.507 Y90.540 Z-9.000
G1 X152.525 Y90.781 Z-9.000
G0 X152.525 Y90.781
G0 Z6.000
G0 X151.255 Y90.781
G0 Z6.000
G1 X151.255 Y90.781 Z-9.750 F254.0
G1 X151.251 Y90.837 Z-9.750 F177.8
G1 X151.237 Y90.896 Z-9.750
G1 X151.214 Y90.954 Z-9.750
G1 X151.182 Y91.009 Z-9.750
G1 X151.140 Y91.058 Z-9.750
G1 X151.090 Y91.100 Z-9.750
G1 X151.035 Y91.133 Z-9.750
G1 X150.978 Y91.156 Z-9.750
G1 X150.919 Y91.169 Z-9.750
G1 X150.862 Y91.173 Z-9.750
G1 X150.805 Y91.169 Z-9.750
G1 X150.747 Y91.156 Z-9.750
G1 X150.689 Y91.133 Z-9.750
G1 X150.634 Y91.100 Z-9.750
G1 X150.585 Y91.058 Z-9.750
G1 X150.543 Y91.009 Z-9.750
G1 X150.510 Y90.954 Z-9.750
G1 X150.487 Y90.896 Z-9.750
G1 X150.474 Y90.837 Z-9.750
G1 X150.470 Y90.781 Z-9.750
G1 X150.474 Y90.724 Z-9.750
G1 X150.487 Y90.665 Z-9.750
G1 X150.510 Y90.607 Z-9.750
G1 X150.543 Y90.553 Z-9.750
G1 X150.585 Y90.503 Z-9.750
G1 X150.634 Y90.461 Z-9.750
G1 X150.689 Y90.428 Z-9.750
G1 X150.747 Y90.405 Z-9.750
G1 X150.805 Y90.392 Z-9.750
G1 X150.862 Y90.388 Z-9.750
G1 X150.919 Y90.392 Z-9.750
G1 X150.978 Y90.405 Z-9.750
G1 X151.035 Y90.428 Z-9.750
G1 X151.090 Y90.461 Z-9.750
G1 X151.140 Y90.503 Z-9.750
G1 X151.182 Y90.553 Z-9.750
G1 X151.214 Y90.607 Z-9.750
G1 X151.237 Y90.665 Z-9.750
G1 X151.251 Y90.724 Z-9.750
G1 X151.255 Y90.781 Z-9.750
G1 X152.525 Y90.781 Z-9.750
G1 X152.507 Y91.022 Z-9.750
G1 X152.451 Y91.269 Z-9.750
G1 X152.354 Y91.514 Z-9.750
G1 X152.215 Y91.747 Z-9.750
G1 X152.038 Y91.956 Z-9.750
G1 X151.828 Y92.134 Z-9.750
G1 X151.596 Y92.272 Z-9.750
G1 X151.351 Y92.370 Z-9.750
G1 X151.103 Y92.426 Z-9.750
G1 X150.862 Y92.443 Z-9.750
G1 X150.621 Y92.426 Z-9.750
G1 X150.374 Y92.370 Z-9.750
G1 X150.129 Y92.272 Z-9.750
G1 X149.896 Y92.134 Z-9.750
G1 X149.687 Y91.956 Z-9.750
G1 X149.509 Y91.747 Z-9.750
G1 X149.370 Y91.514 Z-9.750
G1 X149.273 Y91.269 Z-9.750
G1 X149.217 Y91.022 Z-9.750
G1 X149.200 Y90.781 Z-9.750
G1 X149.217 Y90.540 Z-9.750
G1 X149.273 Y90.292 Z-9.750
G1 X149.370 Y90.047 Z-9.750
G1 X149.509 Y89.815 Z-9.750
G1 X149.687 Y89.605 Z-9.750
G1 X149.896 Y89.428 Z-9.750
G1 X150.129 Y89.289 Z-9.750
G1 X150.374 Y89.191 Z-9.750
G1 X150.621 Y89.136 Z-9.750
G1 X150.862 Y89.118 Z-9.750
G1 X151.103 Y89.136 Z-9.750
G1 X151.351 Y89.191 Z-9.750
G1 X151.596 Y89.289 Z-9.750
G1 X151.828 Y89.428 Z-9.750
G1 X152.038 Y89.605 Z-9.750
G1 X152.215 Y89.815 Z-9.750
G1 X152.354 Y90.047 Z-9.750
G1 X152.451 Y90.292 Z-9.750
G1 X152.507 Y90.540 Z-9.750
G1 X152.525 Y90.781 Z-9.750
G0 X152.525 Y90.781
G0 Z6.000
G0 X151.255 Y90.781
G0 Z6.000
G1 X151.255 Y90.781 Z-10.500 F254.0
G1 X151.251 Y90.837 Z-10.500 F177.8
G1 X151.237 Y90.896 Z-10.500
G1 X151.214 Y90.954 Z-10.500
G1 X151.182 Y91.009 Z-10.500
G1 X151.140 Y91.058 Z-10.500
G1 X151.090 Y91.100 Z-10.500
G1 X151.035 Y91.133 Z-10.500
G1 X150.978 Y91.156 Z-10.500
G1 X150.919 Y91.169 Z-10.500
G1 X150.862 Y91.173 Z-10.500
G1 X150.805 Y91.169 Z-10.500
G1 X150.747 Y91.156 Z-10.500
G1 X150.689 Y91.133 Z-10.500
G1 X150.634 Y91.100 Z-10.500
G1 X150.585 Y91.058 Z-10.500
G1 X150.543 Y91.009 Z-10.500
G1 X150.510 Y90.954 Z-10.500
G1 X150.487 Y90.896 Z-10.500
G1 X150.474 Y90.837 Z-10.500
G1 X150.470 Y90.781 Z-10.500
G1 X150.474 Y90.724 Z-10.500
G1 X150.487 Y90.665 Z-10.500
G1 X150.510 Y90.607 Z-10.500
G1 X150.543 Y90.553 Z-10.500
G1 X150.585 Y90.503 Z-10.500
G1 X150.634 Y90.461 Z-10.500
G1 X150.689 Y90.428 Z-10.500
G1 X150.747 Y90.405 Z-10.500
G1 X150.805 Y90.392 Z-10.500
G1 X150.862 Y90.388 Z-10.500
G1 X150.919 Y90.392 Z-10.500
G1 X150.978 Y90.405 Z-10.500
G1 X151.035 Y90.428 Z-10.500
G1 X151.090 Y90.461 Z-10.500
G1 X151.140 Y90.503 Z-10.500
G1 X151.182 Y90.553 Z-10.500
G1 X151.214 Y90.607 Z-10.500
G1 X151.237 Y90.665 Z-10.500
G1 X151.251 Y90.724 Z-10.500
G1 X151.255 Y90.781 Z-10.500
G1 X152.525 Y90.781 Z-10.500
G1 X152.507 Y91.022 Z-10.500
G1 X152.451 Y91.269 Z-10.500
G1 X152.354 Y91.514 Z-10.500
G1 X152.215 Y91.747 Z-10.500
G1 X152.038 Y91.956 Z-10.500
G1 X151.828 Y92.134 Z-10.500
G1 X151.596 Y92.272 Z-10.500
G1 X151.351 Y92.370 Z-10.500
G1 X151.103 Y92.426 Z-10.500
G1 X150.862 Y92.443 Z-10.500
G1 X150.621 Y92.426 Z-10.500
G1 X150.374 Y92.370 Z-10.500
G1 X150.129 Y92.272 Z-10.500
G1 X149.896 Y92.134 Z-10.500
G1 X149.687 Y91.956 Z-10.500
G1 X149.509 Y91.747 Z-10.500
G1 X149.370 Y91.514 Z-10.500
G1 X149.273 Y91.269 Z-10.500
G1 X149.217 Y91.022 Z-10.500
G1 X149.200 Y90.781 Z-10.500
G1 X149.217 Y90.540 Z-10.500
G1 X149.273 Y90.292 Z-10.500
G1 X149.370 Y90.047 Z-10.500
G1 X149.509 Y89.815 Z-10.500
G1 X149.687 Y89.605 Z-10.500
G1 X149.896 Y89.428 Z-10.500
G1 X150.129 Y89.289 Z-10.500
G1 X150.374 Y89.191 Z-10.500
G1 X150.621 Y89.136 Z-10.500
G1 X150.862 Y89.118 Z-10.500
G1 X151.103 Y89.136 Z-10.500
G1 X151.351 Y89.191 Z-10.500
G1 X151.596 Y89.289 Z-10.500
G1 X151.828 Y89.428 Z-10.500
G1 X152.038 Y89.605 Z-10.500
G1 X152.215 Y89.815 Z-10.500
G1 X152.354 Y90.047 Z-10.500
G1 X152.451 Y90.292 Z-10.500
G1 X152.507 Y90.540 Z-10.500
G1 X152.525 Y90.781 Z-10.500
G0 X152.525 Y90.781
G0 Z6.000
G0 X151.255 Y90.781
G0 Z6.000
G1 X151.255 Y90.781 Z-11.250 F254.0
G1 X151.251 Y90.837 Z-11.250 F177.8
G1 X151.237 Y90.896 Z-11.250
G1 X151.214 Y90.954 Z-11.250
G1 X151.182 Y91.009 Z-11.250
G1 X151.140 Y91.058 Z-11.250
G1 X151.090 Y91.100 Z-11.250
G1 X151.035 Y91.133 Z-11.250
G1 X150.978 Y91.156 Z-11.250
G1 X150.919 Y91.169 Z-11.250
G1 X150.862 Y91.173 Z-11.250
G1 X150.805 Y91.169 Z-11.250
G1 X150.747 Y91.156 Z-11.250
G1 X150.689 Y91.133 Z-11.250
G1 X150.634 Y91.100 Z-11.250
G1 X150.585 Y91.058 Z-11.250
G1 X150.543 Y91.009 Z-11.250
G1 X150.510 Y90.954 Z-11.250
G1 X150.487 Y90.896 Z-11.250
G1 X150.474 Y90.837 Z-11.250
G1 X150.470 Y90.781 Z-11.250
G1 X150.474 Y90.724 Z-11.250
G1 X150.487 Y90.665 Z-11.250
G1 X150.510 Y90.607 Z-11.250
G1 X150.543 Y90.553 Z-11.250
G1 X150.585 Y90.503 Z-11.250
G1 X150.634 Y90.461 Z-11.250
G1 X150.689 Y90.428 Z-11.250
G1 X150.747 Y90.405 Z-11.250
G1 X150.805 Y90.392 Z-11.250
G1 X150.862 Y90.388 Z-11.250
G1 X150.919 Y90.392 Z-11.250
G1 X150.978 Y90.405 Z-11.250
G1 X151.035 Y90.428 Z-11.250
G1 X151.090 Y90.461 Z-11.250
G1 X151.140 Y90.503 Z-11.250
G1 X151.182 Y90.553 Z-11.250
G1 X151.214 Y90.607 Z-11.250
G1 X151.237 Y90.665 Z-11.250
G1 X151.251 Y90.724 Z-11.250
G1 X151.255 Y90.781 Z-11.250
G1 X152.525 Y90.781 Z-11.250
G1 X152.507 Y91.022 Z-11.250
G1 X152.451 Y91.269 Z-11.250
G1 X152.354 Y91.514 Z-11.250
G1 X152.215 Y91.747 Z-11.250
G1 X152.038 Y91.956 Z-11.250
G1 X151.828 Y92.134 Z-11.250
G1 X151.596 Y92.272 Z-11.250
G1 X151.351 Y92.370 Z-11.250
G1 X151.103 Y92.426 Z-11.250
G1 X150.862 Y92.443 Z-11.250
G1 X150.621 Y92.426 Z-11.250
G1 X150.374 Y92.370 Z-11.250
G1 X150.129 Y92.272 Z-11.250
G1 X149.896 Y92.134 Z-11.250
G1 X149.687 Y91.956 Z-11.250
G1 X149.509 Y91.747 Z-11.250
G1 X149.370 Y91.514 Z-11.250
G1 X149.273 Y91.269 Z-11.250
G1 X149.217 Y91.022 Z-11.250
G1 X149.200 Y90.781 Z-11.250
G1 X149.217 Y90.540 Z-11.250
G1 X149.273 Y90.292 Z-11.250
G1 X149.370 Y90.047 Z-11.250
G1 X149.509 Y89.815 Z-11.250
G1 X149.687 Y89.605 Z-11.250
G1 X149.896 Y89.428 Z-11.250
G1 X150.129 Y89.289 Z-11.250
G1 X150.374 Y89.191 Z-11.250
G1 X150.621 Y89.136 Z-11.250
G1 X150.862 Y89.118 Z-11.250
G1 X151.103 Y89.136 Z-11.250
G1 X151.351 Y89.191 Z-11.250
G1 X151.596 Y89.289 Z-11.250
G1 X151.828 Y89.428 Z-11.250
G1 X152.038 Y89.605 Z-11.250
G1 X152.215 Y89.815 Z-11.250
G1 X152.354 Y90.047 Z-11.250
G1 X152.451 Y90.292 Z-11.250
G1 X152.507 Y90.540 Z-11.250
G1 X152.525 Y90.781 Z-11.250
G0 X152.525 Y90.781
G0 Z6.000
G0 X151.255 Y90.781
G0 Z6.000
G1 X151.255 Y90.781 Z-12.000 F254.0
G1 X151.251 Y90.837 Z-12.000 F177.8
G1 X151.237 Y90.896 Z-12.000
G1 X151.214 Y90.954 Z-12.000
G1 X151.182 Y91.009 Z-12.000
G1 X151.140 Y91.058 Z-12.000
G1 X151.090 Y91.100 Z-12.000
G1 X151.035 Y91.133 Z-12.000
G1 X150.978 Y91.156 Z-12.000
G1 X150.919 Y91.169 Z-12.000
G1 X150.862 Y91.173 Z-12.000
G1 X150.805 Y91.169 Z-12.000
G1 X150.747 Y91.156 Z-12.000
G1 X150.689 Y91.133 Z-12.000
G1 X150.634 Y91.100 Z-12.000
G1 X150.585 Y91.058 Z-12.000
G1 X150.543 Y91.009 Z-12.000
G1 X150.510 Y90.954 Z-12.000
G1 X150.487 Y90.896 Z-12.000
G1 X150.474 Y90.837 Z-12.000
G1 X150.470 Y90.781 Z-12.000
G1 X150.474 Y90.724 Z-12.000
G1 X150.487 Y90.665 Z-12.000
G1 X150.510 Y90.607 Z-12.000
G1 X150.543 Y90.553 Z-12.000
G1 X150.585 Y90.503 Z-12.000
G1 X150.634 Y90.461 Z-12.000
G1 X150.689 Y90.428 Z-12.000
G1 X150.747 Y90.405 Z-12.000
G1 X150.805 Y90.392 Z-12.000
G1 X150.862 Y90.388 Z-12.000
G1 X150.919 Y90.392 Z-12.000
G1 X150.978 Y90.405 Z-12.000
G1 X151.035 Y90.428 Z-12.000
G1 X151.090 Y90.461 Z-12.000
G1 X151.140 Y90.503 Z-12.000
G1 X151.182 Y90.553 Z-12.000
G1 X151.214 Y90.607 Z-12.000
G1 X151.237 Y90.665 Z-12.000
G1 X151.251 Y90.724 Z-12.000
G1 X151.255 Y90.781 Z-12.000
G1 X152.525 Y90.781 Z-12.000
G1 X152.507 Y91.022 Z-12.000
G1 X152.451 Y91.269 Z-12.000
G1 X152.354 Y91.514 Z-12.000
G1 X152.215 Y91.747 Z-12.000
G1 X152.038 Y91.956 Z-12.000
G1 X151.828 Y92.134 Z-12.000
G1 X151.596 Y92.272 Z-12.000
G1 X151.351 Y92.370 Z-12.000
G1 X151.103 Y92.426 Z-12.000
G1 X150.862 Y92.443 Z-12.000
G1 X150.621 Y92.426 Z-12.000
G1 X150.374 Y92.370 Z-12.000
G1 X150.129 Y92.272 Z-12.000
G1 X149.896 Y92.134 Z-12.000
G1 X149.687 Y91.956 Z-12.000
G1 X149.509 Y91.747 Z-12.000
G1 X149.370 Y91.514 Z-12.000
G1 X149.273 Y91.269 Z-12.000
G1 X149.217 Y91.022 Z-12.000
G1 X149.200 Y90.781 Z-12.000
G1 X149.217 Y90.540 Z-12.000
G1 X149.273 Y90.292 Z-12.000
G1 X149.370 Y90.047 Z-12.000
G1 X149.509 Y89.815 Z-12.000
G1 X149.687 Y89.605 Z-12.000
G1 X149.896 Y89.428 Z-12.000
G1 X150.129 Y89.289 Z-12.000
G1 X150.374 Y89.191 Z-12.000
G1 X150.621 Y89.136 Z-12.000
G1 X150.862 Y89.118 Z-12.000
G1 X151.103 Y89.136 Z-12.000
G1 X151.351 Y89.191 Z-12.000
G1 X151.596 Y89.289 Z-12.000
G1 X151.828 Y89.428 Z-12.000
G1 X152.038 Y89.605 Z-12.000
G1 X152.215 Y89.815 Z-12.000
G1 X152.354 Y90.047 Z-12.000
G1 X152.451 Y90.292 Z-12.000
G1 X152.507 Y90.540 Z-12.000
G1 X152.525 Y90.781 Z-12.000
G0 X152.525 Y90.781
G0 Z6.000
G0 X191.707 Y123.142
G0 Z6.000
G1 X191.707 Y123.142 Z-0.750 F254.0
G1 X191.703 Y123.198 Z-0.750 F177.8
G1 X191.689 Y123.257 Z-0.750
G1 X191.666 Y123.315 Z-0.750
G1 X191.634 Y123.370 Z-0.750
G1 X191.592 Y123.419 Z-0.750
G1 X191.542 Y123.461 Z-0.750
G1 X191.487 Y123.494 Z-0.750
G1 X191.430 Y123.517 Z-0.750
G1 X191.371 Y123.530 Z-0.750
G1 X191.314 Y123.534 Z-0.750
G1 X191.257 Y123.530 Z-0.750
G1 X191.199 Y123.517 Z-0.750
G1 X191.141 Y123.494 Z-0.750
G1 X191.086 Y123.461 Z-0.750
G1 X191.037 Y123.419 Z-0.750
G1 X190.995 Y123.370 Z-0.750
G1 X190.962 Y123.315 Z-0.750
G1 X190.939 Y123.257 Z-0.750
G1 X190.926 Y123.198 Z-0.750
G1 X190.922 Y123.142 Z-0.750
G1 X190.926 Y123.085 Z-0.750
G1 X190.939 Y123.026 Z-0.750
G1 X190.962 Y122.968 Z-0.750
G1 X190.995 Y122.914 Z-0.750
G1 X191.037 Y122.864 Z-0.750
G1 X191.086 Y122.822 Z-0.750
G1 X191.141 Y122.789 Z-0.750
G1 X191.199 Y122.766 Z-0.750
G1 X191.257 Y122.753 Z-0.750
G1 X191.314 Y122.749 Z-0.750
G1 X191.371 Y122.753 Z-0.750
G1 X191.430 Y122.766 Z-0.750
G1 X191.487 Y122.789 Z-0.750
G1 X191.542 Y122.822 Z-0.750
G1 X191.592 Y122.864 Z-0.750
G1 X191.634 Y122.914 Z-0.750
G1 X191.666 Y122.968 Z-0.750
G1 X191.689 Y123.026 Z-0.750
G1 X191.703 Y123.085 Z-0.750
G1 X191.707 Y123.142 Z-0.750
G1 X192.977 Y123.142 Z-0.750
G1 X192.959 Y123.383 Z-0.750
G1 X192.903 Y123.630 Z-0.750
G1 X192.806 Y123.875 Z-0.750
G1 X192.667 Y124.108 Z-0.750
G1 X192.490 Y124.317 Z-0.750
G1 X192.280 Y124.495 Z-0.750
G1 X192.048 Y124.633 Z-0.750
G1 X191.803 Y124.731 Z-0.750
G1 X191.555 Y124.787 Z-0.750
G1 X191.314 Y124.804 Z-0.750
G1 X191.073 Y124.787 Z-0.750
G1 X190.826 Y124.731 Z-0.750
G1 X190.581 Y124.633 Z-0.750
G1 X190.348 Y124.495 Z-0.750
G1 X190.139 Y124.317 Z-0.750
G1 X189.961 Y124.108 Z-0.750
G1 X189.822 Y123.875 Z-0.750
G1 X189.725 Y123.630 Z-0.750
G1 X189.669 Y123.383 Z-0.750
G1 X189.652 Y123.142 Z-0.750
G1 X189.669 Y122.901 Z-0.750
G1 X189.725 Y122.653 Z-0.750
G1 X189.822 Y122.408 Z-0.750
G1 X189.961 Y122.176 Z-0.750
G1 X190.139 Y121.966 Z-0.750
G1 X190.348 Y121.789 Z-0.750
G1 X190.581 Y121.650 Z-0.750
G1 X190.826 Y121.552 Z-0.750
G1 X191.073 Y121.497 Z-0.750
G1 X191.314 Y121.479 Z-0.750
G1 X191.555 Y121.497 Z-0.750
G1 X191.803 Y121.552 Z-0.750
G1 X192.048 Y121.650 Z-0.750
G1 X192.280 Y121.789 Z-0.750
G1 X192.490 Y121.966 Z-0.750
G1 X192.667 Y122.176 Z-0.750
G1 X192.806 Y122.408 Z-0.750
G1 X192.903 Y122.653 Z-0.750
G1 X192.959 Y122.901 Z-0.750
G1 X192.977 Y123.142 Z-0.750
G0 X192.977 Y123.142
G0 Z6.000
G0 X191.707 Y123.142
G0 Z6.000
G1 X191.707 Y123.142 Z-1.500 F254.0
G1 X191.703 Y123.198 Z-1.500 F177.8
G1 X191.689 Y123.257 Z-1.500
G1 X191.666 Y123.315 Z-1.500
G1 X191.634 Y123.370 Z-1.500
G1 X191.592 Y123.419 Z-1.500
G1 X191.542 Y123.461 Z-1.500
G1 X191.487 Y123.494 Z-1.500
G1 X191.430 Y123.517 Z-1.500
G1 X191.371 Y123.530 Z-1.500
G1 X191.314 Y123.534 Z-1.500
G1 X191.257 Y123.530 Z-1.500
G1 X191.199 Y123.517 Z-1.500
G1 X191.141 Y123.494 Z-1.500
G1 X191.086 Y123.461 Z-1.500
G1 X191.037 Y123.419 Z-1.500
G1 X190.995 Y123.370 Z-1.500
G1 X190.962 Y123.315 Z-1.500
G1 X190.939 Y123.257 Z-1.500
G1 X190.926 Y123.198 Z-1.500
G1 X190.922 Y123.142 Z-1.500
G1 X190.926 Y123.085 Z-1.500
G1 X190.939 Y123.026 Z-1.500
G1 X190.962 Y122.968 Z-1.500
G1 X190.995 Y122.914 Z-1.500
G1 X191.037 Y122.864 Z-1.500
G1 X191.086 Y122.822 Z-1.500
G1 X191.141 Y122.789 Z-1.500
G1 X191.199 Y122.766 Z-1.500
G1 X191.257 Y122.753 Z-1.500
G1 X191.314 Y122.749 Z-1.500
G1 X191.371 Y122.753 Z-1.500
G1 X191.430 Y122.766 Z-1.500
G1 X191.487 Y122.789 Z-1.500
G1 X191.542 Y122.822 Z-1.500
G1 X191.592 Y122.864 Z-1.500
G1 X191.634 Y122.914 Z-1.500
G1 X191.666 Y122.968 Z-1.500
G1 X191.689 Y123.026 Z-1.500
G1 X191.703 Y123.085 Z-1.500
G1 X191.707 Y123.142 Z-1.500
G1 X192.977 Y123.142 Z-1.500
G1 X192.959 Y123.383 Z-1.500
G1 X192.903 Y123.630 Z-1.500
G1 X192.806 Y123.875 Z-1.500
G1 X192.667 Y124.108 Z-1.500
G1 X192.490 Y124.317 Z-1.500
G1 X192.280 Y124.495 Z-1.500
G1 X192.048 Y124.633 Z-1.500
G1 X191.803 Y124.731 Z-1.500
G1 X191.555 Y124.787 Z-1.500
G1 X191.314 Y124.804 Z-1.500
G1 X191.073 Y124.787 Z-1.500
G1 X190.826 Y124.731 Z-1.500
G1 X190.581 Y124.633 Z-1.500
G1 X190.348 Y124.495 Z-1.500
G1 X190.139 Y124.317 Z-1.500
G1 X189.961 Y124.108 Z-1.500
G1 X189.822 Y123.875 Z-1.500
G1 X189.725 Y123.630 Z-1.500
G1 X189.669 Y123.383 Z-1.500
G1 X189.652 Y123.142 Z-1.500
G1 X189.669 Y122.901 Z-1.500
G1 X189.725 Y122.653 Z-1.500
G1 X189.822 Y122.408 Z-1.500
G1 X189.961 Y122.176 Z-1.500
G1 X190.139 Y121.966 Z-1.500
G1 X190.348 Y121.789 Z-1.500
G1 X190.581 Y121.650 Z-1.500
G1 X190.826 Y121.552 Z-1.500
G1 X191.073 Y121.497 Z-1.500
G1 X191.314 Y121.479 Z-1.500
G1 X191.555 Y121.497 Z-1.500
G1 X191.803 Y121.552 Z-1.500
G1 X192.048 Y121.650 Z-1.500
G1 X192.280 Y121.789 Z-1.500
G1 X192.490 Y121.966 Z-1.500
G1 X192.667 Y122.176 Z-1.500
G1 X192.806 Y122.408 Z-1.500
G1 X192.903 Y122.653 Z-1.500
G1 X192.959 Y122.901 Z-1.500
G1 X192.977 Y123.142 Z-1.500
G0 X192.977 Y123.142
G0 Z6.000
G0 X191.707 Y123.142
G0 Z6.000
G1 X191.707 Y123.142 Z-2.250 F254.0
G1 X191.703 Y123.198 Z-2.250 F177.8
G1 X191.689 Y123.257 Z-2.250
G1 X191.666 Y123.315 Z-2.250
G1 X191.634 Y123.370 Z-2.250
G1 X191.592 Y123.419 Z-2.250
G1 X191.542 Y123.461 Z-2.250
G1 X191.487 Y123.494 Z-2.250
G1 X191.430 Y123.517 Z-2.250
G1 X191.371 Y123.530 Z-2.250
G1 X191.314 Y123.534 Z-2.250
G1 X191.257 Y123.530 Z-2.250
G1 X191.199 Y123.517 Z-2.250
G1 X191.141 Y123.494 Z-2.250
G1 X191.086 Y123.461 Z-2.250
G1 X191.037 Y123.419 Z-2.250
G1 X190.995 Y123.370 Z-2.250
G1 X190.962 Y123.315 Z-2.250
G1 X190.939 Y123.257 Z-2.250
G1 X190.926 Y123.198 Z-2.250
G1 X190.922 Y123.142 Z-2.250
G1 X190.926 Y123.085 Z-2.250
G1 X190.939 Y123.026 Z-2.250
G1 X190.962 Y122.968 Z-2.250
G1 X190.995 Y122.914 Z-2.250
G1 X191.037 Y122.864 Z-2.250
G1 X191.086 Y122.822 Z-2.250
G1 X191.141 Y122.789 Z-2.250
G1 X191.199 Y122.766 Z-2.250
G1 X191.257 Y122.753 Z-2.250
G1 X191.314 Y122.749 Z-2.250
G1 X191.371 Y122.753 Z-2.250
G1 X191.430 Y122.766 Z-2.250
G1 X191.487 Y122.789 Z-2.250
G1 X191.542 Y122.822 Z-2.250
G1 X191.592 Y122.864 Z-2.250
G1 X191.634 Y122.914 Z-2.250
G1 X191.666 Y122.968 Z-2.250
G1 X191.689 Y123.026 Z-2.250
G1 X191.703 Y123.085 Z-2.250
G1 X191.707 Y123.142 Z-2.250
G1 X192.977 Y123.142 Z-2.250
G1 X192.959 Y123.383 Z-2.250
G1 X192.903 Y123.630 Z-2.250
G1 X192.806 Y123.875 Z-2.250
G1 X192.667 Y124.108 Z-2.250
G1 X192.490 Y124.317 Z-2.250
G1 X192.280 Y124.495 Z-2.250
G1 X192.048 Y124.633 Z-2.250
G1 X191.803 Y124.731 Z-2.250
G1 X191.555 Y124.787 Z-2.250
G1 X191.314 Y124.804 Z-2.250
G1 X191.073 Y124.787 Z-2.250
G1 X190.826 Y124.731 Z-2.250
G1 X190.581 Y124.633 Z-2.250
G1 X190.348 Y124.495 Z-2.250
G1 X190.139 Y124.317 Z-2.250
G1 X189.961 Y124.108 Z-2.250
G1 X189.822 Y123.875 Z-2.250
G1 X189.725 Y123.630 Z-2.250
G1 X189.669 Y123.383 Z-2.250
G1 X189.652 Y123.142 Z-2.250
G1 X189.669 Y122.901 Z-2.250
G1 X189.725 Y122.653 Z-2.250
G1 X189.822 Y122.408 Z-2.250
G1 X189.961 Y122.176 Z-2.250
G1 X190.139 Y121.966 Z-2.250
G1 X190.348 Y121.789 Z-2.250
G1 X190.581 Y121.650 Z-2.250
G1 X190.826 Y121.552 Z-2.250
G1 X191.073 Y121.497 Z-2.250
G1 X191.314 Y121.479 Z-2.250
G1 X191.555 Y121.497 Z-2.250
G1 X191.803 Y121.552 Z-2.250
G1 X192.048 Y121.650 Z-2.250
G1 X192.280 Y121.789 Z-2.250
G1 X192.490 Y121.966 Z-2.250
G1 X192.667 Y122.176 Z-2.250
G1 X192.806 Y122.408 Z-2.250
G1 X192.903 Y122.653 Z-2.250
G1 X192.959 Y122.901 Z-2.250
G1 X192.977 Y123.142 Z-2.250
G0 X192.977 Y123.142
G0 Z6.000
G0 X191.707 Y123.142
G0 Z6.000
G1 X191.707 Y123.142 Z-3.000 F254.0
G1 X191.703 Y123.198 Z-3.000 F177.8
G1 X191.689 Y123.257 Z-3.000
G1 X191.666 Y123.315 Z-3.000
G1 X191.634 Y123.370 Z-3.000
G1 X191.592 Y123.419 Z-3.000
G1 X191.542 Y123.461 Z-3.000
G1 X191.487 Y123.494 Z-3.000
G1 X191.430 Y123.517 Z-3.000
G1 X191.371 Y123.530 Z-3.000
G1 X191.314 Y123.534 Z-3.000
G1 X191.257 Y123.530 Z-3.000
G1 X191.199 Y123.517 Z-3.000
G1 X191.141 Y123.494 Z-3.000
G1 X191.086 Y123.461 Z-3.000
G1 X191.037 Y123.419 Z-3.000
G1 X190.995 Y123.370 Z-3.000
G1 X190.962 Y123.315 Z-3.000
G1 X190.939 Y123.257 Z-3.000
G1 X190.926 Y123.198 Z-3.000
G1 X190.922 Y123.142 Z-3.000
G1 X190.926 Y123.085 Z-3.000
G1 X190.939 Y123.026 Z-3.000
G1 X190.962 Y122.968 Z-3.000
G1 X190.995 Y122.914 Z-3.000
G1 X191.037 Y122.864 Z-3.000
G1 X191.086 Y122.822 Z-3.000
G1 X191.141 Y122.789 Z-3.000
G1 X191.199 Y122.766 Z-3.000
G1 X191.257 Y122.753 Z-3.000
G1 X191.314 Y122.749 Z-3.000
G1 X191.371 Y122.753 Z-3.000
G1 X191.430 Y122.766 Z-3.000
G1 X191.487 Y122.789 Z-3.000
G1 X191.542 Y122.822 Z-3.000
G1 X191.592 Y122.864 Z-3.000
G1 X191.634 Y122.914 Z-3.000
G1 X191.666 Y122.968 Z-3.000
G1 X191.689 Y123.026 Z-3.000
G1 X191.703 Y123.085 Z-3.000
G1 X191.707 Y123.142 Z-3.000
G1 X192.977 Y123.142 Z-3.000
G1 X192.959 Y123.383 Z-3.000
G1 X192.903 Y123.630 Z-3.000
G1 X192.806 Y123.875 Z-3.000
G1 X192.667 Y124.108 Z-3.000
G1 X192.490 Y124.317 Z-3.000
G1 X192.280 Y124.495 Z-3.000
G1 X192.048 Y124.633 Z-3.000
G1 X191.803 Y124.731 Z-3.000
G1 X191.555 Y124.787 Z-3.000
G1 X191.314 Y124.804 Z-3.000
G1 X191.073 Y124.787 Z-3.000
G1 X190.826 Y124.731 Z-3.000
G1 X190.581 Y124.633 Z-3.000
G1 X190.348 Y124.495 Z-3.000
G1 X190.139 Y124.317 Z-3.000
G1 X189.961 Y124.108 Z-3.000
G1 X189.822 Y123.875 Z-3.000
G1 X189.725 Y123.630 Z-3.000
G1 X189.669 Y123.383 Z-3.000
G1 X189.652 Y123.142 Z-3.000
G1 X189.669 Y122.901 Z-3.000
G1 X189.725 Y122.653 Z-3.000
G1 X189.822 Y122.408 Z-3.000
G1 X189.961 Y122.176 Z-3.000
G1 X190.139 Y121.966 Z-3.000
G1 X190.348 Y121.789 Z-3.000
G1 X190.581 Y121.650 Z-3.000
G1 X190.826 Y121.552 Z-3.000
G1 X191.073 Y121.497 Z-3.000
G1 X191.314 Y121.479 Z-3.000
G1 X191.555 Y121.497 Z-3.000
G1 X191.803 Y121.552 Z-3.000
G1 X192.048 Y121.650 Z-3.000
G1 X192.280 Y121.789 Z-3.000
G1 X192.490 Y121.966 Z-3.000
G1 X192.667 Y122.176 Z-3.000
G1 X192.806 Y122.408 Z-3.000
G1 X192.903 Y122.653 Z-3.000
G1 X192.959 Y122.901 Z-3.000
G1 X192.977 Y123.142 Z-3.000
G0 X192.977 Y123.142
G0 Z6.000
G0 X191.707 Y123.142
G0 Z6.000
G1 X191.707 Y123.142 Z-3.750 F254.0
G1 X191.703 Y123.198 Z-3.750 F177.8
G1 X191.689 Y123.257 Z-3.750
G1 X191.666 Y123.315 Z-3.750
G1 X191.634 Y123.370 Z-3.750
G1 X191.592 Y123.419 Z-3.750
G1 X191.542 Y123.461 Z-3.750
G1 X191.487 Y123.494 Z-3.750
G1 X191.430 Y123.517 Z-3.750
G1 X191.371 Y123.530 Z-3.750
G1 X191.314 Y123.534 Z-3.750
G1 X191.257 Y123.530 Z-3.750
G1 X191.199 Y123.517 Z-3.750
G1 X191.141 Y123.494 Z-3.750
G1 X191.086 Y123.461 Z-3.750
G1 X191.037 Y123.419 Z-3.750
G1 X190.995 Y123.370 Z-3.750
G1 X190.962 Y123.315 Z-3.750
G1 X190.939 Y123.257 Z-3.750
G1 X190.926 Y123.198 Z-3.750
G1 X190.922 Y123.142 Z-3.750
G1 X190.926 Y123.085 Z-3.750
G1 X190.939 Y123.026 Z-3.750
G1 X190.962 Y122.968 Z-3.750
G1 X190.995 Y122.914 Z-3.750
G1 X191.037 Y122.864 Z-3.750
G1 X191.086 Y122.822 Z-3.750
G1 X191.141 Y122.789 Z-3.750
G1 X191.199 Y122.766 Z-3.750
G1 X191.257 Y122.753 Z-3.750
G1 X191.314 Y122.749 Z-3.750
G1 X191.371 Y122.753 Z-3.750
G1 X191.430 Y122.766 Z-3.750
G1 X191.487 Y122.789 Z-3.750
G1 X191.542 Y122.822 Z-3.750
G1 X191.592 Y122.864 Z-3.750
G1 X191.634 Y122.914 Z-3.750
G1 X191.666 Y122.968 Z-3.750
G1 X191.689 Y123.026 Z-3.750
G1 X191.703 Y123.085 Z-3.750
G1 X191.707 Y123.142 Z-3.750
G1 X192.977 Y123.142 Z-3.750
G1 X192.959 Y123.383 Z-3.750
G1 X192.903 Y123.630 Z-3.750
G1 X192.806 Y123.875 Z-3.750
G1 X192.667 Y124.108 Z-3.750
G1 X192.490 Y124.317 Z-3.750
G1 X192.280 Y124.495 Z-3.750
G1 X192.048 Y124.633 Z-3.750
G1 X191.803 Y124.731 Z-3.750
G1 X191.555 Y124.787 Z-3.750
G1 X191.314 Y124.804 Z-3.750
G1 X191.073 Y124.787 Z-3.750
G1 X190.826 Y124.731 Z-3.750
G1 X190.581 Y124.633 Z-3.750
G1 X190.348 Y124.495 Z-3.750
G1 X190.139 Y124.317 Z-3.750
G1 X189.961 Y124.108 Z-3.750
G1 X189.822 Y123.875 Z-3.750
G1 X189.725 Y123.630 Z-3.750
G1 X189.669 Y123.383 Z-3.750
G1 X189.652 Y123.142 Z-3.750
G1 X189.669 Y122.901 Z-3.750
G1 X189.725 Y122.653 Z-3.750
G1 X189.822 Y122.408 Z-3.750
G1 X189.961 Y122.176 Z-3.750
G1 X190.139 Y121.966 Z-3.750
G1 X190.348 Y121.789 Z-3.750
G1 X190.581 Y121.650 Z-3.750
G1 X190.826 Y121.552 Z-3.750
G1 X191.073 Y121.497 Z-3.750
G1 X191.314 Y121.479 Z-3.750
G1 X191.555 Y121.497 Z-3.750
G1 X191.803 Y121.552 Z-3.750
G1 X192.048 Y121.650 Z-3.750
G1 X192.280 Y121.789 Z-3.750
G1 X192.490 Y121.966 Z-3.750
G1 X192.667 Y122.176 Z-3.750
G1 X192.806 Y122.408 Z-3.750
G1 X192.903 Y122.653 Z-3.750
G1 X192.959 Y122.901 Z-3.750
G1 X192.977 Y123.142 Z-3.750
G0 X192.977 Y123.142
G0 Z6.000
G0 X191.707 Y123.142
G0 Z6.000
G1 X191.707 Y123.142 Z-4.500 F254.0
G1 X191.703 Y123.198 Z-4.500 F177.8
G1 X191.689 Y123.257 Z-4.500
G1 X191.666 Y123.315 Z-4.500
G1 X191.634 Y123.370 Z-4.500
G1 X191.592 Y123.419 Z-4.500
G1 X191.542 Y123.461 Z-4.500
G1 X191.487 Y123.494 Z-4.500
G1 X191.430 Y123.517 Z-4.500
G1 X191.371 Y123.530 Z-4.500
G1 X191.314 Y123.534 Z-4.500
G1 X191.257 Y123.530 Z-4.500
G1 X191.199 Y123.517 Z-4.500
G1 X191.141 Y123.494 Z-4.500
G1 X191.086 Y123.461 Z-4.500
G1 X191.037 Y123.419 Z-4.500
G1 X190.995 Y123.370 Z-4.500
G1 X190.962 Y123.315 Z-4.500
G1 X190.939 Y123.257 Z-4.500
G1 X190.926 Y123.198 Z-4.500
G1 X190.922 Y123.142 Z-4.500
G1 X190.926 Y123.085 Z-4.500
G1 X190.939 Y123.026 Z-4.500
G1 X190.962 Y122.968 Z-4.500
G1 X190.995 Y122.914 Z-4.500
G1 X191.037 Y122.864 Z-4.500
G1 X191.086 Y122.822 Z-4.500
G1 X191.141 Y122.789 Z-4.500
G1 X191.199 Y122.766 Z-4.500
G1 X191.257 Y122.753 Z-4.500
G1 X191.314 Y122.749 Z-4.500
G1 X191.371 Y122.753 Z-4.500
G1 X191.430 Y122.766 Z-4.500
G1 X191.487 Y122.789 Z-4.500
G1 X191.542 Y122.822 Z-4.500
G1 X191.592 Y122.864 Z-4.500
G1 X191.634 Y122.914 Z-4.500
G1 X191.666 Y122.968 Z-4.500
G1 X191.689 Y123.026 Z-4.500
G1 X191.703 Y123.085 Z-4.500
G1 X191.707 Y123.142 Z-4.500
G1 X192.977 Y123.142 Z-4.500
G1 X192.959 Y123.383 Z-4.500
G1 X192.903 Y123.630 Z-4.500
G1 X192.806 Y123.875 Z-4.500
G1 X192.667 Y124.108 Z-4.500
G1 X192.490 Y124.317 Z-4.500
G1 X192.280 Y124.495 Z-4.500
G1 X192.048 Y124.633 Z-4.500
G1 X191.803 Y124.731 Z-4.500
G1 X191.555 Y124.787 Z-4.500
G1 X191.314 Y124.804 Z-4.500
G1 X191.073 Y124.787 Z-4.500
G1 X190.826 Y124.731 Z-4.500
G1 X190.581 Y124.633 Z-4.500
G1 X190.348 Y124.495 Z-4.500
G1 X190.139 Y124.317 Z-4.500
G1 X189.961 Y124.108 Z-4.500
G1 X189.822 Y123.875 Z-4.500
G1 X189.725 Y123.630 Z-4.500
G1 X189.669 Y123.383 Z-4.500
G1 X189.652 Y123.142 Z-4.500
G1 X189.669 Y122.901 Z-4.500
G1 X189.725 Y122.653 Z-4.500
G1 X189.822 Y122.408 Z-4.500
G1 X189.961 Y122.176 Z-4.500
G1 X190.139 Y121.966 Z-4.500
G1 X190.348 Y121.789 Z-4.500
G1 X190.581 Y121.650 Z-4.500
G1 X190.826 Y121.552 Z-4.500
G1 X191.073 Y121.497 Z-4.500
G1 X191.314 Y121.479 Z-4.500
G1 X191.555 Y121.497 Z-4.500
G1 X191.803 Y121.552 Z-4.500
G1 X192.048 Y121.650 Z-4.500
G1 X192.280 Y121.789 Z-4.500
G1 X192.490 Y121.966 Z-4.500
G1 X192.667 Y122.176 Z-4.500
G1 X192.806 Y122.408 Z-4.500
G1 X192.903 Y122.653 Z-4.500
G1 X192.959 Y122.901 Z-4.500
G1 X192.977 Y123.142 Z-4.500
G0 X192.977 Y123.142
G0 Z6.000
G0 X191.707 Y123.142
G0 Z6.000
G1 X191.707 Y123.142 Z-5.250 F254.0
G1 X191.703 Y123.198 Z-5.250 F177.8
G1 X191.689 Y123.257 Z-5.250
G1 X191.666 Y123.315 Z-5.250
G1 X191.634 Y123.370 Z-5.250
G1 X191.592 Y123.419 Z-5.250
G1 X191.542 Y123.461 Z-5.250
G1 X191.487 Y123.494 Z-5.250
G1 X191.430 Y123.517 Z-5.250
G1 X191.371 Y123.530 Z-5.250
G1 X191.314 Y123.534 Z-5.250
G1 X191.257 Y123.530 Z-5.250
G1 X191.199 Y123.517 Z-5.250
G1 X191.141 Y123.494 Z-5.250
G1 X191.086 Y123.461 Z-5.250
G1 X191.037 Y123.419 Z-5.250
G1 X190.995 Y123.370 Z-5.250
G1 X190.962 Y123.315 Z-5.250
G1 X190.939 Y123.257 Z-5.250
G1 X190.926 Y123.198 Z-5.250
G1 X190.922 Y123.142 Z-5.250
G1 X190.926 Y123.085 Z-5.250
G1 X190.939 Y123.026 Z-5.250
G1 X190.962 Y122.968 Z-5.250
G1 X190.995 Y122.914 Z-5.250
G1 X191.037 Y122.864 Z-5.250
G1 X191.086 Y122.822 Z-5.250
G1 X191.141 Y122.789 Z-5.250
G1 X191.199 Y122.766 Z-5.250
G1 X191.257 Y122.753 Z-5.250
G1 X191.314 Y122.749 Z-5.250
G1 X191.371 Y122.753 Z-5.250
G1 X191.430 Y122.766 Z-5.250
G1 X191.487 Y122.789 Z-5.250
G1 X191.542 Y122.822 Z-5.250
G1 X191.592 Y122.864 Z-5.250
G1 X191.634 Y122.914 Z-5.250
G1 X191.666 Y122.968 Z-5.250
G1 X191.689 Y123.026 Z-5.250
G1 X191.703 Y123.085 Z-5.250
G1 X191.707 Y123.142 Z-5.250
G1 X192.977 Y123.142 Z-5.250
G1 X192.959 Y123.383 Z-5.250
G1 X192.903 Y123.630 Z-5.250
G1 X192.806 Y123.875 Z-5.250
G1 X192.667 Y124.108 Z-5.250
G1 X192.490 Y124.317 Z-5.250
G1 X192.280 Y124.495 Z-5.250
G1 X192.048 Y124.633 Z-5.250
G1 X191.803 Y124.731 Z-5.250
G1 X191.555 Y124.787 Z-5.250
G1 X191.314 Y124.804 Z-5.250
G1 X191.073 Y124.787 Z-5.250
G1 X190.826 Y124.731 Z-5.250
G1 X190.581 Y124.633 Z-5.250
G1 X190.348 Y124.495 Z-5.250
G1 X190.139 Y124.317 Z-5.250
G1 X189.961 Y124.108 Z-5.250
G1 X189.822 Y123.875 Z-5.250
G1 X189.725 Y123.630 Z-5.250
G1 X189.669 Y123.383 Z-5.250
G1 X189.652 Y123.142 Z-5.250
G1 X189.669 Y122.901 Z-5.250
G1 X189.725 Y122.653 Z-5.250
G1 X189.822 Y122.408 Z-5.250
G1 X189.961 Y122.176 Z-5.250
G1 X190.139 Y121.966 Z-5.250
G1 X190.348 Y121.789 Z-5.250
G1 X190.581 Y121.650 Z-5.250
G1 X190.826 Y121.552 Z-5.250
G1 X191.073 Y121.497 Z-5.250
G1 X191.314 Y121.479 Z-5.250
G1 X191.555 Y121.497 Z-5.250
G1 X191.803 Y121.552 Z-5.250
G1 X192.048 Y121.650 Z-5.250
G1 X192.280 Y121.789 Z-5.250
G1 X192.490 Y121.966 Z-5.250
G1 X192.667 Y122.176 Z-5.250
G1 X192.806 Y122.408 Z-5.250
G1 X192.903 Y122.653 Z-5.250
G1 X192.959 Y122.901 Z-5.250
G1 X192.977 Y123.142 Z-5.250
G0 X192.977 Y123.142
G0 Z6.000
G0 X191.707 Y123.142
G0 Z6.000
G1 X191.707 Y123.142 Z-6.000 F254.0
G1 X191.703 Y123.198 Z-6.000 F177.8
G1 X191.689 Y123.257 Z-6.000
G1 X191.666 Y123.315 Z-6.000
G1 X191.634 Y123.370 Z-6.000
G1 X191.592 Y123.419 Z-6.000
G1 X191.542 Y123.461 Z-6.000
G1 X191.487 Y123.494 Z-6.000
G1 X191.430 Y123.517 Z-6.000
G1 X191.371 Y123.530 Z-6.000
G1 X191.314 Y123.534 Z-6.000
G1 X191.257 Y123.530 Z-6.000
G1 X191.199 Y123.517 Z-6.000
G1 X191.141 Y123.494 Z-6.000
G1 X191.086 Y123.461 Z-6.000
G1 X191.037 Y123.419 Z-6.000
G1 X190.995 Y123.370 Z-6.000
G1 X190.962 Y123.315 Z-6.000
G1 X190.939 Y123.257 Z-6.000
G1 X190.926 Y123.198 Z-6.000
G1 X190.922 Y123.142 Z-6.000
G1 X190.926 Y123.085 Z-6.000
G1 X190.939 Y123.026 Z-6.000
G1 X190.962 Y122.968 Z-6.000
G1 X190.995 Y122.914 Z-6.000
G1 X191.037 Y122.864 Z-6.000
G1 X191.086 Y122.822 Z-6.000
G1 X191.141 Y122.789 Z-6.000
G1 X191.199 Y122.766 Z-6.000
G1 X191.257 Y122.753 Z-6.000
G1 X191.314 Y122.749 Z-6.000
G1 X191.371 Y122.753 Z-6.000
G1 X191.430 Y122.766 Z-6.000
G1 X191.487 Y122.789 Z-6.000
G1 X191.542 Y122.822 Z-6.000
G1 X191.592 Y122.864 Z-6.000
G1 X191.634 Y122.914 Z-6.000
G1 X191.666 Y122.968 Z-6.000
G1 X191.689 Y123.026 Z-6.000
G1 X191.703 Y123.085 Z-6.000
G1 X191.707 Y123.142 Z-6.000
G1 X192.977 Y123.142 Z-6.000
G1 X192.959 Y123.383 Z-6.000
G1 X192.903 Y123.630 Z-6.000
G1 X192.806 Y123.875 Z-6.000
G1 X192.667 Y124.108 Z-6.000
G1 X192.490 Y124.317 Z-6.000
G1 X192.280 Y124.495 Z-6.000
G1 X192.048 Y124.633 Z-6.000
G1 X191.803 Y124.731 Z-6.000
G1 X191.555 Y124.787 Z-6.000
G1 X191.314 Y124.804 Z-6.000
G1 X191.073 Y124.787 Z-6.000
G1 X190.826 Y124.731 Z-6.000
G1 X190.581 Y124.633 Z-6.000
G1 X190.348 Y124.495 Z-6.000
G1 X190.139 Y124.317 Z-6.000
G1 X189.961 Y124.108 Z-6.000
G1 X189.822 Y123.875 Z-6.000
G1 X189.725 Y123.630 Z-6.000
G1 X189.669 Y123.383 Z-6.000
G1 X189.652 Y123.142 Z-6.000
G1 X189.669 Y122.901 Z-6.000
G1 X189.725 Y122.653 Z-6.000
G1 X189.822 Y122.408 Z-6.000
G1 X189.961 Y122.176 Z-6.000
G1 X190.139 Y121.966 Z-6.000
G1 X190.348 Y121.789 Z-6.000
G1 X190.581 Y121.650 Z-6.000
G1 X190.826 Y121.552 Z-6.000
G1 X191.073 Y121.497 Z-6.000
G1 X191.314 Y121.479 Z-6.000
G1 X191.555 Y121.497 Z-6.000
G1 X191.803 Y121.552 Z-6.000
G1 X192.048 Y121.650 Z-6.000
G1 X192.280 Y121.789 Z-6.000
G1 X192.490 Y121.966 Z-6.000
G1 X192.667 Y122.176 Z-6.000
G1 X192.806 Y122.408 Z-6.000
G1 X192.903 Y122.653 Z-6.000
G1 X192.959 Y122.901 Z-6.000
G1 X192.977 Y123.142 Z-6.000
G0 X192.977 Y123.142
G0 Z6.000
G0 X191.707 Y123.142
G0 Z6.000
G1 X191.707 Y123.142 Z-6.750 F254.0
G1 X191.703 Y123.198 Z-6.750 F177.8
G1 X191.689 Y123.257 Z-6.750
G1 X191.666 Y123.315 Z-6.750
G1 X191.634 Y123.370 Z-6.750
G1 X191.592 Y123.419 Z-6.750
G1 X191.542 Y123.461 Z-6.750
G1 X191.487 Y123.494 Z-6.750
G1 X191.430 Y123.517 Z-6.750
G1 X191.371 Y123.530 Z-6.750
G1 X191.314 Y123.534 Z-6.750
G1 X191.257 Y123.530 Z-6.750
G1 X191.199 Y123.517 Z-6.750
G1 X191.141 Y123.494 Z-6.750
G1 X191.086 Y123.461 Z-6.750
G1 X191.037 Y123.419 Z-6.750
G1 X190.995 Y123.370 Z-6.750
G1 X190.962 Y123.315 Z-6.750
G1 X190.939 Y123.257 Z-6.750
G1 X190.926 Y123.198 Z-6.750
G1 X190.922 Y123.142 Z-6.750
G1 X190.926 Y123.085 Z-6.750
G1 X190.939 Y123.026 Z-6.750
G1 X190.962 Y122.968 Z-6.750
G1 X190.995 Y122.914 Z-6.750
G1 X191.037 Y122.864 Z-6.750
G1 X191.086 Y122.822 Z-6.750
G1 X191.141 Y122.789 Z-6.750
G1 X191.199 Y122.766 Z-6.750
G1 X191.257 Y122.753 Z-6.750
G1 X191.314 Y122.749 Z-6.750
G1 X191.371 Y122.753 Z-6.750
G1 X191.430 Y122.766 Z-6.750
G1 X191.487 Y122.789 Z-6.750
G1 X191.542 Y122.822 Z-6.750
G1 X191.592 Y122.864 Z-6.750
G1 X191.634 Y122.914 Z-6.750
G1 X191.666 Y122.968 Z-6.750
G1 X191.689 Y123.026 Z-6.750
G1 X191.703 Y123.085 Z-6.750
G1 X191.707 Y123.142 Z-6.750
G1 X192.977 Y123.142 Z-6.750
G1 X192.959 Y123.383 Z-6.750
G1 X192.903 Y123.630 Z-6.750
G1 X192.806 Y123.875 Z-6.750
G1 X192.667 Y124.108 Z-6.750
G1 X192.490 Y124.317 Z-6.750
G1 X192.280 Y124.495 Z-6.750
G1 X192.048 Y124.633 Z-6.750
G1 X191.803 Y124.731 Z-6.750
G1 X191.555 Y124.787 Z-6.750
G1 X191.314 Y124.804 Z-6.750
G1 X191.073 Y124.787 Z-6.750
G1 X190.826 Y124.731 Z-6.750
G1 X190.581 Y124.633 Z-6.750
G1 X190.348 Y124.495 Z-6.750
G1 X190.139 Y124.317 Z-6.750
G1 X189.961 Y124.108 Z-6.750
G1 X189.822 Y123.875 Z-6.750
G1 X189.725 Y123.630 Z-6.750
G1 X189.669 Y123.383 Z-6.750
G1 X189.652 Y123.142 Z-6.750
G1 X189.669 Y122.901 Z-6.750
G1 X189.725 Y122.653 Z-6.750
G1 X189.822 Y122.408 Z-6.750
G1 X189.961 Y122.176 Z-6.750
G1 X190.139 Y121.966 Z-6.750
G1 X190.348 Y121.789 Z-6.750
G1 X190.581 Y121.650 Z-6.750
G1 X190.826 Y121.552 Z-6.750
G1 X191.073 Y121.497 Z-6.750
G1 X191.314 Y121.479 Z-6.750
G1 X191.555 Y121.497 Z-6.750
G1 X191.803 Y121.552 Z-6.750
G1 X192.048 Y121.650 Z-6.750
G1 X192.280 Y121.789 Z-6.750
G1 X192.490 Y121.966 Z-6.750
G1 X192.667 Y122.176 Z-6.750
G1 X192.806 Y122.408 Z-6.750
G1 X192.903 Y122.653 Z-6.750
G1 X192.959 Y122.901 Z-6.750
G1 X192.977 Y123.142 Z-6.750
G0 X192.977 Y123.142
G0 Z6.000
G0 X191.707 Y123.142
G0 Z6.000
G1 X191.707 Y123.142 Z-7.500 F254.0
G1 X191.703 Y123.198 Z-7.500 F177.8
G1 X191.689 Y123.257 Z-7.500
G1 X191.666 Y123.315 Z-7.500
G1 X191.634 Y123.370 Z-7.500
G1 X191.592 Y123.419 Z-7.500
G1 X191.542 Y123.461 Z-7.500
G1 X191.487 Y123.494 Z-7.500
G1 X191.430 Y123.517 Z-7.500
G1 X191.371 Y123.530 Z-7.500
G1 X191.314 Y123.534 Z-7.500
G1 X191.257 Y123.530 Z-7.500
G1 X191.199 Y123.517 Z-7.500
G1 X191.141 Y123.494 Z-7.500
G1 X191.086 Y123.461 Z-7.500
G1 X191.037 Y123.419 Z-7.500
G1 X190.995 Y123.370 Z-7.500
G1 X190.962 Y123.315 Z-7.500
G1 X190.939 Y123.257 Z-7.500
G1 X190.926 Y123.198 Z-7.500
G1 X190.922 Y123.142 Z-7.500
G1 X190.926 Y123.085 Z-7.500
G1 X190.939 Y123.026 Z-7.500
G1 X190.962 Y122.968 Z-7.500
G1 X190.995 Y122.914 Z-7.500
G1 X191.037 Y122.864 Z-7.500
G1 X191.086 Y122.822 Z-7.500
G1 X191.141 Y122.789 Z-7.500
G1 X191.199 Y122.766 Z-7.500
G1 X191.257 Y122.753 Z-7.500
G1 X191.314 Y122.749 Z-7.500
G1 X191.371 Y122.753 Z-7.500
G1 X191.430 Y122.766 Z-7.500
G1 X191.487 Y122.789 Z-7.500
G1 X191.542 Y122.822 Z-7.500
G1 X191.592 Y122.864 Z-7.500
G1 X191.634 Y122.914 Z-7.500
G1 X191.666 Y122.968 Z-7.500
G1 X191.689 Y123.026 Z-7.500
G1 X191.703 Y123.085 Z-7.500
G1 X191.707 Y123.142 Z-7.500
G1 X192.977 Y123.142 Z-7.500
G1 X192.959 Y123.383 Z-7.500
G1 X192.903 Y123.630 Z-7.500
G1 X192.806 Y123.875 Z-7.500
G1 X192.667 Y124.108 Z-7.500
G1 X192.490 Y124.317 Z-7.500
G1 X192.280 Y124.495 Z-7.500
G1 X192.048 Y124.633 Z-7.500
G1 X191.803 Y124.731 Z-7.500
G1 X191.555 Y124.787 Z-7.500
G1 X191.314 Y124.804 Z-7.500
G1 X191.073 Y124.787 Z-7.500
G1 X190.826 Y124.731 Z-7.500
G1 X190.581 Y124.633 Z-7.500
G1 X190.348 Y124.495 Z-7.500
G1 X190.139 Y124.317 Z-7.500
G1 X189.961 Y124.108 Z-7.500
G1 X189.822 Y123.875 Z-7.500
G1 X189.725 Y123.630 Z-7.500
G1 X189.669 Y123.383 Z-7.500
G1 X189.652 Y123.142 Z-7.500
G1 X189.669 Y122.901 Z-7.500
G1 X189.725 Y122.653 Z-7.500
G1 X189.822 Y122.408 Z-7.500
G1 X189.961 Y122.176 Z-7.500
G1 X190.139 Y121.966 Z-7.500
G1 X190.348 Y121.789 Z-7.500
G1 X190.581 Y121.650 Z-7.500
G1 X190.826 Y121.552 Z-7.500
G1 X191.073 Y121.497 Z-7.500
G1 X191.314 Y121.479 Z-7.500
G1 X191.555 Y121.497 Z-7.500
G1 X191.803 Y121.552 Z-7.500
G1 X192.048 Y121.650 Z-7.500
G1 X192.280 Y121.789 Z-7.500
G1 X192.490 Y121.966 Z-7.500
G1 X192.667 Y122.176 Z-7.500
G1 X192.806 Y122.408 Z-7.500
G1 X192.903 Y122.653 Z-7.500
G1 X192.959 Y122.901 Z-7.500
G1 X192.977 Y123.142 Z-7.500
G0 X192.977 Y123.142
G0 Z6.000
G0 X191.707 Y123.142
G0 Z6.000
G1 X191.707 Y123.142 Z-8.250 F254.0
G1 X191.703 Y123.198 Z-8.250 F177.8
G1 X191.689 Y123.257 Z-8.250
G1 X191.666 Y123.315 Z-8.250
G1 X191.634 Y123.370 Z-8.250
G1 X191.592 Y123.419 Z-8.250
G1 X191.542 Y123.461 Z-8.250
G1 X191.487 Y123.494 Z-8.250
G1 X191.430 Y123.517 Z-8.250
G1 X191.371 Y123.530 Z-8.250
G1 X191.314 Y123.534 Z-8.250
G1 X191.257 Y123.530 Z-8.250
G1 X191.199 Y123.517 Z-8.250
G1 X191.141 Y123.494 Z-8.250
G1 X191.086 Y123.461 Z-8.250
G1 X191.037 Y123.419 Z-8.250
G1 X190.995 Y123.370 Z-8.250
G1 X190.962 Y123.315 Z-8.250
G1 X190.939 Y123.257 Z-8.250
G1 X190.926 Y123.198 Z-8.250
G1 X190.922 Y123.142 Z-8.250
G1 X190.926 Y123.085 Z-8.250
G1 X190.939 Y123.026 Z-8.250
G1 X190.962 Y122.968 Z-8.250
G1 X190.995 Y122.914 Z-8.250
G1 X191.037 Y122.864 Z-8.250
G1 X191.086 Y122.822 Z-8.250
G1 X191.141 Y122.789 Z-8.250
G1 X191.199 Y122.766 Z-8.250
G1 X191.257 Y122.753 Z-8.250
G1 X191.314 Y122.749 Z-8.250
G1 X191.371 Y122.753 Z-8.250
G1 X191.430 Y122.766 Z-8.250
G1 X191.487 Y122.789 Z-8.250
G1 X191.542 Y122.822 Z-8.250
G1 X191.592 Y122.864 Z-8.250
G1 X191.634 Y122.914 Z-8.250
G1 X191.666 Y122.968 Z-8.250
G1 X191.689 Y123.026 Z-8.250
G1 X191.703 Y123.085 Z-8.250
G1 X191.707 Y123.142 Z-8.250
G1 X192.977 Y123.142 Z-8.250
G1 X192.959 Y123.383 Z-8.250
G1 X192.903 Y123.630 Z-8.250
G1 X192.806 Y123.875 Z-8.250
G1 X192.667 Y124.108 Z-8.250
G1 X192.490 Y124.317 Z-8.250
G1 X192.280 Y124.495 Z-8.250
G1 X192.048 Y124.633 Z-8.250
G1 X191.803 Y124.731 Z-8.250
G1 X191.555 Y124.787 Z-8.250
G1 X191.314 Y124.804 Z-8.250
G1 X191.073 Y124.787 Z-8.250
G1 X190.826 Y124.731 Z-8.250
G1 X190.581 Y124.633 Z-8.250
G1 X190.348 Y124.495 Z-8.250
G1 X190.139 Y124.317 Z-8.250
G1 X189.961 Y124.108 Z-8.250
G1 X189.822 Y123.875 Z-8.250
G1 X189.725 Y123.630 Z-8.250
G1 X189.669 Y123.383 Z-8.250
G1 X189.652 Y123.142 Z-8.250
G1 X189.669 Y122.901 Z-8.250
G1 X189.725 Y122.653 Z-8.250
G1 X189.822 Y122.408 Z-8.250
G1 X189.961 Y122.176 Z-8.250
G1 X190.139 Y121.966 Z-8.250
G1 X190.348 Y121.789 Z-8.250
G1 X190.581 Y121.650 Z-8.250
G1 X190.826 Y121.552 Z-8.250
G1 X191.073 Y121.497 Z-8.250
G1 X191.314 Y121.479 Z-8.250
G1 X191.555 Y121.497 Z-8.250
G1 X191.803 Y121.552 Z-8.250
G1 X192.048 Y121.650 Z-8.250
G1 X192.280 Y121.789 Z-8.250
G1 X192.490 Y121.966 Z-8.250
G1 X192.667 Y122.176 Z-8.250
G1 X192.806 Y122.408 Z-8.250
G1 X192.903 Y122.653 Z-8.250
G1 X192.959 Y122.901 Z-8.250
G1 X192.977 Y123.142 Z-8.250
G0 X192.977 Y123.142
G0 Z6.000
G0 X191.707 Y123.142
G0 Z6.000
G1 X191.707 Y123.142 Z-9.000 F254.0
G1 X191.703 Y123.198 Z-9.000 F177.8
G1 X191.689 Y123.257 Z-9.000
G1 X191.666 Y123.315 Z-9.000
G1 X191.634 Y123.370 Z-9.000
G1 X191.592 Y123.419 Z-9.000
G1 X191.542 Y123.461 Z-9.000
G1 X191.487 Y123.494 Z-9.000
G1 X191.430 Y123.517 Z-9.000
G1 X191.371 Y123.530 Z-9.000
G1 X191.314 Y123.534 Z-9.000
G1 X191.257 Y123.530 Z-9.000
G1 X191.199 Y123.517 Z-9.000
G1 X191.141 Y123.494 Z-9.000
G1 X191.086 Y123.461 Z-9.000
G1 X191.037 Y123.419 Z-9.000
G1 X190.995 Y123.370 Z-9.000
G1 X190.962 Y123.315 Z-9.000
G1 X190.939 Y123.257 Z-9.000
G1 X190.926 Y123.198 Z-9.000
G1 X190.922 Y123.142 Z-9.000
G1 X190.926 Y123.085 Z-9.000
G1 X190.939 Y123.026 Z-9.000
G1 X190.962 Y122.968 Z-9.000
G1 X190.995 Y122.914 Z-9.000
G1 X191.037 Y122.864 Z-9.000
G1 X191.086 Y122.822 Z-9.000
G1 X191.141 Y122.789 Z-9.000
G1 X191.199 Y122.766 Z-9.000
G1 X191.257 Y122.753 Z-9.000
G1 X191.314 Y122.749 Z-9.000
G1 X191.371 Y122.753 Z-9.000
G1 X191.430 Y122.766 Z-9.000
G1 X191.487 Y122.789 Z-9.000
G1 X191.542 Y122.822 Z-9.000
G1 X191.592 Y122.864 Z-9.000
G1 X191.634 Y122.914 Z-9.000
G1 X191.666 Y122.968 Z-9.000
G1 X191.689 Y123.026 Z-9.000
G1 X191.703 Y123.085 Z-9.000
G1 X191.707 Y123.142 Z-9.000
G1 X192.977 Y123.142 Z-9.000
G1 X192.959 Y123.383 Z-9.000
G1 X192.903 Y123.630 Z-9.000
G1 X192.806 Y123.875 Z-9.000
G1 X192.667 Y124.108 Z-9.000
G1 X192.490 Y124.317 Z-9.000
G1 X192.280 Y124.495 Z-9.000
G1 X192.048 Y124.633 Z-9.000
G1 X191.803 Y124.731 Z-9.000
G1 X191.555 Y124.787 Z-9.000
G1 X191.314 Y124.804 Z-9.000
G1 X191.073 Y124.787 Z-9.000
G1 X190.826 Y124.731 Z-9.000
G1 X190.581 Y124.633 Z-9.000
G1 X190.348 Y124.495 Z-9.000
G1 X190.139 Y124.317 Z-9.000
G1 X189.961 Y124.108 Z-9.000
G1 X189.822 Y123.875 Z-9.000
G1 X189.725 Y123.630 Z-9.000
G1 X189.669 Y123.383 Z-9.000
G1 X189.652 Y123.142 Z-9.000
G1 X189.669 Y122.901 Z-9.000
G1 X189.725 Y122.653 Z-9.000
G1 X189.822 Y122.408 Z-9.000
G1 X189.961 Y122.176 Z-9.000
G1 X190.139 Y121.966 Z-9.000
G1 X190.348 Y121.789 Z-9.000
G1 X190.581 Y121.650 Z-9.000
G1 X190.826 Y121.552 Z-9.000
G1 X191.073 Y121.497 Z-9.000
G1 X191.314 Y121.479 Z-9.000
G1 X191.555 Y121.497 Z-9.000
G1 X191.803 Y121.552 Z-9.000
G1 X192.048 Y121.650 Z-9.000
G1 X192.280 Y121.789 Z-9.000
G1 X192.490 Y121.966 Z-9.000
G1 X192.667 Y122.176 Z-9.000
G1 X192.806 Y122.408 Z-9.000
G1 X192.903 Y122.653 Z-9.000
G1 X192.959 Y122.901 Z-9.000
G1 X192.977 Y123.142 Z-9.000
G0 X192.977 Y123.142
G0 Z6.000
G0 X191.707 Y123.142
G0 Z6.000
G1 X191.707 Y123.142 Z-9.750 F254.0
G1 X191.703 Y123.198 Z-9.750 F177.8
G1 X191.689 Y123.257 Z-9.750
G1 X191.666 Y123.315 Z-9.750
G1 X191.634 Y123.370 Z-9.750
G1 X191.592 Y123.419 Z-9.750
G1 X191.542 Y123.461 Z-9.750
G1 X191.487 Y123.494 Z-9.750
G1 X191.430 Y123.517 Z-9.750
G1 X191.371 Y123.530 Z-9.750
G1 X191.314 Y123.534 Z-9.750
G1 X191.257 Y123.530 Z-9.750
G1 X191.199 Y123.517 Z-9.750
G1 X191.141 Y123.494 Z-9.750
G1 X191.086 Y123.461 Z-9.750
G1 X191.037 Y123.419 Z-9.750
G1 X190.995 Y123.370 Z-9.750
G1 X190.962 Y123.315 Z-9.750
G1 X190.939 Y123.257 Z-9.750
G1 X190.926 Y123.198 Z-9.750
G1 X190.922 Y123.142 Z-9.750
G1 X190.926 Y123.085 Z-9.750
G1 X190.939 Y123.026 Z-9.750
G1 X190.962 Y122.968 Z-9.750
G1 X190.995 Y122.914 Z-9.750
G1 X191.037 Y122.864 Z-9.750
G1 X191.086 Y122.822 Z-9.750
G1 X191.141 Y122.789 Z-9.750
G1 X191.199 Y122.766 Z-9.750
G1 X191.257 Y122.753 Z-9.750
G1 X191.314 Y122.749 Z-9.750
G1 X191.371 Y122.753 Z-9.750
G1 X191.430 Y122.766 Z-9.750
G1 X191.487 Y122.789 Z-9.750
G1 X191.542 Y122.822 Z-9.750
G1 X191.592 Y122.864 Z-9.750
G1 X191.634 Y122.914 Z-9.750
G1 X191.666 Y122.968 Z-9.750
G1 X191.689 Y123.026 Z-9.750
G1 X191.703 Y123.085 Z-9.750
G1 X191.707 Y123.142 Z-9.750
G1 X192.977 Y123.142 Z-9.750
G1 X192.959 Y123.383 Z-9.750
G1 X192.903 Y123.630 Z-9.750
G1 X192.806 Y123.875 Z-9.750
G1 X192.667 Y124.108 Z-9.750
G1 X192.490 Y124.317 Z-9.750
G1 X192.280 Y124.495 Z-9.750
G1 X192.048 Y124.633 Z-9.750
G1 X191.803 Y124.731 Z-9.750
G1 X191.555 Y124.787 Z-9.750
G1 X191.314 Y124.804 Z-9.750
G1 X191.073 Y124.787 Z-9.750
G1 X190.826 Y124.731 Z-9.750
G1 X190.581 Y124.633 Z-9.750
G1 X190.348 Y124.495 Z-9.750
G1 X190.139 Y124.317 Z-9.750
G1 X189.961 Y124.108 Z-9.750
G1 X189.822 Y123.875 Z-9.750
G1 X189.725 Y123.630 Z-9.750
G1 X189.669 Y123.383 Z-9.750
G1 X189.652 Y123.142 Z-9.750
G1 X189.669 Y122.901 Z-9.750
G1 X189.725 Y122.653 Z-9.750
G1 X189.822 Y122.408 Z-9.750
G1 X189.961 Y122.176 Z-9.750
G1 X190.139 Y121.966 Z-9.750
G1 X190.348 Y121.789 Z-9.750
G1 X190.581 Y121.650 Z-9.750
G1 X190.826 Y121.552 Z-9.750
G1 X191.073 Y121.497 Z-9.750
G1 X191.314 Y121.479 Z-9.750
G1 X191.555 Y121.497 Z-9.750
G1 X191.803 Y121.552 Z-9.750
G1 X192.048 Y121.650 Z-9.750
G1 X192.280 Y121.789 Z-9.750
G1 X192.490 Y121.966 Z-9.750
G1 X192.667 Y122.176 Z-9.750
G1 X192.806 Y122.408 Z-9.750
G1 X192.903 Y122.653 Z-9.750
G1 X192.959 Y122.901 Z-9.750
G1 X192.977 Y123.142 Z-9.750
G0 X192.977 Y123.142
G0 Z6.000
G0 X191.707 Y123.142
G0 Z6.000
G1 X191.707 Y123.142 Z-10.500 F254.0
G1 X191.703 Y123.198 Z-10.500 F177.8
G1 X191.689 Y123.257 Z-10.500
G1 X191.666 Y123.315 Z-10.500
G1 X191.634 Y123.370 Z-10.500
G1 X191.592 Y123.419 Z-10.500
G1 X191.542 Y123.461 Z-10.500
G1 X191.487 Y123.494 Z-10.500
G1 X191.430 Y123.517 Z-10.500
G1 X191.371 Y123.530 Z-10.500
G1 X191.314 Y123.534 Z-10.500
G1 X191.257 Y123.530 Z-10.500
G1 X191.199 Y123.517 Z-10.500
G1 X191.141 Y123.494 Z-10.500
G1 X191.086 Y123.461 Z-10.500
G1 X191.037 Y123.419 Z-10.500
G1 X190.995 Y123.370 Z-10.500
G1 X190.962 Y123.315 Z-10.500
G1 X190.939 Y123.257 Z-10.500
G1 X190.926 Y123.198 Z-10.500
G1 X190.922 Y123.142 Z-10.500
G1 X190.926 Y123.085 Z-10.500
G1 X190.939 Y123.026 Z-10.500
G1 X190.962 Y122.968 Z-10.500
G1 X190.995 Y122.914 Z-10.500
G1 X191.037 Y122.864 Z-10.500
G1 X191.086 Y122.822 Z-10.500
G1 X191.141 Y122.789 Z-10.500
G1 X191.199 Y122.766 Z-10.500
G1 X191.257 Y122.753 Z-10.500
G1 X191.314 Y122.749 Z-10.500
G1 X191.371 Y122.753 Z-10.500
G1 X191.430 Y122.766 Z-10.500
G1 X191.487 Y122.789 Z-10.500
G1 X191.542 Y122.822 Z-10.500
G1 X191.592 Y122.864 Z-10.500
G1 X191.634 Y122.914 Z-10.500
G1 X191.666 Y122.968 Z-10.500
G1 X191.689 Y123.026 Z-10.500
G1 X191.703 Y123.085 Z-10.500
G1 X191.707 Y123.142 Z-10.500
G1 X192.977 Y123.142 Z-10.500
G1 X192.959 Y123.383 Z-10.500
G1 X192.903 Y123.630 Z-10.500
G1 X192.806 Y123.875 Z-10.500
G1 X192.667 Y124.108 Z-10.500
G1 X192.490 Y124.317 Z-10.500
G1 X192.280 Y124.495 Z-10.500
G1 X192.048 Y124.633 Z-10.500
G1 X191.803 Y124.731 Z-10.500
G1 X191.555 Y124.787 Z-10.500
G1 X191.314 Y124.804 Z-10.500
G1 X191.073 Y124.787 Z-10.500
G1 X190.826 Y124.731 Z-10.500
G1 X190.581 Y124.633 Z-10.500
G1 X190.348 Y124.495 Z-10.500
G1 X190.139 Y124.317 Z-10.500
G1 X189.961 Y124.108 Z-10.500
G1 X189.822 Y123.875 Z-10.500
G1 X189.725 Y123.630 Z-10.500
G1 X189.669 Y123.383 Z-10.500
G1 X189.652 Y123.142 Z-10.500
G1 X189.669 Y122.901 Z-10.500
G1 X189.725 Y122.653 Z-10.500
G1 X189.822 Y122.408 Z-10.500
G1 X189.961 Y122.176 Z-10.500
G1 X190.139 Y121.966 Z-10.500
G1 X190.348 Y121.789 Z-10.500
G1 X190.581 Y121.650 Z-10.500
G1 X190.826 Y121.552 Z-10.500
G1 X191.073 Y121.497 Z-10.500
G1 X191.314 Y121.479 Z-10.500
G1 X191.555 Y121.497 Z-10.500
G1 X191.803 Y121.552 Z-10.500
G1 X192.048 Y121.650 Z-10.500
G1 X192.280 Y121.789 Z-10.500
G1 X192.490 Y121.966 Z-10.500
G1 X192.667 Y122.176 Z-10.500
G1 X192.806 Y122.408 Z-10.500
G1 X192.903 Y122.653 Z-10.500
G1 X192.959 Y122.901 Z-10.500
G1 X192.977 Y123.142 Z-10.500
G0 X192.977 Y123.142
G0 Z6.000
G0 X191.707 Y123.142
G0 Z6.000
G1 X191.707 Y123.142 Z-11.250 F254.0
G1 X191.703 Y123.198 Z-11.250 F177.8
G1 X191.689 Y123.257 Z-11.250
G1 X191.666 Y123.315 Z-11.250
G1 X191.634 Y123.370 Z-11.250
G1 X191.592 Y123.419 Z-11.250
G1 X191.542 Y123.461 Z-11.250
G1 X191.487 Y123.494 Z-11.250
G1 X191.430 Y123.517 Z-11.250
G1 X191.371 Y123.530 Z-11.250
G1 X191.314 Y123.534 Z-11.250
G1 X191.257 Y123.530 Z-11.250
G1 X191.199 Y123.517 Z-11.250
G1 X191.141 Y123.494 Z-11.250
G1 X191.086 Y123.461 Z-11.250
G1 X191.037 Y123.419 Z-11.250
G1 X190.995 Y123.370 Z-11.250
G1 X190.962 Y123.315 Z-11.250
G1 X190.939 Y123.257 Z-11.250
G1 X190.926 Y123.198 Z-11.250
G1 X190.922 Y123.142 Z-11.250
G1 X190.926 Y123.085 Z-11.250
G1 X190.939 Y123.026 Z-11.250
G1 X190.962 Y122.968 Z-11.250
G1 X190.995 Y122.914 Z-11.250
G1 X191.037 Y122.864 Z-11.250
G1 X191.086 Y122.822 Z-11.250
G1 X191.141 Y122.789 Z-11.250
G1 X191.199 Y122.766 Z-11.250
G1 X191.257 Y122.753 Z-11.250
G1 X191.314 Y122.749 Z-11.250
G1 X191.371 Y122.753 Z-11.250
G1 X191.430 Y122.766 Z-11.250
G1 X191.487 Y122.789 Z-11.250
G1 X191.542 Y122.822 Z-11.250
G1 X191.592 Y122.864 Z-11.250
G1 X191.634 Y122.914 Z-11.250
G1 X191.666 Y122.968 Z-11.250
G1 X191.689 Y123.026 Z-11.250
G1 X191.703 Y123.085 Z-11.250
G1 X191.707 Y123.142 Z-11.250
G1 X192.977 Y123.142 Z-11.250
G1 X192.959 Y123.383 Z-11.250
G1 X192.903 Y123.630 Z-11.250
G1 X192.806 Y123.875 Z-11.250
G1 X192.667 Y124.108 Z-11.250
G1 X192.490 Y124.317 Z-11.250
G1 X192.280 Y124.495 Z-11.250
G1 X192.048 Y124.633 Z-11.250
G1 X191.803 Y124.731 Z-11.250
G1 X191.555 Y124.787 Z-11.250
G1 X191.314 Y124.804 Z-11.250
G1 X191.073 Y124.787 Z-11.250
G1 X190.826 Y124.731 Z-11.250
G1 X190.581 Y124.633 Z-11.250
G1 X190.348 Y124.495 Z-11.250
G1 X190.139 Y124.317 Z-11.250
G1 X189.961 Y124.108 Z-11.250
G1 X189.822 Y123.875 Z-11.250
G1 X189.725 Y123.630 Z-11.250
G1 X189.669 Y123.383 Z-11.250
G1 X189.652 Y123.142 Z-11.250
G1 X189.669 Y122.901 Z-11.250
G1 X189.725 Y122.653 Z-11.250
G1 X189.822 Y122.408 Z-11.250
G1 X189.961 Y122.176 Z-11.250
G1 X190.139 Y121.966 Z-11.250
G1 X190.348 Y121.789 Z-11.250
G1 X190.581 Y121.650 Z-11.250
G1 X190.826 Y121.552 Z-11.250
G1 X191.073 Y121.497 Z-11.250
G1 X191.314 Y121.479 Z-11.250
G1 X191.555 Y121.497 Z-11.250
G1 X191.803 Y121.552 Z-11.250
G1 X192.048 Y121.650 Z-11.250
G1 X192.280 Y121.789 Z-11.250
G1 X192.490 Y121.966 Z-11.250
G1 X192.667 Y122.176 Z-11.250
G1 X192.806 Y122.408 Z-11.250
G1 X192.903 Y122.653 Z-11.250
G1 X192.959 Y122.901 Z-11.250
G1 X192.977 Y123.142 Z-11.250
G0 X192.977 Y123.142
G0 Z6.000
G0 X191.707 Y123.142
G0 Z6.000
G1 X191.707 Y123.142 Z-12.000 F254.0
G1 X191.703 Y123.198 Z-12.000 F177.8
G1 X191.689 Y123.257 Z-12.000
G1 X191.666 Y123.315 Z-12.000
G1 X191.634 Y123.370 Z-12.000
G1 X191.592 Y123.419 Z-12.000
G1 X191.542 Y123.461 Z-12.000
G1 X191.487 Y123.494 Z-12.000
G1 X191.430 Y123.517 Z-12.000
G1 X191.371 Y123.530 Z-12.000
G1 X191.314 Y123.534 Z-12.000
G1 X191.257 Y123.530 Z-12.000
G1 X191.199 Y123.517 Z-12.000
G1 X191.141 Y123.494 Z-12.000
G1 X191.086 Y123.461 Z-12.000
G1 X191.037 Y123.419 Z-12.000
G1 X190.995 Y123.370 Z-12.000
G1 X190.962 Y123.315 Z-12.000
G1 X190.939 Y123.257 Z-12.000
G1 X190.926 Y123.198 Z-12.000
G1 X190.922 Y123.142 Z-12.000
G1 X190.926 Y123.085 Z-12.000
G1 X190.939 Y123.026 Z-12.000
G1 X190.962 Y122.968 Z-12.000
G1 X190.995 Y122.914 Z-12.000
G1 X191.037 Y122.864 Z-12.000
G1 X191.086 Y122.822 Z-12.000
G1 X191.141 Y122.789 Z-12.000
G1 X191.199 Y122.766 Z-12.000
G1 X191.257 Y122.753 Z-12.000
G1 X191.314 Y122.749 Z-12.000
G1 X191.371 Y122.753 Z-12.000
G1 X191.430 Y122.766 Z-12.000
G1 X191.487 Y122.789 Z-12.000
G1 X191.542 Y122.822 Z-12.000
G1 X191.592 Y122.864 Z-12.000
G1 X191.634 Y122.914 Z-12.000
G1 X191.666 Y122.968 Z-12.000
G1 X191.689 Y123.026 Z-12.000
G1 X191.703 Y123.085 Z-12.000
G1 X191.707 Y123.142 Z-12.000
G1 X192.977 Y123.142 Z-12.000
G1 X192.959 Y123.383 Z-12.000
G1 X192.903 Y123.630 Z-12.000
G1 X192.806 Y123.875 Z-12.000
G1 X192.667 Y124.108 Z-12.000
G1 X192.490 Y124.317 Z-12.000
G1 X192.280 Y124.495 Z-12.000
G1 X192.048 Y124.633 Z-12.000
G1 X191.803 Y124.731 Z-12.000
G1 X191.555 Y124.787 Z-12.000
G1 X191.314 Y124.804 Z-12.000
G1 X191.073 Y124.787 Z-12.000
G1 X190.826 Y124.731 Z-12.000
G1 X190.581 Y124.633 Z-12.000
G1 X190.348 Y124.495 Z-12.000
G1 X190.139 Y124.317 Z-12.000
G1 X189.961 Y124.108 Z-12.000
G1 X189.822 Y123.875 Z-12.000
G1 X189.725 Y123.630 Z-12.000
G1 X189.669 Y123.383 Z-12.000
G1 X189.652 Y123.142 Z-12.000
G1 X189.669 Y122.901 Z-12.000
G1 X189.725 Y122.653 Z-12.000
G1 X189.822 Y122.408 Z-12.000
G1 X189.961 Y122.176 Z-12.000
G1 X190.139 Y121.966 Z-12.000
G1 X190.348 Y121.789 Z-12.000
G1 X190.581 Y121.650 Z-12.000
G1 X190.826 Y121.552 Z-12.000
G1 X191.073 Y121.497 Z-12.000
G1 X191.314 Y121.479 Z-12.000
G1 X191.555 Y121.497 Z-12.000
G1 X191.803 Y121.552 Z-12.000
G1 X192.048 Y121.650 Z-12.000
G1 X192.280 Y121.789 Z-12.000
G1 X192.490 Y121.966 Z-12.000
G1 X192.667 Y122.176 Z-12.000
G1 X192.806 Y122.408 Z-12.000
G1 X192.903 Y122.653 Z-12.000
G1 X192.959 Y122.901 Z-12.000
G1 X192.977 Y123.142 Z-12.000
G0 X192.977 Y123.142
G0 Z6.000
G0 X199.038 Y155.192
G0 Z6.000
G1 X199.038 Y155.192 Z-0.750 F254.0
G1 X198.982 Y155.188 Z-0.750 F177.8
G1 X198.923 Y155.175 Z-0.750
G1 X198.865 Y155.152 Z-0.750
G1 X198.810 Y155.119 Z-0.750
G1 X198.761 Y155.077 Z-0.750
G1 X198.719 Y155.028 Z-0.750
G1 X198.686 Y154.973 Z-0.750
G1 X198.663 Y154.915 Z-0.750
G1 X198.650 Y154.857 Z-0.750
G1 X198.646 Y154.800 Z-0.750
G1 X198.650 Y154.743 Z-0.750
G1 X198.663 Y154.684 Z-0.750
G1 X198.686 Y154.627 Z-0.750
G1 X198.719 Y154.572 Z-0.750
G1 X198.761 Y154.522 Z-0.750
G1 X198.810 Y154.480 Z-0.750
G1 X198.865 Y154.448 Z-0.750
G1 X198.923 Y154.425 Z-0.750
G1 X198.982 Y154.411 Z-0.750
G1 X199.038 Y154.407 Z-0.750
G1 X199.095 Y154.411 Z-0.750
G1 X199.154 Y154.425 Z-0.750
G1 X199.212 Y154.448 Z-0.750
G1 X199.267 Y154.480 Z-0.750
G1 X199.316 Y154.522 Z-0.750
G1 X199.358 Y154.572 Z-0.750
G1 X199.391 Y154.627 Z-0.750
G1 X199.414 Y154.684 Z-0.750
G1 X199.427 Y154.743 Z-0.750
G1 X199.431 Y154.800 Z-0.750
G1 X199.427 Y154.857 Z-0.750
G1 X199.414 Y154.915 Z-0.750
G1 X199.391 Y154.973 Z-0.750
G1 X199.358 Y155.028 Z-0.750
G1 X199.316 Y155.077 Z-0.750
G1 X199.267 Y155.119 Z-0.750
G1 X199.212 Y155.152 Z-0.750
G1 X199.154 Y155.175 Z-0.750
G1 X199.095 Y155.188 Z-0.750
G1 X199.038 Y155.192 Z-0.750
G1 X199.038 Y156.462 Z-0.750
G1 X198.798 Y156.445 Z-0.750
G1 X198.550 Y156.389 Z-0.750
G1 X198.305 Y156.292 Z-0.750
G1 X198.072 Y156.153 Z-0.750
G1 X197.863 Y155.975 Z-0.750
G1 X197.685 Y155.766 Z-0.750
G1 X197.547 Y155.533 Z-0.750
G1 X197.449 Y155.288 Z-0.750
G1 X197.394 Y155.041 Z-0.750
G1 X197.376 Y154.800 Z-0.750
G1 X197.394 Y154.559 Z-0.750
G1 X197.449 Y154.311 Z-0.750
G1 X197.547 Y154.066 Z-0.750
G1 X197.685 Y153.834 Z-0.750
G1 X197.863 Y153.624 Z-0.750
G1 X198.072 Y153.447 Z-0.750
G1 X198.305 Y153.308 Z-0.750
G1 X198.550 Y153.211 Z-0.750
G1 X198.798 Y153.155 Z-0.750
G1 X199.038 Y153.137 Z-0.750
G1 X199.279 Y153.155 Z-0.750
G1 X199.527 Y153.211 Z-0.750
G1 X199.772 Y153.308 Z-0.750
G1 X200.005 Y153.447 Z-0.750
G1 X200.214 Y153.624 Z-0.750
G1 X200.391 Y153.834 Z-0.750
G1 X200.530 Y154.066 Z-0.750
G1 X200.628 Y154.311 Z-0.750
G1 X200.683 Y154.559 Z-0.750
G1 X200.701 Y154.800 Z-0.750
G1 X200.683 Y155.041 Z-0.750
G1 X200.628 Y155.288 Z-0.750
G1 X200.530 Y155.533 Z-0.750
G1 X200.391 Y155.766 Z-0.750
G1 X200.214 Y155.975 Z-0.750
G1 X200.005 Y156.153 Z-0.750
G1 X199.772 Y156.292 Z-0.750
G1 X199.527 Y156.389 Z-0.750
G1 X199.279 Y156.445 Z-0.750
G1 X199.038 Y156.462 Z-0.750
G0 X199.038 Y156.462
G0 Z6.000
G0 X199.038 Y155.192
G0 Z6.000
G1 X199.038 Y155.192 Z-1.500 F254.0
G1 X198.982 Y155.188 Z-1.500 F177.8
G1 X198.923 Y155.175 Z-1.500
G1 X198.865 Y155.152 Z-1.500
G1 X198.810 Y155.119 Z-1.500
G1 X198.761 Y155.077 Z-1.500
G1 X198.719 Y155.028 Z-1.500
G1 X198.686 Y154.973 Z-1.500
G1 X198.663 Y154.915 Z-1.500
G1 X198.650 Y154.857 Z-1.500
G1 X198.646 Y154.800 Z-1.500
G1 X198.650 Y154.743 Z-1.500
G1 X198.663 Y154.684 Z-1.500
G1 X198.686 Y154.627 Z-1.500
G1 X198.719 Y154.572 Z-1.500
G1 X198.761 Y154.522 Z-1.500
G1 X198.810 Y154.480 Z-1.500
G1 X198.865 Y154.448 Z-1.500
G1 X198.923 Y154.425 Z-1.500
G1 X198.982 Y154.411 Z-1.500
G1 X199.038 Y154.407 Z-1.500
G1 X199.095 Y154.411 Z-1.500
G1 X199.154 Y154.425 Z-1.500
G1 X199.212 Y154.448 Z-1.500
G1 X199.267 Y154.480 Z-1.500
G1 X199.316 Y154.522 Z-1.500
G1 X199.358 Y154.572 Z-1.500
G1 X199.391 Y154.627 Z-1.500
G1 X199.414 Y154.684 Z-1.500
G1 X199.427 Y154.743 Z-1.500
G1 X199.431 Y154.800 Z-1.500
G1 X199.427 Y154.857 Z-1.500
G1 X199.414 Y154.915 Z-1.500
G1 X199.391 Y154.973 Z-1.500
G1 X199.358 Y155.028 Z-1.500
G1 X199.316 Y155.077 Z-1.500
G1 X199.267 Y155.119 Z-1.500
G1 X199.212 Y155.152 Z-1.500
G1 X199.154 Y155.175 Z-1.500
G1 X199.095 Y155.188 Z-1.500
G1 X199.038 Y155.192 Z-1.500
G1 X199.038 Y156.462 Z-1.500
G1 X198.798 Y156.445 Z-1.500
G1 X198.550 Y156.389 Z-1.500
G1 X198.305 Y156.292 Z-1.500
G1 X198.072 Y156.153 Z-1.500
G1 X197.863 Y155.975 Z-1.500
G1 X197.685 Y155.766 Z-1.500
G1 X197.547 Y155.533 Z-1.500
G1 X197.449 Y155.288 Z-1.500
G1 X197.394 Y155.041 Z-1.500
G1 X197.376 Y154.800 Z-1.500
G1 X197.394 Y154.559 Z-1.500
G1 X197.449 Y154.311 Z-1.500
G1 X197.547 Y154.066 Z-1.500
G1 X197.685 Y153.834 Z-1.500
G1 X197.863 Y153.624 Z-1.500
G1 X198.072 Y153.447 Z-1.500
G1 X198.305 Y153.308 Z-1.500
G1 X198.550 Y153.211 Z-1.500
G1 X198.798 Y153.155 Z-1.500
G1 X199.038 Y153.137 Z-1.500
G1 X199.279 Y153.155 Z-1.500
G1 X199.527 Y153.211 Z-1.500
G1 X199.772 Y153.308 Z-1.500
G1 X200.005 Y153.447 Z-1.500
G1 X200.214 Y153.624 Z-1.500
G1 X200.391 Y153.834 Z-1.500
G1 X200.530 Y154.066 Z-1.500
G1 X200.628 Y154.311 Z-1.500
G1 X200.683 Y154.559 Z-1.500
G1 X200.701 Y154.800 Z-1.500
G1 X200.683 Y155.041 Z-1.500
G1 X200.628 Y155.288 Z-1.500
G1 X200.530 Y155.533 Z-1.500
G1 X200.391 Y155.766 Z-1.500
G1 X200.214 Y155.975 Z-1.500
G1 X200.005 Y156.153 Z-1.500
G1 X199.772 Y156.292 Z-1.500
G1 X199.527 Y156.389 Z-1.500
G1 X199.279 Y156.445 Z-1.500
G1 X199.038 Y156.462 Z-1.500
G0 X199.038 Y156.462
G0 Z6.000
G0 X199.038 Y155.192
G0 Z6.000
G1 X199.038 Y155.192 Z-2.250 F254.0
G1 X198.982 Y155.188 Z-2.250 F177.8
G1 X198.923 Y155.175 Z-2.250
G1 X198.865 Y155.152 Z-2.250
G1 X198.810 Y155.119 Z-2.250
G1 X198.761 Y155.077 Z-2.250
G1 X198.719 Y155.028 Z-2.250
G1 X198.686 Y154.973 Z-2.250
G1 X198.663 Y154.915 Z-2.250
G1 X198.650 Y154.857 Z-2.250
G1 X198.646 Y154.800 Z-2.250
G1 X198.650 Y154.743 Z-2.250
G1 X198.663 Y154.684 Z-2.250
G1 X198.686 Y154.627 Z-2.250
G1 X198.719 Y154.572 Z-2.250
G1 X198.761 Y154.522 Z-2.250
G1 X198.810 Y154.480 Z-2.250
G1 X198.865 Y154.448 Z-2.250
G1 X198.923 Y154.425 Z-2.250
G1 X198.982 Y154.411 Z-2.250
G1 X199.038 Y154.407 Z-2.250
G1 X199.095 Y154.411 Z-2.250
G1 X199.154 Y154.425 Z-2.250
G1 X199.212 Y154.448 Z-2.250
G1 X199.267 Y154.480 Z-2.250
G1 X199.316 Y154.522 Z-2.250
G1 X199.358 Y154.572 Z-2.250
G1 X199.391 Y154.627 Z-2.250
G1 X199.414 Y154.684 Z-2.250
G1 X199.427 Y154.743 Z-2.250
G1 X199.431 Y154.800 Z-2.250
G1 X199.427 Y154.857 Z-2.250
G1 X199.414 Y154.915 Z-2.250
G1 X199.391 Y154.973 Z-2.250
G1 X199.358 Y155.028 Z-2.250
G1 X199.316 Y155.077 Z-2.250
G1 X199.267 Y155.119 Z-2.250
G1 X199.212 Y155.152 Z-2.250
G1 X199.154 Y155.175 Z-2.250
G1 X199.095 Y155.188 Z-2.250
G1 X199.038 Y155.192 Z-2.250
G1 X199.038 Y156.462 Z-2.250
G1 X198.798 Y156.445 Z-2.250
G1 X198.550 Y156.389 Z-2.250
G1 X198.305 Y156.292 Z-2.250
G1 X198.072 Y156.153 Z-2.250
G1 X197.863 Y155.975 Z-2.250
G1 X197.685 Y155.766 Z-2.250
G1 X197.547 Y155.533 Z-2.250
G1 X197.449 Y155.288 Z-2.250
G1 X197.394 Y155.041 Z-2.250
G1 X197.376 Y154.800 Z-2.250
G1 X197.394 Y154.559 Z-2.250
G1 X197.449 Y154.311 Z-2.250
G1 X197.547 Y154.066 Z-2.250
G1 X197.685 Y153.834 Z-2.250
G1 X197.863 Y153.624 Z-2.250
G1 X198.072 Y153.447 Z-2.250
G1 X198.305 Y153.308 Z-2.250
G1 X198.550 Y153.211 Z-2.250
G1 X198.798 Y153.155 Z-2.250
G1 X199.038 Y153.137 Z-2.250
G1 X199.279 Y153.155 Z-2.250
G1 X199.527 Y153.211 Z-2.250
G1 X199.772 Y153.308 Z-2.250
G1 X200.005 Y153.447 Z-2.250
G1 X200.214 Y153.624 Z-2.250
G1 X200.391 Y153.834 Z-2.250
G1 X200.530 Y154.066 Z-2.250
G1 X200.628 Y154.311 Z-2.250
G1 X200.683 Y154.559 Z-2.250
G1 X200.701 Y154.800 Z-2.250
G1 X200.683 Y155.041 Z-2.250
G1 X200.628 Y155.288 Z-2.250
G1 X200.530 Y155.533 Z-2.250
G1 X200.391 Y155.766 Z-2.250
G1 X200.214 Y155.975 Z-2.250
G1 X200.005 Y156.153 Z-2.250
G1 X199.772 Y156.292 Z-2.250
G1 X199.527 Y156.389 Z-2.250
G1 X199.279 Y156.445 Z-2.250
G1 X199.038 Y156.462 Z-2.250
G0 X199.038 Y156.462
G0 Z6.000
G0 X199.038 Y155.192
G0 Z6.000
G1 X199.038 Y155.192 Z-3.000 F254.0
G1 X198.982 Y155.188 Z-3.000 F177.8
G1 X198.923 Y155.175 Z-3.000
G1 X198.865 Y155.152 Z-3.000
G1 X198.810 Y155.119 Z-3.000
G1 X198.761 Y155.077 Z-3.000
G1 X198.719 Y155.028 Z-3.000
G1 X198.686 Y154.973 Z-3.000
G1 X198.663 Y154.915 Z-3.000
G1 X198.650 Y154.857 Z-3.000
G1 X198.646 Y154.800 Z-3.000
G1 X198.650 Y154.743 Z-3.000
G1 X198.663 Y154.684 Z-3.000
G1 X198.686 Y154.627 Z-3.000
G1 X198.719 Y154.572 Z-3.000
G1 X198.761 Y154.522 Z-3.000
G1 X198.810 Y154.480 Z-3.000
G1 X198.865 Y154.448 Z-3.000
G1 X198.923 Y154.425 Z-3.000
G1 X198.982 Y154.411 Z-3.000
G1 X199.038 Y154.407 Z-3.000
G1 X199.095 Y154.411 Z-3.000
G1 X199.154 Y154.425 Z-3.000
G1 X199.212 Y154.448 Z-3.000
G1 X199.267 Y154.480 Z-3.000
G1 X199.316 Y154.522 Z-3.000
G1 X199.358 Y154.572 Z-3.000
G1 X199.391 Y154.627 Z-3.000
G1 X199.414 Y154.684 Z-3.000
G1 X199.427 Y154.743 Z-3.000
G1 X199.431 Y154.800 Z-3.000
G1 X199.427 Y154.857 Z-3.000
G1 X199.414 Y154.915 Z-3.000
G1 X199.391 Y154.973 Z-3.000
G1 X199.358 Y155.028 Z-3.000
G1 X199.316 Y155.077 Z-3.000
G1 X199.267 Y155.119 Z-3.000
G1 X199.212 Y155.152 Z-3.000
G1 X199.154 Y155.175 Z-3.000
G1 X199.095 Y155.188 Z-3.000
G1 X199.038 Y155.192 Z-3.000
G1 X199.038 Y156.462 Z-3.000
G1 X198.798 Y156.445 Z-3.000
G1 X198.550 Y156.389 Z-3.000
G1 X198.305 Y156.292 Z-3.000
G1 X198.072 Y156.153 Z-3.000
G1 X197.863 Y155.975 Z-3.000
G1 X197.685 Y155.766 Z-3.000
G1 X197.547 Y155.533 Z-3.000
G1 X197.449 Y155.288 Z-3.000
G1 X197.394 Y155.041 Z-3.000
G1 X197.376 Y154.800 Z-3.000
G1 X197.394 Y154.559 Z-3.000
G1 X197.449 Y154.311 Z-3.000
G1 X197.547 Y154.066 Z-3.000
G1 X197.685 Y153.834 Z-3.000
G1 X197.863 Y153.624 Z-3.000
G1 X198.072 Y153.447 Z-3.000
G1 X198.305 Y153.308 Z-3.000
G1 X198.550 Y153.211 Z-3.000
G1 X198.798 Y153.155 Z-3.000
G1 X199.038 Y153.137 Z-3.000
G1 X199.279 Y153.155 Z-3.000
G1 X199.527 Y153.211 Z-3.000
G1 X199.772 Y153.308 Z-3.000
G1 X200.005 Y153.447 Z-3.000
G1 X200.214 Y153.624 Z-3.000
G1 X200.391 Y153.834 Z-3.000
G1 X200.530 Y154.066 Z-3.000
G1 X200.628 Y154.311 Z-3.000
G1 X200.683 Y154.559 Z-3.000
G1 X200.701 Y154.800 Z-3.000
G1 X200.683 Y155.041 Z-3.000
G1 X200.628 Y155.288 Z-3.000
G1 X200.530 Y155.533 Z-3.000
G1 X200.391 Y155.766 Z-3.000
G1 X200.214 Y155.975 Z-3.000
G1 X200.005 Y156.153 Z-3.000
G1 X199.772 Y156.292 Z-3.000
G1 X199.527 Y156.389 Z-3.000
G1 X199.279 Y156.445 Z-3.000
G1 X199.038 Y156.462 Z-3.000
G0 X199.038 Y156.462
G0 Z6.000
G0 X199.038 Y155.192
G0 Z6.000
G1 X199.038 Y155.192 Z-3.750 F254.0
G1 X198.982 Y155.188 Z-3.750 F177.8
G1 X198.923 Y155.175 Z-3.750
G1 X198.865 Y155.152 Z-3.750
G1 X198.810 Y155.119 Z-3.750
G1 X198.761 Y155.077 Z-3.750
G1 X198.719 Y155.028 Z-3.750
G1 X198.686 Y154.973 Z-3.750
G1 X198.663 Y154.915 Z-3.750
G1 X198.650 Y154.857 Z-3.750
G1 X198.646 Y154.800 Z-3.750
G1 X198.650 Y154.743 Z-3.750
G1 X198.663 Y154.684 Z-3.750
G1 X198.686 Y154.627 Z-3.750
G1 X198.719 Y154.572 Z-3.750
G1 X198.761 Y154.522 Z-3.750
G1 X198.810 Y154.480 Z-3.750
G1 X198.865 Y154.448 Z-3.750
G1 X198.923 Y154.425 Z-3.750
G1 X198.982 Y154.411 Z-3.750
G1 X199.038 Y154.407 Z-3.750
G1 X199.095 Y154.411 Z-3.750
G1 X199.154 Y154.425 Z-3.750
G1 X199.212 Y154.448 Z-3.750
G1 X199.267 Y154.480 Z-3.750
G1 X199.316 Y154.522 Z-3.750
G1 X199.358 Y154.572 Z-3.750
G1 X199.391 Y154.627 Z-3.750
G1 X199.414 Y154.684 Z-3.750
G1 X199.427 Y154.743 Z-3.750
G1 X199.431 Y154.800 Z-3.750
G1 X199.427 Y154.857 Z-3.750
G1 X199.414 Y154.915 Z-3.750
G1 X199.391 Y154.973 Z-3.750
G1 X199.358 Y155.028 Z-3.750
G1 X199.316 Y155.077 Z-3.750
G1 X199.267 Y155.119 Z-3.750
G1 X199.212 Y155.152 Z-3.750
G1 X199.154 Y155.175 Z-3.750
G1 X199.095 Y155.188 Z-3.750
G1 X199.038 Y155.192 Z-3.750
G1 X199.038 Y156.462 Z-3.750
G1 X198.798 Y156.445 Z-3.750
G1 X198.550 Y156.389 Z-3.750
G1 X198.305 Y156.292 Z-3.750
G1 X198.072 Y156.153 Z-3.750
G1 X197.863 Y155.975 Z-3.750
G1 X197.685 Y155.766 Z-3.750
G1 X197.547 Y155.533 Z-3.750
G1 X197.449 Y155.288 Z-3.750
G1 X197.394 Y155.041 Z-3.750
G1 X197.376 Y154.800 Z-3.750
G1 X197.394 Y154.559 Z-3.750
G1 X197.449 Y154.311 Z-3.750
G1 X197.547 Y154.066 Z-3.750
G1 X197.685 Y153.834 Z-3.750
G1 X197.863 Y153.624 Z-3.750
G1 X198.072 Y153.447 Z-3.750
G1 X198.305 Y153.308 Z-3.750
G1 X198.550 Y153.211 Z-3.750
G1 X198.798 Y153.155 Z-3.750
G1 X199.038 Y153.137 Z-3.750
G1 X199.279 Y153.155 Z-3.750
G1 X199.527 Y153.211 Z-3.750
G1 X199.772 Y153.308 Z-3.750
G1 X200.005 Y153.447 Z-3.750
G1 X200.214 Y153.624 Z-3.750
G1 X200.391 Y153.834 Z-3.750
G1 X200.530 Y154.066 Z-3.750
G1 X200.628 Y154.311 Z-3.750
G1 X200.683 Y154.559 Z-3.750
G1 X200.701 Y154.800 Z-3.750
G1 X200.683 Y155.041 Z-3.750
G1 X200.628 Y155.288 Z-3.750
G1 X200.530 Y155.533 Z-3.750
G1 X200.391 Y155.766 Z-3.750
G1 X200.214 Y155.975 Z-3.750
G1 X200.005 Y156.153 Z-3.750
G1 X199.772 Y156.292 Z-3.750
G1 X199.527 Y156.389 Z-3.750
G1 X199.279 Y156.445 Z-3.750
G1 X199.038 Y156.462 Z-3.750
G0 X199.038 Y156.462
G0 Z6.000
G0 X199.038 Y155.192
G0 Z6.000
G1 X199.038 Y155.192 Z-4.500 F254.0
G1 X198.982 Y155.188 Z-4.500 F177.8
G1 X198.923 Y155.175 Z-4.500
G1 X198.865 Y155.152 Z-4.500
G1 X198.810 Y155.119 Z-4.500
G1 X198.761 Y155.077 Z-4.500
G1 X198.719 Y155.028 Z-4.500
G1 X198.686 Y154.973 Z-4.500
G1 X198.663 Y154.915 Z-4.500
G1 X198.650 Y154.857 Z-4.500
G1 X198.646 Y154.800 Z-4.500
G1 X198.650 Y154.743 Z-4.500
G1 X198.663 Y154.684 Z-4.500
G1 X198.686 Y154.627 Z-4.500
G1 X198.719 Y154.572 Z-4.500
G1 X198.761 Y154.522 Z-4.500
G1 X198.810 Y154.480 Z-4.500
G1 X198.865 Y154.448 Z-4.500
G1 X198.923 Y154.425 Z-4.500
G1 X198.982 Y154.411 Z-4.500
G1 X199.038 Y154.407 Z-4.500
G1 X199.095 Y154.411 Z-4.500
G1 X199.154 Y154.425 Z-4.500
G1 X199.212 Y154.448 Z-4.500
G1 X199.267 Y154.480 Z-4.500
G1 X199.316 Y154.522 Z-4.500
G1 X199.358 Y154.572 Z-4.500
G1 X199.391 Y154.627 Z-4.500
G1 X199.414 Y154.684 Z-4.500
G1 X199.427 Y154.743 Z-4.500
G1 X199.431 Y154.800 Z-4.500
G1 X199.427 Y154.857 Z-4.500
G1 X199.414 Y154.915 Z-4.500
G1 X199.391 Y154.973 Z-4.500
G1 X199.358 Y155.028 Z-4.500
G1 X199.316 Y155.077 Z-4.500
G1 X199.267 Y155.119 Z-4.500
G1 X199.212 Y155.152 Z-4.500
G1 X199.154 Y155.175 Z-4.500
G1 X199.095 Y155.188 Z-4.500
G1 X199.038 Y155.192 Z-4.500
G1 X199.038 Y156.462 Z-4.500
G1 X198.798 Y156.445 Z-4.500
G1 X198.550 Y156.389 Z-4.500
G1 X198.305 Y156.292 Z-4.500
G1 X198.072 Y156.153 Z-4.500
G1 X197.863 Y155.975 Z-4.500
G1 X197.685 Y155.766 Z-4.500
G1 X197.547 Y155.533 Z-4.500
G1 X197.449 Y155.288 Z-4.500
G1 X197.394 Y155.041 Z-4.500
G1 X197.376 Y154.800 Z-4.500
G1 X197.394 Y154.559 Z-4.500
G1 X197.449 Y154.311 Z-4.500
G1 X197.547 Y154.066 Z-4.500
G1 X197.685 Y153.834 Z-4.500
G1 X197.863 Y153.624 Z-4.500
G1 X198.072 Y153.447 Z-4.500
G1 X198.305 Y153.308 Z-4.500
G1 X198.550 Y153.211 Z-4.500
G1 X198.798 Y153.155 Z-4.500
G1 X199.038 Y153.137 Z-4.500
G1 X199.279 Y153.155 Z-4.500
G1 X199.527 Y153.211 Z-4.500
G1 X199.772 Y153.308 Z-4.500
G1 X200.005 Y153.447 Z-4.500
G1 X200.214 Y153.624 Z-4.500
G1 X200.391 Y153.834 Z-4.500
G1 X200.530 Y154.066 Z-4.500
G1 X200.628 Y154.311 Z-4.500
G1 X200.683 Y154.559 Z-4.500
G1 X200.701 Y154.800 Z-4.500
G1 X200.683 Y155.041 Z-4.500
G1 X200.628 Y155.288 Z-4.500
G1 X200.530 Y155.533 Z-4.500
G1 X200.391 Y155.766 Z-4.500
G1 X200.214 Y155.975 Z-4.500
G1 X200.005 Y156.153 Z-4.500
G1 X199.772 Y156.292 Z-4.500
G1 X199.527 Y156.389 Z-4.500
G1 X199.279 Y156.445 Z-4.500
G1 X199.038 Y156.462 Z-4.500
G0 X199.038 Y156.462
G0 Z6.000
G0 X199.038 Y155.192
G0 Z6.000
G1 X199.038 Y155.192 Z-5.250 F254.0
G1 X198.982 Y155.188 Z-5.250 F177.8
G1 X198.923 Y155.175 Z-5.250
G1 X198.865 Y155.152 Z-5.250
G1 X198.810 Y155.119 Z-5.250
G1 X198.761 Y155.077 Z-5.250
G1 X198.719 Y155.028 Z-5.250
G1 X198.686 Y154.973 Z-5.250
G1 X198.663 Y154.915 Z-5.250
G1 X198.650 Y154.857 Z-5.250
G1 X198.646 Y154.800 Z-5.250
G1 X198.650 Y154.743 Z-5.250
G1 X198.663 Y154.684 Z-5.250
G1 X198.686 Y154.627 Z-5.250
G1 X198.719 Y154.572 Z-5.250
G1 X198.761 Y154.522 Z-5.250
G1 X198.810 Y154.480 Z-5.250
G1 X198.865 Y154.448 Z-5.250
G1 X198.923 Y154.425 Z-5.250
G1 X198.982 Y154.411 Z-5.250
G1 X199.038 Y154.407 Z-5.250
G1 X199.095 Y154.411 Z-5.250
G1 X199.154 Y154.425 Z-5.250
G1 X199.212 Y154.448 Z-5.250
G1 X199.267 Y154.480 Z-5.250
G1 X199.316 Y154.522 Z-5.250
G1 X199.358 Y154.572 Z-5.250
G1 X199.391 Y154.627 Z-5.250
G1 X199.414 Y154.684 Z-5.250
G1 X199.427 Y154.743 Z-5.250
G1 X199.431 Y154.800 Z-5.250
G1 X199.427 Y154.857 Z-5.250
G1 X199.414 Y154.915 Z-5.250
G1 X199.391 Y154.973 Z-5.250
G1 X199.358 Y155.028 Z-5.250
G1 X199.316 Y155.077 Z-5.250
G1 X199.267 Y155.119 Z-5.250
G1 X199.212 Y155.152 Z-5.250
G1 X199.154 Y155.175 Z-5.250
G1 X199.095 Y155.188 Z-5.250
G1 X199.038 Y155.192 Z-5.250
G1 X199.038 Y156.462 Z-5.250
G1 X198.798 Y156.445 Z-5.250
G1 X198.550 Y156.389 Z-5.250
G1 X198.305 Y156.292 Z-5.250
G1 X198.072 Y156.153 Z-5.250
G1 X197.863 Y155.975 Z-5.250
G1 X197.685 Y155.766 Z-5.250
G1 X197.547 Y155.533 Z-5.250
G1 X197.449 Y155.288 Z-5.250
G1 X197.394 Y155.041 Z-5.250
G1 X197.376 Y154.800 Z-5.250
G1 X197.394 Y154.559 Z-5.250
G1 X197.449 Y154.311 Z-5.250
G1 X197.547 Y154.066 Z-5.250
G1 X197.685 Y153.834 Z-5.250
G1 X197.863 Y153.624 Z-5.250
G1 X198.072 Y153.447 Z-5.250
G1 X198.305 Y153.308 Z-5.250
G1 X198.550 Y153.211 Z-5.250
G1 X198.798 Y153.155 Z-5.250
G1 X199.038 Y153.137 Z-5.250
G1 X199.279 Y153.155 Z-5.250
G1 X199.527 Y153.211 Z-5.250
G1 X199.772 Y153.308 Z-5.250
G1 X200.005 Y153.447 Z-5.250
G1 X200.214 Y153.624 Z-5.250
G1 X200.391 Y153.834 Z-5.250
G1 X200.530 Y154.066 Z-5.250
G1 X200.628 Y154.311 Z-5.250
G1 X200.683 Y154.559 Z-5.250
G1 X200.701 Y154.800 Z-5.250
G1 X200.683 Y155.041 Z-5.250
G1 X200.628 Y155.288 Z-5.250
G1 X200.530 Y155.533 Z-5.250
G1 X200.391 Y155.766 Z-5.250
G1 X200.214 Y155.975 Z-5.250
G1 X200.005 Y156.153 Z-5.250
G1 X199.772 Y156.292 Z-5.250
G1 X199.527 Y156.389 Z-5.250
G1 X199.279 Y156.445 Z-5.250
G1 X199.038 Y156.462 Z-5.250
G0 X199.038 Y156.462
G0 Z6.000
G0 X199.038 Y155.192
G0 Z6.000
G1 X199.038 Y155.192 Z-6.000 F254.0
G1 X198.982 Y155.188 Z-6.000 F177.8
G1 X198.923 Y155.175 Z-6.000
G1 X198.865 Y155.152 Z-6.000
G1 X198.810 Y155.119 Z-6.000
G1 X198.761 Y155.077 Z-6.000
G1 X198.719 Y155.028 Z-6.000
G1 X198.686 Y154.973 Z-6.000
G1 X198.663 Y154.915 Z-6.000
G1 X198.650 Y154.857 Z-6.000
G1 X198.646 Y154.800 Z-6.000
G1 X198.650 Y154.743 Z-6.000
G1 X198.663 Y154.684 Z-6.000
G1 X198.686 Y154.627 Z-6.000
G1 X198.719 Y154.572 Z-6.000
G1 X198.761 Y154.522 Z-6.000
G1 X198.810 Y154.480 Z-6.000
G1 X198.865 Y154.448 Z-6.000
G1 X198.923 Y154.425 Z-6.000
G1 X198.982 Y154.411 Z-6.000
G1 X199.038 Y154.407 Z-6.000
G1 X199.095 Y154.411 Z-6.000
G1 X199.154 Y154.425 Z-6.000
G1 X199.212 Y154.448 Z-6.000
G1 X199.267 Y154.480 Z-6.000
G1 X199.316 Y154.522 Z-6.000
G1 X199.358 Y154.572 Z-6.000
G1 X199.391 Y154.627 Z-6.000
G1 X199.414 Y154.684 Z-6.000
G1 X199.427 Y154.743 Z-6.000
G1 X199.431 Y154.800 Z-6.000
G1 X199.427 Y154.857 Z-6.000
G1 X199.414 Y154.915 Z-6.000
G1 X199.391 Y154.973 Z-6.000
G1 X199.358 Y155.028 Z-6.000
G1 X199.316 Y155.077 Z-6.000
G1 X199.267 Y155.119 Z-6.000
G1 X199.212 Y155.152 Z-6.000
G1 X199.154 Y155.175 Z-6.000
G1 X199.095 Y155.188 Z-6.000
G1 X199.038 Y155.192 Z-6.000
G1 X199.038 Y156.462 Z-6.000
G1 X198.798 Y156.445 Z-6.000
G1 X198.550 Y156.389 Z-6.000
G1 X198.305 Y156.292 Z-6.000
G1 X198.072 Y156.153 Z-6.000
G1 X197.863 Y155.975 Z-6.000
G1 X197.685 Y155.766 Z-6.000
G1 X197.547 Y155.533 Z-6.000
G1 X197.449 Y155.288 Z-6.000
G1 X197.394 Y155.041 Z-6.000
G1 X197.376 Y154.800 Z-6.000
G1 X197.394 Y154.559 Z-6.000
G1 X197.449 Y154.311 Z-6.000
G1 X197.547 Y154.066 Z-6.000
G1 X197.685 Y153.834 Z-6.000
G1 X197.863 Y153.624 Z-6.000
G1 X198.072 Y153.447 Z-6.000
G1 X198.305 Y153.308 Z-6.000
G1 X198.550 Y153.211 Z-6.000
G1 X198.798 Y153.155 Z-6.000
G1 X199.038 Y153.137 Z-6.000
G1 X199.279 Y153.155 Z-6.000
G1 X199.527 Y153.211 Z-6.000
G1 X199.772 Y153.308 Z-6.000
G1 X200.005 Y153.447 Z-6.000
G1 X200.214 Y153.624 Z-6.000
G1 X200.391 Y153.834 Z-6.000
G1 X200.530 Y154.066 Z-6.000
G1 X200.628 Y154.311 Z-6.000
G1 X200.683 Y154.559 Z-6.000
G1 X200.701 Y154.800 Z-6.000
G1 X200.683 Y155.041 Z-6.000
G1 X200.628 Y155.288 Z-6.000
G1 X200.530 Y155.533 Z-6.000
G1 X200.391 Y155.766 Z-6.000
G1 X200.214 Y155.975 Z-6.000
G1 X200.005 Y156.153 Z-6.000
G1 X199.772 Y156.292 Z-6.000
G1 X199.527 Y156.389 Z-6.000
G1 X199.279 Y156.445 Z-6.000
G1 X199.038 Y156.462 Z-6.000
G0 X199.038 Y156.462
G0 Z6.000
G0 X199.038 Y155.192
G0 Z6.000
G1 X199.038 Y155.192 Z-6.750 F254.0
G1 X198.982 Y155.188 Z-6.750 F177.8
G1 X198.923 Y155.175 Z-6.750
G1 X198.865 Y155.152 Z-6.750
G1 X198.810 Y155.119 Z-6.750
G1 X198.761 Y155.077 Z-6.750
G1 X198.719 Y155.028 Z-6.750
G1 X198.686 Y154.973 Z-6.750
G1 X198.663 Y154.915 Z-6.750
G1 X198.650 Y154.857 Z-6.750
G1 X198.646 Y154.800 Z-6.750
G1 X198.650 Y154.743 Z-6.750
G1 X198.663 Y154.684 Z-6.750
G1 X198.686 Y154.627 Z-6.750
G1 X198.719 Y154.572 Z-6.750
G1 X198.761 Y154.522 Z-6.750
G1 X198.810 Y154.480 Z-6.750
G1 X198.865 Y154.448 Z-6.750
G1 X198.923 Y154.425 Z-6.750
G1 X198.982 Y154.411 Z-6.750
G1 X199.038 Y154.407 Z-6.750
G1 X199.095 Y154.411 Z-6.750
G1 X199.154 Y154.425 Z-6.750
G1 X199.212 Y154.448 Z-6.750
G1 X199.267 Y154.480 Z-6.750
G1 X199.316 Y154.522 Z-6.750
G1 X199.358 Y154.572 Z-6.750
G1 X199.391 Y154.627 Z-6.750
G1 X199.414 Y154.684 Z-6.750
G1 X199.427 Y154.743 Z-6.750
G1 X199.431 Y154.800 Z-6.750
G1 X199.427 Y154.857 Z-6.750
G1 X199.414 Y154.915 Z-6.750
G1 X199.391 Y154.973 Z-6.750
G1 X199.358 Y155.028 Z-6.750
G1 X199.316 Y155.077 Z-6.750
G1 X199.267 Y155.119 Z-6.750
G1 X199.212 Y155.152 Z-6.750
G1 X199.154 Y155.175 Z-6.750
G1 X199.095 Y155.188 Z-6.750
G1 X199.038 Y155.192 Z-6.750
G1 X199.038 Y156.462 Z-6.750
G1 X198.798 Y156.445 Z-6.750
G1 X198.550 Y156.389 Z-6.750
G1 X198.305 Y156.292 Z-6.750
G1 X198.072 Y156.153 Z-6.750
G1 X197.863 Y155.975 Z-6.750
G1 X197.685 Y155.766 Z-6.750
G1 X197.547 Y155.533 Z-6.750
G1 X197.449 Y155.288 Z-6.750
G1 X197.394 Y155.041 Z-6.750
G1 X197.376 Y154.800 Z-6.750
G1 X197.394 Y154.559 Z-6.750
G1 X197.449 Y154.311 Z-6.750
G1 X197.547 Y154.066 Z-6.750
G1 X197.685 Y153.834 Z-6.750
G1 X197.863 Y153.624 Z-6.750
G1 X198.072 Y153.447 Z-6.750
G1 X198.305 Y153.308 Z-6.750
G1 X198.550 Y153.211 Z-6.750
G1 X198.798 Y153.155 Z-6.750
G1 X199.038 Y153.137 Z-6.750
G1 X199.279 Y153.155 Z-6.750
G1 X199.527 Y153.211 Z-6.750
G1 X199.772 Y153.308 Z-6.750
G1 X200.005 Y153.447 Z-6.750
G1 X200.214 Y153.624 Z-6.750
G1 X200.391 Y153.834 Z-6.750
G1 X200.530 Y154.066 Z-6.750
G1 X200.628 Y154.311 Z-6.750
G1 X200.683 Y154.559 Z-6.750
G1 X200.701 Y154.800 Z-6.750
G1 X200.683 Y155.041 Z-6.750
G1 X200.628 Y155.288 Z-6.750
G1 X200.530 Y155.533 Z-6.750
G1 X200.391 Y155.766 Z-6.750
G1 X200.214 Y155.975 Z-6.750
G1 X200.005 Y156.153 Z-6.750
G1 X199.772 Y156.292 Z-6.750
G1 X199.527 Y156.389 Z-6.750
G1 X199.279 Y156.445 Z-6.750
G1 X199.038 Y156.462 Z-6.750
G0 X199.038 Y156.462
G0 Z6.000
G0 X199.038 Y155.192
G0 Z6.000
G1 X199.038 Y155.192 Z-7.500 F254.0
G1 X198.982 Y155.188 Z-7.500 F177.8
G1 X198.923 Y155.175 Z-7.500
