(VECTRIC POST REVISION)
(AE8C5706166A14C0DE23454C54EBD95B)
%
G21
G40
G94
G97
G64
G90
T1 M6
M8
M3 S10000
G0 X157.036 Y12.939
G0 Z5.080
G1 X157.036 Y12.939 Z-1.000 F635.0
G1 X156.030 Y12.989 Z-1.000 F180.0
G1 X155.022 Y13.047 Z-1.000
G1 X154.011 Y13.111 Z-1.000
G1 X152.998 Y13.182 Z-1.000
G1 X151.983 Y13.260 Z-1.000
G1 X150.967 Y13.345 Z-1.000
G1 X149.948 Y13.436 Z-1.000
G1 X148.927 Y13.535 Z-1.000
G1 X147.905 Y13.641 Z-1.000
G1 X146.880 Y13.753 Z-1.000
G1 X145.854 Y13.873 Z-1.000
G1 X144.827 Y14.000 Z-1.000
G1 X143.797 Y14.135 Z-1.000
G1 X142.767 Y14.276 Z-1.000
G1 X141.735 Y14.425 Z-1.000
G1 X140.701 Y14.581 Z-1.000
G1 X139.666 Y14.745 Z-1.000
G1 X138.630 Y14.916 Z-1.000
G1 X137.593 Y15.094 Z-1.000
G1 X136.555 Y15.280 Z-1.000
G1 X135.515 Y15.474 Z-1.000
G1 X134.475 Y15.675 Z-1.000
G1 X133.434 Y15.883 Z-1.000
G1 X132.392 Y16.100 Z-1.000
G1 X131.349 Y16.323 Z-1.000
G1 X130.306 Y16.555 Z-1.000
G1 X129.262 Y16.794 Z-1.000
G1 X128.218 Y17.041 Z-1.000
G1 X127.174 Y17.296 Z-1.000
G1 X126.129 Y17.559 Z-1.000
G1 X125.083 Y17.829 Z-1.000
G1 X124.038 Y18.107 Z-1.000
G1 X122.993 Y18.394 Z-1.000
G1 X121.947 Y18.688 Z-1.000
G1 X120.902 Y18.990 Z-1.000
G1 X119.857 Y19.300 Z-1.000
G1 X118.812 Y19.617 Z-1.000
G1 X117.767 Y19.943 Z-1.000
G1 X116.723 Y20.277 Z-1.000
G1 X115.680 Y20.619 Z-1.000
G1 X114.637 Y20.969 Z-1.000
G1 X113.594 Y21.327 Z-1.000
G1 X112.553 Y21.693 Z-1.000
G1 X111.512 Y22.067 Z-1.000
G1 X110.473 Y22.450 Z-1.000
G1 X109.434 Y22.840 Z-1.000
G1 X108.397 Y23.238 Z-1.000
G1 X107.361 Y23.645 Z-1.000
G1 X106.326 Y24.059 Z-1.000
G1 X105.292 Y24.482 Z-1.000
G1 X104.260 Y24.913 Z-1.000
G1 X103.230 Y25.352 Z-1.000
G1 X102.201 Y25.799 Z-1.000
G1 X101.174 Y26.255 Z-1.000
G1 X100.149 Y26.718 Z-1.000
G1 X99.126 Y27.189 Z-1.000
G1 X98.105 Y27.669 Z-1.000
G1 X97.086 Y28.157 Z-1.000
G1 X96.070 Y28.653 Z-1.000
G1 X95.056 Y29.156 Z-1.000
G1 X94.044 Y29.668 Z-1.000
G1 X93.035 Y30.188 Z-1.000
G1 X92.028 Y30.717 Z-1.000
G1 X91.024 Y31.253 Z-1.000
G1 X90.023 Y31.797 Z-1.000
G1 X89.025 Y32.349 Z-1.000
G1 X88.029 Y32.909 Z-1.000
G1 X87.037 Y33.477 Z-1.000
G1 X86.048 Y34.053 Z-1.000
G1 X85.063 Y34.637 Z-1.000
G1 X84.080 Y35.229 Z-1.000
G1 X83.101 Y35.829 Z-1.000
G1 X82.126 Y36.436 Z-1.000
G1 X81.155 Y37.052 Z-1.000
G1 X80.187 Y37.675 Z-1.000
G1 X79.223 Y38.306 Z-1.000
G1 X78.262 Y38.945 Z-1.000
G1 X77.306 Y39.591 Z-1.000
G1 X76.354 Y40.245 Z-1.000
G1 X75.406 Y40.906 Z-1.000
G1 X74.463 Y41.575 Z-1.000
G1 X73.524 Y42.252 Z-1.000
G1 X72.589 Y42.936 Z-1.000
G1 X71.659 Y43.628 Z-1.000
G1 X70.733 Y44.327 Z-1.000
G1 X69.812 Y45.033 Z-1.000
G1 X68.896 Y45.747 Z-1.000
G1 X67.985 Y46.468 Z-1.000
G1 X67.079 Y47.196 Z-1.000
G1 X66.178 Y47.931 Z-1.000
G1 X65.282 Y48.673 Z-1.000
G1 X64.392 Y49.423 Z-1.000
G1 X63.506 Y50.179 Z-1.000
G1 X62.626 Y50.942 Z-1.000
G1 X61.752 Y51.713 Z-1.000
G1 X60.883 Y52.490 Z-1.000
G1 X60.020 Y53.273 Z-1.000
G1 X59.162 Y54.064 Z-1.000
G1 X58.310 Y54.861 Z-1.000
G1 X57.465 Y55.665 Z-1.000
G1 X56.625 Y56.475 Z-1.000
G1 X55.791 Y57.291 Z-1.000
G1 X54.963 Y58.114 Z-1.000
G1 X54.141 Y58.944 Z-1.000
G1 X53.326 Y59.779 Z-1.000
G1 X52.517 Y60.621 Z-1.000
G1 X51.714 Y61.469 Z-1.000
G1 X50.918 Y62.322 Z-1.000
G1 X50.128 Y63.182 Z-1.000
G1 X49.345 Y64.048 Z-1.000
G1 X48.569 Y64.919 Z-1.000
G1 X47.799 Y65.796 Z-1.000
G1 X47.036 Y66.679 Z-1.000
G1 X46.280 Y67.567 Z-1.000
G1 X45.531 Y68.461 Z-1.000
G1 X44.788 Y69.360 Z-1.000
G1 X44.053 Y70.265 Z-1.000
G1 X43.325 Y71.174 Z-1.000
G1 X42.604 Y72.089 Z-1.000
G1 X41.890 Y73.009 Z-1.000
G1 X41.183 Y73.934 Z-1.000
G1 X40.484 Y74.864 Z-1.000
G1 X39.792 Y75.798 Z-1.000
G1 X39.107 Y76.738 Z-1.000
G1 X38.430 Y77.682 Z-1.000
G1 X37.760 Y78.630 Z-1.000
G1 X37.098 Y79.583 Z-1.000
G1 X36.443 Y80.541 Z-1.000
G1 X35.796 Y81.503 Z-1.000
G1 X35.157 Y82.468 Z-1.000
G1 X34.525 Y83.438 Z-1.000
G1 X33.901 Y84.412 Z-1.000
G1 X33.285 Y85.390 Z-1.000
G1 X32.677 Y86.372 Z-1.000
G1 X32.076 Y87.358 Z-1.000
G1 X31.483 Y88.347 Z-1.000
G1 X30.898 Y89.339 Z-1.000
G1 X30.322 Y90.336 Z-1.000
G1 X29.753 Y91.335 Z-1.000
G1 X29.192 Y92.338 Z-1.000
G1 X28.639 Y93.344 Z-1.000
G1 X28.094 Y94.353 Z-1.000
G1 X27.557 Y95.365 Z-1.000
G1 X27.028 Y96.380 Z-1.000
G1 X26.507 Y97.398 Z-1.000
G1 X25.994 Y98.418 Z-1.000
G1 X25.490 Y99.441 Z-1.000
G1 X24.993 Y100.467 Z-1.000
G1 X24.505 Y101.495 Z-1.000
G1 X24.025 Y102.525 Z-1.000
G1 X23.553 Y103.558 Z-1.000
G1 X23.089 Y104.593 Z-1.000
G1 X22.633 Y105.630 Z-1.000
G1 X22.186 Y106.668 Z-1.000
G1 X21.747 Y107.709 Z-1.000
G1 X21.316 Y108.751 Z-1.000
G1 X20.893 Y109.796 Z-1.000
G1 X20.478 Y110.841 Z-1.000
G1 X20.072 Y111.888 Z-1.000
G1 X19.673 Y112.937 Z-1.000
G1 X19.283 Y113.987 Z-1.000
G1 X18.902 Y115.038 Z-1.000
G1 X18.528 Y116.090 Z-1.000
G1 X18.162 Y117.143 Z-1.000
G1 X17.805 Y118.198 Z-1.000
G1 X17.456 Y119.253 Z-1.000
G1 X17.115 Y120.308 Z-1.000
G1 X16.782 Y121.365 Z-1.000
G1 X16.457 Y122.422 Z-1.000
G1 X16.141 Y123.479 Z-1.000
G1 X15.832 Y124.537 Z-1.000
G1 X15.532 Y125.596 Z-1.000
G1 X15.239 Y126.654 Z-1.000
G1 X14.955 Y127.713 Z-1.000
G1 X14.678 Y128.771 Z-1.000
G1 X14.410 Y129.830 Z-1.000
G1 X14.150 Y130.889 Z-1.000
G1 X13.897 Y131.947 Z-1.000
G1 X13.653 Y133.005 Z-1.000
G1 X13.416 Y134.063 Z-1.000
G1 X13.187 Y135.120 Z-1.000
G1 X12.966 Y136.177 Z-1.000
G1 X12.753 Y137.233 Z-1.000
G1 X12.548 Y138.289 Z-1.000
G1 X12.350 Y139.343 Z-1.000
G1 X12.160 Y140.397 Z-1.000
G1 X11.978 Y141.450 Z-1.000
G1 X11.803 Y142.502 Z-1.000
G1 X11.636 Y143.553 Z-1.000
G1 X11.477 Y144.603 Z-1.000
G1 X11.325 Y145.651 Z-1.000
G1 X11.181 Y146.699 Z-1.000
G1 X11.044 Y147.745 Z-1.000
G1 X10.915 Y148.789 Z-1.000
G1 X10.793 Y149.832 Z-1.000
G1 X10.678 Y150.873 Z-1.000
G1 X10.570 Y151.913 Z-1.000
G1 X10.470 Y152.951 Z-1.000
G1 X10.377 Y153.987 Z-1.000
G1 X10.292 Y155.022 Z-1.000
G1 X10.213 Y156.054 Z-1.000
G1 X10.141 Y157.085 Z-1.000
G1 X10.077 Y158.113 Z-1.000
G1 X10.020 Y159.140 Z-1.000
G1 X9.969 Y160.164 Z-1.000
G1 X9.925 Y161.186 Z-1.000
G1 X9.889 Y162.205 Z-1.000
G1 X9.859 Y163.223 Z-1.000
G1 X9.835 Y164.238 Z-1.000
G1 X9.819 Y165.250 Z-1.000
G1 X9.809 Y166.260 Z-1.000
G1 X9.806 Y167.268 Z-1.000
G1 X9.809 Y168.275 Z-1.000
G1 X9.819 Y169.285 Z-1.000
G1 X9.835 Y170.297 Z-1.000
G1 X9.859 Y171.312 Z-1.000
G1 X9.889 Y172.330 Z-1.000
G1 X9.925 Y173.349 Z-1.000
G1 X9.969 Y174.371 Z-1.000
G1 X10.020 Y175.396 Z-1.000
G1 X10.077 Y176.422 Z-1.000
G1 X10.141 Y177.451 Z-1.000
G1 X10.213 Y178.481 Z-1.000
G1 X10.292 Y179.513 Z-1.000
G1 X10.377 Y180.548 Z-1.000
G1 X10.470 Y181.584 Z-1.000
G1 X10.570 Y182.622 Z-1.000
G1 X10.678 Y183.662 Z-1.000
G1 X10.793 Y184.703 Z-1.000
G1 X10.915 Y185.746 Z-1.000
G1 X11.044 Y186.791 Z-1.000
G1 X11.181 Y187.837 Z-1.000
G1 X11.325 Y188.884 Z-1.000
G1 X11.477 Y189.932 Z-1.000
G1 X11.636 Y190.982 Z-1.000
G1 X11.803 Y192.033 Z-1.000
G1 X11.978 Y193.085 Z-1.000
G1 X12.160 Y194.138 Z-1.000
G1 X12.350 Y195.192 Z-1.000
G1 X12.548 Y196.247 Z-1.000
G1 X12.753 Y197.302 Z-1.000
G1 X12.966 Y198.358 Z-1.000
G1 X13.187 Y199.415 Z-1.000
G1 X13.416 Y200.472 Z-1.000
G1 X13.653 Y201.530 Z-1.000
G1 X13.897 Y202.588 Z-1.000
G1 X14.150 Y203.647 Z-1.000
G1 X14.410 Y204.705 Z-1.000
G1 X14.678 Y205.764 Z-1.000
G1 X14.955 Y206.822 Z-1.000
G1 X15.239 Y207.881 Z-1.000
G1 X15.532 Y208.940 Z-1.000
G1 X15.832 Y209.998 Z-1.000
G1 X16.141 Y211.056 Z-1.000
G1 X16.457 Y212.113 Z-1.000
G1 X16.782 Y213.170 Z-1.000
G1 X17.115 Y214.227 Z-1.000
G1 X17.456 Y215.283 Z-1.000
G1 X17.805 Y216.338 Z-1.000
G1 X18.162 Y217.392 Z-1.000
G1 X18.528 Y218.445 Z-1.000
G1 X18.902 Y219.497 Z-1.000
G1 X19.283 Y220.548 Z-1.000
G1 X19.673 Y221.598 Z-1.000
G1 X20.072 Y222.647 Z-1.000
G1 X20.478 Y223.694 Z-1.000
G1 X20.893 Y224.740 Z-1.000
G1 X21.316 Y225.784 Z-1.000
G1 X21.747 Y226.826 Z-1.000
G1 X22.186 Y227.867 Z-1.000
G1 X22.633 Y228.906 Z-1.000
G1 X23.089 Y229.942 Z-1.000
G1 X23.553 Y230.977 Z-1.000
G1 X24.025 Y232.010 Z-1.000
G1 X24.505 Y233.040 Z-1.000
G1 X24.993 Y234.068 Z-1.000
G1 X25.490 Y235.094 Z-1.000
G1 X25.994 Y236.117 Z-1.000
G1 X26.507 Y237.137 Z-1.000
G1 X27.028 Y238.155 Z-1.000
G1 X27.557 Y239.170 Z-1.000
G1 X28.094 Y240.182 Z-1.000
G1 X28.639 Y241.191 Z-1.000
G1 X29.192 Y242.197 Z-1.000
G1 X29.753 Y243.200 Z-1.000
G1 X30.322 Y244.200 Z-1.000
G1 X30.898 Y245.196 Z-1.000
G1 X31.483 Y246.189 Z-1.000
G1 X32.076 Y247.178 Z-1.000
G1 X32.677 Y248.163 Z-1.000
G1 X33.285 Y249.145 Z-1.000
G1 X33.901 Y250.123 Z-1.000
G1 X34.525 Y251.097 Z-1.000
G1 X35.157 Y252.067 Z-1.000
G1 X35.796 Y253.033 Z-1.000
G1 X36.443 Y253.994 Z-1.000
G1 X37.098 Y254.952 Z-1.000
G1 X37.760 Y255.905 Z-1.000
G1 X38.430 Y256.853 Z-1.000
G1 X39.107 Y257.797 Z-1.000
G1 X39.792 Y258.737 Z-1.000
G1 X40.484 Y259.671 Z-1.000
G1 X41.183 Y260.601 Z-1.000
G1 X41.890 Y261.526 Z-1.000
G1 X42.604 Y262.446 Z-1.000
G1 X43.325 Y263.361 Z-1.000
G1 X44.053 Y264.271 Z-1.000
G1 X44.788 Y265.175 Z-1.000
G1 X45.531 Y266.074 Z-1.000
G1 X46.280 Y266.968 Z-1.000
G1 X47.036 Y267.856 Z-1.000
G1 X47.799 Y268.739 Z-1.000
G1 X48.569 Y269.616 Z-1.000
G1 X49.345 Y270.488 Z-1.000
G1 X50.128 Y271.353 Z-1.000
G1 X50.918 Y272.213 Z-1.000
G1 X51.714 Y273.067 Z-1.000
G1 X52.517 Y273.914 Z-1.000
G1 X53.326 Y274.756 Z-1.000
G1 X54.141 Y275.592 Z-1.000
G1 X54.963 Y276.421 Z-1.000
G1 X55.791 Y277.244 Z-1.000
G1 X56.625 Y278.061 Z-1.000
G1 X57.465 Y278.871 Z-1.000
G1 X58.310 Y279.674 Z-1.000
G1 X59.162 Y280.471 Z-1.000
G1 X60.020 Y281.262 Z-1.000
G1 X60.883 Y282.046 Z-1.000
G1 X61.752 Y282.823 Z-1.000
G1 X62.626 Y283.593 Z-1.000
G1 X63.506 Y284.356 Z-1.000
G1 X64.392 Y285.113 Z-1.000
G1 X65.282 Y285.862 Z-1.000
G1 X66.178 Y286.604 Z-1.000
G1 X67.079 Y287.340 Z-1.000
G1 X67.985 Y288.068 Z-1.000
G1 X68.896 Y288.789 Z-1.000
G1 X69.812 Y289.502 Z-1.000
G1 X70.733 Y290.208 Z-1.000
G1 X71.659 Y290.907 Z-1.000
G1 X72.589 Y291.599 Z-1.000
G1 X73.524 Y292.283 Z-1.000
G1 X74.463 Y292.960 Z-1.000
G1 X75.406 Y293.629 Z-1.000
G1 X76.354 Y294.290 Z-1.000
G1 X77.306 Y294.944 Z-1.000
G1 X78.262 Y295.591 Z-1.000
G1 X79.223 Y296.229 Z-1.000
G1 X80.187 Y296.860 Z-1.000
G1 X81.155 Y297.483 Z-1.000
G1 X82.126 Y298.099 Z-1.000
G1 X83.101 Y298.706 Z-1.000
G1 X84.080 Y299.306 Z-1.000
G1 X85.063 Y299.898 Z-1.000
G1 X86.048 Y300.482 Z-1.000
G1 X87.037 Y301.058 Z-1.000
G1 X88.029 Y301.626 Z-1.000
G1 X89.025 Y302.186 Z-1.000
G1 X90.023 Y302.738 Z-1.000
G1 X91.024 Y303.283 Z-1.000
G1 X92.028 Y303.819 Z-1.000
G1 X93.035 Y304.347 Z-1.000
G1 X94.044 Y304.867 Z-1.000
G1 X95.056 Y305.379 Z-1.000
G1 X96.070 Y305.883 Z-1.000
G1 X97.086 Y306.379 Z-1.000
G1 X98.105 Y306.866 Z-1.000
G1 X99.126 Y307.346 Z-1.000
G1 X100.149 Y307.817 Z-1.000
G1 X101.174 Y308.281 Z-1.000
G1 X102.201 Y308.736 Z-1.000
G1 X103.230 Y309.183 Z-1.000
G1 X104.260 Y309.622 Z-1.000
G1 X105.292 Y310.053 Z-1.000
G1 X106.326 Y310.476 Z-1.000
G1 X107.361 Y310.890 Z-1.000
G1 X108.397 Y311.297 Z-1.000
G1 X109.434 Y311.695 Z-1.000
G1 X110.473 Y312.086 Z-1.000
G1 X111.512 Y312.468 Z-1.000
G1 X112.553 Y312.842 Z-1.000
G1 X113.594 Y313.208 Z-1.000
G1 X114.637 Y313.566 Z-1.000
G1 X115.680 Y313.916 Z-1.000
G1 X116.723 Y314.258 Z-1.000
G1 X117.767 Y314.592 Z-1.000
G1 X118.812 Y314.918 Z-1.000
G1 X119.857 Y315.236 Z-1.000
G1 X120.902 Y315.546 Z-1.000
G1 X121.947 Y315.848 Z-1.000
G1 X122.993 Y316.142 Z-1.000
G1 X124.038 Y316.428 Z-1.000
G1 X125.083 Y316.706 Z-1.000
G1 X126.129 Y316.977 Z-1.000
G1 X127.174 Y317.239 Z-1.000
G1 X128.218 Y317.494 Z-1.000
G1 X129.262 Y317.741 Z-1.000
G1 X130.306 Y317.980 Z-1.000
G1 X131.349 Y318.212 Z-1.000
G1 X132.392 Y318.436 Z-1.000
G1 X133.434 Y318.652 Z-1.000
G1 X134.475 Y318.860 Z-1.000
G1 X135.515 Y319.061 Z-1.000
G1 X136.555 Y319.255 Z-1.000
G1 X137.593 Y319.441 Z-1.000
G1 X138.630 Y319.619 Z-1.000
G1 X139.666 Y319.790 Z-1.000
G1 X140.701 Y319.954 Z-1.000
G1 X141.735 Y320.110 Z-1.000
G1 X142.767 Y320.259 Z-1.000
G1 X143.797 Y320.400 Z-1.000
G1 X144.827 Y320.535 Z-1.000
G1 X145.854 Y320.662 Z-1.000
G1 X146.880 Y320.782 Z-1.000
G1 X147.905 Y320.895 Z-1.000
G1 X148.927 Y321.000 Z-1.000
G1 X149.948 Y321.099 Z-1.000
G1 X150.967 Y321.191 Z-1.000
G1 X151.983 Y321.275 Z-1.000
G1 X152.998 Y321.353 Z-1.000
G1 X154.011 Y321.424 Z-1.000
G1 X155.022 Y321.488 Z-1.000
G1 X156.030 Y321.546 Z-1.000
G1 X157.036 Y321.596 Z-1.000
G1 X158.074 Y321.642 Z-1.000
G1 X159.112 Y321.680 Z-1.000
G1 X160.150 Y321.712 Z-1.000
G1 X161.189 Y321.736 Z-1.000
G1 X162.228 Y321.754 Z-1.000
G1 X163.267 Y321.764 Z-1.000
G1 X164.306 Y321.768 Z-1.000
G1 X165.344 Y321.764 Z-1.000
G1 X166.383 Y321.754 Z-1.000
G1 X167.422 Y321.736 Z-1.000
G1 X168.461 Y321.712 Z-1.000
G1 X169.499 Y321.680 Z-1.000
G1 X170.537 Y321.642 Z-1.000
G1 X171.575 Y321.596 Z-1.000
G1 X172.581 Y321.546 Z-1.000
G1 X173.590 Y321.488 Z-1.000
G1 X174.600 Y321.424 Z-1.000
G1 X175.613 Y321.353 Z-1.000
G1 X176.628 Y321.275 Z-1.000
G1 X177.645 Y321.191 Z-1.000
G1 X178.663 Y321.099 Z-1.000
G1 X179.684 Y321.000 Z-1.000
G1 X180.707 Y320.895 Z-1.000
G1 X181.731 Y320.782 Z-1.000
G1 X182.757 Y320.662 Z-1.000
G1 X183.784 Y320.535 Z-1.000
G1 X184.814 Y320.400 Z-1.000
G1 X185.844 Y320.259 Z-1.000
G1 X186.877 Y320.110 Z-1.000
G1 X187.910 Y319.954 Z-1.000
G1 X188.945 Y319.790 Z-1.000
G1 X189.981 Y319.619 Z-1.000
G1 X191.018 Y319.441 Z-1.000
G1 X192.057 Y319.255 Z-1.000
G1 X193.096 Y319.061 Z-1.000
G1 X194.136 Y318.860 Z-1.000
G1 X195.177 Y318.652 Z-1.000
G1 X196.219 Y318.436 Z-1.000
G1 X197.262 Y318.212 Z-1.000
G1 X198.305 Y317.980 Z-1.000
G1 X199.349 Y317.741 Z-1.000
G1 X200.393 Y317.494 Z-1.000
G1 X201.438 Y317.239 Z-1.000
G1 X202.483 Y316.977 Z-1.000
G1 X203.528 Y316.706 Z-1.000
G1 X204.573 Y316.428 Z-1.000
G1 X205.619 Y316.142 Z-1.000
G1 X206.664 Y315.848 Z-1.000
G1 X207.709 Y315.546 Z-1.000
G1 X208.754 Y315.236 Z-1.000
G1 X209.799 Y314.918 Z-1.000
G1 X210.844 Y314.592 Z-1.000
G1 X211.888 Y314.258 Z-1.000
G1 X212.931 Y313.916 Z-1.000
G1 X213.974 Y313.566 Z-1.000
G1 X215.017 Y313.208 Z-1.000
G1 X216.058 Y312.842 Z-1.000
G1 X217.099 Y312.468 Z-1.000
G1 X218.138 Y312.086 Z-1.000
G1 X219.177 Y311.695 Z-1.000
G1 X220.214 Y311.297 Z-1.000
G1 X221.251 Y310.890 Z-1.000
G1 X222.285 Y310.476 Z-1.000
G1 X223.319 Y310.053 Z-1.000
G1 X224.351 Y309.622 Z-1.000
G1 X225.381 Y309.183 Z-1.000
G1 X226.410 Y308.736 Z-1.000
G1 X227.437 Y308.281 Z-1.000
G1 X228.462 Y307.817 Z-1.000
G1 X229.485 Y307.346 Z-1.000
G1 X230.506 Y306.866 Z-1.000
G1 X231.525 Y306.379 Z-1.000
G1 X232.541 Y305.883 Z-1.000
G1 X233.555 Y305.379 Z-1.000
G1 X234.567 Y304.867 Z-1.000
G1 X235.577 Y304.347 Z-1.000
G1 X236.583 Y303.819 Z-1.000
G1 X237.587 Y303.283 Z-1.000
G1 X238.588 Y302.738 Z-1.000
G1 X239.586 Y302.186 Z-1.000
G1 X240.582 Y301.626 Z-1.000
G1 X241.574 Y301.058 Z-1.000
G1 X242.563 Y300.482 Z-1.000
G1 X243.548 Y299.898 Z-1.000
G1 X244.531 Y299.306 Z-1.000
G1 X245.510 Y298.706 Z-1.000
G1 X246.485 Y298.099 Z-1.000
G1 X247.457 Y297.483 Z-1.000
G1 X248.424 Y296.860 Z-1.000
G1 X249.389 Y296.229 Z-1.000
G1 X250.349 Y295.591 Z-1.000
G1 X251.305 Y294.944 Z-1.000
G1 X252.257 Y294.290 Z-1.000
G1 X253.205 Y293.629 Z-1.000
G1 X254.148 Y292.960 Z-1.000
G1 X255.088 Y292.283 Z-1.000
G1 X256.022 Y291.599 Z-1.000
G1 X256.952 Y290.907 Z-1.000
G1 X257.878 Y290.208 Z-1.000
G1 X258.799 Y289.502 Z-1.000
G1 X259.715 Y288.789 Z-1.000
G1 X260.626 Y288.068 Z-1.000
G1 X261.532 Y287.340 Z-1.000
G1 X262.433 Y286.604 Z-1.000
G1 X263.329 Y285.862 Z-1.000
G1 X264.220 Y285.113 Z-1.000
G1 X265.105 Y284.356 Z-1.000
G1 X265.985 Y283.593 Z-1.000
G1 X266.859 Y282.823 Z-1.000
G1 X267.728 Y282.046 Z-1.000
G1 X268.591 Y281.262 Z-1.000
G1 X269.449 Y280.471 Z-1.000
G1 X270.301 Y279.674 Z-1.000
G1 X271.147 Y278.871 Z-1.000
G1 X271.986 Y278.061 Z-1.000
G1 X272.820 Y277.244 Z-1.000
G1 X273.648 Y276.421 Z-1.000
G1 X274.470 Y275.592 Z-1.000
G1 X275.285 Y274.756 Z-1.000
G1 X276.094 Y273.914 Z-1.000
G1 X276.897 Y273.067 Z-1.000
G1 X277.693 Y272.213 Z-1.000
G1 X278.483 Y271.353 Z-1.000
G1 X279.266 Y270.488 Z-1.000
G1 X280.042 Y269.616 Z-1.000
G1 X280.812 Y268.739 Z-1.000
G1 X281.575 Y267.856 Z-1.000
G1 X282.331 Y266.968 Z-1.000
G1 X283.080 Y266.074 Z-1.000
G1 X283.823 Y265.175 Z-1.000
G1 X284.558 Y264.271 Z-1.000
G1 X285.286 Y263.361 Z-1.000
G1 X286.007 Y262.446 Z-1.000
G1 X286.721 Y261.526 Z-1.000
G1 X287.428 Y260.601 Z-1.000
G1 X288.127 Y259.671 Z-1.000
G1 X288.819 Y258.737 Z-1.000
G1 X289.504 Y257.797 Z-1.000
G1 X290.181 Y256.853 Z-1.000
G1 X290.851 Y255.905 Z-1.000
G1 X291.513 Y254.952 Z-1.000
G1 X292.168 Y253.994 Z-1.000
G1 X292.815 Y253.033 Z-1.000
G1 X293.454 Y252.067 Z-1.000
G1 X294.086 Y251.097 Z-1.000
G1 X294.710 Y250.123 Z-1.000
G1 X295.326 Y249.145 Z-1.000
G1 X295.934 Y248.163 Z-1.000
G1 X296.535 Y247.178 Z-1.000
G1 X297.128 Y246.189 Z-1.000
G1 X297.713 Y245.196 Z-1.000
G1 X298.290 Y244.200 Z-1.000
G1 X298.859 Y243.200 Z-1.000
G1 X299.420 Y242.197 Z-1.000
G1 X299.973 Y241.191 Z-1.000
G1 X300.518 Y240.182 Z-1.000
G1 X301.054 Y239.170 Z-1.000
G1 X301.583 Y238.155 Z-1.000
G1 X302.104 Y237.137 Z-1.000
G1 X302.617 Y236.117 Z-1.000
G1 X303.121 Y235.094 Z-1.000
G1 X303.618 Y234.068 Z-1.000
G1 X304.106 Y233.040 Z-1.000
G1 X304.586 Y232.010 Z-1.000
G1 X305.058 Y230.977 Z-1.000
G1 X305.522 Y229.942 Z-1.000
G1 X305.978 Y228.906 Z-1.000
G1 X306.425 Y227.867 Z-1.000
G1 X306.864 Y226.826 Z-1.000
G1 X307.295 Y225.784 Z-1.000
G1 X307.718 Y224.740 Z-1.000
G1 X308.133 Y223.694 Z-1.000
G1 X308.539 Y222.647 Z-1.000
G1 X308.938 Y221.598 Z-1.000
G1 X309.328 Y220.548 Z-1.000
G1 X309.710 Y219.497 Z-1.000
G1 X310.083 Y218.445 Z-1.000
G1 X310.449 Y217.392 Z-1.000
G1 X310.806 Y216.338 Z-1.000
G1 X311.155 Y215.283 Z-1.000
G1 X311.496 Y214.227 Z-1.000
G1 X311.829 Y213.170 Z-1.000
G1 X312.154 Y212.113 Z-1.000
G1 X312.470 Y211.056 Z-1.000
G1 X312.779 Y209.998 Z-1.000
G1 X313.080 Y208.940 Z-1.000
G1 X313.372 Y207.881 Z-1.000
G1 X313.656 Y206.822 Z-1.000
G1 X313.933 Y205.764 Z-1.000
G1 X314.201 Y204.705 Z-1.000
G1 X314.462 Y203.647 Z-1.000
G1 X314.714 Y202.588 Z-1.000
G1 X314.959 Y201.530 Z-1.000
G1 X315.195 Y200.472 Z-1.000
G1 X315.424 Y199.415 Z-1.000
G1 X315.645 Y198.358 Z-1.000
G1 X315.858 Y197.302 Z-1.000
G1 X316.063 Y196.247 Z-1.000
G1 X316.261 Y195.192 Z-1.000
G1 X316.451 Y194.138 Z-1.000
G1 X316.633 Y193.085 Z-1.000
G1 X316.808 Y192.033 Z-1.000
G1 X316.975 Y190.982 Z-1.000
G1 X317.134 Y189.932 Z-1.000
G1 X317.286 Y188.884 Z-1.000
G1 X317.430 Y187.837 Z-1.000
G1 X317.567 Y186.791 Z-1.000
G1 X317.697 Y185.746 Z-1.000
G1 X317.819 Y184.703 Z-1.000
G1 X317.933 Y183.662 Z-1.000
G1 X318.041 Y182.622 Z-1.000
G1 X318.141 Y181.584 Z-1.000
G1 X318.234 Y180.548 Z-1.000
G1 X318.319 Y179.513 Z-1.000
G1 X318.398 Y178.481 Z-1.000
G1 X318.470 Y177.451 Z-1.000
G1 X318.534 Y176.422 Z-1.000
G1 X318.592 Y175.396 Z-1.000
G1 X318.642 Y174.371 Z-1.000
G1 X318.686 Y173.349 Z-1.000
G1 X318.723 Y172.330 Z-1.000
G1 X318.753 Y171.312 Z-1.000
G1 X318.776 Y170.297 Z-1.000
G1 X318.792 Y169.285 Z-1.000
G1 X318.802 Y168.275 Z-1.000
G1 X318.806 Y167.268 Z-1.000
G1 X318.802 Y166.260 Z-1.000
G1 X318.792 Y165.250 Z-1.000
G1 X318.776 Y164.238 Z-1.000
G1 X318.753 Y163.223 Z-1.000
G1 X318.723 Y162.205 Z-1.000
G1 X318.686 Y161.186 Z-1.000
G1 X318.642 Y160.164 Z-1.000
G1 X318.592 Y159.140 Z-1.000
G1 X318.534 Y158.113 Z-1.000
G1 X318.470 Y157.085 Z-1.000
G1 X318.398 Y156.054 Z-1.000
G1 X318.319 Y155.022 Z-1.000
G1 X318.234 Y153.987 Z-1.000
G1 X318.141 Y152.951 Z-1.000
G1 X318.041 Y151.913 Z-1.000
G1 X317.933 Y150.873 Z-1.000
G1 X317.819 Y149.832 Z-1.000
G1 X317.697 Y148.789 Z-1.000
G1 X317.567 Y147.745 Z-1.000
G1 X317.430 Y146.699 Z-1.000
G1 X317.286 Y145.651 Z-1.000
G1 X317.134 Y144.603 Z-1.000
G1 X316.975 Y143.553 Z-1.000
G1 X316.808 Y142.502 Z-1.000
G1 X316.633 Y141.450 Z-1.000
G1 X316.451 Y140.397 Z-1.000
G1 X316.261 Y139.343 Z-1.000
G1 X316.063 Y138.289 Z-1.000
G1 X315.858 Y137.233 Z-1.000
G1 X315.645 Y136.177 Z-1.000
G1 X315.424 Y135.120 Z-1.000
G1 X315.195 Y134.063 Z-1.000
G1 X314.959 Y133.005 Z-1.000
G1 X314.714 Y131.947 Z-1.000
G1 X314.462 Y130.889 Z-1.000
G1 X314.201 Y129.830 Z-1.000
G1 X313.933 Y128.771 Z-1.000
G1 X313.656 Y127.713 Z-1.000
G1 X313.372 Y126.654 Z-1.000
G1 X313.080 Y125.596 Z-1.000
G1 X312.779 Y124.537 Z-1.000
G1 X312.470 Y123.479 Z-1.000
G1 X312.154 Y122.422 Z-1.000
G1 X311.829 Y121.365 Z-1.000
G1 X311.496 Y120.308 Z-1.000
G1 X311.155 Y119.253 Z-1.000
G1 X310.806 Y118.198 Z-1.000
G1 X310.449 Y117.143 Z-1.000
G1 X310.083 Y116.090 Z-1.000
G1 X309.710 Y115.038 Z-1.000
G1 X309.328 Y113.987 Z-1.000
G1 X308.938 Y112.937 Z-1.000
G1 X308.539 Y111.888 Z-1.000
G1 X308.133 Y110.841 Z-1.000
G1 X307.718 Y109.796 Z-1.000
G1 X307.295 Y108.751 Z-1.000
G1 X306.864 Y107.709 Z-1.000
G1 X306.425 Y106.668 Z-1.000
G1 X305.978 Y105.630 Z-1.000
G1 X305.522 Y104.593 Z-1.000
G1 X305.058 Y103.558 Z-1.000
G1 X304.586 Y102.525 Z-1.000
G1 X304.106 Y101.495 Z-1.000
G1 X303.618 Y100.467 Z-1.000
G1 X303.121 Y99.441 Z-1.000
G1 X302.617 Y98.418 Z-1.000
G1 X302.104 Y97.398 Z-1.000
G1 X301.583 Y96.380 Z-1.000
G1 X301.054 Y95.365 Z-1.000
G1 X300.518 Y94.353 Z-1.000
G1 X299.973 Y93.344 Z-1.000
G1 X299.420 Y92.338 Z-1.000
G1 X298.859 Y91.335 Z-1.000
G1 X298.290 Y90.336 Z-1.000
G1 X297.713 Y89.339 Z-1.000
G1 X297.128 Y88.347 Z-1.000
G1 X296.535 Y87.358 Z-1.000
G1 X295.934 Y86.372 Z-1.000
G1 X295.326 Y85.390 Z-1.000
G1 X294.710 Y84.412 Z-1.000
G1 X294.086 Y83.438 Z-1.000
G1 X293.454 Y82.468 Z-1.000
G1 X292.815 Y81.503 Z-1.000
G1 X292.168 Y80.541 Z-1.000
G1 X291.513 Y79.583 Z-1.000
G1 X290.851 Y78.630 Z-1.000
G1 X290.181 Y77.682 Z-1.000
G1 X289.504 Y76.738 Z-1.000
G1 X288.819 Y75.798 Z-1.000
G1 X288.127 Y74.864 Z-1.000
G1 X287.428 Y73.934 Z-1.000
G1 X286.721 Y73.009 Z-1.000
G1 X286.007 Y72.089 Z-1.000
G1 X285.286 Y71.174 Z-1.000
G1 X284.558 Y70.265 Z-1.000
G1 X283.823 Y69.360 Z-1.000
G1 X283.080 Y68.461 Z-1.000
G1 X282.331 Y67.567 Z-1.000
G1 X281.575 Y66.679 Z-1.000
G1 X280.812 Y65.796 Z-1.000
G1 X280.042 Y64.919 Z-1.000
G1 X279.266 Y64.048 Z-1.000
G1 X278.483 Y63.182 Z-1.000
G1 X277.693 Y62.322 Z-1.000
G1 X276.897 Y61.469 Z-1.000
G1 X276.094 Y60.621 Z-1.000
G1 X275.285 Y59.779 Z-1.000
G1 X274.470 Y58.944 Z-1.000
G1 X273.648 Y58.114 Z-1.000
G1 X272.820 Y57.291 Z-1.000
G1 X271.986 Y56.475 Z-1.000
G1 X271.147 Y55.665 Z-1.000
G1 X270.301 Y54.861 Z-1.000
G1 X269.449 Y54.064 Z-1.000
G1 X268.591 Y53.273 Z-1.000
G1 X267.728 Y52.490 Z-1.000
G1 X266.859 Y51.713 Z-1.000
G1 X265.985 Y50.942 Z-1.000
G1 X265.105 Y50.179 Z-1.000
G1 X264.220 Y49.423 Z-1.000
G1 X263.329 Y48.673 Z-1.000
G1 X262.433 Y47.931 Z-1.000
G1 X261.532 Y47.196 Z-1.000
G1 X260.626 Y46.468 Z-1.000
G1 X259.715 Y45.747 Z-1.000
G1 X258.799 Y45.033 Z-1.000
G1 X257.878 Y44.327 Z-1.000
G1 X256.952 Y43.628 Z-1.000
G1 X256.022 Y42.936 Z-1.000
G1 X255.088 Y42.252 Z-1.000
G1 X254.148 Y41.575 Z-1.000
G1 X253.205 Y40.906 Z-1.000
G1 X252.257 Y40.245 Z-1.000
G1 X251.305 Y39.591 Z-1.000
G1 X250.349 Y38.945 Z-1.000
G1 X249.389 Y38.306 Z-1.000
G1 X248.424 Y37.675 Z-1.000
G1 X247.457 Y37.052 Z-1.000
G1 X246.485 Y36.436 Z-1.000
G1 X245.510 Y35.829 Z-1.000
G1 X244.531 Y35.229 Z-1.000
G1 X243.548 Y34.637 Z-1.000
G1 X242.563 Y34.053 Z-1.000
G1 X241.574 Y33.477 Z-1.000
G1 X240.582 Y32.909 Z-1.000
G1 X239.586 Y32.349 Z-1.000
G1 X238.588 Y31.797 Z-1.000
G1 X237.587 Y31.253 Z-1.000
G1 X236.583 Y30.717 Z-1.000
G1 X235.577 Y30.188 Z-1.000
G1 X234.567 Y29.668 Z-1.000
G1 X233.555 Y29.156 Z-1.000
G1 X232.541 Y28.653 Z-1.000
G1 X231.525 Y28.157 Z-1.000
G1 X230.506 Y27.669 Z-1.000
G1 X229.485 Y27.189 Z-1.000
G1 X228.462 Y26.718 Z-1.000
G1 X227.437 Y26.255 Z-1.000
G1 X226.410 Y25.799 Z-1.000
G1 X225.381 Y25.352 Z-1.000
G1 X224.351 Y24.913 Z-1.000
G1 X223.319 Y24.482 Z-1.000
G1 X222.285 Y24.059 Z-1.000
G1 X221.251 Y23.645 Z-1.000
G1 X220.214 Y23.238 Z-1.000
G1 X219.177 Y22.840 Z-1.000
G1 X218.138 Y22.450 Z-1.000
G1 X217.099 Y22.067 Z-1.000
G1 X216.058 Y21.693 Z-1.000
G1 X215.017 Y21.327 Z-1.000
G1 X213.974 Y20.969 Z-1.000
G1 X212.931 Y20.619 Z-1.000
G1 X211.888 Y20.277 Z-1.000
G1 X210.844 Y19.943 Z-1.000
G1 X209.799 Y19.617 Z-1.000
G1 X208.754 Y19.300 Z-1.000
G1 X207.709 Y18.990 Z-1.000
G1 X206.664 Y18.688 Z-1.000
G1 X205.619 Y18.394 Z-1.000
G1 X204.573 Y18.107 Z-1.000
G1 X203.528 Y17.829 Z-1.000
G1 X202.483 Y17.559 Z-1.000
G1 X201.438 Y17.296 Z-1.000
G1 X200.393 Y17.041 Z-1.000
G1 X199.349 Y16.794 Z-1.000
G1 X198.305 Y16.555 Z-1.000
G1 X197.262 Y16.323 Z-1.000
G1 X196.219 Y16.100 Z-1.000
G1 X195.177 Y15.883 Z-1.000
G1 X194.136 Y15.675 Z-1.000
G1 X193.096 Y15.474 Z-1.000
G1 X192.057 Y15.280 Z-1.000
G1 X191.018 Y15.094 Z-1.000
G1 X189.981 Y14.916 Z-1.000
G1 X188.945 Y14.745 Z-1.000
G1 X187.910 Y14.581 Z-1.000
G1 X186.877 Y14.425 Z-1.000
G1 X185.844 Y14.276 Z-1.000
G1 X184.814 Y14.135 Z-1.000
G1 X183.784 Y14.000 Z-1.000
G1 X182.757 Y13.873 Z-1.000
G1 X181.731 Y13.753 Z-1.000
G1 X180.707 Y13.641 Z-1.000
G1 X179.684 Y13.535 Z-1.000
G1 X178.663 Y13.436 Z-1.000
G1 X177.645 Y13.345 Z-1.000
G1 X176.628 Y13.260 Z-1.000
G1 X175.613 Y13.182 Z-1.000
G1 X174.600 Y13.111 Z-1.000
G1 X173.590 Y13.047 Z-1.000
G1 X172.581 Y12.989 Z-1.000
G1 X171.575 Y12.939 Z-1.000
G1 X170.537 Y12.893 Z-1.000
G1 X169.499 Y12.855 Z-1.000
G1 X168.461 Y12.824 Z-1.000
G1 X167.422 Y12.799 Z-1.000
G1 X166.383 Y12.782 Z-1.000
G1 X165.344 Y12.771 Z-1.000
G1 X164.306 Y12.768 Z-1.000
G1 X163.267 Y12.771 Z-1.000
G1 X162.228 Y12.782 Z-1.000
G1 X161.189 Y12.799 Z-1.000
G1 X160.150 Y12.824 Z-1.000
G1 X159.112 Y12.855 Z-1.000
G1 X158.074 Y12.893 Z-1.000
G1 X157.036 Y12.939 Z-1.000
G1 X157.036 Y12.939 Z-2.000 F635.0
G1 X156.030 Y12.989 Z-2.000 F180.0
G1 X155.022 Y13.047 Z-2.000
G1 X154.011 Y13.111 Z-2.000
G1 X152.998 Y13.182 Z-2.000
G1 X151.983 Y13.260 Z-2.000
G1 X150.967 Y13.345 Z-2.000
G1 X149.948 Y13.436 Z-2.000
G1 X148.927 Y13.535 Z-2.000
G1 X147.905 Y13.641 Z-2.000
G1 X146.880 Y13.753 Z-2.000
G1 X145.854 Y13.873 Z-2.000
G1 X144.827 Y14.000 Z-2.000
G1 X143.797 Y14.135 Z-2.000
G1 X142.767 Y14.276 Z-2.000
G1 X141.735 Y14.425 Z-2.000
G1 X140.701 Y14.581 Z-2.000
G1 X139.666 Y14.745 Z-2.000
G1 X138.630 Y14.916 Z-2.000
G1 X137.593 Y15.094 Z-2.000
G1 X136.555 Y15.280 Z-2.000
G1 X135.515 Y15.474 Z-2.000
G1 X134.475 Y15.675 Z-2.000
G1 X133.434 Y15.883 Z-2.000
G1 X132.392 Y16.100 Z-2.000
G1 X131.349 Y16.323 Z-2.000
G1 X130.306 Y16.555 Z-2.000
G1 X129.262 Y16.794 Z-2.000
G1 X128.218 Y17.041 Z-2.000
G1 X127.174 Y17.296 Z-2.000
G1 X126.129 Y17.559 Z-2.000
G1 X125.083 Y17.829 Z-2.000
G1 X124.038 Y18.107 Z-2.000
G1 X122.993 Y18.394 Z-2.000
G1 X121.947 Y18.688 Z-2.000
G1 X120.902 Y18.990 Z-2.000
G1 X119.857 Y19.300 Z-2.000
G1 X118.812 Y19.617 Z-2.000
G1 X117.767 Y19.943 Z-2.000
G1 X116.723 Y20.277 Z-2.000
G1 X115.680 Y20.619 Z-2.000
G1 X114.637 Y20.969 Z-2.000
G1 X113.594 Y21.327 Z-2.000
G1 X112.553 Y21.693 Z-2.000
G1 X111.512 Y22.067 Z-2.000
G1 X110.473 Y22.450 Z-2.000
G1 X109.434 Y22.840 Z-2.000
G1 X108.397 Y23.238 Z-2.000
G1 X107.361 Y23.645 Z-2.000
G1 X106.326 Y24.059 Z-2.000
G1 X105.292 Y24.482 Z-2.000
G1 X104.260 Y24.913 Z-2.000
G1 X103.230 Y25.352 Z-2.000
G1 X102.201 Y25.799 Z-2.000
G1 X101.174 Y26.255 Z-2.000
G1 X100.149 Y26.718 Z-2.000
G1 X99.126 Y27.189 Z-2.000
G1 X98.105 Y27.669 Z-2.000
G1 X97.086 Y28.157 Z-2.000
G1 X96.070 Y28.653 Z-2.000
G1 X95.056 Y29.156 Z-2.000
G1 X94.044 Y29.668 Z-2.000
G1 X93.035 Y30.188 Z-2.000
G1 X92.028 Y30.717 Z-2.000
G1 X91.024 Y31.253 Z-2.000
G1 X90.023 Y31.797 Z-2.000
G1 X89.025 Y32.349 Z-2.000
G1 X88.029 Y32.909 Z-2.000
G1 X87.037 Y33.477 Z-2.000
G1 X86.048 Y34.053 Z-2.000
G1 X85.063 Y34.637 Z-2.000
G1 X84.080 Y35.229 Z-2.000
G1 X83.101 Y35.829 Z-2.000
G1 X82.126 Y36.436 Z-2.000
G1 X81.155 Y37.052 Z-2.000
G1 X80.187 Y37.675 Z-2.000
G1 X79.223 Y38.306 Z-2.000
G1 X78.262 Y38.945 Z-2.000
G1 X77.306 Y39.591 Z-2.000
G1 X76.354 Y40.245 Z-2.000
G1 X75.406 Y40.906 Z-2.000
G1 X74.463 Y41.575 Z-2.000
G1 X73.524 Y42.252 Z-2.000
G1 X72.589 Y42.936 Z-2.000
G1 X71.659 Y43.628 Z-2.000
G1 X70.733 Y44.327 Z-2.000
G1 X69.812 Y45.033 Z-2.000
G1 X68.896 Y45.747 Z-2.000
G1 X67.985 Y46.468 Z-2.000
G1 X67.079 Y47.196 Z-2.000
G1 X66.178 Y47.931 Z-2.000
G1 X65.282 Y48.673 Z-2.000
G1 X64.392 Y49.423 Z-2.000
G1 X63.506 Y50.179 Z-2.000
G1 X62.626 Y50.942 Z-2.000
G1 X61.752 Y51.713 Z-2.000
G1 X60.883 Y52.490 Z-2.000
G1 X60.020 Y53.273 Z-2.000
G1 X59.162 Y54.064 Z-2.000
G1 X58.310 Y54.861 Z-2.000
G1 X57.465 Y55.665 Z-2.000
G1 X56.625 Y56.475 Z-2.000
G1 X55.791 Y57.291 Z-2.000
G1 X54.963 Y58.114 Z-2.000
G1 X54.141 Y58.944 Z-2.000
G1 X53.326 Y59.779 Z-2.000
G1 X52.517 Y60.621 Z-2.000
G1 X51.714 Y61.469 Z-2.000
G1 X50.918 Y62.322 Z-2.000
G1 X50.128 Y63.182 Z-2.000
G1 X49.345 Y64.048 Z-2.000
G1 X48.569 Y64.919 Z-2.000
G1 X47.799 Y65.796 Z-2.000
G1 X47.036 Y66.679 Z-2.000
G1 X46.280 Y67.567 Z-2.000
G1 X45.531 Y68.461 Z-2.000
G1 X44.788 Y69.360 Z-2.000
G1 X44.053 Y70.265 Z-2.000
G1 X43.325 Y71.174 Z-2.000
G1 X42.604 Y72.089 Z-2.000
G1 X41.890 Y73.009 Z-2.000
G1 X41.183 Y73.934 Z-2.000
G1 X40.484 Y74.864 Z-2.000
G1 X39.792 Y75.798 Z-2.000
G1 X39.107 Y76.738 Z-2.000
G1 X38.430 Y77.682 Z-2.000
G1 X37.760 Y78.630 Z-2.000
G1 X37.098 Y79.583 Z-2.000
G1 X36.443 Y80.541 Z-2.000
G1 X35.796 Y81.503 Z-2.000
G1 X35.157 Y82.468 Z-2.000
G1 X34.525 Y83.438 Z-2.000
G1 X33.901 Y84.412 Z-2.000
G1 X33.285 Y85.390 Z-2.000
G1 X32.677 Y86.372 Z-2.000
G1 X32.076 Y87.358 Z-2.000
G1 X31.483 Y88.347 Z-2.000
G1 X30.898 Y89.339 Z-2.000
G1 X30.322 Y90.336 Z-2.000
G1 X29.753 Y91.335 Z-2.000
G1 X29.192 Y92.338 Z-2.000
G1 X28.639 Y93.344 Z-2.000
G1 X28.094 Y94.353 Z-2.000
G1 X27.557 Y95.365 Z-2.000
G1 X27.028 Y96.380 Z-2.000
G1 X26.507 Y97.398 Z-2.000
G1 X25.994 Y98.418 Z-2.000
G1 X25.490 Y99.441 Z-2.000
G1 X24.993 Y100.467 Z-2.000
G1 X24.505 Y101.495 Z-2.000
G1 X24.025 Y102.525 Z-2.000
G1 X23.553 Y103.558 Z-2.000
G1 X23.089 Y104.593 Z-2.000
G1 X22.633 Y105.630 Z-2.000
G1 X22.186 Y106.668 Z-2.000
G1 X21.747 Y107.709 Z-2.000
G1 X21.316 Y108.751 Z-2.000
G1 X20.893 Y109.796 Z-2.000
G1 X20.478 Y110.841 Z-2.000
G1 X20.072 Y111.888 Z-2.000
G1 X19.673 Y112.937 Z-2.000
G1 X19.283 Y113.987 Z-2.000
G1 X18.902 Y115.038 Z-2.000
G1 X18.528 Y116.090 Z-2.000
G1 X18.162 Y117.143 Z-2.000
G1 X17.805 Y118.198 Z-2.000
G1 X17.456 Y119.253 Z-2.000
G1 X17.115 Y120.308 Z-2.000
G1 X16.782 Y121.365 Z-2.000
G1 X16.457 Y122.422 Z-2.000
G1 X16.141 Y123.479 Z-2.000
G1 X15.832 Y124.537 Z-2.000
G1 X15.532 Y125.596 Z-2.000
G1 X15.239 Y126.654 Z-2.000
G1 X14.955 Y127.713 Z-2.000
G1 X14.678 Y128.771 Z-2.000
G1 X14.410 Y129.830 Z-2.000
G1 X14.150 Y130.889 Z-2.000
G1 X13.897 Y131.947 Z-2.000
G1 X13.653 Y133.005 Z-2.000
G1 X13.416 Y134.063 Z-2.000
G1 X13.187 Y135.120 Z-2.000
G1 X12.966 Y136.177 Z-2.000
G1 X12.753 Y137.233 Z-2.000
G1 X12.548 Y138.289 Z-2.000
G1 X12.350 Y139.343 Z-2.000
G1 X12.160 Y140.397 Z-2.000
G1 X11.978 Y141.450 Z-2.000
G1 X11.803 Y142.502 Z-2.000
G1 X11.636 Y143.553 Z-2.000
G1 X11.477 Y144.603 Z-2.000
G1 X11.325 Y145.651 Z-2.000
G1 X11.181 Y146.699 Z-2.000
G1 X11.044 Y147.745 Z-2.000
G1 X10.915 Y148.789 Z-2.000
G1 X10.793 Y149.832 Z-2.000
G1 X10.678 Y150.873 Z-2.000
G1 X10.570 Y151.913 Z-2.000
G1 X10.470 Y152.951 Z-2.000
G1 X10.377 Y153.987 Z-2.000
G1 X10.292 Y155.022 Z-2.000
G1 X10.213 Y156.054 Z-2.000
G1 X10.141 Y157.085 Z-2.000
G1 X10.077 Y158.113 Z-2.000
G1 X10.020 Y159.140 Z-2.000
G1 X9.969 Y160.164 Z-2.000
G1 X9.925 Y161.186 Z-2.000
G1 X9.889 Y162.205 Z-2.000
G1 X9.859 Y163.223 Z-2.000
G1 X9.835 Y164.238 Z-2.000
G1 X9.819 Y165.250 Z-2.000
G1 X9.809 Y166.260 Z-2.000
G1 X9.806 Y167.268 Z-2.000
G1 X9.809 Y168.275 Z-2.000
G1 X9.819 Y169.285 Z-2.000
G1 X9.835 Y170.297 Z-2.000
G1 X9.859 Y171.312 Z-2.000
G1 X9.889 Y172.330 Z-2.000
G1 X9.925 Y173.349 Z-2.000
G1 X9.969 Y174.371 Z-2.000
G1 X10.020 Y175.396 Z-2.000
G1 X10.077 Y176.422 Z-2.000
G1 X10.141 Y177.451 Z-2.000
G1 X10.213 Y178.481 Z-2.000
G1 X10.292 Y179.513 Z-2.000
G1 X10.377 Y180.548 Z-2.000
G1 X10.470 Y181.584 Z-2.000
G1 X10.570 Y182.622 Z-2.000
G1 X10.678 Y183.662 Z-2.000
G1 X10.793 Y184.703 Z-2.000
G1 X10.915 Y185.746 Z-2.000
G1 X11.044 Y186.791 Z-2.000
G1 X11.181 Y187.837 Z-2.000
G1 X11.325 Y188.884 Z-2.000
G1 X11.477 Y189.932 Z-2.000
G1 X11.636 Y190.982 Z-2.000
G1 X11.803 Y192.033 Z-2.000
G1 X11.978 Y193.085 Z-2.000
G1 X12.160 Y194.138 Z-2.000
G1 X12.350 Y195.192 Z-2.000
G1 X12.548 Y196.247 Z-2.000
G1 X12.753 Y197.302 Z-2.000
G1 X12.966 Y198.358 Z-2.000
G1 X13.187 Y199.415 Z-2.000
G1 X13.416 Y200.472 Z-2.000
G1 X13.653 Y201.530 Z-2.000
G1 X13.897 Y202.588 Z-2.000
G1 X14.150 Y203.647 Z-2.000
G1 X14.410 Y204.705 Z-2.000
G1 X14.678 Y205.764 Z-2.000
G1 X14.955 Y206.822 Z-2.000
G1 X15.239 Y207.881 Z-2.000
G1 X15.532 Y208.940 Z-2.000
G1 X15.832 Y209.998 Z-2.000
G1 X16.141 Y211.056 Z-2.000
G1 X16.457 Y212.113 Z-2.000
G1 X16.782 Y213.170 Z-2.000
G1 X17.115 Y214.227 Z-2.000
G1 X17.456 Y215.283 Z-2.000
G1 X17.805 Y216.338 Z-2.000
G1 X18.162 Y217.392 Z-2.000
G1 X18.528 Y218.445 Z-2.000
G1 X18.902 Y219.497 Z-2.000
G1 X19.283 Y220.548 Z-2.000
G1 X19.673 Y221.598 Z-2.000
G1 X20.072 Y222.647 Z-2.000
G1 X20.478 Y223.694 Z-2.000
G1 X20.893 Y224.740 Z-2.000
G1 X21.316 Y225.784 Z-2.000
G1 X21.747 Y226.826 Z-2.000
G1 X22.186 Y227.867 Z-2.000
G1 X22.633 Y228.906 Z-2.000
G1 X23.089 Y229.942 Z-2.000
G1 X23.553 Y230.977 Z-2.000
G1 X24.025 Y232.010 Z-2.000
G1 X24.505 Y233.040 Z-2.000
G1 X24.993 Y234.068 Z-2.000
G1 X25.490 Y235.094 Z-2.000
G1 X25.994 Y236.117 Z-2.000
G1 X26.507 Y237.137 Z-2.000
G1 X27.028 Y238.155 Z-2.000
G1 X27.557 Y239.170 Z-2.000
G1 X28.094 Y240.182 Z-2.000
G1 X28.639 Y241.191 Z-2.000
G1 X29.192 Y242.197 Z-2.000
G1 X29.753 Y243.200 Z-2.000
G1 X30.322 Y244.200 Z-2.000
G1 X30.898 Y245.196 Z-2.000
G1 X31.483 Y246.189 Z-2.000
G1 X32.076 Y247.178 Z-2.000
G1 X32.677 Y248.163 Z-2.000
G1 X33.285 Y249.145 Z-2.000
G1 X33.901 Y250.123 Z-2.000
G1 X34.525 Y251.097 Z-2.000
G1 X35.157 Y252.067 Z-2.000
G1 X35.796 Y253.033 Z-2.000
G1 X36.443 Y253.994 Z-2.000
G1 X37.098 Y254.952 Z-2.000
G1 X37.760 Y255.905 Z-2.000
G1 X38.430 Y256.853 Z-2.000
G1 X39.107 Y257.797 Z-2.000
G1 X39.792 Y258.737 Z-2.000
G1 X40.484 Y259.671 Z-2.000
G1 X41.183 Y260.601 Z-2.000
G1 X41.890 Y261.526 Z-2.000
G1 X42.604 Y262.446 Z-2.000
G1 X43.325 Y263.361 Z-2.000
G1 X44.053 Y264.271 Z-2.000
G1 X44.788 Y265.175 Z-2.000
G1 X45.531 Y266.074 Z-2.000
G1 X46.280 Y266.968 Z-2.000
G1 X47.036 Y267.856 Z-2.000
G1 X47.799 Y268.739 Z-2.000
G1 X48.569 Y269.616 Z-2.000
G1 X49.345 Y270.488 Z-2.000
G1 X50.128 Y271.353 Z-2.000
G1 X50.918 Y272.213 Z-2.000
G1 X51.714 Y273.067 Z-2.000
G1 X52.517 Y273.914 Z-2.000
G1 X53.326 Y274.756 Z-2.000
G1 X54.141 Y275.592 Z-2.000
G1 X54.963 Y276.421 Z-2.000
G1 X55.791 Y277.244 Z-2.000
G1 X56.625 Y278.061 Z-2.000
G1 X57.465 Y278.871 Z-2.000
G1 X58.310 Y279.674 Z-2.000
G1 X59.162 Y280.471 Z-2.000
G1 X60.020 Y281.262 Z-2.000
G1 X60.883 Y282.046 Z-2.000
G1 X61.752 Y282.823 Z-2.000
G1 X62.626 Y283.593 Z-2.000
G1 X63.506 Y284.356 Z-2.000
G1 X64.392 Y285.113 Z-2.000
G1 X65.282 Y285.862 Z-2.000
G1 X66.178 Y286.604 Z-2.000
G1 X67.079 Y287.340 Z-2.000
G1 X67.985 Y288.068 Z-2.000
G1 X68.896 Y288.789 Z-2.000
G1 X69.812 Y289.502 Z-2.000
G1 X70.733 Y290.208 Z-2.000
G1 X71.659 Y290.907 Z-2.000
G1 X72.589 Y291.599 Z-2.000
G1 X73.524 Y292.283 Z-2.000
G1 X74.463 Y292.960 Z-2.000
G1 X75.406 Y293.629 Z-2.000
G1 X76.354 Y294.290 Z-2.000
G1 X77.306 Y294.944 Z-2.000
G1 X78.262 Y295.591 Z-2.000
G1 X79.223 Y296.229 Z-2.000
G1 X80.187 Y296.860 Z-2.000
G1 X81.155 Y297.483 Z-2.000
G1 X82.126 Y298.099 Z-2.000
G1 X83.101 Y298.706 Z-2.000
G1 X84.080 Y299.306 Z-2.000
G1 X85.063 Y299.898 Z-2.000
G1 X86.048 Y300.482 Z-2.000
G1 X87.037 Y301.058 Z-2.000
G1 X88.029 Y301.626 Z-2.000
G1 X89.025 Y302.186 Z-2.000
G1 X90.023 Y302.738 Z-2.000
G1 X91.024 Y303.283 Z-2.000
G1 X92.028 Y303.819 Z-2.000
G1 X93.035 Y304.347 Z-2.000
G1 X94.044 Y304.867 Z-2.000
G1 X95.056 Y305.379 Z-2.000
G1 X96.070 Y305.883 Z-2.000
G1 X97.086 Y306.379 Z-2.000
G1 X98.105 Y306.866 Z-2.000
G1 X99.126 Y307.346 Z-2.000
G1 X100.149 Y307.817 Z-2.000
G1 X101.174 Y308.281 Z-2.000
G1 X102.201 Y308.736 Z-2.000
G1 X103.230 Y309.183 Z-2.000
G1 X104.260 Y309.622 Z-2.000
G1 X105.292 Y310.053 Z-2.000
G1 X106.326 Y310.476 Z-2.000
G1 X107.361 Y310.890 Z-2.000
G1 X108.397 Y311.297 Z-2.000
G1 X109.434 Y311.695 Z-2.000
G1 X110.473 Y312.086 Z-2.000
G1 X111.512 Y312.468 Z-2.000
G1 X112.553 Y312.842 Z-2.000
G1 X113.594 Y313.208 Z-2.000
G1 X114.637 Y313.566 Z-2.000
G1 X115.680 Y313.916 Z-2.000
G1 X116.723 Y314.258 Z-2.000
G1 X117.767 Y314.592 Z-2.000
G1 X118.812 Y314.918 Z-2.000
G1 X119.857 Y315.236 Z-2.000
G1 X120.902 Y315.546 Z-2.000
G1 X121.947 Y315.848 Z-2.000
G1 X122.993 Y316.142 Z-2.000
G1 X124.038 Y316.428 Z-2.000
G1 X125.083 Y316.706 Z-2.000
G1 X126.129 Y316.977 Z-2.000
G1 X127.174 Y317.239 Z-2.000
G1 X128.218 Y317.494 Z-2.000
G1 X129.262 Y317.741 Z-2.000
G1 X130.306 Y317.980 Z-2.000
G1 X131.349 Y318.212 Z-2.000
G1 X132.392 Y318.436 Z-2.000
G1 X133.434 Y318.652 Z-2.000
G1 X134.475 Y318.860 Z-2.000
G1 X135.515 Y319.061 Z-2.000
G1 X136.555 Y319.255 Z-2.000
G1 X137.593 Y319.441 Z-2.000
G1 X138.630 Y319.619 Z-2.000
G1 X139.666 Y319.790 Z-2.000
G1 X140.701 Y319.954 Z-2.000
G1 X141.735 Y320.110 Z-2.000
G1 X142.767 Y320.259 Z-2.000
G1 X143.797 Y320.400 Z-2.000
G1 X144.827 Y320.535 Z-2.000
G1 X145.854 Y320.662 Z-2.000
G1 X146.880 Y320.782 Z-2.000
G1 X147.905 Y320.895 Z-2.000
G1 X148.927 Y321.000 Z-2.000
G1 X149.948 Y321.099 Z-2.000
G1 X150.967 Y321.191 Z-2.000
G1 X151.983 Y321.275 Z-2.000
G1 X152.998 Y321.353 Z-2.000
G1 X154.011 Y321.424 Z-2.000
G1 X155.022 Y321.488 Z-2.000
G1 X156.030 Y321.546 Z-2.000
G1 X157.036 Y321.596 Z-2.000
G1 X158.074 Y321.642 Z-2.000
G1 X159.112 Y321.680 Z-2.000
G1 X160.150 Y321.712 Z-2.000
G1 X161.189 Y321.736 Z-2.000
G1 X162.228 Y321.754 Z-2.000
G1 X163.267 Y321.764 Z-2.000
G1 X164.306 Y321.768 Z-2.000
G1 X165.344 Y321.764 Z-2.000
G1 X166.383 Y321.754 Z-2.000
G1 X167.422 Y321.736 Z-2.000
G1 X168.461 Y321.712 Z-2.000
G1 X169.499 Y321.680 Z-2.000
G1 X170.537 Y321.642 Z-2.000
G1 X171.575 Y321.596 Z-2.000
G1 X172.581 Y321.546 Z-2.000
G1 X173.590 Y321.488 Z-2.000
G1 X174.600 Y321.424 Z-2.000
G1 X175.613 Y321.353 Z-2.000
G1 X176.628 Y321.275 Z-2.000
G1 X177.645 Y321.191 Z-2.000
G1 X178.663 Y321.099 Z-2.000
G1 X179.684 Y321.000 Z-2.000
G1 X180.707 Y320.895 Z-2.000
G1 X181.731 Y320.782 Z-2.000
G1 X182.757 Y320.662 Z-2.000
G1 X183.784 Y320.535 Z-2.000
G1 X184.814 Y320.400 Z-2.000
G1 X185.844 Y320.259 Z-2.000
G1 X186.877 Y320.110 Z-2.000
G1 X187.910 Y319.954 Z-2.000
G1 X188.945 Y319.790 Z-2.000
G1 X189.981 Y319.619 Z-2.000
G1 X191.018 Y319.441 Z-2.000
G1 X192.057 Y319.255 Z-2.000
G1 X193.096 Y319.061 Z-2.000
G1 X194.136 Y318.860 Z-2.000
G1 X195.177 Y318.652 Z-2.000
G1 X196.219 Y318.436 Z-2.000
G1 X197.262 Y318.212 Z-2.000
G1 X198.305 Y317.980 Z-2.000
G1 X199.349 Y317.741 Z-2.000
G1 X200.393 Y317.494 Z-2.000
G1 X201.438 Y317.239 Z-2.000
G1 X202.483 Y316.977 Z-2.000
G1 X203.528 Y316.706 Z-2.000
G1 X204.573 Y316.428 Z-2.000
G1 X205.619 Y316.142 Z-2.000
G1 X206.664 Y315.848 Z-2.000
G1 X207.709 Y315.546 Z-2.000
G1 X208.754 Y315.236 Z-2.000
G1 X209.799 Y314.918 Z-2.000
G1 X210.844 Y314.592 Z-2.000
G1 X211.888 Y314.258 Z-2.000
G1 X212.931 Y313.916 Z-2.000
G1 X213.974 Y313.566 Z-2.000
G1 X215.017 Y313.208 Z-2.000
G1 X216.058 Y312.842 Z-2.000
G1 X217.099 Y312.468 Z-2.000
G1 X218.138 Y312.086 Z-2.000
G1 X219.177 Y311.695 Z-2.000
G1 X220.214 Y311.297 Z-2.000
G1 X221.251 Y310.890 Z-2.000
G1 X222.285 Y310.476 Z-2.000
G1 X223.319 Y310.053 Z-2.000
G1 X224.351 Y309.622 Z-2.000
G1 X225.381 Y309.183 Z-2.000
G1 X226.410 Y308.736 Z-2.000
G1 X227.437 Y308.281 Z-2.000
G1 X228.462 Y307.817 Z-2.000
G1 X229.485 Y307.346 Z-2.000
G1 X230.506 Y306.866 Z-2.000
G1 X231.525 Y306.379 Z-2.000
G1 X232.541 Y305.883 Z-2.000
G1 X233.555 Y305.379 Z-2.000
G1 X234.567 Y304.867 Z-2.000
G1 X235.577 Y304.347 Z-2.000
G1 X236.583 Y303.819 Z-2.000
G1 X237.587 Y303.283 Z-2.000
G1 X238.588 Y302.738 Z-2.000
G1 X239.586 Y302.186 Z-2.000
G1 X240.582 Y301.626 Z-2.000
G1 X241.574 Y301.058 Z-2.000
G1 X242.563 Y300.482 Z-2.000
G1 X243.548 Y299.898 Z-2.000
G1 X244.531 Y299.306 Z-2.000
G1 X245.510 Y298.706 Z-2.000
G1 X246.485 Y298.099 Z-2.000
G1 X247.457 Y297.483 Z-2.000
G1 X248.424 Y296.860 Z-2.000
G1 X249.389 Y296.229 Z-2.000
G1 X250.349 Y295.591 Z-2.000
G1 X251.305 Y294.944 Z-2.000
G1 X252.257 Y294.290 Z-2.000
G1 X253.205 Y293.629 Z-2.000
G1 X254.148 Y292.960 Z-2.000
G1 X255.088 Y292.283 Z-2.000
G1 X256.022 Y291.599 Z-2.000
G1 X256.952 Y290.907 Z-2.000
G1 X257.878 Y290.208 Z-2.000
G1 X258.799 Y289.502 Z-2.000
G1 X259.715 Y288.789 Z-2.000
G1 X260.626 Y288.068 Z-2.000
G1 X261.532 Y287.340 Z-2.000
G1 X262.433 Y286.604 Z-2.000
G1 X263.329 Y285.862 Z-2.000
G1 X264.220 Y285.113 Z-2.000
G1 X265.105 Y284.356 Z-2.000
G1 X265.985 Y283.593 Z-2.000
G1 X266.859 Y282.823 Z-2.000
G1 X267.728 Y282.046 Z-2.000
G1 X268.591 Y281.262 Z-2.000
G1 X269.449 Y280.471 Z-2.000
G1 X270.301 Y279.674 Z-2.000
G1 X271.147 Y278.871 Z-2.000
G1 X271.986 Y278.061 Z-2.000
G1 X272.820 Y277.244 Z-2.000
G1 X273.648 Y276.421 Z-2.000
G1 X274.470 Y275.592 Z-2.000
G1 X275.285 Y274.756 Z-2.000
G1 X276.094 Y273.914 Z-2.000
G1 X276.897 Y273.067 Z-2.000
G1 X277.693 Y272.213 Z-2.000
G1 X278.483 Y271.353 Z-2.000
G1 X279.266 Y270.488 Z-2.000
G1 X280.042 Y269.616 Z-2.000
G1 X280.812 Y268.739 Z-2.000
G1 X281.575 Y267.856 Z-2.000
G1 X282.331 Y266.968 Z-2.000
G1 X283.080 Y266.074 Z-2.000
G1 X283.823 Y265.175 Z-2.000
G1 X284.558 Y264.271 Z-2.000
G1 X285.286 Y263.361 Z-2.000
G1 X286.007 Y262.446 Z-2.000
G1 X286.721 Y261.526 Z-2.000
G1 X287.428 Y260.601 Z-2.000
G1 X288.127 Y259.671 Z-2.000
G1 X288.819 Y258.737 Z-2.000
G1 X289.504 Y257.797 Z-2.000
G1 X290.181 Y256.853 Z-2.000
G1 X290.851 Y255.905 Z-2.000
G1 X291.513 Y254.952 Z-2.000
G1 X292.168 Y253.994 Z-2.000
G1 X292.815 Y253.033 Z-2.000
G1 X293.454 Y252.067 Z-2.000
G1 X294.086 Y251.097 Z-2.000
G1 X294.710 Y250.123 Z-2.000
G1 X295.326 Y249.145 Z-2.000
G1 X295.934 Y248.163 Z-2.000
G1 X296.535 Y247.178 Z-2.000
G1 X297.128 Y246.189 Z-2.000
G1 X297.713 Y245.196 Z-2.000
G1 X298.290 Y244.200 Z-2.000
G1 X298.859 Y243.200 Z-2.000
G1 X299.420 Y242.197 Z-2.000
G1 X299.973 Y241.191 Z-2.000
G1 X300.518 Y240.182 Z-2.000
G1 X301.054 Y239.170 Z-2.000
G1 X301.583 Y238.155 Z-2.000
G1 X302.104 Y237.137 Z-2.000
G1 X302.617 Y236.117 Z-2.000
G1 X303.121 Y235.094 Z-2.000
G1 X303.618 Y234.068 Z-2.000
G1 X304.106 Y233.040 Z-2.000
G1 X304.586 Y232.010 Z-2.000
G1 X305.058 Y230.977 Z-2.000
G1 X305.522 Y229.942 Z-2.000
G1 X305.978 Y228.906 Z-2.000
G1 X306.425 Y227.867 Z-2.000
G1 X306.864 Y226.826 Z-2.000
G1 X307.295 Y225.784 Z-2.000
G1 X307.718 Y224.740 Z-2.000
G1 X308.133 Y223.694 Z-2.000
G1 X308.539 Y222.647 Z-2.000
G1 X308.938 Y221.598 Z-2.000
G1 X309.328 Y220.548 Z-2.000
G1 X309.710 Y219.497 Z-2.000
G1 X310.083 Y218.445 Z-2.000
G1 X310.449 Y217.392 Z-2.000
G1 X310.806 Y216.338 Z-2.000
G1 X311.155 Y215.283 Z-2.000
G1 X311.496 Y214.227 Z-2.000
G1 X311.829 Y213.170 Z-2.000
G1 X312.154 Y212.113 Z-2.000
G1 X312.470 Y211.056 Z-2.000
G1 X312.779 Y209.998 Z-2.000
G1 X313.080 Y208.940 Z-2.000
G1 X313.372 Y207.881 Z-2.000
G1 X313.656 Y206.822 Z-2.000
G1 X313.933 Y205.764 Z-2.000
G1 X314.201 Y204.705 Z-2.000
G1 X314.462 Y203.647 Z-2.000
G1 X314.714 Y202.588 Z-2.000
G1 X314.959 Y201.530 Z-2.000
G1 X315.195 Y200.472 Z-2.000
G1 X315.424 Y199.415 Z-2.000
G1 X315.645 Y198.358 Z-2.000
G1 X315.858 Y197.302 Z-2.000
G1 X316.063 Y196.247 Z-2.000
G1 X316.261 Y195.192 Z-2.000
G1 X316.451 Y194.138 Z-2.000
G1 X316.633 Y193.085 Z-2.000
G1 X316.808 Y192.033 Z-2.000
G1 X316.975 Y190.982 Z-2.000
G1 X317.134 Y189.932 Z-2.000
G1 X317.286 Y188.884 Z-2.000
G1 X317.430 Y187.837 Z-2.000
G1 X317.567 Y186.791 Z-2.000
G1 X317.697 Y185.746 Z-2.000
G1 X317.819 Y184.703 Z-2.000
G1 X317.933 Y183.662 Z-2.000
G1 X318.041 Y182.622 Z-2.000
G1 X318.141 Y181.584 Z-2.000
G1 X318.234 Y180.548 Z-2.000
G1 X318.319 Y179.513 Z-2.000
G1 X318.398 Y178.481 Z-2.000
G1 X318.470 Y177.451 Z-2.000
G1 X318.534 Y176.422 Z-2.000
G1 X318.592 Y175.396 Z-2.000
G1 X318.642 Y174.371 Z-2.000
G1 X318.686 Y173.349 Z-2.000
G1 X318.723 Y172.330 Z-2.000
G1 X318.753 Y171.312 Z-2.000
G1 X318.776 Y170.297 Z-2.000
G1 X318.792 Y169.285 Z-2.000
G1 X318.802 Y168.275 Z-2.000
G1 X318.806 Y167.268 Z-2.000
G1 X318.802 Y166.260 Z-2.000
G1 X318.792 Y165.250 Z-2.000
G1 X318.776 Y164.238 Z-2.000
G1 X318.753 Y163.223 Z-2.000
G1 X318.723 Y162.205 Z-2.000
G1 X318.686 Y161.186 Z-2.000
G1 X318.642 Y160.164 Z-2.000
G1 X318.592 Y159.140 Z-2.000
G1 X318.534 Y158.113 Z-2.000
G1 X318.470 Y157.085 Z-2.000
G1 X318.398 Y156.054 Z-2.000
G1 X318.319 Y155.022 Z-2.000
G1 X318.234 Y153.987 Z-2.000
G1 X318.141 Y152.951 Z-2.000
G1 X318.041 Y151.913 Z-2.000
G1 X317.933 Y150.873 Z-2.000
G1 X317.819 Y149.832 Z-2.000
G1 X317.697 Y148.789 Z-2.000
G1 X317.567 Y147.745 Z-2.000
G1 X317.430 Y146.699 Z-2.000
G1 X317.286 Y145.651 Z-2.000
G1 X317.134 Y144.603 Z-2.000
G1 X316.975 Y143.553 Z-2.000
G1 X316.808 Y142.502 Z-2.000
G1 X316.633 Y141.450 Z-2.000
G1 X316.451 Y140.397 Z-2.000
G1 X316.261 Y139.343 Z-2.000
G1 X316.063 Y138.289 Z-2.000
G1 X315.858 Y137.233 Z-2.000
G1 X315.645 Y136.177 Z-2.000
G1 X315.424 Y135.120 Z-2.000
G1 X315.195 Y134.063 Z-2.000
G1 X314.959 Y133.005 Z-2.000
G1 X314.714 Y131.947 Z-2.000
G1 X314.462 Y130.889 Z-2.000
G1 X314.201 Y129.830 Z-2.000
G1 X313.933 Y128.771 Z-2.000
G1 X313.656 Y127.713 Z-2.000
G1 X313.372 Y126.654 Z-2.000
G1 X313.080 Y125.596 Z-2.000
G1 X312.779 Y124.537 Z-2.000
G1 X312.470 Y123.479 Z-2.000
G1 X312.154 Y122.422 Z-2.000
G1 X311.829 Y121.365 Z-2.000
G1 X311.496 Y120.308 Z-2.000
G1 X311.155 Y119.253 Z-2.000
G1 X310.806 Y118.198 Z-2.000
G1 X310.449 Y117.143 Z-2.000
G1 X310.083 Y116.090 Z-2.000
G1 X309.710 Y115.038 Z-2.000
G1 X309.328 Y113.987 Z-2.000
G1 X308.938 Y112.937 Z-2.000
G1 X308.539 Y111.888 Z-2.000
G1 X308.133 Y110.841 Z-2.000
G1 X307.718 Y109.796 Z-2.000
G1 X307.295 Y108.751 Z-2.000
G1 X306.864 Y107.709 Z-2.000
G1 X306.425 Y106.668 Z-2.000
G1 X305.978 Y105.630 Z-2.000
G1 X305.522 Y104.593 Z-2.000
G1 X305.058 Y103.558 Z-2.000
G1 X304.586 Y102.525 Z-2.000
G1 X304.106 Y101.495 Z-2.000
G1 X303.618 Y100.467 Z-2.000
G1 X303.121 Y99.441 Z-2.000
G1 X302.617 Y98.418 Z-2.000
G1 X302.104 Y97.398 Z-2.000
G1 X301.583 Y96.380 Z-2.000
G1 X301.054 Y95.365 Z-2.000
G1 X300.518 Y94.353 Z-2.000
G1 X299.973 Y93.344 Z-2.000
G1 X299.420 Y92.338 Z-2.000
G1 X298.859 Y91.335 Z-2.000
G1 X298.290 Y90.336 Z-2.000
G1 X297.713 Y89.339 Z-2.000
G1 X297.128 Y88.347 Z-2.000
G1 X296.535 Y87.358 Z-2.000
G1 X295.934 Y86.372 Z-2.000
G1 X295.326 Y85.390 Z-2.000
G1 X294.710 Y84.412 Z-2.000
G1 X294.086 Y83.438 Z-2.000
G1 X293.454 Y82.468 Z-2.000
G1 X292.815 Y81.503 Z-2.000
G1 X292.168 Y80.541 Z-2.000
G1 X291.513 Y79.583 Z-2.000
G1 X290.851 Y78.630 Z-2.000
G1 X290.181 Y77.682 Z-2.000
G1 X289.504 Y76.738 Z-2.000
G1 X288.819 Y75.798 Z-2.000
G1 X288.127 Y74.864 Z-2.000
G1 X287.428 Y73.934 Z-2.000
G1 X286.721 Y73.009 Z-2.000
G1 X286.007 Y72.089 Z-2.000
G1 X285.286 Y71.174 Z-2.000
G1 X284.558 Y70.265 Z-2.000
G1 X283.823 Y69.360 Z-2.000
G1 X283.080 Y68.461 Z-2.000
G1 X282.331 Y67.567 Z-2.000
G1 X281.575 Y66.679 Z-2.000
G1 X280.812 Y65.796 Z-2.000
G1 X280.042 Y64.919 Z-2.000
G1 X279.266 Y64.048 Z-2.000
G1 X278.483 Y63.182 Z-2.000
G1 X277.693 Y62.322 Z-2.000
G1 X276.897 Y61.469 Z-2.000
G1 X276.094 Y60.621 Z-2.000
G1 X275.285 Y59.779 Z-2.000
G1 X274.470 Y58.944 Z-2.000
G1 X273.648 Y58.114 Z-2.000
G1 X272.820 Y57.291 Z-2.000
G1 X271.986 Y56.475 Z-2.000
G1 X271.147 Y55.665 Z-2.000
G1 X270.301 Y54.861 Z-2.000
G1 X269.449 Y54.064 Z-2.000
G1 X268.591 Y53.273 Z-2.000
G1 X267.728 Y52.490 Z-2.000
G1 X266.859 Y51.713 Z-2.000
G1 X265.985 Y50.942 Z-2.000
G1 X265.105 Y50.179 Z-2.000
G1 X264.220 Y49.423 Z-2.000
G1 X263.329 Y48.673 Z-2.000
G1 X262.433 Y47.931 Z-2.000
G1 X261.532 Y47.196 Z-2.000
G1 X260.626 Y46.468 Z-2.000
G1 X259.715 Y45.747 Z-2.000
G1 X258.799 Y45.033 Z-2.000
G1 X257.878 Y44.327 Z-2.000
G1 X256.952 Y43.628 Z-2.000
G1 X256.022 Y42.936 Z-2.000
G1 X255.088 Y42.252 Z-2.000
G1 X254.148 Y41.575 Z-2.000
G1 X253.205 Y40.906 Z-2.000
G1 X252.257 Y40.245 Z-2.000
G1 X251.305 Y39.591 Z-2.000
G1 X250.349 Y38.945 Z-2.000
G1 X249.389 Y38.306 Z-2.000
G1 X248.424 Y37.675 Z-2.000
G1 X247.457 Y37.052 Z-2.000
G1 X246.485 Y36.436 Z-2.000
G1 X245.510 Y35.829 Z-2.000
G1 X244.531 Y35.229 Z-2.000
G1 X243.548 Y34.637 Z-2.000
G1 X242.563 Y34.053 Z-2.000
G1 X241.574 Y33.477 Z-2.000
G1 X240.582 Y32.909 Z-2.000
G1 X239.586 Y32.349 Z-2.000
G1 X238.588 Y31.797 Z-2.000
G1 X237.587 Y31.253 Z-2.000
G1 X236.583 Y30.717 Z-2.000
G1 X235.577 Y30.188 Z-2.000
G1 X234.567 Y29.668 Z-2.000
G1 X233.555 Y29.156 Z-2.000
G1 X232.541 Y28.653 Z-2.000
G1 X231.525 Y28.157 Z-2.000
G1 X230.506 Y27.669 Z-2.000
G1 X229.485 Y27.189 Z-2.000
G1 X228.462 Y26.718 Z-2.000
G1 X227.437 Y26.255 Z-2.000
G1 X226.410 Y25.799 Z-2.000
G1 X225.381 Y25.352 Z-2.000
G1 X224.351 Y24.913 Z-2.000
G1 X223.319 Y24.482 Z-2.000
G1 X222.285 Y24.059 Z-2.000
G1 X221.251 Y23.645 Z-2.000
G1 X220.214 Y23.238 Z-2.000
G1 X219.177 Y22.840 Z-2.000
G1 X218.138 Y22.450 Z-2.000
G1 X217.099 Y22.067 Z-2.000
G1 X216.058 Y21.693 Z-2.000
G1 X215.017 Y21.327 Z-2.000
G1 X213.974 Y20.969 Z-2.000
G1 X212.931 Y20.619 Z-2.000
G1 X211.888 Y20.277 Z-2.000
G1 X210.844 Y19.943 Z-2.000
G1 X209.799 Y19.617 Z-2.000
G1 X208.754 Y19.300 Z-2.000
G1 X207.709 Y18.990 Z-2.000
G1 X206.664 Y18.688 Z-2.000
G1 X205.619 Y18.394 Z-2.000
G1 X204.573 Y18.107 Z-2.000
G1 X203.528 Y17.829 Z-2.000
G1 X202.483 Y17.559 Z-2.000
G1 X201.438 Y17.296 Z-2.000
G1 X200.393 Y17.041 Z-2.000
G1 X199.349 Y16.794 Z-2.000
G1 X198.305 Y16.555 Z-2.000
G1 X197.262 Y16.323 Z-2.000
G1 X196.219 Y16.100 Z-2.000
G1 X195.177 Y15.883 Z-2.000
G1 X194.136 Y15.675 Z-2.000
G1 X193.096 Y15.474 Z-2.000
G1 X192.057 Y15.280 Z-2.000
G1 X191.018 Y15.094 Z-2.000
G1 X189.981 Y14.916 Z-2.000
G1 X188.945 Y14.745 Z-2.000
G1 X187.910 Y14.581 Z-2.000
G1 X186.877 Y14.425 Z-2.000
G1 X185.844 Y14.276 Z-2.000
G1 X184.814 Y14.135 Z-2.000
G1 X183.784 Y14.000 Z-2.000
G1 X182.757 Y13.873 Z-2.000
G1 X181.731 Y13.753 Z-2.000
G1 X180.707 Y13.641 Z-2.000
G1 X179.684 Y13.535 Z-2.000
G1 X178.663 Y13.436 Z-2.000
G1 X177.645 Y13.345 Z-2.000
G1 X176.628 Y13.260 Z-2.000
G1 X175.613 Y13.182 Z-2.000
G1 X174.600 Y13.111 Z-2.000
G1 X173.590 Y13.047 Z-2.000
G1 X172.581 Y12.989 Z-2.000
G1 X171.575 Y12.939 Z-2.000
G1 X170.537 Y12.893 Z-2.000
G1 X169.499 Y12.855 Z-2.000
G1 X168.461 Y12.824 Z-2.000
G1 X167.422 Y12.799 Z-2.000
G1 X166.383 Y12.782 Z-2.000
G1 X165.344 Y12.771 Z-2.000
G1 X164.306 Y12.768 Z-2.000
G1 X163.267 Y12.771 Z-2.000
G1 X162.228 Y12.782 Z-2.000
G1 X161.189 Y12.799 Z-2.000
G1 X160.150 Y12.824 Z-2.000
G1 X159.112 Y12.855 Z-2.000
G1 X158.074 Y12.893 Z-2.000
G1 X157.036 Y12.939 Z-2.000
G1 X157.036 Y12.939 Z-3.000 F635.0
G1 X156.030 Y12.989 Z-3.000 F180.0
G1 X155.022 Y13.047 Z-3.000
G1 X154.011 Y13.111 Z-3.000
G1 X152.998 Y13.182 Z-3.000
G1 X151.983 Y13.260 Z-3.000
G1 X150.967 Y13.345 Z-3.000
G1 X149.948 Y13.436 Z-3.000
G1 X148.927 Y13.535 Z-3.000
G1 X147.905 Y13.641 Z-3.000
G1 X146.880 Y13.753 Z-3.000
G1 X145.854 Y13.873 Z-3.000
G1 X144.827 Y14.000 Z-3.000
G1 X143.797 Y14.135 Z-3.000
G1 X142.767 Y14.276 Z-3.000
G1 X141.735 Y14.425 Z-3.000
G1 X140.701 Y14.581 Z-3.000
G1 X139.666 Y14.745 Z-3.000
G1 X138.630 Y14.916 Z-3.000
G1 X137.593 Y15.094 Z-3.000
G1 X136.555 Y15.280 Z-3.000
G1 X135.515 Y15.474 Z-3.000
G1 X134.475 Y15.675 Z-3.000
G1 X133.434 Y15.883 Z-3.000
G1 X132.392 Y16.100 Z-3.000
G1 X131.349 Y16.323 Z-3.000
G1 X130.306 Y16.555 Z-3.000
G1 X129.262 Y16.794 Z-3.000
G1 X128.218 Y17.041 Z-3.000
G1 X127.174 Y17.296 Z-3.000
G1 X126.129 Y17.559 Z-3.000
G1 X125.083 Y17.829 Z-3.000
G1 X124.038 Y18.107 Z-3.000
G1 X122.993 Y18.394 Z-3.000
G1 X121.947 Y18.688 Z-3.000
G1 X120.902 Y18.990 Z-3.000
G1 X119.857 Y19.300 Z-3.000
G1 X118.812 Y19.617 Z-3.000
G1 X117.767 Y19.943 Z-3.000
G1 X116.723 Y20.277 Z-3.000
G1 X115.680 Y20.619 Z-3.000
G1 X114.637 Y20.969 Z-3.000
G1 X113.594 Y21.327 Z-3.000
G1 X112.553 Y21.693 Z-3.000
G1 X111.512 Y22.067 Z-3.000
G1 X110.473 Y22.450 Z-3.000
G1 X109.434 Y22.840 Z-3.000
G1 X108.397 Y23.238 Z-3.000
G1 X107.361 Y23.645 Z-3.000
G1 X106.326 Y24.059 Z-3.000
G1 X105.292 Y24.482 Z-3.000
G1 X104.260 Y24.913 Z-3.000
G1 X103.230 Y25.352 Z-3.000
G1 X102.201 Y25.799 Z-3.000
G1 X101.174 Y26.255 Z-3.000
G1 X100.149 Y26.718 Z-3.000
G1 X99.126 Y27.189 Z-3.000
G1 X98.105 Y27.669 Z-3.000
G1 X97.086 Y28.157 Z-3.000
G1 X96.070 Y28.653 Z-3.000
G1 X95.056 Y29.156 Z-3.000
G1 X94.044 Y29.668 Z-3.000
G1 X93.035 Y30.188 Z-3.000
G1 X92.028 Y30.717 Z-3.000
G1 X91.024 Y31.253 Z-3.000
G1 X90.023 Y31.797 Z-3.000
G1 X89.025 Y32.349 Z-3.000
G1 X88.029 Y32.909 Z-3.000
G1 X87.037 Y33.477 Z-3.000
G1 X86.048 Y34.053 Z-3.000
G1 X85.063 Y34.637 Z-3.000
G1 X84.080 Y35.229 Z-3.000
G1 X83.101 Y35.829 Z-3.000
G1 X82.126 Y36.436 Z-3.000
G1 X81.155 Y37.052 Z-3.000
G1 X80.187 Y37.675 Z-3.000
G1 X79.223 Y38.306 Z-3.000
G1 X78.262 Y38.945 Z-3.000
G1 X77.306 Y39.591 Z-3.000
G1 X76.354 Y40.245 Z-3.000
G1 X75.406 Y40.906 Z-3.000
G1 X74.463 Y41.575 Z-3.000
G1 X73.524 Y42.252 Z-3.000
G1 X72.589 Y42.936 Z-3.000
G1 X71.659 Y43.628 Z-3.000
G1 X70.733 Y44.327 Z-3.000
G1 X69.812 Y45.033 Z-3.000
G1 X68.896 Y45.747 Z-3.000
G1 X67.985 Y46.468 Z-3.000
G1 X67.079 Y47.196 Z-3.000
G1 X66.178 Y47.931 Z-3.000
G1 X65.282 Y48.673 Z-3.000
G1 X64.392 Y49.423 Z-3.000
G1 X63.506 Y50.179 Z-3.000
G1 X62.626 Y50.942 Z-3.000
G1 X61.752 Y51.713 Z-3.000
G1 X60.883 Y52.490 Z-3.000
G1 X60.020 Y53.273 Z-3.000
G1 X59.162 Y54.064 Z-3.000
G1 X58.310 Y54.861 Z-3.000
G1 X57.465 Y55.665 Z-3.000
G1 X56.625 Y56.475 Z-3.000
G1 X55.791 Y57.291 Z-3.000
G1 X54.963 Y58.114 Z-3.000
G1 X54.141 Y58.944 Z-3.000
G1 X53.326 Y59.779 Z-3.000
G1 X52.517 Y60.621 Z-3.000
G1 X51.714 Y61.469 Z-3.000
G1 X50.918 Y62.322 Z-3.000
G1 X50.128 Y63.182 Z-3.000
G1 X49.345 Y64.048 Z-3.000
G1 X48.569 Y64.919 Z-3.000
G1 X47.799 Y65.796 Z-3.000
G1 X47.036 Y66.679 Z-3.000
G1 X46.280 Y67.567 Z-3.000
G1 X45.531 Y68.461 Z-3.000
G1 X44.788 Y69.360 Z-3.000
G1 X44.053 Y70.265 Z-3.000
G1 X43.325 Y71.174 Z-3.000
G1 X42.604 Y72.089 Z-3.000
G1 X41.890 Y73.009 Z-3.000
G1 X41.183 Y73.934 Z-3.000
G1 X40.484 Y74.864 Z-3.000
G1 X39.792 Y75.798 Z-3.000
G1 X39.107 Y76.738 Z-3.000
G1 X38.430 Y77.682 Z-3.000
G1 X37.760 Y78.630 Z-3.000
G1 X37.098 Y79.583 Z-3.000
G1 X36.443 Y80.541 Z-3.000
G1 X35.796 Y81.503 Z-3.000
G1 X35.157 Y82.468 Z-3.000
G1 X34.525 Y83.438 Z-3.000
G1 X33.901 Y84.412 Z-3.000
G1 X33.285 Y85.390 Z-3.000
G1 X32.677 Y86.372 Z-3.000
G1 X32.076 Y87.358 Z-3.000
G1 X31.483 Y88.347 Z-3.000
G1 X30.898 Y89.339 Z-3.000
G1 X30.322 Y90.336 Z-3.000
G1 X29.753 Y91.335 Z-3.000
G1 X29.192 Y92.338 Z-3.000
G1 X28.639 Y93.344 Z-3.000
G1 X28.094 Y94.353 Z-3.000
G1 X27.557 Y95.365 Z-3.000
G1 X27.028 Y96.380 Z-3.000
G1 X26.507 Y97.398 Z-3.000
G1 X25.994 Y98.418 Z-3.000
G1 X25.490 Y99.441 Z-3.000
G1 X24.993 Y100.467 Z-3.000
G1 X24.505 Y101.495 Z-3.000
G1 X24.025 Y102.525 Z-3.000
G1 X23.553 Y103.558 Z-3.000
G1 X23.089 Y104.593 Z-3.000
G1 X22.633 Y105.630 Z-3.000
G1 X22.186 Y106.668 Z-3.000
G1 X21.747 Y107.709 Z-3.000
G1 X21.316 Y108.751 Z-3.000
G1 X20.893 Y109.796 Z-3.000
G1 X20.478 Y110.841 Z-3.000
G1 X20.072 Y111.888 Z-3.000
G1 X19.673 Y112.937 Z-3.000
G1 X19.283 Y113.987 Z-3.000
G1 X18.902 Y115.038 Z-3.000
G1 X18.528 Y116.090 Z-3.000
G1 X18.162 Y117.143 Z-3.000
G1 X17.805 Y118.198 Z-3.000
G1 X17.456 Y119.253 Z-3.000
G1 X17.115 Y120.308 Z-3.000
G1 X16.782 Y121.365 Z-3.000
G1 X16.457 Y122.422 Z-3.000
G1 X16.141 Y123.479 Z-3.000
G1 X15.832 Y124.537 Z-3.000
G1 X15.532 Y125.596 Z-3.000
G1 X15.239 Y126.654 Z-3.000
G1 X14.955 Y127.713 Z-3.000
G1 X14.678 Y128.771 Z-3.000
G1 X14.410 Y129.830 Z-3.000
G1 X14.150 Y130.889 Z-3.000
G1 X13.897 Y131.947 Z-3.000
G1 X13.653 Y133.005 Z-3.000
G1 X13.416 Y134.063 Z-3.000
G1 X13.187 Y135.120 Z-3.000
G1 X12.966 Y136.177 Z-3.000
G1 X12.753 Y137.233 Z-3.000
G1 X12.548 Y138.289 Z-3.000
G1 X12.350 Y139.343 Z-3.000
G1 X12.160 Y140.397 Z-3.000
G1 X11.978 Y141.450 Z-3.000
G1 X11.803 Y142.502 Z-3.000
G1 X11.636 Y143.553 Z-3.000
G1 X11.477 Y144.603 Z-3.000
G1 X11.325 Y145.651 Z-3.000
G1 X11.181 Y146.699 Z-3.000
G1 X11.044 Y147.745 Z-3.000
G1 X10.915 Y148.789 Z-3.000
G1 X10.793 Y149.832 Z-3.000
G1 X10.678 Y150.873 Z-3.000
G1 X10.570 Y151.913 Z-3.000
G1 X10.470 Y152.951 Z-3.000
G1 X10.377 Y153.987 Z-3.000
G1 X10.292 Y155.022 Z-3.000
G1 X10.213 Y156.054 Z-3.000
G1 X10.141 Y157.085 Z-3.000
G1 X10.077 Y158.113 Z-3.000
G1 X10.020 Y159.140 Z-3.000
G1 X9.969 Y160.164 Z-3.000
G1 X9.925 Y161.186 Z-3.000
G1 X9.889 Y162.205 Z-3.000
G1 X9.859 Y163.223 Z-3.000
G1 X9.835 Y164.238 Z-3.000
G1 X9.819 Y165.250 Z-3.000
G1 X9.809 Y166.260 Z-3.000
G1 X9.806 Y167.268 Z-3.000
G1 X9.809 Y168.275 Z-3.000
G1 X9.819 Y169.285 Z-3.000
G1 X9.835 Y170.297 Z-3.000
G1 X9.859 Y171.312 Z-3.000
G1 X9.889 Y172.330 Z-3.000
G1 X9.925 Y173.349 Z-3.000
G1 X9.969 Y174.371 Z-3.000
G1 X10.020 Y175.396 Z-3.000
G1 X10.077 Y176.422 Z-3.000
G1 X10.141 Y177.451 Z-3.000
G1 X10.213 Y178.481 Z-3.000
G1 X10.292 Y179.513 Z-3.000
G1 X10.377 Y180.548 Z-3.000
G1 X10.470 Y181.584 Z-3.000
G1 X10.570 Y182.622 Z-3.000
G1 X10.678 Y183.662 Z-3.000
G1 X10.793 Y184.703 Z-3.000
G1 X10.915 Y185.746 Z-3.000
G1 X11.044 Y186.791 Z-3.000
G1 X11.181 Y187.837 Z-3.000
G1 X11.325 Y188.884 Z-3.000
G1 X11.477 Y189.932 Z-3.000
G1 X11.636 Y190.982 Z-3.000
G1 X11.803 Y192.033 Z-3.000
G1 X11.978 Y193.085 Z-3.000
G1 X12.160 Y194.138 Z-3.000
G1 X12.350 Y195.192 Z-3.000
G1 X12.548 Y196.247 Z-3.000
G1 X12.753 Y197.302 Z-3.000
G1 X12.966 Y198.358 Z-3.000
G1 X13.187 Y199.415 Z-3.000
G1 X13.416 Y200.472 Z-3.000
G1 X13.653 Y201.530 Z-3.000
G1 X13.897 Y202.588 Z-3.000
G1 X14.150 Y203.647 Z-3.000
G1 X14.410 Y204.705 Z-3.000
G1 X14.678 Y205.764 Z-3.000
G1 X14.955 Y206.822 Z-3.000
G1 X15.239 Y207.881 Z-3.000
G1 X15.532 Y208.940 Z-3.000
G1 X15.832 Y209.998 Z-3.000
G1 X16.141 Y211.056 Z-3.000
G1 X16.457 Y212.113 Z-3.000
G1 X16.782 Y213.170 Z-3.000
G1 X17.115 Y214.227 Z-3.000
G1 X17.456 Y215.283 Z-3.000
G1 X17.805 Y216.338 Z-3.000
G1 X18.162 Y217.392 Z-3.000
G1 X18.528 Y218.445 Z-3.000
G1 X18.902 Y219.497 Z-3.000
G1 X19.283 Y220.548 Z-3.000
G1 X19.673 Y221.598 Z-3.000
G1 X20.072 Y222.647 Z-3.000
G1 X20.478 Y223.694 Z-3.000
G1 X20.893 Y224.740 Z-3.000
G1 X21.316 Y225.784 Z-3.000
G1 X21.747 Y226.826 Z-3.000
G1 X22.186 Y227.867 Z-3.000
G1 X22.633 Y228.906 Z-3.000
G1 X23.089 Y229.942 Z-3.000
G1 X23.553 Y230.977 Z-3.000
G1 X24.025 Y232.010 Z-3.000
G1 X24.505 Y233.040 Z-3.000
G1 X24.993 Y234.068 Z-3.000
G1 X25.490 Y235.094 Z-3.000
G1 X25.994 Y236.117 Z-3.000
G1 X26.507 Y237.137 Z-3.000
G1 X27.028 Y238.155 Z-3.000
G1 X27.557 Y239.170 Z-3.000
G1 X28.094 Y240.182 Z-3.000
G1 X28.639 Y241.191 Z-3.000
G1 X29.192 Y242.197 Z-3.000
G1 X29.753 Y243.200 Z-3.000
G1 X30.322 Y244.200 Z-3.000
G1 X30.898 Y245.196 Z-3.000
G1 X31.483 Y246.189 Z-3.000
G1 X32.076 Y247.178 Z-3.000
G1 X32.677 Y248.163 Z-3.000
G1 X33.285 Y249.145 Z-3.000
G1 X33.901 Y250.123 Z-3.000
G1 X34.525 Y251.097 Z-3.000
G1 X35.157 Y252.067 Z-3.000
G1 X35.796 Y253.033 Z-3.000
G1 X36.443 Y253.994 Z-3.000
G1 X37.098 Y254.952 Z-3.000
G1 X37.760 Y255.905 Z-3.000
G1 X38.430 Y256.853 Z-3.000
G1 X39.107 Y257.797 Z-3.000
G1 X39.792 Y258.737 Z-3.000
G1 X40.484 Y259.671 Z-3.000
G1 X41.183 Y260.601 Z-3.000
G1 X41.890 Y261.526 Z-3.000
G1 X42.604 Y262.446 Z-3.000
G1 X43.325 Y263.361 Z-3.000
G1 X44.053 Y264.271 Z-3.000
G1 X44.788 Y265.175 Z-3.000
G1 X45.531 Y266.074 Z-3.000
G1 X46.280 Y266.968 Z-3.000
G1 X47.036 Y267.856 Z-3.000
G1 X47.799 Y268.739 Z-3.000
G1 X48.569 Y269.616 Z-3.000
G1 X49.345 Y270.488 Z-3.000
G1 X50.128 Y271.353 Z-3.000
G1 X50.918 Y272.213 Z-3.000
G1 X51.714 Y273.067 Z-3.000
G1 X52.517 Y273.914 Z-3.000
G1 X53.326 Y274.756 Z-3.000
G1 X54.141 Y275.592 Z-3.000
G1 X54.963 Y276.421 Z-3.000
G1 X55.791 Y277.244 Z-3.000
G1 X56.625 Y278.061 Z-3.000
G1 X57.465 Y278.871 Z-3.000
G1 X58.310 Y279.674 Z-3.000
G1 X59.162 Y280.471 Z-3.000
G1 X60.020 Y281.262 Z-3.000
G1 X60.883 Y282.046 Z-3.000
G1 X61.752 Y282.823 Z-3.000
G1 X62.626 Y283.593 Z-3.000
G1 X63.506 Y284.356 Z-3.000
G1 X64.392 Y285.113 Z-3.000
G1 X65.282 Y285.862 Z-3.000
G1 X66.178 Y286.604 Z-3.000
G1 X67.079 Y287.340 Z-3.000
G1 X67.985 Y288.068 Z-3.000
G1 X68.896 Y288.789 Z-3.000
G1 X69.812 Y289.502 Z-3.000
G1 X70.733 Y290.208 Z-3.000
G1 X71.659 Y290.907 Z-3.000
G1 X72.589 Y291.599 Z-3.000
G1 X73.524 Y292.283 Z-3.000
G1 X74.463 Y292.960 Z-3.000
G1 X75.406 Y293.629 Z-3.000
G1 X76.354 Y294.290 Z-3.000
G1 X77.306 Y294.944 Z-3.000
G1 X78.262 Y295.591 Z-3.000
G1 X79.223 Y296.229 Z-3.000
G1 X80.187 Y296.860 Z-3.000
G1 X81.155 Y297.483 Z-3.000
G1 X82.126 Y298.099 Z-3.000
G1 X83.101 Y298.706 Z-3.000
G1 X84.080 Y299.306 Z-3.000
G1 X85.063 Y299.898 Z-3.000
G1 X86.048 Y300.482 Z-3.000
G1 X87.037 Y301.058 Z-3.000
G1 X88.029 Y301.626 Z-3.000
G1 X89.025 Y302.186 Z-3.000
G1 X90.023 Y302.738 Z-3.000
G1 X91.024 Y303.283 Z-3.000
G1 X92.028 Y303.819 Z-3.000
G1 X93.035 Y304.347 Z-3.000
G1 X94.044 Y304.867 Z-3.000
G1 X95.056 Y305.379 Z-3.000
G1 X96.070 Y305.883 Z-3.000
G1 X97.086 Y306.379 Z-3.000
G1 X98.105 Y306.866 Z-3.000
G1 X99.126 Y307.346 Z-3.000
G1 X100.149 Y307.817 Z-3.000
G1 X101.174 Y308.281 Z-3.000
G1 X102.201 Y308.736 Z-3.000
G1 X103.230 Y309.183 Z-3.000
G1 X104.260 Y309.622 Z-3.000
G1 X105.292 Y310.053 Z-3.000
G1 X106.326 Y310.476 Z-3.000
G1 X107.361 Y310.890 Z-3.000
G1 X108.397 Y311.297 Z-3.000
G1 X109.434 Y311.695 Z-3.000
G1 X110.473 Y312.086 Z-3.000
G1 X111.512 Y312.468 Z-3.000
G1 X112.553 Y312.842 Z-3.000
G1 X113.594 Y313.208 Z-3.000
G1 X114.637 Y313.566 Z-3.000
G1 X115.680 Y313.916 Z-3.000
G1 X116.723 Y314.258 Z-3.000
G1 X117.767 Y314.592 Z-3.000
G1 X118.812 Y314.918 Z-3.000
G1 X119.857 Y315.236 Z-3.000
G1 X120.902 Y315.546 Z-3.000
G1 X121.947 Y315.848 Z-3.000
G1 X122.993 Y316.142 Z-3.000
G1 X124.038 Y316.428 Z-3.000
G1 X125.083 Y316.706 Z-3.000
G1 X126.129 Y316.977 Z-3.000
G1 X127.174 Y317.239 Z-3.000
G1 X128.218 Y317.494 Z-3.000
G1 X129.262 Y317.741 Z-3.000
G1 X130.306 Y317.980 Z-3.000
G1 X131.349 Y318.212 Z-3.000
G1 X132.392 Y318.436 Z-3.000
G1 X133.434 Y318.652 Z-3.000
G1 X134.475 Y318.860 Z-3.000
G1 X135.515 Y319.061 Z-3.000
G1 X136.555 Y319.255 Z-3.000
G1 X137.593 Y319.441 Z-3.000
G1 X138.630 Y319.619 Z-3.000
G1 X139.666 Y319.790 Z-3.000
G1 X140.701 Y319.954 Z-3.000
G1 X141.735 Y320.110 Z-3.000
G1 X142.767 Y320.259 Z-3.000
G1 X143.797 Y320.400 Z-3.000
G1 X144.827 Y320.535 Z-3.000
G1 X145.854 Y320.662 Z-3.000
G1 X146.880 Y320.782 Z-3.000
G1 X147.905 Y320.895 Z-3.000
G1 X148.927 Y321.000 Z-3.000
G1 X149.948 Y321.099 Z-3.000
G1 X150.967 Y321.191 Z-3.000
G1 X151.983 Y321.275 Z-3.000
G1 X152.998 Y321.353 Z-3.000
G1 X154.011 Y321.424 Z-3.000
G1 X155.022 Y321.488 Z-3.000
G1 X156.030 Y321.546 Z-3.000
G1 X157.036 Y321.596 Z-3.000
G1 X158.074 Y321.642 Z-3.000
G1 X159.112 Y321.680 Z-3.000
G1 X160.150 Y321.712 Z-3.000
G1 X161.189 Y321.736 Z-3.000
G1 X162.228 Y321.754 Z-3.000
G1 X163.267 Y321.764 Z-3.000
G1 X164.306 Y321.768 Z-3.000
G1 X165.344 Y321.764 Z-3.000
G1 X166.383 Y321.754 Z-3.000
G1 X167.422 Y321.736 Z-3.000
G1 X168.461 Y321.712 Z-3.000
G1 X169.499 Y321.680 Z-3.000
G1 X170.537 Y321.642 Z-3.000
G1 X171.575 Y321.596 Z-3.000
G1 X172.581 Y321.546 Z-3.000
G1 X173.590 Y321.488 Z-3.000
G1 X174.600 Y321.424 Z-3.000
G1 X175.613 Y321.353 Z-3.000
G1 X176.628 Y321.275 Z-3.000
G1 X177.645 Y321.191 Z-3.000
G1 X178.663 Y321.099 Z-3.000
G1 X179.684 Y321.000 Z-3.000
G1 X180.707 Y320.895 Z-3.000
G1 X181.731 Y320.782 Z-3.000
G1 X182.757 Y320.662 Z-3.000
G1 X183.784 Y320.535 Z-3.000
G1 X184.814 Y320.400 Z-3.000
G1 X185.844 Y320.259 Z-3.000
G1 X186.877 Y320.110 Z-3.000
G1 X187.910 Y319.954 Z-3.000
G1 X188.945 Y319.790 Z-3.000
G1 X189.981 Y319.619 Z-3.000
G1 X191.018 Y319.441 Z-3.000
G1 X192.057 Y319.255 Z-3.000
G1 X193.096 Y319.061 Z-3.000
G1 X194.136 Y318.860 Z-3.000
G1 X195.177 Y318.652 Z-3.000
G1 X196.219 Y318.436 Z-3.000
G1 X197.262 Y318.212 Z-3.000
G1 X198.305 Y317.980 Z-3.000
G1 X199.349 Y317.741 Z-3.000
G1 X200.393 Y317.494 Z-3.000
G1 X201.438 Y317.239 Z-3.000
G1 X202.483 Y316.977 Z-3.000
G1 X203.528 Y316.706 Z-3.000
G1 X204.573 Y316.428 Z-3.000
G1 X205.619 Y316.142 Z-3.000
G1 X206.664 Y315.848 Z-3.000
G1 X207.709 Y315.546 Z-3.000
G1 X208.754 Y315.236 Z-3.000
G1 X209.799 Y314.918 Z-3.000
G1 X210.844 Y314.592 Z-3.000
G1 X211.888 Y314.258 Z-3.000
G1 X212.931 Y313.916 Z-3.000
G1 X213.974 Y313.566 Z-3.000
G1 X215.017 Y313.208 Z-3.000
G1 X216.058 Y312.842 Z-3.000
G1 X217.099 Y312.468 Z-3.000
G1 X218.138 Y312.086 Z-3.000
G1 X219.177 Y311.695 Z-3.000
G1 X220.214 Y311.297 Z-3.000
G1 X221.251 Y310.890 Z-3.000
G1 X222.285 Y310.476 Z-3.000
G1 X223.319 Y310.053 Z-3.000
G1 X224.351 Y309.622 Z-3.000
G1 X225.381 Y309.183 Z-3.000
G1 X226.410 Y308.736 Z-3.000
G1 X227.437 Y308.281 Z-3.000
G1 X228.462 Y307.817 Z-3.000
G1 X229.485 Y307.346 Z-3.000
G1 X230.506 Y306.866 Z-3.000
G1 X231.525 Y306.379 Z-3.000
G1 X232.541 Y305.883 Z-3.000
G1 X233.555 Y305.379 Z-3.000
G1 X234.567 Y304.867 Z-3.000
G1 X235.577 Y304.347 Z-3.000
G1 X236.583 Y303.819 Z-3.000
G1 X237.587 Y303.283 Z-3.000
G1 X238.588 Y302.738 Z-3.000
G1 X239.586 Y302.186 Z-3.000
G1 X240.582 Y301.626 Z-3.000
G1 X241.574 Y301.058 Z-3.000
G1 X242.563 Y300.482 Z-3.000
G1 X243.548 Y299.898 Z-3.000
G1 X244.531 Y299.306 Z-3.000
G1 X245.510 Y298.706 Z-3.000
G1 X246.485 Y298.099 Z-3.000
G1 X247.457 Y297.483 Z-3.000
G1 X248.424 Y296.860 Z-3.000
G1 X249.389 Y296.229 Z-3.000
G1 X250.349 Y295.591 Z-3.000
G1 X251.305 Y294.944 Z-3.000
G1 X252.257 Y294.290 Z-3.000
G1 X253.205 Y293.629 Z-3.000
G1 X254.148 Y292.960 Z-3.000
G1 X255.088 Y292.283 Z-3.000
G1 X256.022 Y291.599 Z-3.000
G1 X256.952 Y290.907 Z-3.000
G1 X257.878 Y290.208 Z-3.000
G1 X258.799 Y289.502 Z-3.000
G1 X259.715 Y288.789 Z-3.000
G1 X260.626 Y288.068 Z-3.000
G1 X261.532 Y287.340 Z-3.000
G1 X262.433 Y286.604 Z-3.000
G1 X263.329 Y285.862 Z-3.000
G1 X264.220 Y285.113 Z-3.000
G1 X265.105 Y284.356 Z-3.000
G1 X265.985 Y283.593 Z-3.000
G1 X266.859 Y282.823 Z-3.000
G1 X267.728 Y282.046 Z-3.000
G1 X268.591 Y281.262 Z-3.000
G1 X269.449 Y280.471 Z-3.000
G1 X270.301 Y279.674 Z-3.000
G1 X271.147 Y278.871 Z-3.000
G1 X271.986 Y278.061 Z-3.000
G1 X272.820 Y277.244 Z-3.000
G1 X273.648 Y276.421 Z-3.000
G1 X274.470 Y275.592 Z-3.000
G1 X275.285 Y274.756 Z-3.000
G1 X276.094 Y273.914 Z-3.000
G1 X276.897 Y273.067 Z-3.000
G1 X277.693 Y272.213 Z-3.000
G1 X278.483 Y271.353 Z-3.000
G1 X279.266 Y270.488 Z-3.000
G1 X280.042 Y269.616 Z-3.000
G1 X280.812 Y268.739 Z-3.000
G1 X281.575 Y267.856 Z-3.000
G1 X282.331 Y266.968 Z-3.000
G1 X283.080 Y266.074 Z-3.000
G1 X283.823 Y265.175 Z-3.000
G1 X284.558 Y264.271 Z-3.000
G1 X285.286 Y263.361 Z-3.000
G1 X286.007 Y262.446 Z-3.000
G1 X286.721 Y261.526 Z-3.000
G1 X287.428 Y260.601 Z-3.000
G1 X288.127 Y259.671 Z-3.000
G1 X288.819 Y258.737 Z-3.000
G1 X289.504 Y257.797 Z-3.000
G1 X290.181 Y256.853 Z-3.000
G1 X290.851 Y255.905 Z-3.000
G1 X291.513 Y254.952 Z-3.000
G1 X292.168 Y253.994 Z-3.000
G1 X292.815 Y253.033 Z-3.000
G1 X293.454 Y252.067 Z-3.000
G1 X294.086 Y251.097 Z-3.000
G1 X294.710 Y250.123 Z-3.000
G1 X295.326 Y249.145 Z-3.000
G1 X295.934 Y248.163 Z-3.000
G1 X296.535 Y247.178 Z-3.000
G1 X297.128 Y246.189 Z-3.000
G1 X297.713 Y245.196 Z-3.000
G1 X298.290 Y244.200 Z-3.000
G1 X298.859 Y243.200 Z-3.000
G1 X299.420 Y242.197 Z-3.000
G1 X299.973 Y241.191 Z-3.000
G1 X300.518 Y240.182 Z-3.000
G1 X301.054 Y239.170 Z-3.000
G1 X301.583 Y238.155 Z-3.000
G1 X302.104 Y237.137 Z-3.000
G1 X302.617 Y236.117 Z-3.000
G1 X303.121 Y235.094 Z-3.000
G1 X303.618 Y234.068 Z-3.000
G1 X304.106 Y233.040 Z-3.000
G1 X304.586 Y232.010 Z-3.000
G1 X305.058 Y230.977 Z-3.000
G1 X305.522 Y229.942 Z-3.000
G1 X305.978 Y228.906 Z-3.000
G1 X306.425 Y227.867 Z-3.000
G1 X306.864 Y226.826 Z-3.000
G1 X307.295 Y225.784 Z-3.000
G1 X307.718 Y224.740 Z-3.000
G1 X308.133 Y223.694 Z-3.000
G1 X308.539 Y222.647 Z-3.000
G1 X308.938 Y221.598 Z-3.000
G1 X309.328 Y220.548 Z-3.000
G1 X309.710 Y219.497 Z-3.000
G1 X310.083 Y218.445 Z-3.000
G1 X310.449 Y217.392 Z-3.000
G1 X310.806 Y216.338 Z-3.000
G1 X311.155 Y215.283 Z-3.000
G1 X311.496 Y214.227 Z-3.000
G1 X311.829 Y213.170 Z-3.000
G1 X312.154 Y212.113 Z-3.000
G1 X312.470 Y211.056 Z-3.000
G1 X312.779 Y209.998 Z-3.000
G1 X313.080 Y208.940 Z-3.000
G1 X313.372 Y207.881 Z-3.000
G1 X313.656 Y206.822 Z-3.000
G1 X313.933 Y205.764 Z-3.000
G1 X314.201 Y204.705 Z-3.000
G1 X314.462 Y203.647 Z-3.000
G1 X314.714 Y202.588 Z-3.000
G1 X314.959 Y201.530 Z-3.000
G1 X315.195 Y200.472 Z-3.000
G1 X315.424 Y199.415 Z-3.000
G1 X315.645 Y198.358 Z-3.000
G1 X315.858 Y197.302 Z-3.000
G1 X316.063 Y196.247 Z-3.000
G1 X316.261 Y195.192 Z-3.000
G1 X316.451 Y194.138 Z-3.000
G1 X316.633 Y193.085 Z-3.000
G1 X316.808 Y192.033 Z-3.000
G1 X316.975 Y190.982 Z-3.000
G1 X317.134 Y189.932 Z-3.000
G1 X317.286 Y188.884 Z-3.000
G1 X317.430 Y187.837 Z-3.000
G1 X317.567 Y186.791 Z-3.000
G1 X317.697 Y185.746 Z-3.000
G1 X317.819 Y184.703 Z-3.000
G1 X317.933 Y183.662 Z-3.000
G1 X318.041 Y182.622 Z-3.000
G1 X318.141 Y181.584 Z-3.000
G1 X318.234 Y180.548 Z-3.000
G1 X318.319 Y179.513 Z-3.000
G1 X318.398 Y178.481 Z-3.000
G1 X318.470 Y177.451 Z-3.000
G1 X318.534 Y176.422 Z-3.000
G1 X318.592 Y175.396 Z-3.000
G1 X318.642 Y174.371 Z-3.000
G1 X318.686 Y173.349 Z-3.000
G1 X318.723 Y172.330 Z-3.000
G1 X318.753 Y171.312 Z-3.000
G1 X318.776 Y170.297 Z-3.000
G1 X318.792 Y169.285 Z-3.000
G1 X318.802 Y168.275 Z-3.000
G1 X318.806 Y167.268 Z-3.000
G1 X318.802 Y166.260 Z-3.000
G1 X318.792 Y165.250 Z-3.000
G1 X318.776 Y164.238 Z-3.000
G1 X318.753 Y163.223 Z-3.000
G1 X318.723 Y162.205 Z-3.000
G1 X318.686 Y161.186 Z-3.000
G1 X318.642 Y160.164 Z-3.000
G1 X318.592 Y159.140 Z-3.000
G1 X318.534 Y158.113 Z-3.000
G1 X318.470 Y157.085 Z-3.000
G1 X318.398 Y156.054 Z-3.000
G1 X318.319 Y155.022 Z-3.000
G1 X318.234 Y153.987 Z-3.000
G1 X318.141 Y152.951 Z-3.000
G1 X318.041 Y151.913 Z-3.000
G1 X317.933 Y150.873 Z-3.000
G1 X317.819 Y149.832 Z-3.000
G1 X317.697 Y148.789 Z-3.000
G1 X317.567 Y147.745 Z-3.000
G1 X317.430 Y146.699 Z-3.000
G1 X317.286 Y145.651 Z-3.000
G1 X317.134 Y144.603 Z-3.000
G1 X316.975 Y143.553 Z-3.000
G1 X316.808 Y142.502 Z-3.000
G1 X316.633 Y141.450 Z-3.000
G1 X316.451 Y140.397 Z-3.000
G1 X316.261 Y139.343 Z-3.000
G1 X316.063 Y138.289 Z-3.000
G1 X315.858 Y137.233 Z-3.000
G1 X315.645 Y136.177 Z-3.000
G1 X315.424 Y135.120 Z-3.000
G1 X315.195 Y134.063 Z-3.000
G1 X314.959 Y133.005 Z-3.000
G1 X314.714 Y131.947 Z-3.000
G1 X314.462 Y130.889 Z-3.000
G1 X314.201 Y129.830 Z-3.000
G1 X313.933 Y128.771 Z-3.000
G1 X313.656 Y127.713 Z-3.000
G1 X313.372 Y126.654 Z-3.000
G1 X313.080 Y125.596 Z-3.000
G1 X312.779 Y124.537 Z-3.000
G1 X312.470 Y123.479 Z-3.000
G1 X312.154 Y122.422 Z-3.000
G1 X311.829 Y121.365 Z-3.000
G1 X311.496 Y120.308 Z-3.000
G1 X311.155 Y119.253 Z-3.000
G1 X310.806 Y118.198 Z-3.000
G1 X310.449 Y117.143 Z-3.000
G1 X310.083 Y116.090 Z-3.000
G1 X309.710 Y115.038 Z-3.000
G1 X309.328 Y113.987 Z-3.000
G1 X308.938 Y112.937 Z-3.000
G1 X308.539 Y111.888 Z-3.000
G1 X308.133 Y110.841 Z-3.000
G1 X307.718 Y109.796 Z-3.000
G1 X307.295 Y108.751 Z-3.000
G1 X306.864 Y107.709 Z-3.000
G1 X306.425 Y106.668 Z-3.000
G1 X305.978 Y105.630 Z-3.000
G1 X305.522 Y104.593 Z-3.000
G1 X305.058 Y103.558 Z-3.000
G1 X304.586 Y102.525 Z-3.000
G1 X304.106 Y101.495 Z-3.000
G1 X303.618 Y100.467 Z-3.000
G1 X303.121 Y99.441 Z-3.000
G1 X302.617 Y98.418 Z-3.000
G1 X302.104 Y97.398 Z-3.000
G1 X301.583 Y96.380 Z-3.000
G1 X301.054 Y95.365 Z-3.000
G1 X300.518 Y94.353 Z-3.000
G1 X299.973 Y93.344 Z-3.000
G1 X299.420 Y92.338 Z-3.000
G1 X298.859 Y91.335 Z-3.000
G1 X298.290 Y90.336 Z-3.000
G1 X297.713 Y89.339 Z-3.000
G1 X297.128 Y88.347 Z-3.000
G1 X296.535 Y87.358 Z-3.000
G1 X295.934 Y86.372 Z-3.000
G1 X295.326 Y85.390 Z-3.000
G1 X294.710 Y84.412 Z-3.000
G1 X294.086 Y83.438 Z-3.000
G1 X293.454 Y82.468 Z-3.000
G1 X292.815 Y81.503 Z-3.000
G1 X292.168 Y80.541 Z-3.000
G1 X291.513 Y79.583 Z-3.000
G1 X290.851 Y78.630 Z-3.000
G1 X290.181 Y77.682 Z-3.000
G1 X289.504 Y76.738 Z-3.000
G1 X288.819 Y75.798 Z-3.000
G1 X288.127 Y74.864 Z-3.000
G1 X287.428 Y73.934 Z-3.000
G1 X286.721 Y73.009 Z-3.000
G1 X286.007 Y72.089 Z-3.000
G1 X285.286 Y71.174 Z-3.000
G1 X284.558 Y70.265 Z-3.000
G1 X283.823 Y69.360 Z-3.000
G1 X283.080 Y68.461 Z-3.000
G1 X282.331 Y67.567 Z-3.000
G1 X281.575 Y66.679 Z-3.000
G1 X280.812 Y65.796 Z-3.000
G1 X280.042 Y64.919 Z-3.000
G1 X279.266 Y64.048 Z-3.000
G1 X278.483 Y63.182 Z-3.000
G1 X277.693 Y62.322 Z-3.000
G1 X276.897 Y61.469 Z-3.000
G1 X276.094 Y60.621 Z-3.000
G1 X275.285 Y59.779 Z-3.000
G1 X274.470 Y58.944 Z-3.000
G1 X273.648 Y58.114 Z-3.000
G1 X272.820 Y57.291 Z-3.000
G1 X271.986 Y56.475 Z-3.000
G1 X271.147 Y55.665 Z-3.000
G1 X270.301 Y54.861 Z-3.000
G1 X269.449 Y54.064 Z-3.000
G1 X268.591 Y53.273 Z-3.000
G1 X267.728 Y52.490 Z-3.000
G1 X266.859 Y51.713 Z-3.000
G1 X265.985 Y50.942 Z-3.000
G1 X265.105 Y50.179 Z-3.000
G1 X264.220 Y49.423 Z-3.000
G1 X263.329 Y48.673 Z-3.000
G1 X262.433 Y47.931 Z-3.000
G1 X261.532 Y47.196 Z-3.000
G1 X260.626 Y46.468 Z-3.000
G1 X259.715 Y45.747 Z-3.000
G1 X258.799 Y45.033 Z-3.000
G1 X257.878 Y44.327 Z-3.000
G1 X256.952 Y43.628 Z-3.000
G1 X256.022 Y42.936 Z-3.000
G1 X255.088 Y42.252 Z-3.000
G1 X254.148 Y41.575 Z-3.000
G1 X253.205 Y40.906 Z-3.000
G1 X252.257 Y40.245 Z-3.000
G1 X251.305 Y39.591 Z-3.000
G1 X250.349 Y38.945 Z-3.000
G1 X249.389 Y38.306 Z-3.000
G1 X248.424 Y37.675 Z-3.000
G1 X247.457 Y37.052 Z-3.000
G1 X246.485 Y36.436 Z-3.000
G1 X245.510 Y35.829 Z-3.000
G1 X244.531 Y35.229 Z-3.000
G1 X243.548 Y34.637 Z-3.000
G1 X242.563 Y34.053 Z-3.000
G1 X241.574 Y33.477 Z-3.000
G1 X240.582 Y32.909 Z-3.000
G1 X239.586 Y32.349 Z-3.000
G1 X238.588 Y31.797 Z-3.000
G1 X237.587 Y31.253 Z-3.000
G1 X236.583 Y30.717 Z-3.000
G1 X235.577 Y30.188 Z-3.000
G1 X234.567 Y29.668 Z-3.000
G1 X233.555 Y29.156 Z-3.000
G1 X232.541 Y28.653 Z-3.000
G1 X231.525 Y28.157 Z-3.000
G1 X230.506 Y27.669 Z-3.000
G1 X229.485 Y27.189 Z-3.000
G1 X228.462 Y26.718 Z-3.000
G1 X227.437 Y26.255 Z-3.000
G1 X226.410 Y25.799 Z-3.000
G1 X225.381 Y25.352 Z-3.000
G1 X224.351 Y24.913 Z-3.000
G1 X223.319 Y24.482 Z-3.000
G1 X222.285 Y24.059 Z-3.000
G1 X221.251 Y23.645 Z-3.000
G1 X220.214 Y23.238 Z-3.000
G1 X219.177 Y22.840 Z-3.000
G1 X218.138 Y22.450 Z-3.000
G1 X217.099 Y22.067 Z-3.000
G1 X216.058 Y21.693 Z-3.000
G1 X215.017 Y21.327 Z-3.000
G1 X213.974 Y20.969 Z-3.000
G1 X212.931 Y20.619 Z-3.000
G1 X211.888 Y20.277 Z-3.000
G1 X210.844 Y19.943 Z-3.000
G1 X209.799 Y19.617 Z-3.000
G1 X208.754 Y19.300 Z-3.000
G1 X207.709 Y18.990 Z-3.000
G1 X206.664 Y18.688 Z-3.000
G1 X205.619 Y18.394 Z-3.000
G1 X204.573 Y18.107 Z-3.000
G1 X203.528 Y17.829 Z-3.000
G1 X202.483 Y17.559 Z-3.000
G1 X201.438 Y17.296 Z-3.000
G1 X200.393 Y17.041 Z-3.000
G1 X199.349 Y16.794 Z-3.000
G1 X198.305 Y16.555 Z-3.000
G1 X197.262 Y16.323 Z-3.000
G1 X196.219 Y16.100 Z-3.000
G1 X195.177 Y15.883 Z-3.000
G1 X194.136 Y15.675 Z-3.000
G1 X193.096 Y15.474 Z-3.000
G1 X192.057 Y15.280 Z-3.000
G1 X191.018 Y15.094 Z-3.000
G1 X189.981 Y14.916 Z-3.000
G1 X188.945 Y14.745 Z-3.000
G1 X187.910 Y14.581 Z-3.000
G1 X186.877 Y14.425 Z-3.000
G1 X185.844 Y14.276 Z-3.000
G1 X184.814 Y14.135 Z-3.000
G1 X183.784 Y14.000 Z-3.000
G1 X182.757 Y13.873 Z-3.000
G1 X181.731 Y13.753 Z-3.000
G1 X180.707 Y13.641 Z-3.000
G1 X179.684 Y13.535 Z-3.000
G1 X178.663 Y13.436 Z-3.000
G1 X177.645 Y13.345 Z-3.000
G1 X176.628 Y13.260 Z-3.000
G1 X175.613 Y13.182 Z-3.000
G1 X174.600 Y13.111 Z-3.000
G1 X173.590 Y13.047 Z-3.000
G1 X172.581 Y12.989 Z-3.000
G1 X171.575 Y12.939 Z-3.000
G1 X170.537 Y12.893 Z-3.000
G1 X169.499 Y12.855 Z-3.000
G1 X168.461 Y12.824 Z-3.000
G1 X167.422 Y12.799 Z-3.000
G1 X166.383 Y12.782 Z-3.000
G1 X165.344 Y12.771 Z-3.000
G1 X164.306 Y12.768 Z-3.000
G1 X163.267 Y12.771 Z-3.000
G1 X162.228 Y12.782 Z-3.000
G1 X161.189 Y12.799 Z-3.000
G1 X160.150 Y12.824 Z-3.000
G1 X159.112 Y12.855 Z-3.000
G1 X158.074 Y12.893 Z-3.000
G1 X157.036 Y12.939 Z-3.000
G1 X157.036 Y12.939 Z-4.000 F635.0
G1 X156.030 Y12.989 Z-4.000 F180.0
G1 X155.022 Y13.047 Z-4.000
G1 X154.011 Y13.111 Z-4.000
G1 X152.998 Y13.182 Z-4.000
G1 X151.983 Y13.260 Z-4.000
G1 X150.967 Y13.345 Z-4.000
G1 X149.948 Y13.436 Z-4.000
G1 X148.927 Y13.535 Z-4.000
G1 X147.905 Y13.641 Z-4.000
G1 X146.880 Y13.753 Z-4.000
G1 X145.854 Y13.873 Z-4.000
G1 X144.827 Y14.000 Z-4.000
G1 X143.797 Y14.135 Z-4.000
G1 X142.767 Y14.276 Z-4.000
G1 X141.735 Y14.425 Z-4.000
G1 X140.701 Y14.581 Z-4.000
G1 X139.666 Y14.745 Z-4.000
G1 X138.630 Y14.916 Z-4.000
G1 X137.593 Y15.094 Z-4.000
G1 X136.555 Y15.280 Z-4.000
G1 X135.515 Y15.474 Z-4.000
G1 X134.475 Y15.675 Z-4.000
G1 X133.434 Y15.883 Z-4.000
G1 X132.392 Y16.100 Z-4.000
G1 X131.349 Y16.323 Z-4.000
G1 X130.306 Y16.555 Z-4.000
G1 X129.262 Y16.794 Z-4.000
G1 X128.218 Y17.041 Z-4.000
G1 X127.174 Y17.296 Z-4.000
G1 X126.129 Y17.559 Z-4.000
G1 X125.083 Y17.829 Z-4.000
G1 X124.038 Y18.107 Z-4.000
G1 X122.993 Y18.394 Z-4.000
G1 X121.947 Y18.688 Z-4.000
G1 X120.902 Y18.990 Z-4.000
G1 X119.857 Y19.300 Z-4.000
G1 X118.812 Y19.617 Z-4.000
G1 X117.767 Y19.943 Z-4.000
G1 X116.723 Y20.277 Z-4.000
G1 X115.680 Y20.619 Z-4.000
G1 X114.637 Y20.969 Z-4.000
G1 X113.594 Y21.327 Z-4.000
G1 X112.553 Y21.693 Z-4.000
G1 X111.512 Y22.067 Z-4.000
G1 X110.473 Y22.450 Z-4.000
G1 X109.434 Y22.840 Z-4.000
G1 X108.397 Y23.238 Z-4.000
G1 X107.361 Y23.645 Z-4.000
G1 X106.326 Y24.059 Z-4.000
G1 X105.292 Y24.482 Z-4.000
G1 X104.260 Y24.913 Z-4.000
G1 X103.230 Y25.352 Z-4.000
G1 X102.201 Y25.799 Z-4.000
G1 X101.174 Y26.255 Z-4.000
G1 X100.149 Y26.718 Z-4.000
G1 X99.126 Y27.189 Z-4.000
G1 X98.105 Y27.669 Z-4.000
G1 X97.086 Y28.157 Z-4.000
G1 X96.070 Y28.653 Z-4.000
G1 X95.056 Y29.156 Z-4.000
G1 X94.044 Y29.668 Z-4.000
G1 X93.035 Y30.188 Z-4.000
G1 X92.028 Y30.717 Z-4.000
G1 X91.024 Y31.253 Z-4.000
G1 X90.023 Y31.797 Z-4.000
G1 X89.025 Y32.349 Z-4.000
G1 X88.029 Y32.909 Z-4.000
G1 X87.037 Y33.477 Z-4.000
G1 X86.048 Y34.053 Z-4.000
G1 X85.063 Y34.637 Z-4.000
G1 X84.080 Y35.229 Z-4.000
G1 X83.101 Y35.829 Z-4.000
G1 X82.126 Y36.436 Z-4.000
G1 X81.155 Y37.052 Z-4.000
G1 X80.187 Y37.675 Z-4.000
G1 X79.223 Y38.306 Z-4.000
G1 X78.262 Y38.945 Z-4.000
G1 X77.306 Y39.591 Z-4.000
G1 X76.354 Y40.245 Z-4.000
G1 X75.406 Y40.906 Z-4.000
G1 X74.463 Y41.575 Z-4.000
G1 X73.524 Y42.252 Z-4.000
G1 X72.589 Y42.936 Z-4.000
G1 X71.659 Y43.628 Z-4.000
G1 X70.733 Y44.327 Z-4.000
G1 X69.812 Y45.033 Z-4.000
G1 X68.896 Y45.747 Z-4.000
G1 X67.985 Y46.468 Z-4.000
G1 X67.079 Y47.196 Z-4.000
G1 X66.178 Y47.931 Z-4.000
G1 X65.282 Y48.673 Z-4.000
G1 X64.392 Y49.423 Z-4.000
G1 X63.506 Y50.179 Z-4.000
G1 X62.626 Y50.942 Z-4.000
G1 X61.752 Y51.713 Z-4.000
G1 X60.883 Y52.490 Z-4.000
G1 X60.020 Y53.273 Z-4.000
G1 X59.162 Y54.064 Z-4.000
G1 X58.310 Y54.861 Z-4.000
G1 X57.465 Y55.665 Z-4.000
G1 X56.625 Y56.475 Z-4.000
G1 X55.791 Y57.291 Z-4.000
G1 X54.963 Y58.114 Z-4.000
G1 X54.141 Y58.944 Z-4.000
G1 X53.326 Y59.779 Z-4.000
G1 X52.517 Y60.621 Z-4.000
G1 X51.714 Y61.469 Z-4.000
G1 X50.918 Y62.322 Z-4.000
G1 X50.128 Y63.182 Z-4.000
G1 X49.345 Y64.048 Z-4.000
G1 X48.569 Y64.919 Z-4.000
G1 X47.799 Y65.796 Z-4.000
G1 X47.036 Y66.679 Z-4.000
G1 X46.280 Y67.567 Z-4.000
G1 X45.531 Y68.461 Z-4.000
G1 X44.788 Y69.360 Z-4.000
G1 X44.053 Y70.265 Z-4.000
G1 X43.325 Y71.174 Z-4.000
G1 X42.604 Y72.089 Z-4.000
G1 X41.890 Y73.009 Z-4.000
G1 X41.183 Y73.934 Z-4.000
G1 X40.484 Y74.864 Z-4.000
G1 X39.792 Y75.798 Z-4.000
G1 X39.107 Y76.738 Z-4.000
G1 X38.430 Y77.682 Z-4.000
G1 X37.760 Y78.630 Z-4.000
G1 X37.098 Y79.583 Z-4.000
G1 X36.443 Y80.541 Z-4.000
G1 X35.796 Y81.503 Z-4.000
G1 X35.157 Y82.468 Z-4.000
G1 X34.525 Y83.438 Z-4.000
G1 X33.901 Y84.412 Z-4.000
G1 X33.285 Y85.390 Z-4.000
G1 X32.677 Y86.372 Z-4.000
G1 X32.076 Y87.358 Z-4.000
G1 X31.483 Y88.347 Z-4.000
G1 X30.898 Y89.339 Z-4.000
G1 X30.322 Y90.336 Z-4.000
G1 X29.753 Y91.335 Z-4.000
G1 X29.192 Y92.338 Z-4.000
G1 X28.639 Y93.344 Z-4.000
G1 X28.094 Y94.353 Z-4.000
G1 X27.557 Y95.365 Z-4.000
G1 X27.028 Y96.380 Z-4.000
G1 X26.507 Y97.398 Z-4.000
G1 X25.994 Y98.418 Z-4.000
G1 X25.490 Y99.441 Z-4.000
G1 X24.993 Y100.467 Z-4.000
G1 X24.505 Y101.495 Z-4.000
G1 X24.025 Y102.525 Z-4.000
G1 X23.553 Y103.558 Z-4.000
G1 X23.089 Y104.593 Z-4.000
G1 X22.633 Y105.630 Z-4.000
G1 X22.186 Y106.668 Z-4.000
G1 X21.747 Y107.709 Z-4.000
G1 X21.316 Y108.751 Z-4.000
G1 X20.893 Y109.796 Z-4.000
G1 X20.478 Y110.841 Z-4.000
G1 X20.072 Y111.888 Z-4.000
G1 X19.673 Y112.937 Z-4.000
G1 X19.283 Y113.987 Z-4.000
G1 X18.902 Y115.038 Z-4.000
G1 X18.528 Y116.090 Z-4.000
G1 X18.162 Y117.143 Z-4.000
G1 X17.805 Y118.198 Z-4.000
G1 X17.456 Y119.253 Z-4.000
G1 X17.115 Y120.308 Z-4.000
G1 X16.782 Y121.365 Z-4.000
G1 X16.457 Y122.422 Z-4.000
G1 X16.141 Y123.479 Z-4.000
G1 X15.832 Y124.537 Z-4.000
G1 X15.532 Y125.596 Z-4.000
G1 X15.239 Y126.654 Z-4.000
G1 X14.955 Y127.713 Z-4.000
G1 X14.678 Y128.771 Z-4.000
G1 X14.410 Y129.830 Z-4.000
G1 X14.150 Y130.889 Z-4.000
G1 X13.897 Y131.947 Z-4.000
G1 X13.653 Y133.005 Z-4.000
G1 X13.416 Y134.063 Z-4.000
G1 X13.187 Y135.120 Z-4.000
G1 X12.966 Y136.177 Z-4.000
G1 X12.753 Y137.233 Z-4.000
G1 X12.548 Y138.289 Z-4.000
G1 X12.350 Y139.343 Z-4.000
G1 X12.160 Y140.397 Z-4.000
G1 X11.978 Y141.450 Z-4.000
G1 X11.803 Y142.502 Z-4.000
G1 X11.636 Y143.553 Z-4.000
G1 X11.477 Y144.603 Z-4.000
G1 X11.325 Y145.651 Z-4.000
G1 X11.181 Y146.699 Z-4.000
G1 X11.044 Y147.745 Z-4.000
G1 X10.915 Y148.789 Z-4.000
G1 X10.793 Y149.832 Z-4.000
G1 X10.678 Y150.873 Z-4.000
G1 X10.570 Y151.913 Z-4.000
G1 X10.470 Y152.951 Z-4.000
G1 X10.377 Y153.987 Z-4.000
G1 X10.292 Y155.022 Z-4.000
G1 X10.213 Y156.054 Z-4.000
G1 X10.141 Y157.085 Z-4.000
G1 X10.077 Y158.113 Z-4.000
G1 X10.020 Y159.140 Z-4.000
G1 X9.969 Y160.164 Z-4.000
G1 X9.925 Y161.186 Z-4.000
G1 X9.889 Y162.205 Z-4.000
G1 X9.859 Y163.223 Z-4.000
G1 X9.835 Y164.238 Z-4.000
G1 X9.819 Y165.250 Z-4.000
G1 X9.809 Y166.260 Z-4.000
G1 X9.806 Y167.268 Z-4.000
G1 X9.809 Y168.275 Z-4.000
G1 X9.819 Y169.285 Z-4.000
G1 X9.835 Y170.297 Z-4.000
G1 X9.859 Y171.312 Z-4.000
G1 X9.889 Y172.330 Z-4.000
G1 X9.925 Y173.349 Z-4.000
G1 X9.969 Y174.371 Z-4.000
G1 X10.020 Y175.396 Z-4.000
G1 X10.077 Y176.422 Z-4.000
G1 X10.141 Y177.451 Z-4.000
G1 X10.213 Y178.481 Z-4.000
G1 X10.292 Y179.513 Z-4.000
G1 X10.377 Y180.548 Z-4.000
G1 X10.470 Y181.584 Z-4.000
G1 X10.570 Y182.622 Z-4.000
G1 X10.678 Y183.662 Z-4.000
G1 X10.793 Y184.703 Z-4.000
G1 X10.915 Y185.746 Z-4.000
G1 X11.044 Y186.791 Z-4.000
G1 X11.181 Y187.837 Z-4.000
G1 X11.325 Y188.884 Z-4.000
G1 X11.477 Y189.932 Z-4.000
G1 X11.636 Y190.982 Z-4.000
G1 X11.803 Y192.033 Z-4.000
G1 X11.978 Y193.085 Z-4.000
G1 X12.160 Y194.138 Z-4.000
G1 X12.350 Y195.192 Z-4.000
G1 X12.548 Y196.247 Z-4.000
G1 X12.753 Y197.302 Z-4.000
G1 X12.966 Y198.358 Z-4.000
G1 X13.187 Y199.415 Z-4.000
G1 X13.416 Y200.472 Z-4.000
G1 X13.653 Y201.530 Z-4.000
G1 X13.897 Y202.588 Z-4.000
G1 X14.150 Y203.647 Z-4.000
G1 X14.410 Y204.705 Z-4.000
G1 X14.678 Y205.764 Z-4.000
G1 X14.955 Y206.822 Z-4.000
G1 X15.239 Y207.881 Z-4.000
G1 X15.532 Y208.940 Z-4.000
G1 X15.832 Y209.998 Z-4.000
G1 X16.141 Y211.056 Z-4.000
G1 X16.457 Y212.113 Z-4.000
G1 X16.782 Y213.170 Z-4.000
G1 X17.115 Y214.227 Z-4.000
G1 X17.456 Y215.283 Z-4.000
G1 X17.805 Y216.338 Z-4.000
G1 X18.162 Y217.392 Z-4.000
G1 X18.528 Y218.445 Z-4.000
G1 X18.902 Y219.497 Z-4.000
G1 X19.283 Y220.548 Z-4.000
G1 X19.673 Y221.598 Z-4.000
G1 X20.072 Y222.647 Z-4.000
G1 X20.478 Y223.694 Z-4.000
G1 X20.893 Y224.740 Z-4.000
G1 X21.316 Y225.784 Z-4.000
G1 X21.747 Y226.826 Z-4.000
G1 X22.186 Y227.867 Z-4.000
G1 X22.633 Y228.906 Z-4.000
G1 X23.089 Y229.942 Z-4.000
G1 X23.553 Y230.977 Z-4.000
G1 X24.025 Y232.010 Z-4.000
G1 X24.505 Y233.040 Z-4.000
G1 X24.993 Y234.068 Z-4.000
G1 X25.490 Y235.094 Z-4.000
G1 X25.994 Y236.117 Z-4.000
G1 X26.507 Y237.137 Z-4.000
G1 X27.028 Y238.155 Z-4.000
G1 X27.557 Y239.170 Z-4.000
G1 X28.094 Y240.182 Z-4.000
G1 X28.639 Y241.191 Z-4.000
G1 X29.192 Y242.197 Z-4.000
G1 X29.753 Y243.200 Z-4.000
G1 X30.322 Y244.200 Z-4.000
G1 X30.898 Y245.196 Z-4.000
G1 X31.483 Y246.189 Z-4.000
G1 X32.076 Y247.178 Z-4.000
G1 X32.677 Y248.163 Z-4.000
G1 X33.285 Y249.145 Z-4.000
G1 X33.901 Y250.123 Z-4.000
G1 X34.525 Y251.097 Z-4.000
G1 X35.157 Y252.067 Z-4.000
G1 X35.796 Y253.033 Z-4.000
G1 X36.443 Y253.994 Z-4.000
G1 X37.098 Y254.952 Z-4.000
G1 X37.760 Y255.905 Z-4.000
G1 X38.430 Y256.853 Z-4.000
G1 X39.107 Y257.797 Z-4.000
G1 X39.792 Y258.737 Z-4.000
G1 X40.484 Y259.671 Z-4.000
G1 X41.183 Y260.601 Z-4.000
G1 X41.890 Y261.526 Z-4.000
G1 X42.604 Y262.446 Z-4.000
G1 X43.325 Y263.361 Z-4.000
G1 X44.053 Y264.271 Z-4.000
G1 X44.788 Y265.175 Z-4.000
G1 X45.531 Y266.074 Z-4.000
G1 X46.280 Y266.968 Z-4.000
G1 X47.036 Y267.856 Z-4.000
G1 X47.799 Y268.739 Z-4.000
G1 X48.569 Y269.616 Z-4.000
G1 X49.345 Y270.488 Z-4.000
G1 X50.128 Y271.353 Z-4.000
G1 X50.918 Y272.213 Z-4.000
G1 X51.714 Y273.067 Z-4.000
G1 X52.517 Y273.914 Z-4.000
G1 X53.326 Y274.756 Z-4.000
G1 X54.141 Y275.592 Z-4.000
G1 X54.963 Y276.421 Z-4.000
G1 X55.791 Y277.244 Z-4.000
G1 X56.625 Y278.061 Z-4.000
G1 X57.465 Y278.871 Z-4.000
G1 X58.310 Y279.674 Z-4.000
G1 X59.162 Y280.471 Z-4.000
G1 X60.020 Y281.262 Z-4.000
G1 X60.883 Y282.046 Z-4.000
G1 X61.752 Y282.823 Z-4.000
G1 X62.626 Y283.593 Z-4.000
G1 X63.506 Y284.356 Z-4.000
G1 X64.392 Y285.113 Z-4.000
G1 X65.282 Y285.862 Z-4.000
G1 X66.178 Y286.604 Z-4.000
G1 X67.079 Y287.340 Z-4.000
G1 X67.985 Y288.068 Z-4.000
G1 X68.896 Y288.789 Z-4.000
G1 X69.812 Y289.502 Z-4.000
G1 X70.733 Y290.208 Z-4.000
G1 X71.659 Y290.907 Z-4.000
G1 X72.589 Y291.599 Z-4.000
G1 X73.524 Y292.283 Z-4.000
G1 X74.463 Y292.960 Z-4.000
G1 X75.406 Y293.629 Z-4.000
G1 X76.354 Y294.290 Z-4.000
G1 X77.306 Y294.944 Z-4.000
G1 X78.262 Y295.591 Z-4.000
G1 X79.223 Y296.229 Z-4.000
G1 X80.187 Y296.860 Z-4.000
G1 X81.155 Y297.483 Z-4.000
G1 X82.126 Y298.099 Z-4.000
G1 X83.101 Y298.706 Z-4.000
G1 X84.080 Y299.306 Z-4.000
G1 X85.063 Y299.898 Z-4.000
G1 X86.048 Y300.482 Z-4.000
G1 X87.037 Y301.058 Z-4.000
G1 X88.029 Y301.626 Z-4.000
G1 X89.025 Y302.186 Z-4.000
G1 X90.023 Y302.738 Z-4.000
G1 X91.024 Y303.283 Z-4.000
G1 X92.028 Y303.819 Z-4.000
G1 X93.035 Y304.347 Z-4.000
G1 X94.044 Y304.867 Z-4.000
G1 X95.056 Y305.379 Z-4.000
G1 X96.070 Y305.883 Z-4.000
G1 X97.086 Y306.379 Z-4.000
G1 X98.105 Y306.866 Z-4.000
G1 X99.126 Y307.346 Z-4.000
G1 X100.149 Y307.817 Z-4.000
G1 X101.174 Y308.281 Z-4.000
G1 X102.201 Y308.736 Z-4.000
G1 X103.230 Y309.183 Z-4.000
G1 X104.260 Y309.622 Z-4.000
G1 X105.292 Y310.053 Z-4.000
G1 X106.326 Y310.476 Z-4.000
G1 X107.361 Y310.890 Z-4.000
G1 X108.397 Y311.297 Z-4.000
G1 X109.434 Y311.695 Z-4.000
G1 X110.473 Y312.086 Z-4.000
G1 X111.512 Y312.468 Z-4.000
G1 X112.553 Y312.842 Z-4.000
G1 X113.594 Y313.208 Z-4.000
G1 X114.637 Y313.566 Z-4.000
G1 X115.680 Y313.916 Z-4.000
G1 X116.723 Y314.258 Z-4.000
G1 X117.767 Y314.592 Z-4.000
G1 X118.812 Y314.918 Z-4.000
G1 X119.857 Y315.236 Z-4.000
G1 X120.902 Y315.546 Z-4.000
G1 X121.947 Y315.848 Z-4.000
G1 X122.993 Y316.142 Z-4.000
G1 X124.038 Y316.428 Z-4.000
G1 X125.083 Y316.706 Z-4.000
G1 X126.129 Y316.977 Z-4.000
G1 X127.174 Y317.239 Z-4.000
G1 X128.218 Y317.494 Z-4.000
G1 X129.262 Y317.741 Z-4.000
G1 X130.306 Y317.980 Z-4.000
G1 X131.349 Y318.212 Z-4.000
G1 X132.392 Y318.436 Z-4.000
G1 X133.434 Y318.652 Z-4.000
G1 X134.475 Y318.860 Z-4.000
G1 X135.515 Y319.061 Z-4.000
G1 X136.555 Y319.255 Z-4.000
G1 X137.593 Y319.441 Z-4.000
G1 X138.630 Y319.619 Z-4.000
G1 X139.666 Y319.790 Z-4.000
G1 X140.701 Y319.954 Z-4.000
G1 X141.735 Y320.110 Z-4.000
G1 X142.767 Y320.259 Z-4.000
G1 X143.797 Y320.400 Z-4.000
G1 X144.827 Y320.535 Z-4.000
G1 X145.854 Y320.662 Z-4.000
G1 X146.880 Y320.782 Z-4.000
G1 X147.905 Y320.895 Z-4.000
G1 X148.927 Y321.000 Z-4.000
G1 X149.948 Y321.099 Z-4.000
G1 X150.967 Y321.191 Z-4.000
G1 X151.983 Y321.275 Z-4.000
G1 X152.998 Y321.353 Z-4.000
G1 X154.011 Y321.424 Z-4.000
G1 X155.022 Y321.488 Z-4.000
G1 X156.030 Y321.546 Z-4.000
G1 X157.036 Y321.596 Z-4.000
G1 X158.074 Y321.642 Z-4.000
G1 X159.112 Y321.680 Z-4.000
G1 X160.150 Y321.712 Z-4.000
G1 X161.189 Y321.736 Z-4.000
G1 X162.228 Y321.754 Z-4.000
G1 X163.267 Y321.764 Z-4.000
G1 X164.306 Y321.768 Z-4.000
G1 X165.344 Y321.764 Z-4.000
G1 X166.383 Y321.754 Z-4.000
G1 X167.422 Y321.736 Z-4.000
G1 X168.461 Y321.712 Z-4.000
G1 X169.499 Y321.680 Z-4.000
G1 X170.537 Y321.642 Z-4.000
G1 X171.575 Y321.596 Z-4.000
G1 X172.581 Y321.546 Z-4.000
G1 X173.590 Y321.488 Z-4.000
G1 X174.600 Y321.424 Z-4.000
G1 X175.613 Y321.353 Z-4.000
G1 X176.628 Y321.275 Z-4.000
G1 X177.645 Y321.191 Z-4.000
G1 X178.663 Y321.099 Z-4.000
G1 X179.684 Y321.000 Z-4.000
G1 X180.707 Y320.895 Z-4.000
G1 X181.731 Y320.782 Z-4.000
G1 X182.757 Y320.662 Z-4.000
G1 X183.784 Y320.535 Z-4.000
G1 X184.814 Y320.400 Z-4.000
G1 X185.844 Y320.259 Z-4.000
G1 X186.877 Y320.110 Z-4.000
G1 X187.910 Y319.954 Z-4.000
G1 X188.945 Y319.790 Z-4.000
G1 X189.981 Y319.619 Z-4.000
G1 X191.018 Y319.441 Z-4.000
G1 X192.057 Y319.255 Z-4.000
G1 X193.096 Y319.061 Z-4.000
G1 X194.136 Y318.860 Z-4.000
G1 X195.177 Y318.652 Z-4.000
G1 X196.219 Y318.436 Z-4.000
G1 X197.262 Y318.212 Z-4.000
G1 X198.305 Y317.980 Z-4.000
G1 X199.349 Y317.741 Z-4.000
G1 X200.393 Y317.494 Z-4.000
G1 X201.438 Y317.239 Z-4.000
G1 X202.483 Y316.977 Z-4.000
G1 X203.528 Y316.706 Z-4.000
G1 X204.573 Y316.428 Z-4.000
G1 X205.619 Y316.142 Z-4.000
G1 X206.664 Y315.848 Z-4.000
G1 X207.709 Y315.546 Z-4.000
G1 X208.754 Y315.236 Z-4.000
G1 X209.799 Y314.918 Z-4.000
G1 X210.844 Y314.592 Z-4.000
G1 X211.888 Y314.258 Z-4.000
G1 X212.931 Y313.916 Z-4.000
G1 X213.974 Y313.566 Z-4.000
G1 X215.017 Y313.208 Z-4.000
G1 X216.058 Y312.842 Z-4.000
G1 X217.099 Y312.468 Z-4.000
G1 X218.138 Y312.086 Z-4.000
G1 X219.177 Y311.695 Z-4.000
G1 X220.214 Y311.297 Z-4.000
G1 X221.251 Y310.890 Z-4.000
G1 X222.285 Y310.476 Z-4.000
G1 X223.319 Y310.053 Z-4.000
G1 X224.351 Y309.622 Z-4.000
G1 X225.381 Y309.183 Z-4.000
G1 X226.410 Y308.736 Z-4.000
G1 X227.437 Y308.281 Z-4.000
G1 X228.462 Y307.817 Z-4.000
G1 X229.485 Y307.346 Z-4.000
G1 X230.506 Y306.866 Z-4.000
G1 X231.525 Y306.379 Z-4.000
G1 X232.541 Y305.883 Z-4.000
G1 X233.555 Y305.379 Z-4.000
G1 X234.567 Y304.867 Z-4.000
G1 X235.577 Y304.347 Z-4.000
G1 X236.583 Y303.819 Z-4.000
G1 X237.587 Y303.283 Z-4.000
G1 X238.588 Y302.738 Z-4.000
G1 X239.586 Y302.186 Z-4.000
G1 X240.582 Y301.626 Z-4.000
G1 X241.574 Y301.058 Z-4.000
G1 X242.563 Y300.482 Z-4.000
G1 X243.548 Y299.898 Z-4.000
G1 X244.531 Y299.306 Z-4.000
G1 X245.510 Y298.706 Z-4.000
G1 X246.485 Y298.099 Z-4.000
G1 X247.457 Y297.483 Z-4.000
G1 X248.424 Y296.860 Z-4.000
G1 X249.389 Y296.229 Z-4.000
G1 X250.349 Y295.591 Z-4.000
G1 X251.305 Y294.944 Z-4.000
G1 X252.257 Y294.290 Z-4.000
G1 X253.205 Y293.629 Z-4.000
G1 X254.148 Y292.960 Z-4.000
G1 X255.088 Y292.283 Z-4.000
G1 X256.022 Y291.599 Z-4.000
G1 X256.952 Y290.907 Z-4.000
G1 X257.878 Y290.208 Z-4.000
G1 X258.799 Y289.502 Z-4.000
G1 X259.715 Y288.789 Z-4.000
G1 X260.626 Y288.068 Z-4.000
G1 X261.532 Y287.340 Z-4.000
G1 X262.433 Y286.604 Z-4.000
G1 X263.329 Y285.862 Z-4.000
G1 X264.220 Y285.113 Z-4.000
G1 X265.105 Y284.356 Z-4.000
G1 X265.985 Y283.593 Z-4.000
G1 X266.859 Y282.823 Z-4.000
G1 X267.728 Y282.046 Z-4.000
G1 X268.591 Y281.262 Z-4.000
G1 X269.449 Y280.471 Z-4.000
G1 X270.301 Y279.674 Z-4.000
G1 X271.147 Y278.871 Z-4.000
G1 X271.986 Y278.061 Z-4.000
G1 X272.820 Y277.244 Z-4.000
G1 X273.648 Y276.421 Z-4.000
G1 X274.470 Y275.592 Z-4.000
G1 X275.285 Y274.756 Z-4.000
G1 X276.094 Y273.914 Z-4.000
G1 X276.897 Y273.067 Z-4.000
G1 X277.693 Y272.213 Z-4.000
G1 X278.483 Y271.353 Z-4.000
G1 X279.266 Y270.488 Z-4.000
G1 X280.042 Y269.616 Z-4.000
G1 X280.812 Y268.739 Z-4.000
G1 X281.575 Y267.856 Z-4.000
G1 X282.331 Y266.968 Z-4.000
G1 X283.080 Y266.074 Z-4.000
G1 X283.823 Y265.175 Z-4.000
G1 X284.558 Y264.271 Z-4.000
G1 X285.286 Y263.361 Z-4.000
G1 X286.007 Y262.446 Z-4.000
G1 X286.721 Y261.526 Z-4.000
G1 X287.428 Y260.601 Z-4.000
G1 X288.127 Y259.671 Z-4.000
G1 X288.819 Y258.737 Z-4.000
G1 X289.504 Y257.797 Z-4.000
G1 X290.181 Y256.853 Z-4.000
G1 X290.851 Y255.905 Z-4.000
G1 X291.513 Y254.952 Z-4.000
G1 X292.168 Y253.994 Z-4.000
G1 X292.815 Y253.033 Z-4.000
G1 X293.454 Y252.067 Z-4.000
G1 X294.086 Y251.097 Z-4.000
G1 X294.710 Y250.123 Z-4.000
G1 X295.326 Y249.145 Z-4.000
G1 X295.934 Y248.163 Z-4.000
G1 X296.535 Y247.178 Z-4.000
G1 X297.128 Y246.189 Z-4.000
G1 X297.713 Y245.196 Z-4.000
G1 X298.290 Y244.200 Z-4.000
G1 X298.859 Y243.200 Z-4.000
G1 X299.420 Y242.197 Z-4.000
G1 X299.973 Y241.191 Z-4.000
G1 X300.518 Y240.182 Z-4.000
G1 X301.054 Y239.170 Z-4.000
G1 X301.583 Y238.155 Z-4.000
G1 X302.104 Y237.137 Z-4.000
G1 X302.617 Y236.117 Z-4.000
G1 X303.121 Y235.094 Z-4.000
G1 X303.618 Y234.068 Z-4.000
G1 X304.106 Y233.040 Z-4.000
G1 X304.586 Y232.010 Z-4.000
G1 X305.058 Y230.977 Z-4.000
G1 X305.522 Y229.942 Z-4.000
G1 X305.978 Y228.906 Z-4.000
G1 X306.425 Y227.867 Z-4.000
G1 X306.864 Y226.826 Z-4.000
G1 X307.295 Y225.784 Z-4.000
G1 X307.718 Y224.740 Z-4.000
G1 X308.133 Y223.694 Z-4.000
G1 X308.539 Y222.647 Z-4.000
G1 X308.938 Y221.598 Z-4.000
G1 X309.328 Y220.548 Z-4.000
G1 X309.710 Y219.497 Z-4.000
G1 X310.083 Y218.445 Z-4.000
G1 X310.449 Y217.392 Z-4.000
G1 X310.806 Y216.338 Z-4.000
G1 X311.155 Y215.283 Z-4.000
G1 X311.496 Y214.227 Z-4.000
G1 X311.829 Y213.170 Z-4.000
G1 X312.154 Y212.113 Z-4.000
G1 X312.470 Y211.056 Z-4.000
G1 X312.779 Y209.998 Z-4.000
G1 X313.080 Y208.940 Z-4.000
G1 X313.372 Y207.881 Z-4.000
G1 X313.656 Y206.822 Z-4.000
G1 X313.933 Y205.764 Z-4.000
G1 X314.201 Y204.705 Z-4.000
G1 X314.462 Y203.647 Z-4.000
G1 X314.714 Y202.588 Z-4.000
G1 X314.959 Y201.530 Z-4.000
G1 X315.195 Y200.472 Z-4.000
G1 X315.424 Y199.415 Z-4.000
G1 X315.645 Y198.358 Z-4.000
G1 X315.858 Y197.302 Z-4.000
G1 X316.063 Y196.247 Z-4.000
G1 X316.261 Y195.192 Z-4.000
G1 X316.451 Y194.138 Z-4.000
G1 X316.633 Y193.085 Z-4.000
G1 X316.808 Y192.033 Z-4.000
G1 X316.975 Y190.982 Z-4.000
G1 X317.134 Y189.932 Z-4.000
G1 X317.286 Y188.884 Z-4.000
G1 X317.430 Y187.837 Z-4.000
G1 X317.567 Y186.791 Z-4.000
G1 X317.697 Y185.746 Z-4.000
G1 X317.819 Y184.703 Z-4.000
G1 X317.933 Y183.662 Z-4.000
G1 X318.041 Y182.622 Z-4.000
G1 X318.141 Y181.584 Z-4.000
G1 X318.234 Y180.548 Z-4.000
G1 X318.319 Y179.513 Z-4.000
G1 X318.398 Y178.481 Z-4.000
G1 X318.470 Y177.451 Z-4.000
G1 X318.534 Y176.422 Z-4.000
G1 X318.592 Y175.396 Z-4.000
G1 X318.642 Y174.371 Z-4.000
G1 X318.686 Y173.349 Z-4.000
G1 X318.723 Y172.330 Z-4.000
G1 X318.753 Y171.312 Z-4.000
G1 X318.776 Y170.297 Z-4.000
G1 X318.792 Y169.285 Z-4.000
G1 X318.802 Y168.275 Z-4.000
G1 X318.806 Y167.268 Z-4.000
G1 X318.802 Y166.260 Z-4.000
G1 X318.792 Y165.250 Z-4.000
G1 X318.776 Y164.238 Z-4.000
G1 X318.753 Y163.223 Z-4.000
G1 X318.723 Y162.205 Z-4.000
G1 X318.686 Y161.186 Z-4.000
G1 X318.642 Y160.164 Z-4.000
G1 X318.592 Y159.140 Z-4.000
G1 X318.534 Y158.113 Z-4.000
G1 X318.470 Y157.085 Z-4.000
G1 X318.398 Y156.054 Z-4.000
G1 X318.319 Y155.022 Z-4.000
G1 X318.234 Y153.987 Z-4.000
G1 X318.141 Y152.951 Z-4.000
G1 X318.041 Y151.913 Z-4.000
G1 X317.933 Y150.873 Z-4.000
G1 X317.819 Y149.832 Z-4.000
G1 X317.697 Y148.789 Z-4.000
G1 X317.567 Y147.745 Z-4.000
G1 X317.430 Y146.699 Z-4.000
G1 X317.286 Y145.651 Z-4.000
G1 X317.134 Y144.603 Z-4.000
G1 X316.975 Y143.553 Z-4.000
G1 X316.808 Y142.502 Z-4.000
G1 X316.633 Y141.450 Z-4.000
G1 X316.451 Y140.397 Z-4.000
G1 X316.261 Y139.343 Z-4.000
G1 X316.063 Y138.289 Z-4.000
G1 X315.858 Y137.233 Z-4.000
G1 X315.645 Y136.177 Z-4.000
G1 X315.424 Y135.120 Z-4.000
G1 X315.195 Y134.063 Z-4.000
G1 X314.959 Y133.005 Z-4.000
G1 X314.714 Y131.947 Z-4.000
G1 X314.462 Y130.889 Z-4.000
G1 X314.201 Y129.830 Z-4.000
G1 X313.933 Y128.771 Z-4.000
G1 X313.656 Y127.713 Z-4.000
G1 X313.372 Y126.654 Z-4.000
G1 X313.080 Y125.596 Z-4.000
G1 X312.779 Y124.537 Z-4.000
G1 X312.470 Y123.479 Z-4.000
G1 X312.154 Y122.422 Z-4.000
G1 X311.829 Y121.365 Z-4.000
G1 X311.496 Y120.308 Z-4.000
G1 X311.155 Y119.253 Z-4.000
G1 X310.806 Y118.198 Z-4.000
G1 X310.449 Y117.143 Z-4.000
G1 X310.083 Y116.090 Z-4.000
G1 X309.710 Y115.038 Z-4.000
G1 X309.328 Y113.987 Z-4.000
G1 X308.938 Y112.937 Z-4.000
G1 X308.539 Y111.888 Z-4.000
G1 X308.133 Y110.841 Z-4.000
G1 X307.718 Y109.796 Z-4.000
G1 X307.295 Y108.751 Z-4.000
G1 X306.864 Y107.709 Z-4.000
G1 X306.425 Y106.668 Z-4.000
G1 X305.978 Y105.630 Z-4.000
G1 X305.522 Y104.593 Z-4.000
G1 X305.058 Y103.558 Z-4.000
G1 X304.586 Y102.525 Z-4.000
G1 X304.106 Y101.495 Z-4.000
G1 X303.618 Y100.467 Z-4.000
G1 X303.121 Y99.441 Z-4.000
G1 X302.617 Y98.418 Z-4.000
G1 X302.104 Y97.398 Z-4.000
G1 X301.583 Y96.380 Z-4.000
G1 X301.054 Y95.365 Z-4.000
G1 X300.518 Y94.353 Z-4.000
G1 X299.973 Y93.344 Z-4.000
G1 X299.420 Y92.338 Z-4.000
G1 X298.859 Y91.335 Z-4.000
G1 X298.290 Y90.336 Z-4.000
G1 X297.713 Y89.339 Z-4.000
G1 X297.128 Y88.347 Z-4.000
G1 X296.535 Y87.358 Z-4.000
G1 X295.934 Y86.372 Z-4.000
G1 X295.326 Y85.390 Z-4.000
G1 X294.710 Y84.412 Z-4.000
G1 X294.086 Y83.438 Z-4.000
G1 X293.454 Y82.468 Z-4.000
G1 X292.815 Y81.503 Z-4.000
G1 X292.168 Y80.541 Z-4.000
G1 X291.513 Y79.583 Z-4.000
G1 X290.851 Y78.630 Z-4.000
G1 X290.181 Y77.682 Z-4.000
G1 X289.504 Y76.738 Z-4.000
G1 X288.819 Y75.798 Z-4.000
G1 X288.127 Y74.864 Z-4.000
G1 X287.428 Y73.934 Z-4.000
G1 X286.721 Y73.009 Z-4.000
G1 X286.007 Y72.089 Z-4.000
G1 X285.286 Y71.174 Z-4.000
G1 X284.558 Y70.265 Z-4.000
G1 X283.823 Y69.360 Z-4.000
G1 X283.080 Y68.461 Z-4.000
G1 X282.331 Y67.567 Z-4.000
G1 X281.575 Y66.679 Z-4.000
G1 X280.812 Y65.796 Z-4.000
G1 X280.042 Y64.919 Z-4.000
G1 X279.266 Y64.048 Z-4.000
G1 X278.483 Y63.182 Z-4.000
G1 X277.693 Y62.322 Z-4.000
G1 X276.897 Y61.469 Z-4.000
G1 X276.094 Y60.621 Z-4.000
G1 X275.285 Y59.779 Z-4.000
G1 X274.470 Y58.944 Z-4.000
G1 X273.648 Y58.114 Z-4.000
G1 X272.820 Y57.291 Z-4.000
G1 X271.986 Y56.475 Z-4.000
G1 X271.147 Y55.665 Z-4.000
G1 X270.301 Y54.861 Z-4.000
G1 X269.449 Y54.064 Z-4.000
G1 X268.591 Y53.273 Z-4.000
G1 X267.728 Y52.490 Z-4.000
G1 X266.859 Y51.713 Z-4.000
G1 X265.985 Y50.942 Z-4.000
G1 X265.105 Y50.179 Z-4.000
G1 X264.220 Y49.423 Z-4.000
G1 X263.329 Y48.673 Z-4.000
G1 X262.433 Y47.931 Z-4.000
G1 X261.532 Y47.196 Z-4.000
G1 X260.626 Y46.468 Z-4.000
G1 X259.715 Y45.747 Z-4.000
G1 X258.799 Y45.033 Z-4.000
G1 X257.878 Y44.327 Z-4.000
G1 X256.952 Y43.628 Z-4.000
G1 X256.022 Y42.936 Z-4.000
G1 X255.088 Y42.252 Z-4.000
G1 X254.148 Y41.575 Z-4.000
G1 X253.205 Y40.906 Z-4.000
G1 X252.257 Y40.245 Z-4.000
G1 X251.305 Y39.591 Z-4.000
G1 X250.349 Y38.945 Z-4.000
G1 X249.389 Y38.306 Z-4.000
G1 X248.424 Y37.675 Z-4.000
G1 X247.457 Y37.052 Z-4.000
G1 X246.485 Y36.436 Z-4.000
G1 X245.510 Y35.829 Z-4.000
G1 X244.531 Y35.229 Z-4.000
G1 X243.548 Y34.637 Z-4.000
G1 X242.563 Y34.053 Z-4.000
G1 X241.574 Y33.477 Z-4.000
G1 X240.582 Y32.909 Z-4.000
G1 X239.586 Y32.349 Z-4.000
G1 X238.588 Y31.797 Z-4.000
G1 X237.587 Y31.253 Z-4.000
G1 X236.583 Y30.717 Z-4.000
G1 X235.577 Y30.188 Z-4.000
G1 X234.567 Y29.668 Z-4.000
G1 X233.555 Y29.156 Z-4.000
G1 X232.541 Y28.653 Z-4.000
G1 X231.525 Y28.157 Z-4.000
G1 X230.506 Y27.669 Z-4.000
G1 X229.485 Y27.189 Z-4.000
G1 X228.462 Y26.718 Z-4.000
G1 X227.437 Y26.255 Z-4.000
G1 X226.410 Y25.799 Z-4.000
G1 X225.381 Y25.352 Z-4.000
G1 X224.351 Y24.913 Z-4.000
G1 X223.319 Y24.482 Z-4.000
G1 X222.285 Y24.059 Z-4.000
G1 X221.251 Y23.645 Z-4.000
G1 X220.214 Y23.238 Z-4.000
G1 X219.177 Y22.840 Z-4.000
G1 X218.138 Y22.450 Z-4.000
G1 X217.099 Y22.067 Z-4.000
G1 X216.058 Y21.693 Z-4.000
G1 X215.017 Y21.327 Z-4.000
G1 X213.974 Y20.969 Z-4.000
G1 X212.931 Y20.619 Z-4.000
G1 X211.888 Y20.277 Z-4.000
G1 X210.844 Y19.943 Z-4.000
G1 X209.799 Y19.617 Z-4.000
G1 X208.754 Y19.300 Z-4.000
G1 X207.709 Y18.990 Z-4.000
G1 X206.664 Y18.688 Z-4.000
G1 X205.619 Y18.394 Z-4.000
G1 X204.573 Y18.107 Z-4.000
G1 X203.528 Y17.829 Z-4.000
G1 X202.483 Y17.559 Z-4.000
G1 X201.438 Y17.296 Z-4.000
G1 X200.393 Y17.041 Z-4.000
G1 X199.349 Y16.794 Z-4.000
G1 X198.305 Y16.555 Z-4.000
G1 X197.262 Y16.323 Z-4.000
G1 X196.219 Y16.100 Z-4.000
G1 X195.177 Y15.883 Z-4.000
G1 X194.136 Y15.675 Z-4.000
G1 X193.096 Y15.474 Z-4.000
G1 X192.057 Y15.280 Z-4.000
G1 X191.018 Y15.094 Z-4.000
G1 X189.981 Y14.916 Z-4.000
G1 X188.945 Y14.745 Z-4.000
G1 X187.910 Y14.581 Z-4.000
G1 X186.877 Y14.425 Z-4.000
G1 X185.844 Y14.276 Z-4.000
G1 X184.814 Y14.135 Z-4.000
G1 X183.784 Y14.000 Z-4.000
G1 X182.757 Y13.873 Z-4.000
G1 X181.731 Y13.753 Z-4.000
G1 X180.707 Y13.641 Z-4.000
G1 X179.684 Y13.535 Z-4.000
G1 X178.663 Y13.436 Z-4.000
G1 X177.645 Y13.345 Z-4.000
G1 X176.628 Y13.260 Z-4.000
G1 X175.613 Y13.182 Z-4.000
G1 X174.600 Y13.111 Z-4.000
G1 X173.590 Y13.047 Z-4.000
G1 X172.581 Y12.989 Z-4.000
G1 X171.575 Y12.939 Z-4.000
G1 X170.537 Y12.893 Z-4.000
G1 X169.499 Y12.855 Z-4.000
G1 X168.461 Y12.824 Z-4.000
G1 X167.422 Y12.799 Z-4.000
G1 X166.383 Y12.782 Z-4.000
G1 X165.344 Y12.771 Z-4.000
G1 X164.306 Y12.768 Z-4.000
G1 X163.267 Y12.771 Z-4.000
G1 X162.228 Y12.782 Z-4.000
G1 X161.189 Y12.799 Z-4.000
G1 X160.150 Y12.824 Z-4.000
G1 X159.112 Y12.855 Z-4.000
G1 X158.074 Y12.893 Z-4.000
G1 X157.036 Y12.939 Z-4.000
G1 X157.036 Y12.939 Z-5.000 F635.0
G1 X156.030 Y12.989 Z-5.000 F180.0
G1 X155.022 Y13.047 Z-5.000
G1 X154.011 Y13.111 Z-5.000
G1 X152.998 Y13.182 Z-5.000
G1 X151.983 Y13.260 Z-5.000
G1 X150.967 Y13.345 Z-5.000
G1 X149.948 Y13.436 Z-5.000
G1 X148.927 Y13.535 Z-5.000
G1 X147.905 Y13.641 Z-5.000
G1 X146.880 Y13.753 Z-5.000
G1 X145.854 Y13.873 Z-5.000
G1 X144.827 Y14.000 Z-5.000
G1 X143.797 Y14.135 Z-5.000
G1 X142.767 Y14.276 Z-5.000
G1 X141.735 Y14.425 Z-5.000
G1 X140.701 Y14.581 Z-5.000
G1 X139.666 Y14.745 Z-5.000
G1 X138.630 Y14.916 Z-5.000
G1 X137.593 Y15.094 Z-5.000
G1 X136.555 Y15.280 Z-5.000
G1 X135.515 Y15.474 Z-5.000
