(VECTRIC POST REVISION)
(AE8C5706166A14C0DE23454C54EBD95B)
%
G21
G40
G94
G97
G64
G90
T1 M6
M8
M3 S10000
G0 X200.267 Y192.698
G0 Z5.080
G1 X200.267 Y192.698 Z-0.917 F635.0
G1 X200.211 Y193.508 Z-0.917 F180.0
G1 X200.162 Y194.319 Z-0.917
G1 X200.119 Y195.130 Z-0.917
G1 X200.082 Y195.941 Z-0.917
G1 X200.053 Y196.752 Z-0.917
G1 X200.030 Y197.564 Z-0.917
G1 X200.013 Y198.376 Z-0.917
G1 X200.003 Y199.188 Z-0.917
G1 X200.000 Y200.000 Z-0.917
G1 X200.003 Y200.819 Z-0.917
G1 X200.013 Y201.639 Z-0.917
G1 X200.030 Y202.458 Z-0.917
G1 X200.054 Y203.277 Z-0.917
G1 X200.084 Y204.096 Z-0.917
G1 X200.121 Y204.915 Z-0.917
G1 X200.164 Y205.733 Z-0.917
G1 X200.215 Y206.551 Z-0.917
G1 X200.272 Y207.368 Z-0.917
G1 X200.335 Y208.184 Z-0.917
G1 X200.406 Y209.001 Z-0.917
G1 X200.483 Y209.820 Z-0.917
G1 X200.568 Y210.641 Z-0.917
G1 X200.659 Y211.464 Z-0.917
G1 X200.758 Y212.288 Z-0.917
G1 X200.864 Y213.114 Z-0.917
G1 X200.977 Y213.941 Z-0.917
G1 X201.097 Y214.769 Z-0.917
G1 X201.224 Y215.599 Z-0.917
G1 X201.359 Y216.430 Z-0.917
G1 X201.501 Y217.262 Z-0.917
G1 X201.651 Y218.095 Z-0.917
G1 X201.808 Y218.929 Z-0.917
G1 X201.972 Y219.763 Z-0.917
G1 X202.145 Y220.599 Z-0.917
G1 X202.324 Y221.435 Z-0.917
G1 X202.512 Y222.271 Z-0.917
G1 X202.707 Y223.108 Z-0.917
G1 X202.909 Y223.945 Z-0.917
G1 X203.120 Y224.783 Z-0.917
G1 X203.338 Y225.621 Z-0.917
G1 X203.564 Y226.458 Z-0.917
G1 X203.797 Y227.296 Z-0.917
G1 X204.039 Y228.133 Z-0.917
G1 X204.288 Y228.970 Z-0.917
G1 X204.546 Y229.807 Z-0.917
G1 X204.811 Y230.643 Z-0.917
G1 X205.084 Y231.479 Z-0.917
G1 X205.365 Y232.314 Z-0.917
G1 X205.654 Y233.148 Z-0.917
G1 X205.951 Y233.982 Z-0.917
G1 X206.256 Y234.814 Z-0.917
G1 X206.569 Y235.645 Z-0.917
G1 X206.889 Y236.475 Z-0.917
G1 X207.218 Y237.304 Z-0.917
G1 X207.555 Y238.131 Z-0.917
G1 X207.900 Y238.956 Z-0.917
G1 X208.253 Y239.780 Z-0.917
G1 X208.614 Y240.602 Z-0.917
G1 X208.982 Y241.422 Z-0.917
G1 X209.359 Y242.241 Z-0.917
G1 X209.744 Y243.057 Z-0.917
G1 X210.137 Y243.870 Z-0.917
G1 X210.537 Y244.682 Z-0.917
G1 X210.946 Y245.491 Z-0.917
G1 X211.363 Y246.297 Z-0.917
G1 X211.787 Y247.101 Z-0.917
G1 X212.219 Y247.901 Z-0.917
G1 X212.659 Y248.699 Z-0.917
G1 X213.107 Y249.494 Z-0.917
G1 X213.563 Y250.286 Z-0.917
G1 X214.027 Y251.074 Z-0.917
G1 X214.498 Y251.860 Z-0.917
G1 X214.977 Y252.641 Z-0.917
G1 X215.464 Y253.419 Z-0.917
G1 X215.958 Y254.193 Z-0.917
G1 X216.460 Y254.964 Z-0.917
G1 X216.969 Y255.730 Z-0.917
G1 X217.486 Y256.493 Z-0.917
G1 X218.010 Y257.251 Z-0.917
G1 X218.542 Y258.005 Z-0.917
G1 X219.081 Y258.755 Z-0.917
G1 X219.628 Y259.501 Z-0.917
G1 X220.182 Y260.241 Z-0.917
G1 X220.742 Y260.977 Z-0.917
G1 X221.310 Y261.709 Z-0.917
G1 X221.885 Y262.435 Z-0.917
G1 X222.468 Y263.156 Z-0.917
G1 X223.057 Y263.873 Z-0.917
G1 X223.652 Y264.584 Z-0.917
G1 X224.255 Y265.289 Z-0.917
G1 X224.865 Y265.990 Z-0.917
G1 X225.481 Y266.685 Z-0.917
G1 X226.103 Y267.374 Z-0.917
G1 X226.733 Y268.058 Z-0.917
G1 X227.368 Y268.736 Z-0.917
G1 X228.010 Y269.408 Z-0.917
G1 X228.658 Y270.074 Z-0.917
G1 X229.313 Y270.734 Z-0.917
G1 X229.973 Y271.388 Z-0.917
G1 X230.640 Y272.036 Z-0.917
G1 X231.313 Y272.678 Z-0.917
G1 X231.991 Y273.313 Z-0.917
G1 X232.675 Y273.942 Z-0.917
G1 X233.365 Y274.564 Z-0.917
G1 X234.060 Y275.179 Z-0.917
G1 X234.761 Y275.788 Z-0.917
G1 X235.467 Y276.391 Z-0.917
G1 X236.179 Y276.986 Z-0.917
G1 X236.895 Y277.575 Z-0.917
G1 X237.617 Y278.156 Z-0.917
G1 X238.344 Y278.731 Z-0.917
G1 X239.076 Y279.298 Z-0.917
G1 X239.812 Y279.859 Z-0.917
G1 X240.553 Y280.412 Z-0.917
G1 X241.299 Y280.958 Z-0.917
G1 X242.049 Y281.496 Z-0.917
G1 X242.803 Y282.028 Z-0.917
G1 X243.562 Y282.552 Z-0.917
G1 X244.325 Y283.068 Z-0.917
G1 X245.092 Y283.577 Z-0.917
G1 X245.863 Y284.078 Z-0.917
G1 X246.637 Y284.572 Z-0.917
G1 X247.416 Y285.058 Z-0.917
G1 X248.198 Y285.537 Z-0.917
G1 X248.983 Y286.007 Z-0.917
G1 X249.772 Y286.470 Z-0.917
G1 X250.564 Y286.926 Z-0.917
G1 X251.359 Y287.373 Z-0.917
G1 X252.157 Y287.813 Z-0.917
G1 X252.958 Y288.244 Z-0.917
G1 X253.762 Y288.668 Z-0.917
G1 X254.569 Y289.084 Z-0.917
G1 X255.378 Y289.492 Z-0.917
G1 X256.190 Y289.892 Z-0.917
G1 X257.004 Y290.285 Z-0.917
G1 X257.820 Y290.669 Z-0.917
G1 X258.638 Y291.045 Z-0.917
G1 X259.459 Y291.413 Z-0.917
G1 X260.281 Y291.774 Z-0.917
G1 X261.105 Y292.126 Z-0.917
G1 X261.931 Y292.470 Z-0.917
G1 X262.758 Y292.807 Z-0.917
G1 X263.587 Y293.135 Z-0.917
G1 X264.417 Y293.455 Z-0.917
G1 X265.249 Y293.767 Z-0.917
G1 X266.081 Y294.072 Z-0.917
G1 X266.915 Y294.368 Z-0.917
G1 X267.749 Y294.657 Z-0.917
G1 X268.584 Y294.937 Z-0.917
G1 X269.420 Y295.210 Z-0.917
G1 X270.257 Y295.474 Z-0.917
G1 X271.093 Y295.731 Z-0.917
G1 X271.931 Y295.980 Z-0.917
G1 X272.768 Y296.221 Z-0.917
G1 X273.606 Y296.454 Z-0.917
G1 X274.444 Y296.679 Z-0.917
G1 X275.282 Y296.897 Z-0.917
G1 X276.119 Y297.107 Z-0.917
G1 X276.957 Y297.309 Z-0.917
G1 X277.794 Y297.503 Z-0.917
G1 X278.631 Y297.690 Z-0.917
G1 X279.467 Y297.869 Z-0.917
G1 X280.302 Y298.041 Z-0.917
G1 X281.137 Y298.205 Z-0.917
G1 X281.971 Y298.361 Z-0.917
G1 X282.804 Y298.510 Z-0.917
G1 X283.636 Y298.652 Z-0.917
G1 X284.467 Y298.786 Z-0.917
G1 X285.297 Y298.913 Z-0.917
G1 X286.125 Y299.033 Z-0.917
G1 X286.952 Y299.145 Z-0.917
G1 X287.778 Y299.250 Z-0.917
G1 X288.602 Y299.348 Z-0.917
G1 X289.425 Y299.439 Z-0.917
G1 X290.246 Y299.523 Z-0.917
G1 X291.065 Y299.600 Z-0.917
G1 X291.883 Y299.670 Z-0.917
G1 X292.698 Y299.733 Z-0.917
G1 X293.508 Y299.789 Z-0.917
G1 X294.319 Y299.838 Z-0.917
G1 X295.130 Y299.881 Z-0.917
G1 X295.941 Y299.918 Z-0.917
G1 X296.752 Y299.947 Z-0.917
G1 X297.564 Y299.970 Z-0.917
G1 X298.376 Y299.987 Z-0.917
G1 X299.188 Y299.997 Z-0.917
G1 X300.000 Y300.000 Z-0.917
G1 X300.812 Y299.997 Z-0.917
G1 X301.624 Y299.987 Z-0.917
G1 X302.436 Y299.970 Z-0.917
G1 X303.248 Y299.947 Z-0.917
G1 X304.059 Y299.918 Z-0.917
G1 X304.870 Y299.881 Z-0.917
G1 X305.681 Y299.838 Z-0.917
G1 X306.492 Y299.789 Z-0.917
G1 X307.302 Y299.733 Z-0.917
G1 X308.117 Y299.670 Z-0.917
G1 X308.935 Y299.600 Z-0.917
G1 X309.754 Y299.523 Z-0.917
G1 X310.575 Y299.439 Z-0.917
G1 X311.398 Y299.348 Z-0.917
G1 X312.222 Y299.250 Z-0.917
G1 X313.048 Y299.145 Z-0.917
G1 X313.875 Y299.033 Z-0.917
G1 X314.703 Y298.913 Z-0.917
G1 X315.533 Y298.786 Z-0.917
G1 X316.364 Y298.652 Z-0.917
G1 X317.196 Y298.510 Z-0.917
G1 X318.029 Y298.361 Z-0.917
G1 X318.863 Y298.205 Z-0.917
G1 X319.698 Y298.041 Z-0.917
G1 X320.533 Y297.869 Z-0.917
G1 X321.369 Y297.690 Z-0.917
G1 X322.206 Y297.503 Z-0.917
G1 X323.043 Y297.309 Z-0.917
G1 X323.881 Y297.107 Z-0.917
G1 X324.718 Y296.897 Z-0.917
G1 X325.556 Y296.679 Z-0.917
G1 X326.394 Y296.454 Z-0.917
G1 X327.232 Y296.221 Z-0.917
G1 X328.069 Y295.980 Z-0.917
G1 X328.907 Y295.731 Z-0.917
G1 X329.743 Y295.474 Z-0.917
G1 X330.580 Y295.210 Z-0.917
G1 X331.416 Y294.937 Z-0.917
G1 X332.251 Y294.657 Z-0.917
G1 X333.085 Y294.368 Z-0.917
G1 X333.919 Y294.072 Z-0.917
G1 X334.751 Y293.767 Z-0.917
G1 X335.583 Y293.455 Z-0.917
G1 X336.413 Y293.135 Z-0.917
G1 X337.242 Y292.807 Z-0.917
G1 X338.069 Y292.470 Z-0.917
G1 X338.895 Y292.126 Z-0.917
G1 X339.719 Y291.774 Z-0.917
G1 X340.541 Y291.413 Z-0.917
G1 X341.362 Y291.045 Z-0.917
G1 X342.180 Y290.669 Z-0.917
G1 X342.996 Y290.285 Z-0.917
G1 X343.810 Y289.892 Z-0.917
G1 X344.622 Y289.492 Z-0.917
G1 X345.431 Y289.084 Z-0.917
G1 X346.238 Y288.668 Z-0.917
G1 X347.042 Y288.244 Z-0.917
G1 X347.843 Y287.813 Z-0.917
G1 X348.641 Y287.373 Z-0.917
G1 X349.436 Y286.926 Z-0.917
G1 X350.228 Y286.470 Z-0.917
G1 X351.017 Y286.007 Z-0.917
G1 X351.802 Y285.537 Z-0.917
G1 X352.584 Y285.058 Z-0.917
G1 X353.363 Y284.572 Z-0.917
G1 X354.137 Y284.078 Z-0.917
G1 X354.908 Y283.577 Z-0.917
G1 X355.675 Y283.068 Z-0.917
G1 X356.438 Y282.552 Z-0.917
G1 X357.197 Y282.028 Z-0.917
G1 X357.951 Y281.496 Z-0.917
G1 X358.701 Y280.958 Z-0.917
G1 X359.447 Y280.412 Z-0.917
G1 X360.188 Y279.859 Z-0.917
G1 X360.924 Y279.298 Z-0.917
G1 X361.656 Y278.731 Z-0.917
G1 X362.383 Y278.156 Z-0.917
G1 X363.105 Y277.575 Z-0.917
G1 X363.821 Y276.986 Z-0.917
G1 X364.533 Y276.391 Z-0.917
G1 X365.239 Y275.788 Z-0.917
G1 X365.940 Y275.179 Z-0.917
G1 X366.635 Y274.564 Z-0.917
G1 X367.325 Y273.942 Z-0.917
G1 X368.009 Y273.313 Z-0.917
G1 X368.687 Y272.678 Z-0.917
G1 X369.360 Y272.036 Z-0.917
G1 X370.027 Y271.388 Z-0.917
G1 X370.687 Y270.734 Z-0.917
G1 X371.342 Y270.074 Z-0.917
G1 X371.990 Y269.408 Z-0.917
G1 X372.632 Y268.736 Z-0.917
G1 X373.267 Y268.058 Z-0.917
G1 X373.897 Y267.374 Z-0.917
G1 X374.519 Y266.685 Z-0.917
G1 X375.135 Y265.990 Z-0.917
G1 X375.745 Y265.289 Z-0.917
G1 X376.348 Y264.584 Z-0.917
G1 X376.943 Y263.873 Z-0.917
G1 X377.533 Y263.156 Z-0.917
G1 X378.115 Y262.435 Z-0.917
G1 X378.690 Y261.709 Z-0.917
G1 X379.258 Y260.977 Z-0.917
G1 X379.819 Y260.241 Z-0.917
G1 X380.372 Y259.501 Z-0.917
G1 X380.919 Y258.755 Z-0.917
G1 X381.458 Y258.005 Z-0.917
G1 X381.990 Y257.251 Z-0.917
G1 X382.514 Y256.493 Z-0.917
G1 X383.031 Y255.730 Z-0.917
G1 X383.540 Y254.964 Z-0.917
G1 X384.042 Y254.193 Z-0.917
G1 X384.536 Y253.419 Z-0.917
G1 X385.023 Y252.641 Z-0.917
G1 X385.502 Y251.860 Z-0.917
G1 X385.973 Y251.074 Z-0.917
G1 X386.437 Y250.286 Z-0.917
G1 X386.893 Y249.494 Z-0.917
G1 X387.341 Y248.699 Z-0.917
G1 X387.781 Y247.901 Z-0.917
G1 X388.213 Y247.101 Z-0.917
G1 X388.637 Y246.297 Z-0.917
G1 X389.054 Y245.491 Z-0.917
G1 X389.463 Y244.682 Z-0.917
G1 X389.863 Y243.870 Z-0.917
G1 X390.256 Y243.057 Z-0.917
G1 X390.641 Y242.241 Z-0.917
G1 X391.018 Y241.422 Z-0.917
G1 X391.386 Y240.602 Z-0.917
G1 X391.747 Y239.780 Z-0.917
G1 X392.100 Y238.956 Z-0.917
G1 X392.445 Y238.131 Z-0.917
G1 X392.782 Y237.304 Z-0.917
G1 X393.111 Y236.475 Z-0.917
G1 X393.431 Y235.645 Z-0.917
G1 X393.744 Y234.814 Z-0.917
G1 X394.049 Y233.982 Z-0.917
G1 X394.346 Y233.148 Z-0.917
G1 X394.635 Y232.314 Z-0.917
G1 X394.916 Y231.479 Z-0.917
G1 X395.189 Y230.643 Z-0.917
G1 X395.454 Y229.807 Z-0.917
G1 X395.712 Y228.970 Z-0.917
G1 X395.961 Y228.133 Z-0.917
G1 X396.203 Y227.296 Z-0.917
G1 X396.436 Y226.458 Z-0.917
G1 X396.662 Y225.621 Z-0.917
G1 X396.880 Y224.783 Z-0.917
G1 X397.091 Y223.945 Z-0.917
G1 X397.293 Y223.108 Z-0.917
G1 X397.488 Y222.271 Z-0.917
G1 X397.676 Y221.435 Z-0.917
G1 X397.855 Y220.599 Z-0.917
G1 X398.028 Y219.763 Z-0.917
G1 X398.192 Y218.929 Z-0.917
G1 X398.349 Y218.095 Z-0.917
G1 X398.499 Y217.262 Z-0.917
G1 X398.641 Y216.430 Z-0.917
G1 X398.776 Y215.599 Z-0.917
G1 X398.903 Y214.769 Z-0.917
G1 X399.023 Y213.941 Z-0.917
G1 X399.136 Y213.114 Z-0.917
G1 X399.242 Y212.288 Z-0.917
G1 X399.341 Y211.464 Z-0.917
G1 X399.432 Y210.641 Z-0.917
G1 X399.517 Y209.820 Z-0.917
G1 X399.594 Y209.001 Z-0.917
G1 X399.665 Y208.184 Z-0.917
G1 X399.728 Y207.368 Z-0.917
G1 X399.785 Y206.551 Z-0.917
G1 X399.836 Y205.733 Z-0.917
G1 X399.879 Y204.915 Z-0.917
G1 X399.916 Y204.096 Z-0.917
G1 X399.946 Y203.277 Z-0.917
G1 X399.970 Y202.458 Z-0.917
G1 X399.987 Y201.639 Z-0.917
G1 X399.997 Y200.819 Z-0.917
G1 X400.000 Y200.000 Z-0.917
G1 X399.997 Y199.181 Z-0.917
G1 X399.987 Y198.361 Z-0.917
G1 X399.970 Y197.542 Z-0.917
G1 X399.946 Y196.723 Z-0.917
G1 X399.916 Y195.904 Z-0.917
G1 X399.879 Y195.085 Z-0.917
G1 X399.836 Y194.267 Z-0.917
G1 X399.785 Y193.449 Z-0.917
G1 X399.728 Y192.632 Z-0.917
G1 X399.665 Y191.816 Z-0.917
G1 X399.594 Y190.999 Z-0.917
G1 X399.517 Y190.180 Z-0.917
G1 X399.432 Y189.359 Z-0.917
G1 X399.341 Y188.536 Z-0.917
G1 X399.242 Y187.712 Z-0.917
G1 X399.136 Y186.886 Z-0.917
G1 X399.023 Y186.059 Z-0.917
G1 X398.903 Y185.231 Z-0.917
G1 X398.776 Y184.401 Z-0.917
G1 X398.641 Y183.570 Z-0.917
G1 X398.499 Y182.738 Z-0.917
G1 X398.349 Y181.905 Z-0.917
G1 X398.192 Y181.071 Z-0.917
G1 X398.028 Y180.237 Z-0.917
G1 X397.855 Y179.401 Z-0.917
G1 X397.676 Y178.565 Z-0.917
G1 X397.488 Y177.729 Z-0.917
G1 X397.293 Y176.892 Z-0.917
G1 X397.091 Y176.055 Z-0.917
G1 X396.880 Y175.217 Z-0.917
G1 X396.662 Y174.379 Z-0.917
G1 X396.436 Y173.542 Z-0.917
G1 X396.203 Y172.704 Z-0.917
G1 X395.961 Y171.867 Z-0.917
G1 X395.712 Y171.030 Z-0.917
G1 X395.454 Y170.193 Z-0.917
G1 X395.189 Y169.357 Z-0.917
G1 X394.916 Y168.521 Z-0.917
G1 X394.635 Y167.686 Z-0.917
G1 X394.346 Y166.852 Z-0.917
G1 X394.049 Y166.018 Z-0.917
G1 X393.744 Y165.186 Z-0.917
G1 X393.431 Y164.355 Z-0.917
G1 X393.111 Y163.525 Z-0.917
G1 X392.782 Y162.696 Z-0.917
G1 X392.445 Y161.869 Z-0.917
G1 X392.100 Y161.044 Z-0.917
G1 X391.747 Y160.220 Z-0.917
G1 X391.386 Y159.398 Z-0.917
G1 X391.018 Y158.578 Z-0.917
G1 X390.641 Y157.759 Z-0.917
G1 X390.256 Y156.943 Z-0.917
G1 X389.863 Y156.130 Z-0.917
G1 X389.463 Y155.318 Z-0.917
G1 X389.054 Y154.509 Z-0.917
G1 X388.637 Y153.703 Z-0.917
G1 X388.213 Y152.899 Z-0.917
G1 X387.781 Y152.099 Z-0.917
G1 X387.341 Y151.301 Z-0.917
G1 X386.893 Y150.506 Z-0.917
G1 X386.437 Y149.714 Z-0.917
G1 X385.973 Y148.926 Z-0.917
G1 X385.502 Y148.140 Z-0.917
G1 X385.023 Y147.359 Z-0.917
G1 X384.536 Y146.581 Z-0.917
G1 X384.042 Y145.807 Z-0.917
G1 X383.540 Y145.036 Z-0.917
G1 X383.031 Y144.270 Z-0.917
G1 X382.514 Y143.507 Z-0.917
G1 X381.990 Y142.749 Z-0.917
G1 X381.458 Y141.995 Z-0.917
G1 X380.919 Y141.245 Z-0.917
G1 X380.372 Y140.499 Z-0.917
G1 X379.819 Y139.759 Z-0.917
G1 X379.258 Y139.023 Z-0.917
G1 X378.690 Y138.291 Z-0.917
G1 X378.115 Y137.565 Z-0.917
G1 X377.533 Y136.844 Z-0.917
G1 X376.943 Y136.127 Z-0.917
G1 X376.348 Y135.416 Z-0.917
G1 X375.745 Y134.711 Z-0.917
G1 X375.135 Y134.010 Z-0.917
G1 X374.519 Y133.315 Z-0.917
G1 X373.897 Y132.626 Z-0.917
G1 X373.267 Y131.942 Z-0.917
G1 X372.632 Y131.264 Z-0.917
G1 X371.990 Y130.592 Z-0.917
G1 X371.342 Y129.926 Z-0.917
G1 X370.687 Y129.266 Z-0.917
G1 X370.027 Y128.612 Z-0.917
G1 X369.360 Y127.964 Z-0.917
G1 X368.687 Y127.322 Z-0.917
G1 X368.009 Y126.687 Z-0.917
G1 X367.325 Y126.058 Z-0.917
G1 X366.635 Y125.436 Z-0.917
G1 X365.940 Y124.821 Z-0.917
G1 X365.239 Y124.212 Z-0.917
G1 X364.533 Y123.609 Z-0.917
G1 X363.821 Y123.014 Z-0.917
G1 X363.105 Y122.425 Z-0.917
G1 X362.383 Y121.844 Z-0.917
G1 X361.656 Y121.269 Z-0.917
G1 X360.924 Y120.702 Z-0.917
G1 X360.188 Y120.141 Z-0.917
G1 X359.447 Y119.588 Z-0.917
G1 X358.701 Y119.042 Z-0.917
G1 X357.951 Y118.504 Z-0.917
G1 X357.197 Y117.972 Z-0.917
G1 X356.438 Y117.448 Z-0.917
G1 X355.675 Y116.932 Z-0.917
G1 X354.908 Y116.423 Z-0.917
G1 X354.137 Y115.922 Z-0.917
G1 X353.363 Y115.428 Z-0.917
G1 X352.584 Y114.942 Z-0.917
G1 X351.802 Y114.463 Z-0.917
G1 X351.017 Y113.993 Z-0.917
G1 X350.228 Y113.530 Z-0.917
G1 X349.436 Y113.074 Z-0.917
G1 X348.641 Y112.627 Z-0.917
G1 X347.843 Y112.187 Z-0.917
G1 X347.042 Y111.756 Z-0.917
G1 X346.238 Y111.332 Z-0.917
G1 X345.431 Y110.916 Z-0.917
G1 X344.622 Y110.508 Z-0.917
G1 X343.810 Y110.108 Z-0.917
G1 X342.996 Y109.715 Z-0.917
G1 X342.180 Y109.331 Z-0.917
G1 X341.362 Y108.955 Z-0.917
G1 X340.541 Y108.587 Z-0.917
G1 X339.719 Y108.226 Z-0.917
G1 X338.895 Y107.874 Z-0.917
G1 X338.069 Y107.530 Z-0.917
G1 X337.242 Y107.193 Z-0.917
G1 X336.413 Y106.865 Z-0.917
G1 X335.583 Y106.545 Z-0.917
G1 X334.751 Y106.233 Z-0.917
G1 X333.919 Y105.928 Z-0.917
G1 X333.085 Y105.632 Z-0.917
G1 X332.251 Y105.343 Z-0.917
G1 X331.416 Y105.063 Z-0.917
G1 X330.580 Y104.790 Z-0.917
G1 X329.743 Y104.526 Z-0.917
G1 X328.907 Y104.269 Z-0.917
G1 X328.069 Y104.020 Z-0.917
G1 X327.232 Y103.779 Z-0.917
G1 X326.394 Y103.546 Z-0.917
G1 X325.556 Y103.321 Z-0.917
G1 X324.718 Y103.103 Z-0.917
G1 X323.881 Y102.893 Z-0.917
G1 X323.043 Y102.691 Z-0.917
G1 X322.206 Y102.497 Z-0.917
G1 X321.369 Y102.310 Z-0.917
G1 X320.533 Y102.131 Z-0.917
G1 X319.698 Y101.959 Z-0.917
G1 X318.863 Y101.795 Z-0.917
G1 X318.029 Y101.639 Z-0.917
G1 X317.196 Y101.490 Z-0.917
G1 X316.364 Y101.348 Z-0.917
G1 X315.533 Y101.214 Z-0.917
G1 X314.703 Y101.087 Z-0.917
G1 X313.875 Y100.967 Z-0.917
G1 X313.048 Y100.855 Z-0.917
G1 X312.222 Y100.750 Z-0.917
G1 X311.398 Y100.652 Z-0.917
G1 X310.575 Y100.561 Z-0.917
G1 X309.754 Y100.477 Z-0.917
G1 X308.935 Y100.400 Z-0.917
G1 X308.117 Y100.330 Z-0.917
G1 X307.302 Y100.267 Z-0.917
G1 X306.492 Y100.211 Z-0.917
G1 X305.681 Y100.162 Z-0.917
G1 X304.870 Y100.119 Z-0.917
G1 X304.059 Y100.082 Z-0.917
G1 X303.248 Y100.053 Z-0.917
G1 X302.436 Y100.030 Z-0.917
G1 X301.624 Y100.013 Z-0.917
G1 X300.812 Y100.003 Z-0.917
G1 X300.000 Y100.000 Z-0.917
G1 X299.181 Y100.003 Z-0.917
G1 X298.361 Y100.013 Z-0.917
G1 X297.542 Y100.030 Z-0.917
G1 X296.723 Y100.054 Z-0.917
G1 X295.904 Y100.084 Z-0.917
G1 X295.085 Y100.121 Z-0.917
G1 X294.267 Y100.164 Z-0.917
G1 X293.449 Y100.215 Z-0.917
G1 X292.632 Y100.272 Z-0.917
G1 X291.816 Y100.335 Z-0.917
G1 X290.999 Y100.406 Z-0.917
G1 X290.180 Y100.483 Z-0.917
G1 X289.359 Y100.568 Z-0.917
G1 X288.536 Y100.659 Z-0.917
G1 X287.712 Y100.758 Z-0.917
G1 X286.886 Y100.864 Z-0.917
G1 X286.059 Y100.977 Z-0.917
G1 X285.231 Y101.097 Z-0.917
G1 X284.401 Y101.224 Z-0.917
G1 X283.570 Y101.359 Z-0.917
G1 X282.738 Y101.501 Z-0.917
G1 X281.905 Y101.651 Z-0.917
G1 X281.071 Y101.808 Z-0.917
G1 X280.237 Y101.972 Z-0.917
G1 X279.401 Y102.145 Z-0.917
G1 X278.565 Y102.324 Z-0.917
G1 X277.729 Y102.512 Z-0.917
G1 X276.892 Y102.707 Z-0.917
G1 X276.055 Y102.909 Z-0.917
G1 X275.217 Y103.120 Z-0.917
G1 X274.379 Y103.338 Z-0.917
G1 X273.542 Y103.564 Z-0.917
G1 X272.704 Y103.797 Z-0.917
G1 X271.867 Y104.039 Z-0.917
G1 X271.030 Y104.288 Z-0.917
G1 X270.193 Y104.546 Z-0.917
G1 X269.357 Y104.811 Z-0.917
G1 X268.521 Y105.084 Z-0.917
G1 X267.686 Y105.365 Z-0.917
G1 X266.852 Y105.654 Z-0.917
G1 X266.018 Y105.951 Z-0.917
G1 X265.186 Y106.256 Z-0.917
G1 X264.355 Y106.569 Z-0.917
G1 X263.525 Y106.889 Z-0.917
G1 X262.696 Y107.218 Z-0.917
G1 X261.869 Y107.555 Z-0.917
G1 X261.044 Y107.900 Z-0.917
G1 X260.220 Y108.253 Z-0.917
G1 X259.398 Y108.614 Z-0.917
G1 X258.578 Y108.982 Z-0.917
G1 X257.759 Y109.359 Z-0.917
G1 X256.943 Y109.744 Z-0.917
G1 X256.130 Y110.137 Z-0.917
G1 X255.318 Y110.537 Z-0.917
G1 X254.509 Y110.946 Z-0.917
G1 X253.703 Y111.363 Z-0.917
G1 X252.899 Y111.787 Z-0.917
G1 X252.099 Y112.219 Z-0.917
G1 X251.301 Y112.659 Z-0.917
G1 X250.506 Y113.107 Z-0.917
G1 X249.714 Y113.563 Z-0.917
G1 X248.926 Y114.027 Z-0.917
G1 X248.140 Y114.498 Z-0.917
G1 X247.359 Y114.977 Z-0.917
G1 X246.581 Y115.464 Z-0.917
G1 X245.807 Y115.958 Z-0.917
G1 X245.036 Y116.460 Z-0.917
G1 X244.270 Y116.969 Z-0.917
G1 X243.507 Y117.486 Z-0.917
G1 X242.749 Y118.010 Z-0.917
G1 X241.995 Y118.542 Z-0.917
G1 X241.245 Y119.081 Z-0.917
G1 X240.499 Y119.628 Z-0.917
G1 X239.759 Y120.181 Z-0.917
G1 X239.023 Y120.742 Z-0.917
G1 X238.291 Y121.310 Z-0.917
G1 X237.565 Y121.885 Z-0.917
G1 X236.844 Y122.468 Z-0.917
G1 X236.127 Y123.057 Z-0.917
G1 X235.416 Y123.652 Z-0.917
G1 X234.711 Y124.255 Z-0.917
G1 X234.010 Y124.865 Z-0.917
G1 X233.315 Y125.481 Z-0.917
G1 X232.626 Y126.103 Z-0.917
G1 X231.942 Y126.733 Z-0.917
G1 X231.264 Y127.368 Z-0.917
G1 X230.592 Y128.010 Z-0.917
G1 X229.926 Y128.658 Z-0.917
G1 X229.266 Y129.313 Z-0.917
G1 X228.612 Y129.973 Z-0.917
G1 X227.964 Y130.640 Z-0.917
G1 X227.322 Y131.313 Z-0.917
G1 X226.687 Y131.991 Z-0.917
G1 X226.058 Y132.675 Z-0.917
G1 X225.436 Y133.365 Z-0.917
G1 X224.821 Y134.060 Z-0.917
G1 X224.212 Y134.761 Z-0.917
G1 X223.609 Y135.467 Z-0.917
G1 X223.014 Y136.179 Z-0.917
G1 X222.425 Y136.895 Z-0.917
G1 X221.844 Y137.617 Z-0.917
G1 X221.269 Y138.344 Z-0.917
G1 X220.702 Y139.076 Z-0.917
G1 X220.141 Y139.812 Z-0.917
G1 X219.588 Y140.553 Z-0.917
G1 X219.042 Y141.299 Z-0.917
G1 X218.504 Y142.049 Z-0.917
G1 X217.972 Y142.803 Z-0.917
G1 X217.448 Y143.562 Z-0.917
G1 X216.932 Y144.325 Z-0.917
G1 X216.423 Y145.092 Z-0.917
G1 X215.922 Y145.863 Z-0.917
G1 X215.428 Y146.637 Z-0.917
G1 X214.942 Y147.416 Z-0.917
G1 X214.463 Y148.198 Z-0.917
G1 X213.993 Y148.983 Z-0.917
G1 X213.530 Y149.772 Z-0.917
G1 X213.074 Y150.564 Z-0.917
G1 X212.627 Y151.359 Z-0.917
G1 X212.187 Y152.157 Z-0.917
G1 X211.756 Y152.958 Z-0.917
G1 X211.332 Y153.762 Z-0.917
G1 X210.916 Y154.569 Z-0.917
G1 X210.508 Y155.378 Z-0.917
G1 X210.108 Y156.190 Z-0.917
G1 X209.715 Y157.004 Z-0.917
G1 X209.331 Y157.820 Z-0.917
G1 X208.955 Y158.638 Z-0.917
G1 X208.587 Y159.459 Z-0.917
G1 X208.226 Y160.281 Z-0.917
G1 X207.874 Y161.105 Z-0.917
G1 X207.530 Y161.931 Z-0.917
G1 X207.193 Y162.758 Z-0.917
G1 X206.865 Y163.587 Z-0.917
G1 X206.545 Y164.417 Z-0.917
G1 X206.233 Y165.249 Z-0.917
G1 X205.928 Y166.081 Z-0.917
G1 X205.632 Y166.915 Z-0.917
G1 X205.343 Y167.749 Z-0.917
G1 X205.063 Y168.584 Z-0.917
G1 X204.790 Y169.420 Z-0.917
G1 X204.526 Y170.257 Z-0.917
G1 X204.269 Y171.093 Z-0.917
G1 X204.020 Y171.931 Z-0.917
G1 X203.779 Y172.768 Z-0.917
G1 X203.546 Y173.606 Z-0.917
G1 X203.321 Y174.444 Z-0.917
G1 X203.103 Y175.282 Z-0.917
G1 X202.893 Y176.119 Z-0.917
G1 X202.691 Y176.957 Z-0.917
G1 X202.497 Y177.794 Z-0.917
G1 X202.310 Y178.631 Z-0.917
G1 X202.131 Y179.467 Z-0.917
G1 X201.959 Y180.302 Z-0.917
G1 X201.795 Y181.137 Z-0.917
G1 X201.639 Y181.971 Z-0.917
G1 X201.490 Y182.804 Z-0.917
G1 X201.348 Y183.636 Z-0.917
G1 X201.214 Y184.467 Z-0.917
G1 X201.087 Y185.297 Z-0.917
G1 X200.967 Y186.125 Z-0.917
G1 X200.855 Y186.952 Z-0.917
G1 X200.750 Y187.778 Z-0.917
G1 X200.652 Y188.602 Z-0.917
G1 X200.561 Y189.425 Z-0.917
G1 X200.477 Y190.246 Z-0.917
G1 X200.400 Y191.065 Z-0.917
G1 X200.330 Y191.883 Z-0.917
G1 X200.267 Y192.698 Z-0.917
G1 X200.267 Y192.698 Z-1.833 F635.0
G1 X200.211 Y193.508 Z-1.833 F180.0
G1 X200.162 Y194.319 Z-1.833
G1 X200.119 Y195.130 Z-1.833
G1 X200.082 Y195.941 Z-1.833
G1 X200.053 Y196.752 Z-1.833
G1 X200.030 Y197.564 Z-1.833
G1 X200.013 Y198.376 Z-1.833
G1 X200.003 Y199.188 Z-1.833
G1 X200.000 Y200.000 Z-1.833
G1 X200.003 Y200.819 Z-1.833
G1 X200.013 Y201.639 Z-1.833
G1 X200.030 Y202.458 Z-1.833
G1 X200.054 Y203.277 Z-1.833
G1 X200.084 Y204.096 Z-1.833
G1 X200.121 Y204.915 Z-1.833
G1 X200.164 Y205.733 Z-1.833
G1 X200.215 Y206.551 Z-1.833
G1 X200.272 Y207.368 Z-1.833
G1 X200.335 Y208.184 Z-1.833
G1 X200.406 Y209.001 Z-1.833
G1 X200.483 Y209.820 Z-1.833
G1 X200.568 Y210.641 Z-1.833
G1 X200.659 Y211.464 Z-1.833
G1 X200.758 Y212.288 Z-1.833
G1 X200.864 Y213.114 Z-1.833
G1 X200.977 Y213.941 Z-1.833
G1 X201.097 Y214.769 Z-1.833
G1 X201.224 Y215.599 Z-1.833
G1 X201.359 Y216.430 Z-1.833
G1 X201.501 Y217.262 Z-1.833
G1 X201.651 Y218.095 Z-1.833
G1 X201.808 Y218.929 Z-1.833
G1 X201.972 Y219.763 Z-1.833
G1 X202.145 Y220.599 Z-1.833
G1 X202.324 Y221.435 Z-1.833
G1 X202.512 Y222.271 Z-1.833
G1 X202.707 Y223.108 Z-1.833
G1 X202.909 Y223.945 Z-1.833
G1 X203.120 Y224.783 Z-1.833
G1 X203.338 Y225.621 Z-1.833
G1 X203.564 Y226.458 Z-1.833
G1 X203.797 Y227.296 Z-1.833
G1 X204.039 Y228.133 Z-1.833
G1 X204.288 Y228.970 Z-1.833
G1 X204.546 Y229.807 Z-1.833
G1 X204.811 Y230.643 Z-1.833
G1 X205.084 Y231.479 Z-1.833
G1 X205.365 Y232.314 Z-1.833
G1 X205.654 Y233.148 Z-1.833
G1 X205.951 Y233.982 Z-1.833
G1 X206.256 Y234.814 Z-1.833
G1 X206.569 Y235.645 Z-1.833
G1 X206.889 Y236.475 Z-1.833
G1 X207.218 Y237.304 Z-1.833
G1 X207.555 Y238.131 Z-1.833
G1 X207.900 Y238.956 Z-1.833
G1 X208.253 Y239.780 Z-1.833
G1 X208.614 Y240.602 Z-1.833
G1 X208.982 Y241.422 Z-1.833
G1 X209.359 Y242.241 Z-1.833
G1 X209.744 Y243.057 Z-1.833
G1 X210.137 Y243.870 Z-1.833
G1 X210.537 Y244.682 Z-1.833
G1 X210.946 Y245.491 Z-1.833
G1 X211.363 Y246.297 Z-1.833
G1 X211.787 Y247.101 Z-1.833
G1 X212.219 Y247.901 Z-1.833
G1 X212.659 Y248.699 Z-1.833
G1 X213.107 Y249.494 Z-1.833
G1 X213.563 Y250.286 Z-1.833
G1 X214.027 Y251.074 Z-1.833
G1 X214.498 Y251.860 Z-1.833
G1 X214.977 Y252.641 Z-1.833
G1 X215.464 Y253.419 Z-1.833
G1 X215.958 Y254.193 Z-1.833
G1 X216.460 Y254.964 Z-1.833
G1 X216.969 Y255.730 Z-1.833
G1 X217.486 Y256.493 Z-1.833
G1 X218.010 Y257.251 Z-1.833
G1 X218.542 Y258.005 Z-1.833
G1 X219.081 Y258.755 Z-1.833
G1 X219.628 Y259.501 Z-1.833
G1 X220.182 Y260.241 Z-1.833
G1 X220.742 Y260.977 Z-1.833
G1 X221.310 Y261.709 Z-1.833
G1 X221.885 Y262.435 Z-1.833
G1 X222.468 Y263.156 Z-1.833
G1 X223.057 Y263.873 Z-1.833
G1 X223.652 Y264.584 Z-1.833
G1 X224.255 Y265.289 Z-1.833
G1 X224.865 Y265.990 Z-1.833
G1 X225.481 Y266.685 Z-1.833
G1 X226.103 Y267.374 Z-1.833
G1 X226.733 Y268.058 Z-1.833
G1 X227.368 Y268.736 Z-1.833
G1 X228.010 Y269.408 Z-1.833
G1 X228.658 Y270.074 Z-1.833
G1 X229.313 Y270.734 Z-1.833
G1 X229.973 Y271.388 Z-1.833
G1 X230.640 Y272.036 Z-1.833
G1 X231.313 Y272.678 Z-1.833
G1 X231.991 Y273.313 Z-1.833
G1 X232.675 Y273.942 Z-1.833
G1 X233.365 Y274.564 Z-1.833
G1 X234.060 Y275.179 Z-1.833
G1 X234.761 Y275.788 Z-1.833
G1 X235.467 Y276.391 Z-1.833
G1 X236.179 Y276.986 Z-1.833
G1 X236.895 Y277.575 Z-1.833
G1 X237.617 Y278.156 Z-1.833
G1 X238.344 Y278.731 Z-1.833
G1 X239.076 Y279.298 Z-1.833
G1 X239.812 Y279.859 Z-1.833
G1 X240.553 Y280.412 Z-1.833
G1 X241.299 Y280.958 Z-1.833
G1 X242.049 Y281.496 Z-1.833
G1 X242.803 Y282.028 Z-1.833
G1 X243.562 Y282.552 Z-1.833
G1 X244.325 Y283.068 Z-1.833
G1 X245.092 Y283.577 Z-1.833
G1 X245.863 Y284.078 Z-1.833
G1 X246.637 Y284.572 Z-1.833
G1 X247.416 Y285.058 Z-1.833
G1 X248.198 Y285.537 Z-1.833
G1 X248.983 Y286.007 Z-1.833
G1 X249.772 Y286.470 Z-1.833
G1 X250.564 Y286.926 Z-1.833
G1 X251.359 Y287.373 Z-1.833
G1 X252.157 Y287.813 Z-1.833
G1 X252.958 Y288.244 Z-1.833
G1 X253.762 Y288.668 Z-1.833
G1 X254.569 Y289.084 Z-1.833
G1 X255.378 Y289.492 Z-1.833
G1 X256.190 Y289.892 Z-1.833
G1 X257.004 Y290.285 Z-1.833
G1 X257.820 Y290.669 Z-1.833
G1 X258.638 Y291.045 Z-1.833
G1 X259.459 Y291.413 Z-1.833
G1 X260.281 Y291.774 Z-1.833
G1 X261.105 Y292.126 Z-1.833
G1 X261.931 Y292.470 Z-1.833
G1 X262.758 Y292.807 Z-1.833
G1 X263.587 Y293.135 Z-1.833
G1 X264.417 Y293.455 Z-1.833
G1 X265.249 Y293.767 Z-1.833
G1 X266.081 Y294.072 Z-1.833
G1 X266.915 Y294.368 Z-1.833
G1 X267.749 Y294.657 Z-1.833
G1 X268.584 Y294.937 Z-1.833
G1 X269.420 Y295.210 Z-1.833
G1 X270.257 Y295.474 Z-1.833
G1 X271.093 Y295.731 Z-1.833
G1 X271.931 Y295.980 Z-1.833
G1 X272.768 Y296.221 Z-1.833
G1 X273.606 Y296.454 Z-1.833
G1 X274.444 Y296.679 Z-1.833
G1 X275.282 Y296.897 Z-1.833
G1 X276.119 Y297.107 Z-1.833
G1 X276.957 Y297.309 Z-1.833
G1 X277.794 Y297.503 Z-1.833
G1 X278.631 Y297.690 Z-1.833
G1 X279.467 Y297.869 Z-1.833
G1 X280.302 Y298.041 Z-1.833
G1 X281.137 Y298.205 Z-1.833
G1 X281.971 Y298.361 Z-1.833
G1 X282.804 Y298.510 Z-1.833
G1 X283.636 Y298.652 Z-1.833
G1 X284.467 Y298.786 Z-1.833
G1 X285.297 Y298.913 Z-1.833
G1 X286.125 Y299.033 Z-1.833
G1 X286.952 Y299.145 Z-1.833
G1 X287.778 Y299.250 Z-1.833
G1 X288.602 Y299.348 Z-1.833
G1 X289.425 Y299.439 Z-1.833
G1 X290.246 Y299.523 Z-1.833
G1 X291.065 Y299.600 Z-1.833
G1 X291.883 Y299.670 Z-1.833
G1 X292.698 Y299.733 Z-1.833
G1 X293.508 Y299.789 Z-1.833
G1 X294.319 Y299.838 Z-1.833
G1 X295.130 Y299.881 Z-1.833
G1 X295.941 Y299.918 Z-1.833
G1 X296.752 Y299.947 Z-1.833
G1 X297.564 Y299.970 Z-1.833
G1 X298.376 Y299.987 Z-1.833
G1 X299.188 Y299.997 Z-1.833
G1 X300.000 Y300.000 Z-1.833
G1 X300.812 Y299.997 Z-1.833
G1 X301.624 Y299.987 Z-1.833
G1 X302.436 Y299.970 Z-1.833
G1 X303.248 Y299.947 Z-1.833
G1 X304.059 Y299.918 Z-1.833
G1 X304.870 Y299.881 Z-1.833
G1 X305.681 Y299.838 Z-1.833
G1 X306.492 Y299.789 Z-1.833
G1 X307.302 Y299.733 Z-1.833
G1 X308.117 Y299.670 Z-1.833
G1 X308.935 Y299.600 Z-1.833
G1 X309.754 Y299.523 Z-1.833
G1 X310.575 Y299.439 Z-1.833
G1 X311.398 Y299.348 Z-1.833
G1 X312.222 Y299.250 Z-1.833
G1 X313.048 Y299.145 Z-1.833
G1 X313.875 Y299.033 Z-1.833
G1 X314.703 Y298.913 Z-1.833
G1 X315.533 Y298.786 Z-1.833
G1 X316.364 Y298.652 Z-1.833
G1 X317.196 Y298.510 Z-1.833
G1 X318.029 Y298.361 Z-1.833
G1 X318.863 Y298.205 Z-1.833
G1 X319.698 Y298.041 Z-1.833
G1 X320.533 Y297.869 Z-1.833
G1 X321.369 Y297.690 Z-1.833
G1 X322.206 Y297.503 Z-1.833
G1 X323.043 Y297.309 Z-1.833
G1 X323.881 Y297.107 Z-1.833
G1 X324.718 Y296.897 Z-1.833
G1 X325.556 Y296.679 Z-1.833
G1 X326.394 Y296.454 Z-1.833
G1 X327.232 Y296.221 Z-1.833
G1 X328.069 Y295.980 Z-1.833
G1 X328.907 Y295.731 Z-1.833
G1 X329.743 Y295.474 Z-1.833
G1 X330.580 Y295.210 Z-1.833
G1 X331.416 Y294.937 Z-1.833
G1 X332.251 Y294.657 Z-1.833
G1 X333.085 Y294.368 Z-1.833
G1 X333.919 Y294.072 Z-1.833
G1 X334.751 Y293.767 Z-1.833
G1 X335.583 Y293.455 Z-1.833
G1 X336.413 Y293.135 Z-1.833
G1 X337.242 Y292.807 Z-1.833
G1 X338.069 Y292.470 Z-1.833
G1 X338.895 Y292.126 Z-1.833
G1 X339.719 Y291.774 Z-1.833
G1 X340.541 Y291.413 Z-1.833
G1 X341.362 Y291.045 Z-1.833
G1 X342.180 Y290.669 Z-1.833
G1 X342.996 Y290.285 Z-1.833
G1 X343.810 Y289.892 Z-1.833
G1 X344.622 Y289.492 Z-1.833
G1 X345.431 Y289.084 Z-1.833
G1 X346.238 Y288.668 Z-1.833
G1 X347.042 Y288.244 Z-1.833
G1 X347.843 Y287.813 Z-1.833
G1 X348.641 Y287.373 Z-1.833
G1 X349.436 Y286.926 Z-1.833
G1 X350.228 Y286.470 Z-1.833
G1 X351.017 Y286.007 Z-1.833
G1 X351.802 Y285.537 Z-1.833
G1 X352.584 Y285.058 Z-1.833
G1 X353.363 Y284.572 Z-1.833
G1 X354.137 Y284.078 Z-1.833
G1 X354.908 Y283.577 Z-1.833
G1 X355.675 Y283.068 Z-1.833
G1 X356.438 Y282.552 Z-1.833
G1 X357.197 Y282.028 Z-1.833
G1 X357.951 Y281.496 Z-1.833
G1 X358.701 Y280.958 Z-1.833
G1 X359.447 Y280.412 Z-1.833
G1 X360.188 Y279.859 Z-1.833
G1 X360.924 Y279.298 Z-1.833
G1 X361.656 Y278.731 Z-1.833
G1 X362.383 Y278.156 Z-1.833
G1 X363.105 Y277.575 Z-1.833
G1 X363.821 Y276.986 Z-1.833
G1 X364.533 Y276.391 Z-1.833
G1 X365.239 Y275.788 Z-1.833
G1 X365.940 Y275.179 Z-1.833
G1 X366.635 Y274.564 Z-1.833
G1 X367.325 Y273.942 Z-1.833
G1 X368.009 Y273.313 Z-1.833
G1 X368.687 Y272.678 Z-1.833
G1 X369.360 Y272.036 Z-1.833
G1 X370.027 Y271.388 Z-1.833
G1 X370.687 Y270.734 Z-1.833
G1 X371.342 Y270.074 Z-1.833
G1 X371.990 Y269.408 Z-1.833
G1 X372.632 Y268.736 Z-1.833
G1 X373.267 Y268.058 Z-1.833
G1 X373.897 Y267.374 Z-1.833
G1 X374.519 Y266.685 Z-1.833
G1 X375.135 Y265.990 Z-1.833
G1 X375.745 Y265.289 Z-1.833
G1 X376.348 Y264.584 Z-1.833
G1 X376.943 Y263.873 Z-1.833
G1 X377.533 Y263.156 Z-1.833
G1 X378.115 Y262.435 Z-1.833
G1 X378.690 Y261.709 Z-1.833
G1 X379.258 Y260.977 Z-1.833
G1 X379.819 Y260.241 Z-1.833
G1 X380.372 Y259.501 Z-1.833
G1 X380.919 Y258.755 Z-1.833
G1 X381.458 Y258.005 Z-1.833
G1 X381.990 Y257.251 Z-1.833
G1 X382.514 Y256.493 Z-1.833
G1 X383.031 Y255.730 Z-1.833
G1 X383.540 Y254.964 Z-1.833
G1 X384.042 Y254.193 Z-1.833
G1 X384.536 Y253.419 Z-1.833
G1 X385.023 Y252.641 Z-1.833
G1 X385.502 Y251.860 Z-1.833
G1 X385.973 Y251.074 Z-1.833
G1 X386.437 Y250.286 Z-1.833
G1 X386.893 Y249.494 Z-1.833
G1 X387.341 Y248.699 Z-1.833
G1 X387.781 Y247.901 Z-1.833
G1 X388.213 Y247.101 Z-1.833
G1 X388.637 Y246.297 Z-1.833
G1 X389.054 Y245.491 Z-1.833
G1 X389.463 Y244.682 Z-1.833
G1 X389.863 Y243.870 Z-1.833
G1 X390.256 Y243.057 Z-1.833
G1 X390.641 Y242.241 Z-1.833
G1 X391.018 Y241.422 Z-1.833
G1 X391.386 Y240.602 Z-1.833
G1 X391.747 Y239.780 Z-1.833
G1 X392.100 Y238.956 Z-1.833
G1 X392.445 Y238.131 Z-1.833
G1 X392.782 Y237.304 Z-1.833
G1 X393.111 Y236.475 Z-1.833
G1 X393.431 Y235.645 Z-1.833
G1 X393.744 Y234.814 Z-1.833
G1 X394.049 Y233.982 Z-1.833
G1 X394.346 Y233.148 Z-1.833
G1 X394.635 Y232.314 Z-1.833
G1 X394.916 Y231.479 Z-1.833
G1 X395.189 Y230.643 Z-1.833
G1 X395.454 Y229.807 Z-1.833
G1 X395.712 Y228.970 Z-1.833
G1 X395.961 Y228.133 Z-1.833
G1 X396.203 Y227.296 Z-1.833
G1 X396.436 Y226.458 Z-1.833
G1 X396.662 Y225.621 Z-1.833
G1 X396.880 Y224.783 Z-1.833
G1 X397.091 Y223.945 Z-1.833
G1 X397.293 Y223.108 Z-1.833
G1 X397.488 Y222.271 Z-1.833
G1 X397.676 Y221.435 Z-1.833
G1 X397.855 Y220.599 Z-1.833
G1 X398.028 Y219.763 Z-1.833
G1 X398.192 Y218.929 Z-1.833
G1 X398.349 Y218.095 Z-1.833
G1 X398.499 Y217.262 Z-1.833
G1 X398.641 Y216.430 Z-1.833
G1 X398.776 Y215.599 Z-1.833
G1 X398.903 Y214.769 Z-1.833
G1 X399.023 Y213.941 Z-1.833
G1 X399.136 Y213.114 Z-1.833
G1 X399.242 Y212.288 Z-1.833
G1 X399.341 Y211.464 Z-1.833
G1 X399.432 Y210.641 Z-1.833
G1 X399.517 Y209.820 Z-1.833
G1 X399.594 Y209.001 Z-1.833
G1 X399.665 Y208.184 Z-1.833
G1 X399.728 Y207.368 Z-1.833
G1 X399.785 Y206.551 Z-1.833
G1 X399.836 Y205.733 Z-1.833
G1 X399.879 Y204.915 Z-1.833
G1 X399.916 Y204.096 Z-1.833
G1 X399.946 Y203.277 Z-1.833
G1 X399.970 Y202.458 Z-1.833
G1 X399.987 Y201.639 Z-1.833
G1 X399.997 Y200.819 Z-1.833
G1 X400.000 Y200.000 Z-1.833
G1 X399.997 Y199.181 Z-1.833
G1 X399.987 Y198.361 Z-1.833
G1 X399.970 Y197.542 Z-1.833
G1 X399.946 Y196.723 Z-1.833
G1 X399.916 Y195.904 Z-1.833
G1 X399.879 Y195.085 Z-1.833
G1 X399.836 Y194.267 Z-1.833
G1 X399.785 Y193.449 Z-1.833
G1 X399.728 Y192.632 Z-1.833
G1 X399.665 Y191.816 Z-1.833
G1 X399.594 Y190.999 Z-1.833
G1 X399.517 Y190.180 Z-1.833
G1 X399.432 Y189.359 Z-1.833
G1 X399.341 Y188.536 Z-1.833
G1 X399.242 Y187.712 Z-1.833
G1 X399.136 Y186.886 Z-1.833
G1 X399.023 Y186.059 Z-1.833
G1 X398.903 Y185.231 Z-1.833
G1 X398.776 Y184.401 Z-1.833
G1 X398.641 Y183.570 Z-1.833
G1 X398.499 Y182.738 Z-1.833
G1 X398.349 Y181.905 Z-1.833
G1 X398.192 Y181.071 Z-1.833
G1 X398.028 Y180.237 Z-1.833
G1 X397.855 Y179.401 Z-1.833
G1 X397.676 Y178.565 Z-1.833
G1 X397.488 Y177.729 Z-1.833
G1 X397.293 Y176.892 Z-1.833
G1 X397.091 Y176.055 Z-1.833
G1 X396.880 Y175.217 Z-1.833
G1 X396.662 Y174.379 Z-1.833
G1 X396.436 Y173.542 Z-1.833
G1 X396.203 Y172.704 Z-1.833
G1 X395.961 Y171.867 Z-1.833
G1 X395.712 Y171.030 Z-1.833
G1 X395.454 Y170.193 Z-1.833
G1 X395.189 Y169.357 Z-1.833
G1 X394.916 Y168.521 Z-1.833
G1 X394.635 Y167.686 Z-1.833
G1 X394.346 Y166.852 Z-1.833
G1 X394.049 Y166.018 Z-1.833
G1 X393.744 Y165.186 Z-1.833
G1 X393.431 Y164.355 Z-1.833
G1 X393.111 Y163.525 Z-1.833
G1 X392.782 Y162.696 Z-1.833
G1 X392.445 Y161.869 Z-1.833
G1 X392.100 Y161.044 Z-1.833
G1 X391.747 Y160.220 Z-1.833
G1 X391.386 Y159.398 Z-1.833
G1 X391.018 Y158.578 Z-1.833
G1 X390.641 Y157.759 Z-1.833
G1 X390.256 Y156.943 Z-1.833
G1 X389.863 Y156.130 Z-1.833
G1 X389.463 Y155.318 Z-1.833
G1 X389.054 Y154.509 Z-1.833
G1 X388.637 Y153.703 Z-1.833
G1 X388.213 Y152.899 Z-1.833
G1 X387.781 Y152.099 Z-1.833
G1 X387.341 Y151.301 Z-1.833
G1 X386.893 Y150.506 Z-1.833
G1 X386.437 Y149.714 Z-1.833
G1 X385.973 Y148.926 Z-1.833
G1 X385.502 Y148.140 Z-1.833
G1 X385.023 Y147.359 Z-1.833
G1 X384.536 Y146.581 Z-1.833
G1 X384.042 Y145.807 Z-1.833
G1 X383.540 Y145.036 Z-1.833
G1 X383.031 Y144.270 Z-1.833
G1 X382.514 Y143.507 Z-1.833
G1 X381.990 Y142.749 Z-1.833
G1 X381.458 Y141.995 Z-1.833
G1 X380.919 Y141.245 Z-1.833
G1 X380.372 Y140.499 Z-1.833
G1 X379.819 Y139.759 Z-1.833
G1 X379.258 Y139.023 Z-1.833
G1 X378.690 Y138.291 Z-1.833
G1 X378.115 Y137.565 Z-1.833
G1 X377.533 Y136.844 Z-1.833
G1 X376.943 Y136.127 Z-1.833
G1 X376.348 Y135.416 Z-1.833
G1 X375.745 Y134.711 Z-1.833
G1 X375.135 Y134.010 Z-1.833
G1 X374.519 Y133.315 Z-1.833
G1 X373.897 Y132.626 Z-1.833
G1 X373.267 Y131.942 Z-1.833
G1 X372.632 Y131.264 Z-1.833
G1 X371.990 Y130.592 Z-1.833
G1 X371.342 Y129.926 Z-1.833
G1 X370.687 Y129.266 Z-1.833
G1 X370.027 Y128.612 Z-1.833
G1 X369.360 Y127.964 Z-1.833
G1 X368.687 Y127.322 Z-1.833
G1 X368.009 Y126.687 Z-1.833
G1 X367.325 Y126.058 Z-1.833
G1 X366.635 Y125.436 Z-1.833
G1 X365.940 Y124.821 Z-1.833
G1 X365.239 Y124.212 Z-1.833
G1 X364.533 Y123.609 Z-1.833
G1 X363.821 Y123.014 Z-1.833
G1 X363.105 Y122.425 Z-1.833
G1 X362.383 Y121.844 Z-1.833
G1 X361.656 Y121.269 Z-1.833
G1 X360.924 Y120.702 Z-1.833
G1 X360.188 Y120.141 Z-1.833
G1 X359.447 Y119.588 Z-1.833
G1 X358.701 Y119.042 Z-1.833
G1 X357.951 Y118.504 Z-1.833
G1 X357.197 Y117.972 Z-1.833
G1 X356.438 Y117.448 Z-1.833
G1 X355.675 Y116.932 Z-1.833
G1 X354.908 Y116.423 Z-1.833
G1 X354.137 Y115.922 Z-1.833
G1 X353.363 Y115.428 Z-1.833
G1 X352.584 Y114.942 Z-1.833
G1 X351.802 Y114.463 Z-1.833
G1 X351.017 Y113.993 Z-1.833
G1 X350.228 Y113.530 Z-1.833
G1 X349.436 Y113.074 Z-1.833
G1 X348.641 Y112.627 Z-1.833
G1 X347.843 Y112.187 Z-1.833
G1 X347.042 Y111.756 Z-1.833
G1 X346.238 Y111.332 Z-1.833
G1 X345.431 Y110.916 Z-1.833
G1 X344.622 Y110.508 Z-1.833
G1 X343.810 Y110.108 Z-1.833
G1 X342.996 Y109.715 Z-1.833
G1 X342.180 Y109.331 Z-1.833
G1 X341.362 Y108.955 Z-1.833
G1 X340.541 Y108.587 Z-1.833
G1 X339.719 Y108.226 Z-1.833
G1 X338.895 Y107.874 Z-1.833
G1 X338.069 Y107.530 Z-1.833
G1 X337.242 Y107.193 Z-1.833
G1 X336.413 Y106.865 Z-1.833
G1 X335.583 Y106.545 Z-1.833
G1 X334.751 Y106.233 Z-1.833
G1 X333.919 Y105.928 Z-1.833
G1 X333.085 Y105.632 Z-1.833
G1 X332.251 Y105.343 Z-1.833
G1 X331.416 Y105.063 Z-1.833
G1 X330.580 Y104.790 Z-1.833
G1 X329.743 Y104.526 Z-1.833
G1 X328.907 Y104.269 Z-1.833
G1 X328.069 Y104.020 Z-1.833
G1 X327.232 Y103.779 Z-1.833
G1 X326.394 Y103.546 Z-1.833
G1 X325.556 Y103.321 Z-1.833
G1 X324.718 Y103.103 Z-1.833
G1 X323.881 Y102.893 Z-1.833
G1 X323.043 Y102.691 Z-1.833
G1 X322.206 Y102.497 Z-1.833
G1 X321.369 Y102.310 Z-1.833
G1 X320.533 Y102.131 Z-1.833
G1 X319.698 Y101.959 Z-1.833
G1 X318.863 Y101.795 Z-1.833
G1 X318.029 Y101.639 Z-1.833
G1 X317.196 Y101.490 Z-1.833
G1 X316.364 Y101.348 Z-1.833
G1 X315.533 Y101.214 Z-1.833
G1 X314.703 Y101.087 Z-1.833
G1 X313.875 Y100.967 Z-1.833
G1 X313.048 Y100.855 Z-1.833
G1 X312.222 Y100.750 Z-1.833
G1 X311.398 Y100.652 Z-1.833
G1 X310.575 Y100.561 Z-1.833
G1 X309.754 Y100.477 Z-1.833
G1 X308.935 Y100.400 Z-1.833
G1 X308.117 Y100.330 Z-1.833
G1 X307.302 Y100.267 Z-1.833
G1 X306.492 Y100.211 Z-1.833
G1 X305.681 Y100.162 Z-1.833
G1 X304.870 Y100.119 Z-1.833
G1 X304.059 Y100.082 Z-1.833
G1 X303.248 Y100.053 Z-1.833
G1 X302.436 Y100.030 Z-1.833
G1 X301.624 Y100.013 Z-1.833
G1 X300.812 Y100.003 Z-1.833
G1 X300.000 Y100.000 Z-1.833
G1 X299.181 Y100.003 Z-1.833
G1 X298.361 Y100.013 Z-1.833
G1 X297.542 Y100.030 Z-1.833
G1 X296.723 Y100.054 Z-1.833
G1 X295.904 Y100.084 Z-1.833
G1 X295.085 Y100.121 Z-1.833
G1 X294.267 Y100.164 Z-1.833
G1 X293.449 Y100.215 Z-1.833
G1 X292.632 Y100.272 Z-1.833
G1 X291.816 Y100.335 Z-1.833
G1 X290.999 Y100.406 Z-1.833
G1 X290.180 Y100.483 Z-1.833
G1 X289.359 Y100.568 Z-1.833
G1 X288.536 Y100.659 Z-1.833
G1 X287.712 Y100.758 Z-1.833
G1 X286.886 Y100.864 Z-1.833
G1 X286.059 Y100.977 Z-1.833
G1 X285.231 Y101.097 Z-1.833
G1 X284.401 Y101.224 Z-1.833
G1 X283.570 Y101.359 Z-1.833
G1 X282.738 Y101.501 Z-1.833
G1 X281.905 Y101.651 Z-1.833
G1 X281.071 Y101.808 Z-1.833
G1 X280.237 Y101.972 Z-1.833
G1 X279.401 Y102.145 Z-1.833
G1 X278.565 Y102.324 Z-1.833
G1 X277.729 Y102.512 Z-1.833
G1 X276.892 Y102.707 Z-1.833
G1 X276.055 Y102.909 Z-1.833
G1 X275.217 Y103.120 Z-1.833
G1 X274.379 Y103.338 Z-1.833
G1 X273.542 Y103.564 Z-1.833
G1 X272.704 Y103.797 Z-1.833
G1 X271.867 Y104.039 Z-1.833
G1 X271.030 Y104.288 Z-1.833
G1 X270.193 Y104.546 Z-1.833
G1 X269.357 Y104.811 Z-1.833
G1 X268.521 Y105.084 Z-1.833
G1 X267.686 Y105.365 Z-1.833
G1 X266.852 Y105.654 Z-1.833
G1 X266.018 Y105.951 Z-1.833
G1 X265.186 Y106.256 Z-1.833
G1 X264.355 Y106.569 Z-1.833
G1 X263.525 Y106.889 Z-1.833
G1 X262.696 Y107.218 Z-1.833
G1 X261.869 Y107.555 Z-1.833
G1 X261.044 Y107.900 Z-1.833
G1 X260.220 Y108.253 Z-1.833
G1 X259.398 Y108.614 Z-1.833
G1 X258.578 Y108.982 Z-1.833
G1 X257.759 Y109.359 Z-1.833
G1 X256.943 Y109.744 Z-1.833
G1 X256.130 Y110.137 Z-1.833
G1 X255.318 Y110.537 Z-1.833
G1 X254.509 Y110.946 Z-1.833
G1 X253.703 Y111.363 Z-1.833
G1 X252.899 Y111.787 Z-1.833
G1 X252.099 Y112.219 Z-1.833
G1 X251.301 Y112.659 Z-1.833
G1 X250.506 Y113.107 Z-1.833
G1 X249.714 Y113.563 Z-1.833
G1 X248.926 Y114.027 Z-1.833
G1 X248.140 Y114.498 Z-1.833
G1 X247.359 Y114.977 Z-1.833
G1 X246.581 Y115.464 Z-1.833
G1 X245.807 Y115.958 Z-1.833
G1 X245.036 Y116.460 Z-1.833
G1 X244.270 Y116.969 Z-1.833
G1 X243.507 Y117.486 Z-1.833
G1 X242.749 Y118.010 Z-1.833
G1 X241.995 Y118.542 Z-1.833
G1 X241.245 Y119.081 Z-1.833
G1 X240.499 Y119.628 Z-1.833
G1 X239.759 Y120.181 Z-1.833
G1 X239.023 Y120.742 Z-1.833
G1 X238.291 Y121.310 Z-1.833
G1 X237.565 Y121.885 Z-1.833
G1 X236.844 Y122.468 Z-1.833
G1 X236.127 Y123.057 Z-1.833
G1 X235.416 Y123.652 Z-1.833
G1 X234.711 Y124.255 Z-1.833
G1 X234.010 Y124.865 Z-1.833
G1 X233.315 Y125.481 Z-1.833
G1 X232.626 Y126.103 Z-1.833
G1 X231.942 Y126.733 Z-1.833
G1 X231.264 Y127.368 Z-1.833
G1 X230.592 Y128.010 Z-1.833
G1 X229.926 Y128.658 Z-1.833
G1 X229.266 Y129.313 Z-1.833
G1 X228.612 Y129.973 Z-1.833
G1 X227.964 Y130.640 Z-1.833
G1 X227.322 Y131.313 Z-1.833
G1 X226.687 Y131.991 Z-1.833
G1 X226.058 Y132.675 Z-1.833
G1 X225.436 Y133.365 Z-1.833
G1 X224.821 Y134.060 Z-1.833
G1 X224.212 Y134.761 Z-1.833
G1 X223.609 Y135.467 Z-1.833
G1 X223.014 Y136.179 Z-1.833
G1 X222.425 Y136.895 Z-1.833
G1 X221.844 Y137.617 Z-1.833
G1 X221.269 Y138.344 Z-1.833
G1 X220.702 Y139.076 Z-1.833
G1 X220.141 Y139.812 Z-1.833
G1 X219.588 Y140.553 Z-1.833
G1 X219.042 Y141.299 Z-1.833
G1 X218.504 Y142.049 Z-1.833
G1 X217.972 Y142.803 Z-1.833
G1 X217.448 Y143.562 Z-1.833
G1 X216.932 Y144.325 Z-1.833
G1 X216.423 Y145.092 Z-1.833
G1 X215.922 Y145.863 Z-1.833
G1 X215.428 Y146.637 Z-1.833
G1 X214.942 Y147.416 Z-1.833
G1 X214.463 Y148.198 Z-1.833
G1 X213.993 Y148.983 Z-1.833
G1 X213.530 Y149.772 Z-1.833
G1 X213.074 Y150.564 Z-1.833
G1 X212.627 Y151.359 Z-1.833
G1 X212.187 Y152.157 Z-1.833
G1 X211.756 Y152.958 Z-1.833
G1 X211.332 Y153.762 Z-1.833
G1 X210.916 Y154.569 Z-1.833
G1 X210.508 Y155.378 Z-1.833
G1 X210.108 Y156.190 Z-1.833
G1 X209.715 Y157.004 Z-1.833
G1 X209.331 Y157.820 Z-1.833
G1 X208.955 Y158.638 Z-1.833
G1 X208.587 Y159.459 Z-1.833
G1 X208.226 Y160.281 Z-1.833
G1 X207.874 Y161.105 Z-1.833
G1 X207.530 Y161.931 Z-1.833
G1 X207.193 Y162.758 Z-1.833
G1 X206.865 Y163.587 Z-1.833
G1 X206.545 Y164.417 Z-1.833
G1 X206.233 Y165.249 Z-1.833
G1 X205.928 Y166.081 Z-1.833
G1 X205.632 Y166.915 Z-1.833
G1 X205.343 Y167.749 Z-1.833
G1 X205.063 Y168.584 Z-1.833
G1 X204.790 Y169.420 Z-1.833
G1 X204.526 Y170.257 Z-1.833
G1 X204.269 Y171.093 Z-1.833
G1 X204.020 Y171.931 Z-1.833
G1 X203.779 Y172.768 Z-1.833
G1 X203.546 Y173.606 Z-1.833
G1 X203.321 Y174.444 Z-1.833
G1 X203.103 Y175.282 Z-1.833
G1 X202.893 Y176.119 Z-1.833
G1 X202.691 Y176.957 Z-1.833
G1 X202.497 Y177.794 Z-1.833
G1 X202.310 Y178.631 Z-1.833
G1 X202.131 Y179.467 Z-1.833
G1 X201.959 Y180.302 Z-1.833
G1 X201.795 Y181.137 Z-1.833
G1 X201.639 Y181.971 Z-1.833
G1 X201.490 Y182.804 Z-1.833
G1 X201.348 Y183.636 Z-1.833
G1 X201.214 Y184.467 Z-1.833
G1 X201.087 Y185.297 Z-1.833
G1 X200.967 Y186.125 Z-1.833
G1 X200.855 Y186.952 Z-1.833
G1 X200.750 Y187.778 Z-1.833
G1 X200.652 Y188.602 Z-1.833
G1 X200.561 Y189.425 Z-1.833
G1 X200.477 Y190.246 Z-1.833
G1 X200.400 Y191.065 Z-1.833
G1 X200.330 Y191.883 Z-1.833
G1 X200.267 Y192.698 Z-1.833
G1 X200.267 Y192.698 Z-2.750 F635.0
G1 X200.211 Y193.508 Z-2.750 F180.0
G1 X200.162 Y194.319 Z-2.750
G1 X200.119 Y195.130 Z-2.750
G1 X200.082 Y195.941 Z-2.750
G1 X200.053 Y196.752 Z-2.750
G1 X200.030 Y197.564 Z-2.750
G1 X200.013 Y198.376 Z-2.750
G1 X200.003 Y199.188 Z-2.750
G1 X200.000 Y200.000 Z-2.750
G1 X200.003 Y200.819 Z-2.750
G1 X200.013 Y201.639 Z-2.750
G1 X200.030 Y202.458 Z-2.750
G1 X200.054 Y203.277 Z-2.750
G1 X200.084 Y204.096 Z-2.750
G1 X200.121 Y204.915 Z-2.750
G1 X200.164 Y205.733 Z-2.750
G1 X200.215 Y206.551 Z-2.750
G1 X200.272 Y207.368 Z-2.750
G1 X200.335 Y208.184 Z-2.750
G1 X200.406 Y209.001 Z-2.750
G1 X200.483 Y209.820 Z-2.750
G1 X200.568 Y210.641 Z-2.750
G1 X200.659 Y211.464 Z-2.750
G1 X200.758 Y212.288 Z-2.750
G1 X200.864 Y213.114 Z-2.750
G1 X200.977 Y213.941 Z-2.750
G1 X201.097 Y214.769 Z-2.750
G1 X201.224 Y215.599 Z-2.750
G1 X201.359 Y216.430 Z-2.750
G1 X201.501 Y217.262 Z-2.750
G1 X201.651 Y218.095 Z-2.750
G1 X201.808 Y218.929 Z-2.750
G1 X201.972 Y219.763 Z-2.750
G1 X202.145 Y220.599 Z-2.750
G1 X202.324 Y221.435 Z-2.750
G1 X202.512 Y222.271 Z-2.750
G1 X202.707 Y223.108 Z-2.750
G1 X202.909 Y223.945 Z-2.750
G1 X203.120 Y224.783 Z-2.750
G1 X203.338 Y225.621 Z-2.750
G1 X203.564 Y226.458 Z-2.750
G1 X203.797 Y227.296 Z-2.750
G1 X204.039 Y228.133 Z-2.750
G1 X204.288 Y228.970 Z-2.750
G1 X204.546 Y229.807 Z-2.750
G1 X204.811 Y230.643 Z-2.750
G1 X205.084 Y231.479 Z-2.750
G1 X205.365 Y232.314 Z-2.750
G1 X205.654 Y233.148 Z-2.750
G1 X205.951 Y233.982 Z-2.750
G1 X206.256 Y234.814 Z-2.750
G1 X206.569 Y235.645 Z-2.750
G1 X206.889 Y236.475 Z-2.750
G1 X207.218 Y237.304 Z-2.750
G1 X207.555 Y238.131 Z-2.750
G1 X207.900 Y238.956 Z-2.750
G1 X208.253 Y239.780 Z-2.750
G1 X208.614 Y240.602 Z-2.750
G1 X208.982 Y241.422 Z-2.750
G1 X209.359 Y242.241 Z-2.750
G1 X209.744 Y243.057 Z-2.750
G1 X210.137 Y243.870 Z-2.750
G1 X210.537 Y244.682 Z-2.750
G1 X210.946 Y245.491 Z-2.750
G1 X211.363 Y246.297 Z-2.750
G1 X211.787 Y247.101 Z-2.750
G1 X212.219 Y247.901 Z-2.750
G1 X212.659 Y248.699 Z-2.750
G1 X213.107 Y249.494 Z-2.750
G1 X213.563 Y250.286 Z-2.750
G1 X214.027 Y251.074 Z-2.750
G1 X214.498 Y251.860 Z-2.750
G1 X214.977 Y252.641 Z-2.750
G1 X215.464 Y253.419 Z-2.750
G1 X215.958 Y254.193 Z-2.750
G1 X216.460 Y254.964 Z-2.750
G1 X216.969 Y255.730 Z-2.750
G1 X217.486 Y256.493 Z-2.750
G1 X218.010 Y257.251 Z-2.750
G1 X218.542 Y258.005 Z-2.750
G1 X219.081 Y258.755 Z-2.750
G1 X219.628 Y259.501 Z-2.750
G1 X220.182 Y260.241 Z-2.750
G1 X220.742 Y260.977 Z-2.750
G1 X221.310 Y261.709 Z-2.750
G1 X221.885 Y262.435 Z-2.750
G1 X222.468 Y263.156 Z-2.750
G1 X223.057 Y263.873 Z-2.750
G1 X223.652 Y264.584 Z-2.750
G1 X224.255 Y265.289 Z-2.750
G1 X224.865 Y265.990 Z-2.750
G1 X225.481 Y266.685 Z-2.750
G1 X226.103 Y267.374 Z-2.750
G1 X226.733 Y268.058 Z-2.750
G1 X227.368 Y268.736 Z-2.750
G1 X228.010 Y269.408 Z-2.750
G1 X228.658 Y270.074 Z-2.750
G1 X229.313 Y270.734 Z-2.750
G1 X229.973 Y271.388 Z-2.750
G1 X230.640 Y272.036 Z-2.750
G1 X231.313 Y272.678 Z-2.750
G1 X231.991 Y273.313 Z-2.750
G1 X232.675 Y273.942 Z-2.750
G1 X233.365 Y274.564 Z-2.750
G1 X234.060 Y275.179 Z-2.750
G1 X234.761 Y275.788 Z-2.750
G1 X235.467 Y276.391 Z-2.750
G1 X236.179 Y276.986 Z-2.750
G1 X236.895 Y277.575 Z-2.750
G1 X237.617 Y278.156 Z-2.750
G1 X238.344 Y278.731 Z-2.750
G1 X239.076 Y279.298 Z-2.750
G1 X239.812 Y279.859 Z-2.750
G1 X240.553 Y280.412 Z-2.750
G1 X241.299 Y280.958 Z-2.750
G1 X242.049 Y281.496 Z-2.750
G1 X242.803 Y282.028 Z-2.750
G1 X243.562 Y282.552 Z-2.750
G1 X244.325 Y283.068 Z-2.750
G1 X245.092 Y283.577 Z-2.750
G1 X245.863 Y284.078 Z-2.750
G1 X246.637 Y284.572 Z-2.750
G1 X247.416 Y285.058 Z-2.750
G1 X248.198 Y285.537 Z-2.750
G1 X248.983 Y286.007 Z-2.750
G1 X249.772 Y286.470 Z-2.750
G1 X250.564 Y286.926 Z-2.750
G1 X251.359 Y287.373 Z-2.750
G1 X252.157 Y287.813 Z-2.750
G1 X252.958 Y288.244 Z-2.750
G1 X253.762 Y288.668 Z-2.750
G1 X254.569 Y289.084 Z-2.750
G1 X255.378 Y289.492 Z-2.750
G1 X256.190 Y289.892 Z-2.750
G1 X257.004 Y290.285 Z-2.750
G1 X257.820 Y290.669 Z-2.750
G1 X258.638 Y291.045 Z-2.750
G1 X259.459 Y291.413 Z-2.750
G1 X260.281 Y291.774 Z-2.750
G1 X261.105 Y292.126 Z-2.750
G1 X261.931 Y292.470 Z-2.750
G1 X262.758 Y292.807 Z-2.750
G1 X263.587 Y293.135 Z-2.750
G1 X264.417 Y293.455 Z-2.750
G1 X265.249 Y293.767 Z-2.750
G1 X266.081 Y294.072 Z-2.750
G1 X266.915 Y294.368 Z-2.750
G1 X267.749 Y294.657 Z-2.750
G1 X268.584 Y294.937 Z-2.750
G1 X269.420 Y295.210 Z-2.750
G1 X270.257 Y295.474 Z-2.750
G1 X271.093 Y295.731 Z-2.750
G1 X271.931 Y295.980 Z-2.750
G1 X272.768 Y296.221 Z-2.750
G1 X273.606 Y296.454 Z-2.750
G1 X274.444 Y296.679 Z-2.750
G1 X275.282 Y296.897 Z-2.750
G1 X276.119 Y297.107 Z-2.750
G1 X276.957 Y297.309 Z-2.750
G1 X277.794 Y297.503 Z-2.750
G1 X278.631 Y297.690 Z-2.750
G1 X279.467 Y297.869 Z-2.750
G1 X280.302 Y298.041 Z-2.750
G1 X281.137 Y298.205 Z-2.750
G1 X281.971 Y298.361 Z-2.750
G1 X282.804 Y298.510 Z-2.750
G1 X283.636 Y298.652 Z-2.750
G1 X284.467 Y298.786 Z-2.750
G1 X285.297 Y298.913 Z-2.750
G1 X286.125 Y299.033 Z-2.750
G1 X286.952 Y299.145 Z-2.750
G1 X287.778 Y299.250 Z-2.750
G1 X288.602 Y299.348 Z-2.750
G1 X289.425 Y299.439 Z-2.750
G1 X290.246 Y299.523 Z-2.750
G1 X291.065 Y299.600 Z-2.750
G1 X291.883 Y299.670 Z-2.750
G1 X292.698 Y299.733 Z-2.750
G1 X293.508 Y299.789 Z-2.750
G1 X294.319 Y299.838 Z-2.750
G1 X295.130 Y299.881 Z-2.750
G1 X295.941 Y299.918 Z-2.750
G1 X296.752 Y299.947 Z-2.750
G1 X297.564 Y299.970 Z-2.750
G1 X298.376 Y299.987 Z-2.750
G1 X299.188 Y299.997 Z-2.750
G1 X300.000 Y300.000 Z-2.750
G1 X300.812 Y299.997 Z-2.750
G1 X301.624 Y299.987 Z-2.750
G1 X302.436 Y299.970 Z-2.750
G1 X303.248 Y299.947 Z-2.750
G1 X304.059 Y299.918 Z-2.750
G1 X304.870 Y299.881 Z-2.750
G1 X305.681 Y299.838 Z-2.750
G1 X306.492 Y299.789 Z-2.750
G1 X307.302 Y299.733 Z-2.750
G1 X308.117 Y299.670 Z-2.750
G1 X308.935 Y299.600 Z-2.750
G1 X309.754 Y299.523 Z-2.750
G1 X310.575 Y299.439 Z-2.750
G1 X311.398 Y299.348 Z-2.750
G1 X312.222 Y299.250 Z-2.750
G1 X313.048 Y299.145 Z-2.750
G1 X313.875 Y299.033 Z-2.750
G1 X314.703 Y298.913 Z-2.750
G1 X315.533 Y298.786 Z-2.750
G1 X316.364 Y298.652 Z-2.750
G1 X317.196 Y298.510 Z-2.750
G1 X318.029 Y298.361 Z-2.750
G1 X318.863 Y298.205 Z-2.750
G1 X319.698 Y298.041 Z-2.750
G1 X320.533 Y297.869 Z-2.750
G1 X321.369 Y297.690 Z-2.750
G1 X322.206 Y297.503 Z-2.750
G1 X323.043 Y297.309 Z-2.750
G1 X323.881 Y297.107 Z-2.750
G1 X324.718 Y296.897 Z-2.750
G1 X325.556 Y296.679 Z-2.750
G1 X326.394 Y296.454 Z-2.750
G1 X327.232 Y296.221 Z-2.750
G1 X328.069 Y295.980 Z-2.750
G1 X328.907 Y295.731 Z-2.750
G1 X329.743 Y295.474 Z-2.750
G1 X330.580 Y295.210 Z-2.750
G1 X331.416 Y294.937 Z-2.750
G1 X332.251 Y294.657 Z-2.750
G1 X333.085 Y294.368 Z-2.750
G1 X333.919 Y294.072 Z-2.750
G1 X334.751 Y293.767 Z-2.750
G1 X335.583 Y293.455 Z-2.750
G1 X336.413 Y293.135 Z-2.750
G1 X337.242 Y292.807 Z-2.750
G1 X338.069 Y292.470 Z-2.750
G1 X338.895 Y292.126 Z-2.750
G1 X339.719 Y291.774 Z-2.750
G1 X340.541 Y291.413 Z-2.750
G1 X341.362 Y291.045 Z-2.750
G1 X342.180 Y290.669 Z-2.750
G1 X342.996 Y290.285 Z-2.750
G1 X343.810 Y289.892 Z-2.750
G1 X344.622 Y289.492 Z-2.750
G1 X345.431 Y289.084 Z-2.750
G1 X346.238 Y288.668 Z-2.750
G1 X347.042 Y288.244 Z-2.750
G1 X347.843 Y287.813 Z-2.750
G1 X348.641 Y287.373 Z-2.750
G1 X349.436 Y286.926 Z-2.750
G1 X350.228 Y286.470 Z-2.750
G1 X351.017 Y286.007 Z-2.750
G1 X351.802 Y285.537 Z-2.750
G1 X352.584 Y285.058 Z-2.750
G1 X353.363 Y284.572 Z-2.750
G1 X354.137 Y284.078 Z-2.750
G1 X354.908 Y283.577 Z-2.750
G1 X355.675 Y283.068 Z-2.750
G1 X356.438 Y282.552 Z-2.750
G1 X357.197 Y282.028 Z-2.750
G1 X357.951 Y281.496 Z-2.750
G1 X358.701 Y280.958 Z-2.750
G1 X359.447 Y280.412 Z-2.750
G1 X360.188 Y279.859 Z-2.750
G1 X360.924 Y279.298 Z-2.750
G1 X361.656 Y278.731 Z-2.750
G1 X362.383 Y278.156 Z-2.750
G1 X363.105 Y277.575 Z-2.750
G1 X363.821 Y276.986 Z-2.750
G1 X364.533 Y276.391 Z-2.750
G1 X365.239 Y275.788 Z-2.750
G1 X365.940 Y275.179 Z-2.750
G1 X366.635 Y274.564 Z-2.750
G1 X367.325 Y273.942 Z-2.750
G1 X368.009 Y273.313 Z-2.750
G1 X368.687 Y272.678 Z-2.750
G1 X369.360 Y272.036 Z-2.750
G1 X370.027 Y271.388 Z-2.750
G1 X370.687 Y270.734 Z-2.750
G1 X371.342 Y270.074 Z-2.750
G1 X371.990 Y269.408 Z-2.750
G1 X372.632 Y268.736 Z-2.750
G1 X373.267 Y268.058 Z-2.750
G1 X373.897 Y267.374 Z-2.750
G1 X374.519 Y266.685 Z-2.750
G1 X375.135 Y265.990 Z-2.750
G1 X375.745 Y265.289 Z-2.750
G1 X376.348 Y264.584 Z-2.750
G1 X376.943 Y263.873 Z-2.750
G1 X377.533 Y263.156 Z-2.750
G1 X378.115 Y262.435 Z-2.750
G1 X378.690 Y261.709 Z-2.750
G1 X379.258 Y260.977 Z-2.750
G1 X379.819 Y260.241 Z-2.750
G1 X380.372 Y259.501 Z-2.750
G1 X380.919 Y258.755 Z-2.750
G1 X381.458 Y258.005 Z-2.750
G1 X381.990 Y257.251 Z-2.750
G1 X382.514 Y256.493 Z-2.750
G1 X383.031 Y255.730 Z-2.750
G1 X383.540 Y254.964 Z-2.750
G1 X384.042 Y254.193 Z-2.750
G1 X384.536 Y253.419 Z-2.750
G1 X385.023 Y252.641 Z-2.750
G1 X385.502 Y251.860 Z-2.750
G1 X385.973 Y251.074 Z-2.750
G1 X386.437 Y250.286 Z-2.750
G1 X386.893 Y249.494 Z-2.750
G1 X387.341 Y248.699 Z-2.750
G1 X387.781 Y247.901 Z-2.750
G1 X388.213 Y247.101 Z-2.750
G1 X388.637 Y246.297 Z-2.750
G1 X389.054 Y245.491 Z-2.750
G1 X389.463 Y244.682 Z-2.750
G1 X389.863 Y243.870 Z-2.750
G1 X390.256 Y243.057 Z-2.750
G1 X390.641 Y242.241 Z-2.750
G1 X391.018 Y241.422 Z-2.750
G1 X391.386 Y240.602 Z-2.750
G1 X391.747 Y239.780 Z-2.750
G1 X392.100 Y238.956 Z-2.750
G1 X392.445 Y238.131 Z-2.750
G1 X392.782 Y237.304 Z-2.750
G1 X393.111 Y236.475 Z-2.750
G1 X393.431 Y235.645 Z-2.750
G1 X393.744 Y234.814 Z-2.750
G1 X394.049 Y233.982 Z-2.750
G1 X394.346 Y233.148 Z-2.750
G1 X394.635 Y232.314 Z-2.750
G1 X394.916 Y231.479 Z-2.750
G1 X395.189 Y230.643 Z-2.750
G1 X395.454 Y229.807 Z-2.750
G1 X395.712 Y228.970 Z-2.750
G1 X395.961 Y228.133 Z-2.750
G1 X396.203 Y227.296 Z-2.750
G1 X396.436 Y226.458 Z-2.750
G1 X396.662 Y225.621 Z-2.750
G1 X396.880 Y224.783 Z-2.750
G1 X397.091 Y223.945 Z-2.750
G1 X397.293 Y223.108 Z-2.750
G1 X397.488 Y222.271 Z-2.750
G1 X397.676 Y221.435 Z-2.750
G1 X397.855 Y220.599 Z-2.750
G1 X398.028 Y219.763 Z-2.750
G1 X398.192 Y218.929 Z-2.750
G1 X398.349 Y218.095 Z-2.750
G1 X398.499 Y217.262 Z-2.750
G1 X398.641 Y216.430 Z-2.750
G1 X398.776 Y215.599 Z-2.750
G1 X398.903 Y214.769 Z-2.750
G1 X399.023 Y213.941 Z-2.750
G1 X399.136 Y213.114 Z-2.750
G1 X399.242 Y212.288 Z-2.750
G1 X399.341 Y211.464 Z-2.750
G1 X399.432 Y210.641 Z-2.750
G1 X399.517 Y209.820 Z-2.750
G1 X399.594 Y209.001 Z-2.750
G1 X399.665 Y208.184 Z-2.750
G1 X399.728 Y207.368 Z-2.750
G1 X399.785 Y206.551 Z-2.750
G1 X399.836 Y205.733 Z-2.750
G1 X399.879 Y204.915 Z-2.750
G1 X399.916 Y204.096 Z-2.750
G1 X399.946 Y203.277 Z-2.750
G1 X399.970 Y202.458 Z-2.750
G1 X399.987 Y201.639 Z-2.750
G1 X399.997 Y200.819 Z-2.750
G1 X400.000 Y200.000 Z-2.750
G1 X399.997 Y199.181 Z-2.750
G1 X399.987 Y198.361 Z-2.750
G1 X399.970 Y197.542 Z-2.750
G1 X399.946 Y196.723 Z-2.750
G1 X399.916 Y195.904 Z-2.750
G1 X399.879 Y195.085 Z-2.750
G1 X399.836 Y194.267 Z-2.750
G1 X399.785 Y193.449 Z-2.750
G1 X399.728 Y192.632 Z-2.750
G1 X399.665 Y191.816 Z-2.750
G1 X399.594 Y190.999 Z-2.750
G1 X399.517 Y190.180 Z-2.750
G1 X399.432 Y189.359 Z-2.750
G1 X399.341 Y188.536 Z-2.750
G1 X399.242 Y187.712 Z-2.750
G1 X399.136 Y186.886 Z-2.750
G1 X399.023 Y186.059 Z-2.750
G1 X398.903 Y185.231 Z-2.750
G1 X398.776 Y184.401 Z-2.750
G1 X398.641 Y183.570 Z-2.750
G1 X398.499 Y182.738 Z-2.750
G1 X398.349 Y181.905 Z-2.750
G1 X398.192 Y181.071 Z-2.750
G1 X398.028 Y180.237 Z-2.750
G1 X397.855 Y179.401 Z-2.750
G1 X397.676 Y178.565 Z-2.750
G1 X397.488 Y177.729 Z-2.750
G1 X397.293 Y176.892 Z-2.750
G1 X397.091 Y176.055 Z-2.750
G1 X396.880 Y175.217 Z-2.750
G1 X396.662 Y174.379 Z-2.750
G1 X396.436 Y173.542 Z-2.750
G1 X396.203 Y172.704 Z-2.750
G1 X395.961 Y171.867 Z-2.750
G1 X395.712 Y171.030 Z-2.750
G1 X395.454 Y170.193 Z-2.750
G1 X395.189 Y169.357 Z-2.750
G1 X394.916 Y168.521 Z-2.750
G1 X394.635 Y167.686 Z-2.750
G1 X394.346 Y166.852 Z-2.750
G1 X394.049 Y166.018 Z-2.750
G1 X393.744 Y165.186 Z-2.750
G1 X393.431 Y164.355 Z-2.750
G1 X393.111 Y163.525 Z-2.750
G1 X392.782 Y162.696 Z-2.750
G1 X392.445 Y161.869 Z-2.750
G1 X392.100 Y161.044 Z-2.750
G1 X391.747 Y160.220 Z-2.750
G1 X391.386 Y159.398 Z-2.750
G1 X391.018 Y158.578 Z-2.750
G1 X390.641 Y157.759 Z-2.750
G1 X390.256 Y156.943 Z-2.750
G1 X389.863 Y156.130 Z-2.750
G1 X389.463 Y155.318 Z-2.750
G1 X389.054 Y154.509 Z-2.750
G1 X388.637 Y153.703 Z-2.750
G1 X388.213 Y152.899 Z-2.750
G1 X387.781 Y152.099 Z-2.750
G1 X387.341 Y151.301 Z-2.750
G1 X386.893 Y150.506 Z-2.750
G1 X386.437 Y149.714 Z-2.750
G1 X385.973 Y148.926 Z-2.750
G1 X385.502 Y148.140 Z-2.750
G1 X385.023 Y147.359 Z-2.750
G1 X384.536 Y146.581 Z-2.750
G1 X384.042 Y145.807 Z-2.750
G1 X383.540 Y145.036 Z-2.750
G1 X383.031 Y144.270 Z-2.750
G1 X382.514 Y143.507 Z-2.750
G1 X381.990 Y142.749 Z-2.750
G1 X381.458 Y141.995 Z-2.750
G1 X380.919 Y141.245 Z-2.750
G1 X380.372 Y140.499 Z-2.750
G1 X379.819 Y139.759 Z-2.750
G1 X379.258 Y139.023 Z-2.750
G1 X378.690 Y138.291 Z-2.750
G1 X378.115 Y137.565 Z-2.750
G1 X377.533 Y136.844 Z-2.750
G1 X376.943 Y136.127 Z-2.750
G1 X376.348 Y135.416 Z-2.750
G1 X375.745 Y134.711 Z-2.750
G1 X375.135 Y134.010 Z-2.750
G1 X374.519 Y133.315 Z-2.750
G1 X373.897 Y132.626 Z-2.750
G1 X373.267 Y131.942 Z-2.750
G1 X372.632 Y131.264 Z-2.750
G1 X371.990 Y130.592 Z-2.750
G1 X371.342 Y129.926 Z-2.750
G1 X370.687 Y129.266 Z-2.750
G1 X370.027 Y128.612 Z-2.750
G1 X369.360 Y127.964 Z-2.750
G1 X368.687 Y127.322 Z-2.750
G1 X368.009 Y126.687 Z-2.750
G1 X367.325 Y126.058 Z-2.750
G1 X366.635 Y125.436 Z-2.750
G1 X365.940 Y124.821 Z-2.750
G1 X365.239 Y124.212 Z-2.750
G1 X364.533 Y123.609 Z-2.750
G1 X363.821 Y123.014 Z-2.750
G1 X363.105 Y122.425 Z-2.750
G1 X362.383 Y121.844 Z-2.750
G1 X361.656 Y121.269 Z-2.750
G1 X360.924 Y120.702 Z-2.750
G1 X360.188 Y120.141 Z-2.750
G1 X359.447 Y119.588 Z-2.750
G1 X358.701 Y119.042 Z-2.750
G1 X357.951 Y118.504 Z-2.750
G1 X357.197 Y117.972 Z-2.750
G1 X356.438 Y117.448 Z-2.750
G1 X355.675 Y116.932 Z-2.750
G1 X354.908 Y116.423 Z-2.750
G1 X354.137 Y115.922 Z-2.750
G1 X353.363 Y115.428 Z-2.750
G1 X352.584 Y114.942 Z-2.750
G1 X351.802 Y114.463 Z-2.750
G1 X351.017 Y113.993 Z-2.750
G1 X350.228 Y113.530 Z-2.750
G1 X349.436 Y113.074 Z-2.750
G1 X348.641 Y112.627 Z-2.750
G1 X347.843 Y112.187 Z-2.750
G1 X347.042 Y111.756 Z-2.750
G1 X346.238 Y111.332 Z-2.750
G1 X345.431 Y110.916 Z-2.750
G1 X344.622 Y110.508 Z-2.750
G1 X343.810 Y110.108 Z-2.750
G1 X342.996 Y109.715 Z-2.750
G1 X342.180 Y109.331 Z-2.750
G1 X341.362 Y108.955 Z-2.750
G1 X340.541 Y108.587 Z-2.750
G1 X339.719 Y108.226 Z-2.750
G1 X338.895 Y107.874 Z-2.750
G1 X338.069 Y107.530 Z-2.750
G1 X337.242 Y107.193 Z-2.750
G1 X336.413 Y106.865 Z-2.750
G1 X335.583 Y106.545 Z-2.750
G1 X334.751 Y106.233 Z-2.750
G1 X333.919 Y105.928 Z-2.750
G1 X333.085 Y105.632 Z-2.750
G1 X332.251 Y105.343 Z-2.750
G1 X331.416 Y105.063 Z-2.750
G1 X330.580 Y104.790 Z-2.750
G1 X329.743 Y104.526 Z-2.750
G1 X328.907 Y104.269 Z-2.750
G1 X328.069 Y104.020 Z-2.750
G1 X327.232 Y103.779 Z-2.750
G1 X326.394 Y103.546 Z-2.750
G1 X325.556 Y103.321 Z-2.750
G1 X324.718 Y103.103 Z-2.750
G1 X323.881 Y102.893 Z-2.750
G1 X323.043 Y102.691 Z-2.750
G1 X322.206 Y102.497 Z-2.750
G1 X321.369 Y102.310 Z-2.750
G1 X320.533 Y102.131 Z-2.750
G1 X319.698 Y101.959 Z-2.750
G1 X318.863 Y101.795 Z-2.750
G1 X318.029 Y101.639 Z-2.750
G1 X317.196 Y101.490 Z-2.750
G1 X316.364 Y101.348 Z-2.750
G1 X315.533 Y101.214 Z-2.750
G1 X314.703 Y101.087 Z-2.750
G1 X313.875 Y100.967 Z-2.750
G1 X313.048 Y100.855 Z-2.750
G1 X312.222 Y100.750 Z-2.750
G1 X311.398 Y100.652 Z-2.750
G1 X310.575 Y100.561 Z-2.750
G1 X309.754 Y100.477 Z-2.750
G1 X308.935 Y100.400 Z-2.750
G1 X308.117 Y100.330 Z-2.750
G1 X307.302 Y100.267 Z-2.750
G1 X306.492 Y100.211 Z-2.750
G1 X305.681 Y100.162 Z-2.750
G1 X304.870 Y100.119 Z-2.750
G1 X304.059 Y100.082 Z-2.750
G1 X303.248 Y100.053 Z-2.750
G1 X302.436 Y100.030 Z-2.750
G1 X301.624 Y100.013 Z-2.750
G1 X300.812 Y100.003 Z-2.750
G1 X300.000 Y100.000 Z-2.750
G1 X299.181 Y100.003 Z-2.750
G1 X298.361 Y100.013 Z-2.750
G1 X297.542 Y100.030 Z-2.750
G1 X296.723 Y100.054 Z-2.750
G1 X295.904 Y100.084 Z-2.750
G1 X295.085 Y100.121 Z-2.750
G1 X294.267 Y100.164 Z-2.750
G1 X293.449 Y100.215 Z-2.750
G1 X292.632 Y100.272 Z-2.750
G1 X291.816 Y100.335 Z-2.750
G1 X290.999 Y100.406 Z-2.750
G1 X290.180 Y100.483 Z-2.750
G1 X289.359 Y100.568 Z-2.750
G1 X288.536 Y100.659 Z-2.750
G1 X287.712 Y100.758 Z-2.750
G1 X286.886 Y100.864 Z-2.750
G1 X286.059 Y100.977 Z-2.750
G1 X285.231 Y101.097 Z-2.750
G1 X284.401 Y101.224 Z-2.750
G1 X283.570 Y101.359 Z-2.750
G1 X282.738 Y101.501 Z-2.750
G1 X281.905 Y101.651 Z-2.750
G1 X281.071 Y101.808 Z-2.750
G1 X280.237 Y101.972 Z-2.750
G1 X279.401 Y102.145 Z-2.750
G1 X278.565 Y102.324 Z-2.750
G1 X277.729 Y102.512 Z-2.750
G1 X276.892 Y102.707 Z-2.750
G1 X276.055 Y102.909 Z-2.750
G1 X275.217 Y103.120 Z-2.750
G1 X274.379 Y103.338 Z-2.750
G1 X273.542 Y103.564 Z-2.750
G1 X272.704 Y103.797 Z-2.750
G1 X271.867 Y104.039 Z-2.750
G1 X271.030 Y104.288 Z-2.750
G1 X270.193 Y104.546 Z-2.750
G1 X269.357 Y104.811 Z-2.750
G1 X268.521 Y105.084 Z-2.750
G1 X267.686 Y105.365 Z-2.750
G1 X266.852 Y105.654 Z-2.750
G1 X266.018 Y105.951 Z-2.750
G1 X265.186 Y106.256 Z-2.750
G1 X264.355 Y106.569 Z-2.750
G1 X263.525 Y106.889 Z-2.750
G1 X262.696 Y107.218 Z-2.750
G1 X261.869 Y107.555 Z-2.750
G1 X261.044 Y107.900 Z-2.750
G1 X260.220 Y108.253 Z-2.750
G1 X259.398 Y108.614 Z-2.750
G1 X258.578 Y108.982 Z-2.750
G1 X257.759 Y109.359 Z-2.750
G1 X256.943 Y109.744 Z-2.750
G1 X256.130 Y110.137 Z-2.750
G1 X255.318 Y110.537 Z-2.750
G1 X254.509 Y110.946 Z-2.750
G1 X253.703 Y111.363 Z-2.750
G1 X252.899 Y111.787 Z-2.750
G1 X252.099 Y112.219 Z-2.750
G1 X251.301 Y112.659 Z-2.750
G1 X250.506 Y113.107 Z-2.750
G1 X249.714 Y113.563 Z-2.750
G1 X248.926 Y114.027 Z-2.750
G1 X248.140 Y114.498 Z-2.750
G1 X247.359 Y114.977 Z-2.750
G1 X246.581 Y115.464 Z-2.750
G1 X245.807 Y115.958 Z-2.750
G1 X245.036 Y116.460 Z-2.750
G1 X244.270 Y116.969 Z-2.750
G1 X243.507 Y117.486 Z-2.750
G1 X242.749 Y118.010 Z-2.750
G1 X241.995 Y118.542 Z-2.750
G1 X241.245 Y119.081 Z-2.750
G1 X240.499 Y119.628 Z-2.750
G1 X239.759 Y120.181 Z-2.750
G1 X239.023 Y120.742 Z-2.750
G1 X238.291 Y121.310 Z-2.750
G1 X237.565 Y121.885 Z-2.750
G1 X236.844 Y122.468 Z-2.750
G1 X236.127 Y123.057 Z-2.750
G1 X235.416 Y123.652 Z-2.750
G1 X234.711 Y124.255 Z-2.750
G1 X234.010 Y124.865 Z-2.750
G1 X233.315 Y125.481 Z-2.750
G1 X232.626 Y126.103 Z-2.750
G1 X231.942 Y126.733 Z-2.750
G1 X231.264 Y127.368 Z-2.750
G1 X230.592 Y128.010 Z-2.750
G1 X229.926 Y128.658 Z-2.750
G1 X229.266 Y129.313 Z-2.750
G1 X228.612 Y129.973 Z-2.750
G1 X227.964 Y130.640 Z-2.750
G1 X227.322 Y131.313 Z-2.750
G1 X226.687 Y131.991 Z-2.750
G1 X226.058 Y132.675 Z-2.750
G1 X225.436 Y133.365 Z-2.750
G1 X224.821 Y134.060 Z-2.750
G1 X224.212 Y134.761 Z-2.750
G1 X223.609 Y135.467 Z-2.750
G1 X223.014 Y136.179 Z-2.750
G1 X222.425 Y136.895 Z-2.750
G1 X221.844 Y137.617 Z-2.750
G1 X221.269 Y138.344 Z-2.750
G1 X220.702 Y139.076 Z-2.750
G1 X220.141 Y139.812 Z-2.750
G1 X219.588 Y140.553 Z-2.750
G1 X219.042 Y141.299 Z-2.750
G1 X218.504 Y142.049 Z-2.750
G1 X217.972 Y142.803 Z-2.750
G1 X217.448 Y143.562 Z-2.750
G1 X216.932 Y144.325 Z-2.750
G1 X216.423 Y145.092 Z-2.750
G1 X215.922 Y145.863 Z-2.750
G1 X215.428 Y146.637 Z-2.750
G1 X214.942 Y147.416 Z-2.750
G1 X214.463 Y148.198 Z-2.750
G1 X213.993 Y148.983 Z-2.750
G1 X213.530 Y149.772 Z-2.750
G1 X213.074 Y150.564 Z-2.750
G1 X212.627 Y151.359 Z-2.750
G1 X212.187 Y152.157 Z-2.750
G1 X211.756 Y152.958 Z-2.750
G1 X211.332 Y153.762 Z-2.750
G1 X210.916 Y154.569 Z-2.750
G1 X210.508 Y155.378 Z-2.750
G1 X210.108 Y156.190 Z-2.750
G1 X209.715 Y157.004 Z-2.750
G1 X209.331 Y157.820 Z-2.750
G1 X208.955 Y158.638 Z-2.750
G1 X208.587 Y159.459 Z-2.750
G1 X208.226 Y160.281 Z-2.750
G1 X207.874 Y161.105 Z-2.750
G1 X207.530 Y161.931 Z-2.750
G1 X207.193 Y162.758 Z-2.750
G1 X206.865 Y163.587 Z-2.750
G1 X206.545 Y164.417 Z-2.750
G1 X206.233 Y165.249 Z-2.750
G1 X205.928 Y166.081 Z-2.750
G1 X205.632 Y166.915 Z-2.750
G1 X205.343 Y167.749 Z-2.750
G1 X205.063 Y168.584 Z-2.750
G1 X204.790 Y169.420 Z-2.750
G1 X204.526 Y170.257 Z-2.750
G1 X204.269 Y171.093 Z-2.750
G1 X204.020 Y171.931 Z-2.750
G1 X203.779 Y172.768 Z-2.750
G1 X203.546 Y173.606 Z-2.750
G1 X203.321 Y174.444 Z-2.750
G1 X203.103 Y175.282 Z-2.750
G1 X202.893 Y176.119 Z-2.750
G1 X202.691 Y176.957 Z-2.750
G1 X202.497 Y177.794 Z-2.750
G1 X202.310 Y178.631 Z-2.750
G1 X202.131 Y179.467 Z-2.750
G1 X201.959 Y180.302 Z-2.750
G1 X201.795 Y181.137 Z-2.750
G1 X201.639 Y181.971 Z-2.750
G1 X201.490 Y182.804 Z-2.750
G1 X201.348 Y183.636 Z-2.750
G1 X201.214 Y184.467 Z-2.750
G1 X201.087 Y185.297 Z-2.750
G1 X200.967 Y186.125 Z-2.750
G1 X200.855 Y186.952 Z-2.750
G1 X200.750 Y187.778 Z-2.750
G1 X200.652 Y188.602 Z-2.750
G1 X200.561 Y189.425 Z-2.750
G1 X200.477 Y190.246 Z-2.750
G1 X200.400 Y191.065 Z-2.750
G1 X200.330 Y191.883 Z-2.750
G1 X200.267 Y192.698 Z-2.750
G1 X200.267 Y192.698 Z-3.667 F635.0
G1 X200.211 Y193.508 Z-3.667 F180.0
G1 X200.162 Y194.319 Z-3.667
G1 X200.119 Y195.130 Z-3.667
G1 X200.082 Y195.941 Z-3.667
G1 X200.053 Y196.752 Z-3.667
G1 X200.030 Y197.564 Z-3.667
G1 X200.013 Y198.376 Z-3.667
G1 X200.003 Y199.188 Z-3.667
G1 X200.000 Y200.000 Z-3.667
G1 X200.003 Y200.819 Z-3.667
G1 X200.013 Y201.639 Z-3.667
G1 X200.030 Y202.458 Z-3.667
G1 X200.054 Y203.277 Z-3.667
G1 X200.084 Y204.096 Z-3.667
G1 X200.121 Y204.915 Z-3.667
G1 X200.164 Y205.733 Z-3.667
G1 X200.215 Y206.551 Z-3.667
G1 X200.272 Y207.368 Z-3.667
G1 X200.335 Y208.184 Z-3.667
G1 X200.406 Y209.001 Z-3.667
G1 X200.483 Y209.820 Z-3.667
G1 X200.568 Y210.641 Z-3.667
G1 X200.659 Y211.464 Z-3.667
G1 X200.758 Y212.288 Z-3.667
G1 X200.864 Y213.114 Z-3.667
G1 X200.977 Y213.941 Z-3.667
G1 X201.097 Y214.769 Z-3.667
G1 X201.224 Y215.599 Z-3.667
G1 X201.359 Y216.430 Z-3.667
G1 X201.501 Y217.262 Z-3.667
G1 X201.651 Y218.095 Z-3.667
G1 X201.808 Y218.929 Z-3.667
G1 X201.972 Y219.763 Z-3.667
G1 X202.145 Y220.599 Z-3.667
G1 X202.324 Y221.435 Z-3.667
G1 X202.512 Y222.271 Z-3.667
G1 X202.707 Y223.108 Z-3.667
G1 X202.909 Y223.945 Z-3.667
G1 X203.120 Y224.783 Z-3.667
G1 X203.338 Y225.621 Z-3.667
G1 X203.564 Y226.458 Z-3.667
G1 X203.797 Y227.296 Z-3.667
G1 X204.039 Y228.133 Z-3.667
G1 X204.288 Y228.970 Z-3.667
G1 X204.546 Y229.807 Z-3.667
G1 X204.811 Y230.643 Z-3.667
G1 X205.084 Y231.479 Z-3.667
G1 X205.365 Y232.314 Z-3.667
G1 X205.654 Y233.148 Z-3.667
G1 X205.951 Y233.982 Z-3.667
G1 X206.256 Y234.814 Z-3.667
G1 X206.569 Y235.645 Z-3.667
G1 X206.889 Y236.475 Z-3.667
G1 X207.218 Y237.304 Z-3.667
G1 X207.555 Y238.131 Z-3.667
G1 X207.900 Y238.956 Z-3.667
G1 X208.253 Y239.780 Z-3.667
G1 X208.614 Y240.602 Z-3.667
G1 X208.982 Y241.422 Z-3.667
G1 X209.359 Y242.241 Z-3.667
G1 X209.744 Y243.057 Z-3.667
G1 X210.137 Y243.870 Z-3.667
G1 X210.537 Y244.682 Z-3.667
G1 X210.946 Y245.491 Z-3.667
G1 X211.363 Y246.297 Z-3.667
G1 X211.787 Y247.101 Z-3.667
G1 X212.219 Y247.901 Z-3.667
G1 X212.659 Y248.699 Z-3.667
G1 X213.107 Y249.494 Z-3.667
G1 X213.563 Y250.286 Z-3.667
G1 X214.027 Y251.074 Z-3.667
G1 X214.498 Y251.860 Z-3.667
G1 X214.977 Y252.641 Z-3.667
G1 X215.464 Y253.419 Z-3.667
G1 X215.958 Y254.193 Z-3.667
G1 X216.460 Y254.964 Z-3.667
G1 X216.969 Y255.730 Z-3.667
G1 X217.486 Y256.493 Z-3.667
G1 X218.010 Y257.251 Z-3.667
G1 X218.542 Y258.005 Z-3.667
G1 X219.081 Y258.755 Z-3.667
G1 X219.628 Y259.501 Z-3.667
G1 X220.182 Y260.241 Z-3.667
G1 X220.742 Y260.977 Z-3.667
G1 X221.310 Y261.709 Z-3.667
G1 X221.885 Y262.435 Z-3.667
G1 X222.468 Y263.156 Z-3.667
G1 X223.057 Y263.873 Z-3.667
G1 X223.652 Y264.584 Z-3.667
G1 X224.255 Y265.289 Z-3.667
G1 X224.865 Y265.990 Z-3.667
G1 X225.481 Y266.685 Z-3.667
G1 X226.103 Y267.374 Z-3.667
G1 X226.733 Y268.058 Z-3.667
G1 X227.368 Y268.736 Z-3.667
G1 X228.010 Y269.408 Z-3.667
G1 X228.658 Y270.074 Z-3.667
G1 X229.313 Y270.734 Z-3.667
G1 X229.973 Y271.388 Z-3.667
G1 X230.640 Y272.036 Z-3.667
G1 X231.313 Y272.678 Z-3.667
G1 X231.991 Y273.313 Z-3.667
G1 X232.675 Y273.942 Z-3.667
G1 X233.365 Y274.564 Z-3.667
G1 X234.060 Y275.179 Z-3.667
G1 X234.761 Y275.788 Z-3.667
G1 X235.467 Y276.391 Z-3.667
G1 X236.179 Y276.986 Z-3.667
G1 X236.895 Y277.575 Z-3.667
G1 X237.617 Y278.156 Z-3.667
G1 X238.344 Y278.731 Z-3.667
G1 X239.076 Y279.298 Z-3.667
G1 X239.812 Y279.859 Z-3.667
G1 X240.553 Y280.412 Z-3.667
G1 X241.299 Y280.958 Z-3.667
G1 X242.049 Y281.496 Z-3.667
G1 X242.803 Y282.028 Z-3.667
G1 X243.562 Y282.552 Z-3.667
G1 X244.325 Y283.068 Z-3.667
G1 X245.092 Y283.577 Z-3.667
G1 X245.863 Y284.078 Z-3.667
G1 X246.637 Y284.572 Z-3.667
G1 X247.416 Y285.058 Z-3.667
G1 X248.198 Y285.537 Z-3.667
G1 X248.983 Y286.007 Z-3.667
G1 X249.772 Y286.470 Z-3.667
G1 X250.564 Y286.926 Z-3.667
G1 X251.359 Y287.373 Z-3.667
G1 X252.157 Y287.813 Z-3.667
G1 X252.958 Y288.244 Z-3.667
G1 X253.762 Y288.668 Z-3.667
G1 X254.569 Y289.084 Z-3.667
G1 X255.378 Y289.492 Z-3.667
G1 X256.190 Y289.892 Z-3.667
G1 X257.004 Y290.285 Z-3.667
G1 X257.820 Y290.669 Z-3.667
G1 X258.638 Y291.045 Z-3.667
G1 X259.459 Y291.413 Z-3.667
G1 X260.281 Y291.774 Z-3.667
G1 X261.105 Y292.126 Z-3.667
G1 X261.931 Y292.470 Z-3.667
G1 X262.758 Y292.807 Z-3.667
G1 X263.587 Y293.135 Z-3.667
G1 X264.417 Y293.455 Z-3.667
G1 X265.249 Y293.767 Z-3.667
G1 X266.081 Y294.072 Z-3.667
G1 X266.915 Y294.368 Z-3.667
G1 X267.749 Y294.657 Z-3.667
G1 X268.584 Y294.937 Z-3.667
G1 X269.420 Y295.210 Z-3.667
G1 X270.257 Y295.474 Z-3.667
G1 X271.093 Y295.731 Z-3.667
G1 X271.931 Y295.980 Z-3.667
G1 X272.768 Y296.221 Z-3.667
G1 X273.606 Y296.454 Z-3.667
G1 X274.444 Y296.679 Z-3.667
G1 X275.282 Y296.897 Z-3.667
G1 X276.119 Y297.107 Z-3.667
G1 X276.957 Y297.309 Z-3.667
G1 X277.794 Y297.503 Z-3.667
G1 X278.631 Y297.690 Z-3.667
G1 X279.467 Y297.869 Z-3.667
G1 X280.302 Y298.041 Z-3.667
G1 X281.137 Y298.205 Z-3.667
G1 X281.971 Y298.361 Z-3.667
G1 X282.804 Y298.510 Z-3.667
G1 X283.636 Y298.652 Z-3.667
G1 X284.467 Y298.786 Z-3.667
G1 X285.297 Y298.913 Z-3.667
G1 X286.125 Y299.033 Z-3.667
G1 X286.952 Y299.145 Z-3.667
G1 X287.778 Y299.250 Z-3.667
G1 X288.602 Y299.348 Z-3.667
G1 X289.425 Y299.439 Z-3.667
G1 X290.246 Y299.523 Z-3.667
G1 X291.065 Y299.600 Z-3.667
G1 X291.883 Y299.670 Z-3.667
G1 X292.698 Y299.733 Z-3.667
G1 X293.508 Y299.789 Z-3.667
G1 X294.319 Y299.838 Z-3.667
G1 X295.130 Y299.881 Z-3.667
G1 X295.941 Y299.918 Z-3.667
G1 X296.752 Y299.947 Z-3.667
G1 X297.564 Y299.970 Z-3.667
G1 X298.376 Y299.987 Z-3.667
G1 X299.188 Y299.997 Z-3.667
G1 X300.000 Y300.000 Z-3.667
G1 X300.812 Y299.997 Z-3.667
G1 X301.624 Y299.987 Z-3.667
G1 X302.436 Y299.970 Z-3.667
G1 X303.248 Y299.947 Z-3.667
G1 X304.059 Y299.918 Z-3.667
G1 X304.870 Y299.881 Z-3.667
G1 X305.681 Y299.838 Z-3.667
G1 X306.492 Y299.789 Z-3.667
G1 X307.302 Y299.733 Z-3.667
G1 X308.117 Y299.670 Z-3.667
G1 X308.935 Y299.600 Z-3.667
G1 X309.754 Y299.523 Z-3.667
G1 X310.575 Y299.439 Z-3.667
G1 X311.398 Y299.348 Z-3.667
G1 X312.222 Y299.250 Z-3.667
G1 X313.048 Y299.145 Z-3.667
G1 X313.875 Y299.033 Z-3.667
G1 X314.703 Y298.913 Z-3.667
G1 X315.533 Y298.786 Z-3.667
G1 X316.364 Y298.652 Z-3.667
G1 X317.196 Y298.510 Z-3.667
G1 X318.029 Y298.361 Z-3.667
G1 X318.863 Y298.205 Z-3.667
G1 X319.698 Y298.041 Z-3.667
G1 X320.533 Y297.869 Z-3.667
G1 X321.369 Y297.690 Z-3.667
G1 X322.206 Y297.503 Z-3.667
G1 X323.043 Y297.309 Z-3.667
G1 X323.881 Y297.107 Z-3.667
G1 X324.718 Y296.897 Z-3.667
G1 X325.556 Y296.679 Z-3.667
G1 X326.394 Y296.454 Z-3.667
G1 X327.232 Y296.221 Z-3.667
G1 X328.069 Y295.980 Z-3.667
G1 X328.907 Y295.731 Z-3.667
G1 X329.743 Y295.474 Z-3.667
G1 X330.580 Y295.210 Z-3.667
G1 X331.416 Y294.937 Z-3.667
G1 X332.251 Y294.657 Z-3.667
G1 X333.085 Y294.368 Z-3.667
G1 X333.919 Y294.072 Z-3.667
G1 X334.751 Y293.767 Z-3.667
G1 X335.583 Y293.455 Z-3.667
G1 X336.413 Y293.135 Z-3.667
G1 X337.242 Y292.807 Z-3.667
G1 X338.069 Y292.470 Z-3.667
G1 X338.895 Y292.126 Z-3.667
G1 X339.719 Y291.774 Z-3.667
G1 X340.541 Y291.413 Z-3.667
G1 X341.362 Y291.045 Z-3.667
G1 X342.180 Y290.669 Z-3.667
G1 X342.996 Y290.285 Z-3.667
G1 X343.810 Y289.892 Z-3.667
G1 X344.622 Y289.492 Z-3.667
G1 X345.431 Y289.084 Z-3.667
G1 X346.238 Y288.668 Z-3.667
G1 X347.042 Y288.244 Z-3.667
G1 X347.843 Y287.813 Z-3.667
G1 X348.641 Y287.373 Z-3.667
G1 X349.436 Y286.926 Z-3.667
G1 X350.228 Y286.470 Z-3.667
G1 X351.017 Y286.007 Z-3.667
G1 X351.802 Y285.537 Z-3.667
G1 X352.584 Y285.058 Z-3.667
G1 X353.363 Y284.572 Z-3.667
G1 X354.137 Y284.078 Z-3.667
G1 X354.908 Y283.577 Z-3.667
G1 X355.675 Y283.068 Z-3.667
G1 X356.438 Y282.552 Z-3.667
G1 X357.197 Y282.028 Z-3.667
G1 X357.951 Y281.496 Z-3.667
G1 X358.701 Y280.958 Z-3.667
G1 X359.447 Y280.412 Z-3.667
G1 X360.188 Y279.859 Z-3.667
G1 X360.924 Y279.298 Z-3.667
G1 X361.656 Y278.731 Z-3.667
G1 X362.383 Y278.156 Z-3.667
G1 X363.105 Y277.575 Z-3.667
G1 X363.821 Y276.986 Z-3.667
G1 X364.533 Y276.391 Z-3.667
G1 X365.239 Y275.788 Z-3.667
G1 X365.940 Y275.179 Z-3.667
G1 X366.635 Y274.564 Z-3.667
G1 X367.325 Y273.942 Z-3.667
G1 X368.009 Y273.313 Z-3.667
G1 X368.687 Y272.678 Z-3.667
G1 X369.360 Y272.036 Z-3.667
G1 X370.027 Y271.388 Z-3.667
G1 X370.687 Y270.734 Z-3.667
G1 X371.342 Y270.074 Z-3.667
G1 X371.990 Y269.408 Z-3.667
G1 X372.632 Y268.736 Z-3.667
G1 X373.267 Y268.058 Z-3.667
G1 X373.897 Y267.374 Z-3.667
G1 X374.519 Y266.685 Z-3.667
G1 X375.135 Y265.990 Z-3.667
G1 X375.745 Y265.289 Z-3.667
G1 X376.348 Y264.584 Z-3.667
G1 X376.943 Y263.873 Z-3.667
G1 X377.533 Y263.156 Z-3.667
G1 X378.115 Y262.435 Z-3.667
G1 X378.690 Y261.709 Z-3.667
G1 X379.258 Y260.977 Z-3.667
G1 X379.819 Y260.241 Z-3.667
G1 X380.372 Y259.501 Z-3.667
G1 X380.919 Y258.755 Z-3.667
G1 X381.458 Y258.005 Z-3.667
G1 X381.990 Y257.251 Z-3.667
G1 X382.514 Y256.493 Z-3.667
G1 X383.031 Y255.730 Z-3.667
G1 X383.540 Y254.964 Z-3.667
G1 X384.042 Y254.193 Z-3.667
G1 X384.536 Y253.419 Z-3.667
G1 X385.023 Y252.641 Z-3.667
G1 X385.502 Y251.860 Z-3.667
G1 X385.973 Y251.074 Z-3.667
G1 X386.437 Y250.286 Z-3.667
G1 X386.893 Y249.494 Z-3.667
G1 X387.341 Y248.699 Z-3.667
G1 X387.781 Y247.901 Z-3.667
G1 X388.213 Y247.101 Z-3.667
G1 X388.637 Y246.297 Z-3.667
G1 X389.054 Y245.491 Z-3.667
G1 X389.463 Y244.682 Z-3.667
G1 X389.863 Y243.870 Z-3.667
G1 X390.256 Y243.057 Z-3.667
G1 X390.641 Y242.241 Z-3.667
G1 X391.018 Y241.422 Z-3.667
G1 X391.386 Y240.602 Z-3.667
G1 X391.747 Y239.780 Z-3.667
G1 X392.100 Y238.956 Z-3.667
G1 X392.445 Y238.131 Z-3.667
G1 X392.782 Y237.304 Z-3.667
G1 X393.111 Y236.475 Z-3.667
G1 X393.431 Y235.645 Z-3.667
G1 X393.744 Y234.814 Z-3.667
G1 X394.049 Y233.982 Z-3.667
G1 X394.346 Y233.148 Z-3.667
G1 X394.635 Y232.314 Z-3.667
G1 X394.916 Y231.479 Z-3.667
G1 X395.189 Y230.643 Z-3.667
G1 X395.454 Y229.807 Z-3.667
G1 X395.712 Y228.970 Z-3.667
G1 X395.961 Y228.133 Z-3.667
G1 X396.203 Y227.296 Z-3.667
G1 X396.436 Y226.458 Z-3.667
G1 X396.662 Y225.621 Z-3.667
G1 X396.880 Y224.783 Z-3.667
G1 X397.091 Y223.945 Z-3.667
G1 X397.293 Y223.108 Z-3.667
G1 X397.488 Y222.271 Z-3.667
G1 X397.676 Y221.435 Z-3.667
G1 X397.855 Y220.599 Z-3.667
G1 X398.028 Y219.763 Z-3.667
G1 X398.192 Y218.929 Z-3.667
G1 X398.349 Y218.095 Z-3.667
G1 X398.499 Y217.262 Z-3.667
G1 X398.641 Y216.430 Z-3.667
G1 X398.776 Y215.599 Z-3.667
G1 X398.903 Y214.769 Z-3.667
G1 X399.023 Y213.941 Z-3.667
G1 X399.136 Y213.114 Z-3.667
G1 X399.242 Y212.288 Z-3.667
G1 X399.341 Y211.464 Z-3.667
G1 X399.432 Y210.641 Z-3.667
G1 X399.517 Y209.820 Z-3.667
G1 X399.594 Y209.001 Z-3.667
G1 X399.665 Y208.184 Z-3.667
G1 X399.728 Y207.368 Z-3.667
G1 X399.785 Y206.551 Z-3.667
G1 X399.836 Y205.733 Z-3.667
G1 X399.879 Y204.915 Z-3.667
G1 X399.916 Y204.096 Z-3.667
G1 X399.946 Y203.277 Z-3.667
G1 X399.970 Y202.458 Z-3.667
G1 X399.987 Y201.639 Z-3.667
G1 X399.997 Y200.819 Z-3.667
G1 X400.000 Y200.000 Z-3.667
G1 X399.997 Y199.181 Z-3.667
G1 X399.987 Y198.361 Z-3.667
G1 X399.970 Y197.542 Z-3.667
G1 X399.946 Y196.723 Z-3.667
G1 X399.916 Y195.904 Z-3.667
G1 X399.879 Y195.085 Z-3.667
G1 X399.836 Y194.267 Z-3.667
G1 X399.785 Y193.449 Z-3.667
G1 X399.728 Y192.632 Z-3.667
G1 X399.665 Y191.816 Z-3.667
G1 X399.594 Y190.999 Z-3.667
G1 X399.517 Y190.180 Z-3.667
G1 X399.432 Y189.359 Z-3.667
G1 X399.341 Y188.536 Z-3.667
G1 X399.242 Y187.712 Z-3.667
G1 X399.136 Y186.886 Z-3.667
G1 X399.023 Y186.059 Z-3.667
G1 X398.903 Y185.231 Z-3.667
G1 X398.776 Y184.401 Z-3.667
G1 X398.641 Y183.570 Z-3.667
G1 X398.499 Y182.738 Z-3.667
G1 X398.349 Y181.905 Z-3.667
G1 X398.192 Y181.071 Z-3.667
G1 X398.028 Y180.237 Z-3.667
G1 X397.855 Y179.401 Z-3.667
G1 X397.676 Y178.565 Z-3.667
G1 X397.488 Y177.729 Z-3.667
G1 X397.293 Y176.892 Z-3.667
G1 X397.091 Y176.055 Z-3.667
G1 X396.880 Y175.217 Z-3.667
G1 X396.662 Y174.379 Z-3.667
G1 X396.436 Y173.542 Z-3.667
G1 X396.203 Y172.704 Z-3.667
G1 X395.961 Y171.867 Z-3.667
G1 X395.712 Y171.030 Z-3.667
G1 X395.454 Y170.193 Z-3.667
G1 X395.189 Y169.357 Z-3.667
G1 X394.916 Y168.521 Z-3.667
G1 X394.635 Y167.686 Z-3.667
G1 X394.346 Y166.852 Z-3.667
G1 X394.049 Y166.018 Z-3.667
G1 X393.744 Y165.186 Z-3.667
G1 X393.431 Y164.355 Z-3.667
G1 X393.111 Y163.525 Z-3.667
G1 X392.782 Y162.696 Z-3.667
G1 X392.445 Y161.869 Z-3.667
G1 X392.100 Y161.044 Z-3.667
G1 X391.747 Y160.220 Z-3.667
G1 X391.386 Y159.398 Z-3.667
G1 X391.018 Y158.578 Z-3.667
G1 X390.641 Y157.759 Z-3.667
G1 X390.256 Y156.943 Z-3.667
G1 X389.863 Y156.130 Z-3.667
G1 X389.463 Y155.318 Z-3.667
G1 X389.054 Y154.509 Z-3.667
G1 X388.637 Y153.703 Z-3.667
G1 X388.213 Y152.899 Z-3.667
G1 X387.781 Y152.099 Z-3.667
G1 X387.341 Y151.301 Z-3.667
G1 X386.893 Y150.506 Z-3.667
G1 X386.437 Y149.714 Z-3.667
G1 X385.973 Y148.926 Z-3.667
G1 X385.502 Y148.140 Z-3.667
G1 X385.023 Y147.359 Z-3.667
G1 X384.536 Y146.581 Z-3.667
G1 X384.042 Y145.807 Z-3.667
G1 X383.540 Y145.036 Z-3.667
G1 X383.031 Y144.270 Z-3.667
G1 X382.514 Y143.507 Z-3.667
G1 X381.990 Y142.749 Z-3.667
G1 X381.458 Y141.995 Z-3.667
G1 X380.919 Y141.245 Z-3.667
G1 X380.372 Y140.499 Z-3.667
G1 X379.819 Y139.759 Z-3.667
G1 X379.258 Y139.023 Z-3.667
G1 X378.690 Y138.291 Z-3.667
G1 X378.115 Y137.565 Z-3.667
G1 X377.533 Y136.844 Z-3.667
G1 X376.943 Y136.127 Z-3.667
G1 X376.348 Y135.416 Z-3.667
G1 X375.745 Y134.711 Z-3.667
G1 X375.135 Y134.010 Z-3.667
G1 X374.519 Y133.315 Z-3.667
G1 X373.897 Y132.626 Z-3.667
G1 X373.267 Y131.942 Z-3.667
G1 X372.632 Y131.264 Z-3.667
G1 X371.990 Y130.592 Z-3.667
G1 X371.342 Y129.926 Z-3.667
G1 X370.687 Y129.266 Z-3.667
G1 X370.027 Y128.612 Z-3.667
G1 X369.360 Y127.964 Z-3.667
G1 X368.687 Y127.322 Z-3.667
G1 X368.009 Y126.687 Z-3.667
G1 X367.325 Y126.058 Z-3.667
G1 X366.635 Y125.436 Z-3.667
G1 X365.940 Y124.821 Z-3.667
G1 X365.239 Y124.212 Z-3.667
G1 X364.533 Y123.609 Z-3.667
G1 X363.821 Y123.014 Z-3.667
G1 X363.105 Y122.425 Z-3.667
G1 X362.383 Y121.844 Z-3.667
G1 X361.656 Y121.269 Z-3.667
G1 X360.924 Y120.702 Z-3.667
G1 X360.188 Y120.141 Z-3.667
G1 X359.447 Y119.588 Z-3.667
G1 X358.701 Y119.042 Z-3.667
G1 X357.951 Y118.504 Z-3.667
G1 X357.197 Y117.972 Z-3.667
G1 X356.438 Y117.448 Z-3.667
G1 X355.675 Y116.932 Z-3.667
G1 X354.908 Y116.423 Z-3.667
G1 X354.137 Y115.922 Z-3.667
G1 X353.363 Y115.428 Z-3.667
G1 X352.584 Y114.942 Z-3.667
G1 X351.802 Y114.463 Z-3.667
G1 X351.017 Y113.993 Z-3.667
G1 X350.228 Y113.530 Z-3.667
G1 X349.436 Y113.074 Z-3.667
G1 X348.641 Y112.627 Z-3.667
G1 X347.843 Y112.187 Z-3.667
G1 X347.042 Y111.756 Z-3.667
G1 X346.238 Y111.332 Z-3.667
G1 X345.431 Y110.916 Z-3.667
G1 X344.622 Y110.508 Z-3.667
G1 X343.810 Y110.108 Z-3.667
G1 X342.996 Y109.715 Z-3.667
G1 X342.180 Y109.331 Z-3.667
G1 X341.362 Y108.955 Z-3.667
G1 X340.541 Y108.587 Z-3.667
G1 X339.719 Y108.226 Z-3.667
G1 X338.895 Y107.874 Z-3.667
G1 X338.069 Y107.530 Z-3.667
G1 X337.242 Y107.193 Z-3.667
G1 X336.413 Y106.865 Z-3.667
G1 X335.583 Y106.545 Z-3.667
G1 X334.751 Y106.233 Z-3.667
G1 X333.919 Y105.928 Z-3.667
G1 X333.085 Y105.632 Z-3.667
G1 X332.251 Y105.343 Z-3.667
G1 X331.416 Y105.063 Z-3.667
G1 X330.580 Y104.790 Z-3.667
G1 X329.743 Y104.526 Z-3.667
G1 X328.907 Y104.269 Z-3.667
G1 X328.069 Y104.020 Z-3.667
G1 X327.232 Y103.779 Z-3.667
G1 X326.394 Y103.546 Z-3.667
G1 X325.556 Y103.321 Z-3.667
G1 X324.718 Y103.103 Z-3.667
G1 X323.881 Y102.893 Z-3.667
G1 X323.043 Y102.691 Z-3.667
G1 X322.206 Y102.497 Z-3.667
G1 X321.369 Y102.310 Z-3.667
G1 X320.533 Y102.131 Z-3.667
G1 X319.698 Y101.959 Z-3.667
G1 X318.863 Y101.795 Z-3.667
G1 X318.029 Y101.639 Z-3.667
G1 X317.196 Y101.490 Z-3.667
G1 X316.364 Y101.348 Z-3.667
G1 X315.533 Y101.214 Z-3.667
G1 X314.703 Y101.087 Z-3.667
G1 X313.875 Y100.967 Z-3.667
G1 X313.048 Y100.855 Z-3.667
G1 X312.222 Y100.750 Z-3.667
G1 X311.398 Y100.652 Z-3.667
G1 X310.575 Y100.561 Z-3.667
G1 X309.754 Y100.477 Z-3.667
G1 X308.935 Y100.400 Z-3.667
G1 X308.117 Y100.330 Z-3.667
G1 X307.302 Y100.267 Z-3.667
G1 X306.492 Y100.211 Z-3.667
G1 X305.681 Y100.162 Z-3.667
G1 X304.870 Y100.119 Z-3.667
G1 X304.059 Y100.082 Z-3.667
G1 X303.248 Y100.053 Z-3.667
G1 X302.436 Y100.030 Z-3.667
G1 X301.624 Y100.013 Z-3.667
G1 X300.812 Y100.003 Z-3.667
G1 X300.000 Y100.000 Z-3.667
G1 X299.181 Y100.003 Z-3.667
G1 X298.361 Y100.013 Z-3.667
G1 X297.542 Y100.030 Z-3.667
G1 X296.723 Y100.054 Z-3.667
G1 X295.904 Y100.084 Z-3.667
G1 X295.085 Y100.121 Z-3.667
G1 X294.267 Y100.164 Z-3.667
G1 X293.449 Y100.215 Z-3.667
G1 X292.632 Y100.272 Z-3.667
G1 X291.816 Y100.335 Z-3.667
G1 X290.999 Y100.406 Z-3.667
G1 X290.180 Y100.483 Z-3.667
G1 X289.359 Y100.568 Z-3.667
G1 X288.536 Y100.659 Z-3.667
G1 X287.712 Y100.758 Z-3.667
G1 X286.886 Y100.864 Z-3.667
G1 X286.059 Y100.977 Z-3.667
G1 X285.231 Y101.097 Z-3.667
G1 X284.401 Y101.224 Z-3.667
G1 X283.570 Y101.359 Z-3.667
G1 X282.738 Y101.501 Z-3.667
G1 X281.905 Y101.651 Z-3.667
G1 X281.071 Y101.808 Z-3.667
G1 X280.237 Y101.972 Z-3.667
G1 X279.401 Y102.145 Z-3.667
G1 X278.565 Y102.324 Z-3.667
G1 X277.729 Y102.512 Z-3.667
G1 X276.892 Y102.707 Z-3.667
G1 X276.055 Y102.909 Z-3.667
G1 X275.217 Y103.120 Z-3.667
G1 X274.379 Y103.338 Z-3.667
G1 X273.542 Y103.564 Z-3.667
G1 X272.704 Y103.797 Z-3.667
G1 X271.867 Y104.039 Z-3.667
G1 X271.030 Y104.288 Z-3.667
G1 X270.193 Y104.546 Z-3.667
G1 X269.357 Y104.811 Z-3.667
G1 X268.521 Y105.084 Z-3.667
G1 X267.686 Y105.365 Z-3.667
G1 X266.852 Y105.654 Z-3.667
G1 X266.018 Y105.951 Z-3.667
G1 X265.186 Y106.256 Z-3.667
G1 X264.355 Y106.569 Z-3.667
G1 X263.525 Y106.889 Z-3.667
G1 X262.696 Y107.218 Z-3.667
G1 X261.869 Y107.555 Z-3.667
G1 X261.044 Y107.900 Z-3.667
G1 X260.220 Y108.253 Z-3.667
G1 X259.398 Y108.614 Z-3.667
G1 X258.578 Y108.982 Z-3.667
G1 X257.759 Y109.359 Z-3.667
G1 X256.943 Y109.744 Z-3.667
G1 X256.130 Y110.137 Z-3.667
G1 X255.318 Y110.537 Z-3.667
G1 X254.509 Y110.946 Z-3.667
G1 X253.703 Y111.363 Z-3.667
G1 X252.899 Y111.787 Z-3.667
G1 X252.099 Y112.219 Z-3.667
G1 X251.301 Y112.659 Z-3.667
G1 X250.506 Y113.107 Z-3.667
G1 X249.714 Y113.563 Z-3.667
G1 X248.926 Y114.027 Z-3.667
G1 X248.140 Y114.498 Z-3.667
G1 X247.359 Y114.977 Z-3.667
G1 X246.581 Y115.464 Z-3.667
G1 X245.807 Y115.958 Z-3.667
G1 X245.036 Y116.460 Z-3.667
G1 X244.270 Y116.969 Z-3.667
G1 X243.507 Y117.486 Z-3.667
G1 X242.749 Y118.010 Z-3.667
G1 X241.995 Y118.542 Z-3.667
G1 X241.245 Y119.081 Z-3.667
G1 X240.499 Y119.628 Z-3.667
G1 X239.759 Y120.181 Z-3.667
G1 X239.023 Y120.742 Z-3.667
G1 X238.291 Y121.310 Z-3.667
G1 X237.565 Y121.885 Z-3.667
G1 X236.844 Y122.468 Z-3.667
G1 X236.127 Y123.057 Z-3.667
G1 X235.416 Y123.652 Z-3.667
G1 X234.711 Y124.255 Z-3.667
G1 X234.010 Y124.865 Z-3.667
G1 X233.315 Y125.481 Z-3.667
G1 X232.626 Y126.103 Z-3.667
G1 X231.942 Y126.733 Z-3.667
G1 X231.264 Y127.368 Z-3.667
G1 X230.592 Y128.010 Z-3.667
G1 X229.926 Y128.658 Z-3.667
G1 X229.266 Y129.313 Z-3.667
G1 X228.612 Y129.973 Z-3.667
G1 X227.964 Y130.640 Z-3.667
G1 X227.322 Y131.313 Z-3.667
G1 X226.687 Y131.991 Z-3.667
G1 X226.058 Y132.675 Z-3.667
G1 X225.436 Y133.365 Z-3.667
G1 X224.821 Y134.060 Z-3.667
G1 X224.212 Y134.761 Z-3.667
G1 X223.609 Y135.467 Z-3.667
G1 X223.014 Y136.179 Z-3.667
G1 X222.425 Y136.895 Z-3.667
G1 X221.844 Y137.617 Z-3.667
G1 X221.269 Y138.344 Z-3.667
G1 X220.702 Y139.076 Z-3.667
G1 X220.141 Y139.812 Z-3.667
G1 X219.588 Y140.553 Z-3.667
G1 X219.042 Y141.299 Z-3.667
G1 X218.504 Y142.049 Z-3.667
G1 X217.972 Y142.803 Z-3.667
G1 X217.448 Y143.562 Z-3.667
G1 X216.932 Y144.325 Z-3.667
G1 X216.423 Y145.092 Z-3.667
G1 X215.922 Y145.863 Z-3.667
G1 X215.428 Y146.637 Z-3.667
G1 X214.942 Y147.416 Z-3.667
G1 X214.463 Y148.198 Z-3.667
G1 X213.993 Y148.983 Z-3.667
G1 X213.530 Y149.772 Z-3.667
G1 X213.074 Y150.564 Z-3.667
G1 X212.627 Y151.359 Z-3.667
G1 X212.187 Y152.157 Z-3.667
G1 X211.756 Y152.958 Z-3.667
G1 X211.332 Y153.762 Z-3.667
G1 X210.916 Y154.569 Z-3.667
G1 X210.508 Y155.378 Z-3.667
G1 X210.108 Y156.190 Z-3.667
G1 X209.715 Y157.004 Z-3.667
G1 X209.331 Y157.820 Z-3.667
G1 X208.955 Y158.638 Z-3.667
G1 X208.587 Y159.459 Z-3.667
G1 X208.226 Y160.281 Z-3.667
G1 X207.874 Y161.105 Z-3.667
G1 X207.530 Y161.931 Z-3.667
G1 X207.193 Y162.758 Z-3.667
G1 X206.865 Y163.587 Z-3.667
G1 X206.545 Y164.417 Z-3.667
G1 X206.233 Y165.249 Z-3.667
G1 X205.928 Y166.081 Z-3.667
G1 X205.632 Y166.915 Z-3.667
G1 X205.343 Y167.749 Z-3.667
G1 X205.063 Y168.584 Z-3.667
G1 X204.790 Y169.420 Z-3.667
G1 X204.526 Y170.257 Z-3.667
G1 X204.269 Y171.093 Z-3.667
G1 X204.020 Y171.931 Z-3.667
G1 X203.779 Y172.768 Z-3.667
G1 X203.546 Y173.606 Z-3.667
G1 X203.321 Y174.444 Z-3.667
G1 X203.103 Y175.282 Z-3.667
G1 X202.893 Y176.119 Z-3.667
G1 X202.691 Y176.957 Z-3.667
G1 X202.497 Y177.794 Z-3.667
G1 X202.310 Y178.631 Z-3.667
G1 X202.131 Y179.467 Z-3.667
G1 X201.959 Y180.302 Z-3.667
G1 X201.795 Y181.137 Z-3.667
G1 X201.639 Y181.971 Z-3.667
G1 X201.490 Y182.804 Z-3.667
G1 X201.348 Y183.636 Z-3.667
G1 X201.214 Y184.467 Z-3.667
G1 X201.087 Y185.297 Z-3.667
G1 X200.967 Y186.125 Z-3.667
G1 X200.855 Y186.952 Z-3.667
G1 X200.750 Y187.778 Z-3.667
G1 X200.652 Y188.602 Z-3.667
G1 X200.561 Y189.425 Z-3.667
G1 X200.477 Y190.246 Z-3.667
G1 X200.400 Y191.065 Z-3.667
G1 X200.330 Y191.883 Z-3.667
G1 X200.267 Y192.698 Z-3.667
G1 X200.267 Y192.698 Z-4.583 F635.0
G1 X200.267 Y192.698 Z-4.000 F180.0
G1 X200.211 Y193.508 Z-4.000
G1 X200.162 Y194.319 Z-4.000
G1 X200.119 Y195.130 Z-4.000
G1 X200.082 Y195.941 Z-4.000
G1 X200.053 Y196.752 Z-4.000
G1 X200.030 Y197.564 Z-4.000
G1 X200.013 Y198.376 Z-4.000
G1 X200.003 Y199.188 Z-4.000
G1 X200.000 Y200.000 Z-4.000
G1 X200.003 Y200.819 Z-4.000
G1 X200.013 Y201.639 Z-4.000
G1 X200.030 Y202.458 Z-4.000
G1 X200.054 Y203.277 Z-4.000
G1 X200.084 Y204.096 Z-4.000
G1 X200.121 Y204.915 Z-4.000
G1 X200.164 Y205.733 Z-4.000
G1 X200.215 Y206.551 Z-4.000
G1 X200.272 Y207.368 Z-4.000
G1 X200.272 Y207.368 Z-4.583 F635.0
G1 X200.335 Y208.184 Z-4.583 F180.0
G1 X200.406 Y209.001 Z-4.583
G1 X200.483 Y209.820 Z-4.583
G1 X200.568 Y210.641 Z-4.583
G1 X200.659 Y211.464 Z-4.583
G1 X200.758 Y212.288 Z-4.583
G1 X200.864 Y213.114 Z-4.583
G1 X200.977 Y213.941 Z-4.583
G1 X201.097 Y214.769 Z-4.583
G1 X201.224 Y215.599 Z-4.583
G1 X201.359 Y216.430 Z-4.583
G1 X201.501 Y217.262 Z-4.583
G1 X201.651 Y218.095 Z-4.583
G1 X201.808 Y218.929 Z-4.583
G1 X201.972 Y219.763 Z-4.583
G1 X202.145 Y220.599 Z-4.583
G1 X202.324 Y221.435 Z-4.583
G1 X202.512 Y222.271 Z-4.583
G1 X202.707 Y223.108 Z-4.583
G1 X202.909 Y223.945 Z-4.583
G1 X203.120 Y224.783 Z-4.583
G1 X203.338 Y225.621 Z-4.583
G1 X203.564 Y226.458 Z-4.583
G1 X203.797 Y227.296 Z-4.583
G1 X204.039 Y228.133 Z-4.583
G1 X204.288 Y228.970 Z-4.583
G1 X204.546 Y229.807 Z-4.583
G1 X204.811 Y230.643 Z-4.583
G1 X205.084 Y231.479 Z-4.583
G1 X205.365 Y232.314 Z-4.583
G1 X205.654 Y233.148 Z-4.583
G1 X205.951 Y233.982 Z-4.583
G1 X206.256 Y234.814 Z-4.583
G1 X206.569 Y235.645 Z-4.583
G1 X206.889 Y236.475 Z-4.583
G1 X207.218 Y237.304 Z-4.583
G1 X207.555 Y238.131 Z-4.583
G1 X207.900 Y238.956 Z-4.583
G1 X208.253 Y239.780 Z-4.583
G1 X208.614 Y240.602 Z-4.583
G1 X208.982 Y241.422 Z-4.583
G1 X209.359 Y242.241 Z-4.583
G1 X209.744 Y243.057 Z-4.583
G1 X210.137 Y243.870 Z-4.583
G1 X210.537 Y244.682 Z-4.583
G1 X210.946 Y245.491 Z-4.583
G1 X211.363 Y246.297 Z-4.583
G1 X211.787 Y247.101 Z-4.583
G1 X212.219 Y247.901 Z-4.583
G1 X212.659 Y248.699 Z-4.583
G1 X213.107 Y249.494 Z-4.583
G1 X213.563 Y250.286 Z-4.583
G1 X214.027 Y251.074 Z-4.583
G1 X214.498 Y251.860 Z-4.583
G1 X214.977 Y252.641 Z-4.583
G1 X215.464 Y253.419 Z-4.583
G1 X215.958 Y254.193 Z-4.583
G1 X216.460 Y254.964 Z-4.583
G1 X216.969 Y255.730 Z-4.583
G1 X217.486 Y256.493 Z-4.583
G1 X218.010 Y257.251 Z-4.583
G1 X218.542 Y258.005 Z-4.583
G1 X219.081 Y258.755 Z-4.583
G1 X219.628 Y259.501 Z-4.583
G1 X220.182 Y260.241 Z-4.583
G1 X220.742 Y260.977 Z-4.583
G1 X221.310 Y261.709 Z-4.583
G1 X221.885 Y262.435 Z-4.583
G1 X222.468 Y263.156 Z-4.583
G1 X223.057 Y263.873 Z-4.583
G1 X223.652 Y264.584 Z-4.583
G1 X224.255 Y265.289 Z-4.583
G1 X224.865 Y265.990 Z-4.583
G1 X225.481 Y266.685 Z-4.583
G1 X226.103 Y267.374 Z-4.583
G1 X226.733 Y268.058 Z-4.583
G1 X227.368 Y268.736 Z-4.583
G1 X228.010 Y269.408 Z-4.583
G1 X228.658 Y270.074 Z-4.583
G1 X229.313 Y270.734 Z-4.583
G1 X229.973 Y271.388 Z-4.583
G1 X230.640 Y272.036 Z-4.583
G1 X231.313 Y272.678 Z-4.583
G1 X231.991 Y273.313 Z-4.583
G1 X232.675 Y273.942 Z-4.583
G1 X233.365 Y274.564 Z-4.583
G1 X234.060 Y275.179 Z-4.583
G1 X234.761 Y275.788 Z-4.583
G1 X235.467 Y276.391 Z-4.583
G1 X236.179 Y276.986 Z-4.583
G1 X236.895 Y277.575 Z-4.583
G1 X237.617 Y278.156 Z-4.583
G1 X238.344 Y278.731 Z-4.583
G1 X239.076 Y279.298 Z-4.583
G1 X239.812 Y279.859 Z-4.583
G1 X240.553 Y280.412 Z-4.583
G1 X241.299 Y280.958 Z-4.583
G1 X242.049 Y281.496 Z-4.583
G1 X242.803 Y282.028 Z-4.583
G1 X243.562 Y282.552 Z-4.583
G1 X244.325 Y283.068 Z-4.583
G1 X245.092 Y283.577 Z-4.583
G1 X245.863 Y284.078 Z-4.583
G1 X246.637 Y284.572 Z-4.583
G1 X247.416 Y285.058 Z-4.583
G1 X248.198 Y285.537 Z-4.583
G1 X248.983 Y286.007 Z-4.583
G1 X249.772 Y286.470 Z-4.583
G1 X250.564 Y286.926 Z-4.583
G1 X251.359 Y287.373 Z-4.583
G1 X252.157 Y287.813 Z-4.583
G1 X252.958 Y288.244 Z-4.583
G1 X253.762 Y288.668 Z-4.583
G1 X254.569 Y289.084 Z-4.583
G1 X255.378 Y289.492 Z-4.583
G1 X256.190 Y289.892 Z-4.583
G1 X257.004 Y290.285 Z-4.583
G1 X257.820 Y290.669 Z-4.583
G1 X258.638 Y291.045 Z-4.583
G1 X259.459 Y291.413 Z-4.583
G1 X260.281 Y291.774 Z-4.583
G1 X261.105 Y292.126 Z-4.583
G1 X261.931 Y292.470 Z-4.583
G1 X262.758 Y292.807 Z-4.583
G1 X263.587 Y293.135 Z-4.583
G1 X264.417 Y293.455 Z-4.583
G1 X265.249 Y293.767 Z-4.583
G1 X266.081 Y294.072 Z-4.583
G1 X266.915 Y294.368 Z-4.583
G1 X267.749 Y294.657 Z-4.583
G1 X268.584 Y294.937 Z-4.583
G1 X269.420 Y295.210 Z-4.583
G1 X270.257 Y295.474 Z-4.583
G1 X271.093 Y295.731 Z-4.583
G1 X271.931 Y295.980 Z-4.583
G1 X272.768 Y296.221 Z-4.583
G1 X273.606 Y296.454 Z-4.583
G1 X274.444 Y296.679 Z-4.583
G1 X275.282 Y296.897 Z-4.583
G1 X276.119 Y297.107 Z-4.583
G1 X276.957 Y297.309 Z-4.583
G1 X277.794 Y297.503 Z-4.583
G1 X278.631 Y297.690 Z-4.583
G1 X279.467 Y297.869 Z-4.583
G1 X280.302 Y298.041 Z-4.583
G1 X281.137 Y298.205 Z-4.583
G1 X281.971 Y298.361 Z-4.583
G1 X282.804 Y298.510 Z-4.583
G1 X283.636 Y298.652 Z-4.583
G1 X284.467 Y298.786 Z-4.583
G1 X285.297 Y298.913 Z-4.583
G1 X286.125 Y299.033 Z-4.583
G1 X286.952 Y299.145 Z-4.583
G1 X287.778 Y299.250 Z-4.583
G1 X288.602 Y299.348 Z-4.583
G1 X289.425 Y299.439 Z-4.583
G1 X290.246 Y299.523 Z-4.583
G1 X291.065 Y299.600 Z-4.583
G1 X291.883 Y299.670 Z-4.583
G1 X292.698 Y299.733 Z-4.583
G1 X292.698 Y299.733 Z-4.000
G1 X293.508 Y299.789 Z-4.000
G1 X294.319 Y299.838 Z-4.000
G1 X295.130 Y299.881 Z-4.000
G1 X295.941 Y299.918 Z-4.000
G1 X296.752 Y299.947 Z-4.000
G1 X297.564 Y299.970 Z-4.000
G1 X298.376 Y299.987 Z-4.000
G1 X299.188 Y299.997 Z-4.000
G1 X300.000 Y300.000 Z-4.000
G1 X300.812 Y299.997 Z-4.000
G1 X301.624 Y299.987 Z-4.000
G1 X302.436 Y299.970 Z-4.000
G1 X303.248 Y299.947 Z-4.000
G1 X304.059 Y299.918 Z-4.000
G1 X304.870 Y299.881 Z-4.000
G1 X305.681 Y299.838 Z-4.000
G1 X306.492 Y299.789 Z-4.000
G1 X307.302 Y299.733 Z-4.000
G1 X307.302 Y299.733 Z-4.583 F635.0
G1 X308.117 Y299.670 Z-4.583 F180.0
G1 X308.935 Y299.600 Z-4.583
G1 X309.754 Y299.523 Z-4.583
G1 X310.575 Y299.439 Z-4.583
G1 X311.398 Y299.348 Z-4.583
G1 X312.222 Y299.250 Z-4.583
G1 X313.048 Y299.145 Z-4.583
G1 X313.875 Y299.033 Z-4.583
G1 X314.703 Y298.913 Z-4.583
G1 X315.533 Y298.786 Z-4.583
G1 X316.364 Y298.652 Z-4.583
G1 X317.196 Y298.510 Z-4.583
G1 X318.029 Y298.361 Z-4.583
G1 X318.863 Y298.205 Z-4.583
G1 X319.698 Y298.041 Z-4.583
G1 X320.533 Y297.869 Z-4.583
G1 X321.369 Y297.690 Z-4.583
G1 X322.206 Y297.503 Z-4.583
G1 X323.043 Y297.309 Z-4.583
G1 X323.881 Y297.107 Z-4.583
G1 X324.718 Y296.897 Z-4.583
G1 X325.556 Y296.679 Z-4.583
G1 X326.394 Y296.454 Z-4.583
G1 X327.232 Y296.221 Z-4.583
G1 X328.069 Y295.980 Z-4.583
G1 X328.907 Y295.731 Z-4.583
G1 X329.743 Y295.474 Z-4.583
G1 X330.580 Y295.210 Z-4.583
G1 X331.416 Y294.937 Z-4.583
G1 X332.251 Y294.657 Z-4.583
G1 X333.085 Y294.368 Z-4.583
G1 X333.919 Y294.072 Z-4.583
G1 X334.751 Y293.767 Z-4.583
G1 X335.583 Y293.455 Z-4.583
G1 X336.413 Y293.135 Z-4.583
G1 X337.242 Y292.807 Z-4.583
G1 X338.069 Y292.470 Z-4.583
G1 X338.895 Y292.126 Z-4.583
G1 X339.719 Y291.774 Z-4.583
G1 X340.541 Y291.413 Z-4.583
G1 X341.362 Y291.045 Z-4.583
G1 X342.180 Y290.669 Z-4.583
G1 X342.996 Y290.285 Z-4.583
G1 X343.810 Y289.892 Z-4.583
G1 X344.622 Y289.492 Z-4.583
G1 X345.431 Y289.084 Z-4.583
G1 X346.238 Y288.668 Z-4.583
G1 X347.042 Y288.244 Z-4.583
G1 X347.843 Y287.813 Z-4.583
G1 X348.641 Y287.373 Z-4.583
G1 X349.436 Y286.926 Z-4.583
G1 X350.228 Y286.470 Z-4.583
G1 X351.017 Y286.007 Z-4.583
G1 X351.802 Y285.537 Z-4.583
G1 X352.584 Y285.058 Z-4.583
G1 X353.363 Y284.572 Z-4.583
G1 X354.137 Y284.078 Z-4.583
G1 X354.908 Y283.577 Z-4.583
G1 X355.675 Y283.068 Z-4.583
G1 X356.438 Y282.552 Z-4.583
G1 X357.197 Y282.028 Z-4.583
G1 X357.951 Y281.496 Z-4.583
G1 X358.701 Y280.958 Z-4.583
G1 X359.447 Y280.412 Z-4.583
G1 X360.188 Y279.859 Z-4.583
G1 X360.924 Y279.298 Z-4.583
G1 X361.656 Y278.731 Z-4.583
G1 X362.383 Y278.156 Z-4.583
G1 X363.105 Y277.575 Z-4.583
G1 X363.821 Y276.986 Z-4.583
G1 X364.533 Y276.391 Z-4.583
G1 X365.239 Y275.788 Z-4.583
G1 X365.940 Y275.179 Z-4.583
G1 X366.635 Y274.564 Z-4.583
G1 X367.325 Y273.942 Z-4.583
G1 X368.009 Y273.313 Z-4.583
G1 X368.687 Y272.678 Z-4.583
G1 X369.360 Y272.036 Z-4.583
G1 X370.027 Y271.388 Z-4.583
G1 X370.687 Y270.734 Z-4.583
G1 X371.342 Y270.074 Z-4.583
G1 X371.990 Y269.408 Z-4.583
G1 X372.632 Y268.736 Z-4.583
G1 X373.267 Y268.058 Z-4.583
G1 X373.897 Y267.374 Z-4.583
G1 X374.519 Y266.685 Z-4.583
G1 X375.135 Y265.990 Z-4.583
G1 X375.745 Y265.289 Z-4.583
G1 X376.348 Y264.584 Z-4.583
G1 X376.943 Y263.873 Z-4.583
G1 X377.533 Y263.156 Z-4.583
G1 X378.115 Y262.435 Z-4.583
G1 X378.690 Y261.709 Z-4.583
G1 X379.258 Y260.977 Z-4.583
G1 X379.819 Y260.241 Z-4.583
G1 X380.372 Y259.501 Z-4.583
G1 X380.919 Y258.755 Z-4.583
G1 X381.458 Y258.005 Z-4.583
G1 X381.990 Y257.251 Z-4.583
G1 X382.514 Y256.493 Z-4.583
G1 X383.031 Y255.730 Z-4.583
G1 X383.540 Y254.964 Z-4.583
G1 X384.042 Y254.193 Z-4.583
G1 X384.536 Y253.419 Z-4.583
G1 X385.023 Y252.641 Z-4.583
G1 X385.502 Y251.860 Z-4.583
G1 X385.973 Y251.074 Z-4.583
G1 X386.437 Y250.286 Z-4.583
G1 X386.893 Y249.494 Z-4.583
G1 X387.341 Y248.699 Z-4.583
G1 X387.781 Y247.901 Z-4.583
G1 X388.213 Y247.101 Z-4.583
G1 X388.637 Y246.297 Z-4.583
G1 X389.054 Y245.491 Z-4.583
G1 X389.463 Y244.682 Z-4.583
G1 X389.863 Y243.870 Z-4.583
G1 X390.256 Y243.057 Z-4.583
G1 X390.641 Y242.241 Z-4.583
G1 X391.018 Y241.422 Z-4.583
G1 X391.386 Y240.602 Z-4.583
G1 X391.747 Y239.780 Z-4.583
G1 X392.100 Y238.956 Z-4.583
G1 X392.445 Y238.131 Z-4.583
G1 X392.782 Y237.304 Z-4.583
G1 X393.111 Y236.475 Z-4.583
G1 X393.431 Y235.645 Z-4.583
G1 X393.744 Y234.814 Z-4.583
G1 X394.049 Y233.982 Z-4.583
G1 X394.346 Y233.148 Z-4.583
G1 X394.635 Y232.314 Z-4.583
G1 X394.916 Y231.479 Z-4.583
G1 X395.189 Y230.643 Z-4.583
G1 X395.454 Y229.807 Z-4.583
G1 X395.712 Y228.970 Z-4.583
G1 X395.961 Y228.133 Z-4.583
G1 X396.203 Y227.296 Z-4.583
G1 X396.436 Y226.458 Z-4.583
G1 X396.662 Y225.621 Z-4.583
G1 X396.880 Y224.783 Z-4.583
G1 X397.091 Y223.945 Z-4.583
G1 X397.293 Y223.108 Z-4.583
G1 X397.488 Y222.271 Z-4.583
G1 X397.676 Y221.435 Z-4.583
G1 X397.855 Y220.599 Z-4.583
G1 X398.028 Y219.763 Z-4.583
G1 X398.192 Y218.929 Z-4.583
G1 X398.349 Y218.095 Z-4.583
G1 X398.499 Y217.262 Z-4.583
G1 X398.641 Y216.430 Z-4.583
G1 X398.776 Y215.599 Z-4.583
G1 X398.903 Y214.769 Z-4.583
G1 X399.023 Y213.941 Z-4.583
G1 X399.136 Y213.114 Z-4.583
G1 X399.242 Y212.288 Z-4.583
G1 X399.341 Y211.464 Z-4.583
G1 X399.432 Y210.641 Z-4.583
G1 X399.517 Y209.820 Z-4.583
G1 X399.594 Y209.001 Z-4.583
G1 X399.665 Y208.184 Z-4.583
G1 X399.728 Y207.368 Z-4.583
G1 X399.728 Y207.368 Z-4.000
G1 X399.785 Y206.551 Z-4.000
G1 X399.836 Y205.733 Z-4.000
G1 X399.879 Y204.915 Z-4.000
G1 X399.916 Y204.096 Z-4.000
G1 X399.946 Y203.277 Z-4.000
G1 X399.970 Y202.458 Z-4.000
G1 X399.987 Y201.639 Z-4.000
G1 X399.997 Y200.819 Z-4.000
G1 X400.000 Y200.000 Z-4.000
G1 X399.997 Y199.181 Z-4.000
G1 X399.987 Y198.361 Z-4.000
G1 X399.970 Y197.542 Z-4.000
G1 X399.946 Y196.723 Z-4.000
G1 X399.916 Y195.904 Z-4.000
G1 X399.879 Y195.085 Z-4.000
G1 X399.836 Y194.267 Z-4.000
G1 X399.785 Y193.449 Z-4.000
G1 X399.728 Y192.632 Z-4.000
G1 X399.728 Y192.632 Z-4.583 F635.0
G1 X399.665 Y191.816 Z-4.583 F180.0
G1 X399.594 Y190.999 Z-4.583
G1 X399.517 Y190.180 Z-4.583
G1 X399.432 Y189.359 Z-4.583
G1 X399.341 Y188.536 Z-4.583
G1 X399.242 Y187.712 Z-4.583
G1 X399.136 Y186.886 Z-4.583
G1 X399.023 Y186.059 Z-4.583
G1 X398.903 Y185.231 Z-4.583
G1 X398.776 Y184.401 Z-4.583
G1 X398.641 Y183.570 Z-4.583
G1 X398.499 Y182.738 Z-4.583
G1 X398.349 Y181.905 Z-4.583
G1 X398.192 Y181.071 Z-4.583
G1 X398.028 Y180.237 Z-4.583
G1 X397.855 Y179.401 Z-4.583
G1 X397.676 Y178.565 Z-4.583
G1 X397.488 Y177.729 Z-4.583
G1 X397.293 Y176.892 Z-4.583
G1 X397.091 Y176.055 Z-4.583
G1 X396.880 Y175.217 Z-4.583
G1 X396.662 Y174.379 Z-4.583
G1 X396.436 Y173.542 Z-4.583
G1 X396.203 Y172.704 Z-4.583
G1 X395.961 Y171.867 Z-4.583
G1 X395.712 Y171.030 Z-4.583
G1 X395.454 Y170.193 Z-4.583
G1 X395.189 Y169.357 Z-4.583
G1 X394.916 Y168.521 Z-4.583
G1 X394.635 Y167.686 Z-4.583
G1 X394.346 Y166.852 Z-4.583
G1 X394.049 Y166.018 Z-4.583
G1 X393.744 Y165.186 Z-4.583
G1 X393.431 Y164.355 Z-4.583
G1 X393.111 Y163.525 Z-4.583
G1 X392.782 Y162.696 Z-4.583
G1 X392.445 Y161.869 Z-4.583
G1 X392.100 Y161.044 Z-4.583
G1 X391.747 Y160.220 Z-4.583
G1 X391.386 Y159.398 Z-4.583
G1 X391.018 Y158.578 Z-4.583
G1 X390.641 Y157.759 Z-4.583
G1 X390.256 Y156.943 Z-4.583
G1 X389.863 Y156.130 Z-4.583
G1 X389.463 Y155.318 Z-4.583
G1 X389.054 Y154.509 Z-4.583
G1 X388.637 Y153.703 Z-4.583
G1 X388.213 Y152.899 Z-4.583
G1 X387.781 Y152.099 Z-4.583
G1 X387.341 Y151.301 Z-4.583
G1 X386.893 Y150.506 Z-4.583
G1 X386.437 Y149.714 Z-4.583
G1 X385.973 Y148.926 Z-4.583
G1 X385.502 Y148.140 Z-4.583
G1 X385.023 Y147.359 Z-4.583
G1 X384.536 Y146.581 Z-4.583
G1 X384.042 Y145.807 Z-4.583
G1 X383.540 Y145.036 Z-4.583
G1 X383.031 Y144.270 Z-4.583
G1 X382.514 Y143.507 Z-4.583
G1 X381.990 Y142.749 Z-4.583
G1 X381.458 Y141.995 Z-4.583
G1 X380.919 Y141.245 Z-4.583
G1 X380.372 Y140.499 Z-4.583
G1 X379.819 Y139.759 Z-4.583
G1 X379.258 Y139.023 Z-4.583
G1 X378.690 Y138.291 Z-4.583
G1 X378.115 Y137.565 Z-4.583
G1 X377.533 Y136.844 Z-4.583
G1 X376.943 Y136.127 Z-4.583
G1 X376.348 Y135.416 Z-4.583
G1 X375.745 Y134.711 Z-4.583
G1 X375.135 Y134.010 Z-4.583
G1 X374.519 Y133.315 Z-4.583
G1 X373.897 Y132.626 Z-4.583
G1 X373.267 Y131.942 Z-4.583
G1 X372.632 Y131.264 Z-4.583
G1 X371.990 Y130.592 Z-4.583
G1 X371.342 Y129.926 Z-4.583
G1 X370.687 Y129.266 Z-4.583
G1 X370.027 Y128.612 Z-4.583
G1 X369.360 Y127.964 Z-4.583
G1 X368.687 Y127.322 Z-4.583
G1 X368.009 Y126.687 Z-4.583
G1 X367.325 Y126.058 Z-4.583
G1 X366.635 Y125.436 Z-4.583
G1 X365.940 Y124.821 Z-4.583
G1 X365.239 Y124.212 Z-4.583
G1 X364.533 Y123.609 Z-4.583
G1 X363.821 Y123.014 Z-4.583
G1 X363.105 Y122.425 Z-4.583
G1 X362.383 Y121.844 Z-4.583
G1 X361.656 Y121.269 Z-4.583
G1 X360.924 Y120.702 Z-4.583
G1 X360.188 Y120.141 Z-4.583
G1 X359.447 Y119.588 Z-4.583
G1 X358.701 Y119.042 Z-4.583
G1 X357.951 Y118.504 Z-4.583
G1 X357.197 Y117.972 Z-4.583
G1 X356.438 Y117.448 Z-4.583
G1 X355.675 Y116.932 Z-4.583
G1 X354.908 Y116.423 Z-4.583
G1 X354.137 Y115.922 Z-4.583
G1 X353.363 Y115.428 Z-4.583
G1 X352.584 Y114.942 Z-4.583
G1 X351.802 Y114.463 Z-4.583
G1 X351.017 Y113.993 Z-4.583
G1 X350.228 Y113.530 Z-4.583
G1 X349.436 Y113.074 Z-4.583
G1 X348.641 Y112.627 Z-4.583
G1 X347.843 Y112.187 Z-4.583
G1 X347.042 Y111.756 Z-4.583
G1 X346.238 Y111.332 Z-4.583
G1 X345.431 Y110.916 Z-4.583
G1 X344.622 Y110.508 Z-4.583
G1 X343.810 Y110.108 Z-4.583
G1 X342.996 Y109.715 Z-4.583
G1 X342.180 Y109.331 Z-4.583
G1 X341.362 Y108.955 Z-4.583
G1 X340.541 Y108.587 Z-4.583
G1 X339.719 Y108.226 Z-4.583
G1 X338.895 Y107.874 Z-4.583
G1 X338.069 Y107.530 Z-4.583
G1 X337.242 Y107.193 Z-4.583
G1 X336.413 Y106.865 Z-4.583
G1 X335.583 Y106.545 Z-4.583
G1 X334.751 Y106.233 Z-4.583
G1 X333.919 Y105.928 Z-4.583
G1 X333.085 Y105.632 Z-4.583
G1 X332.251 Y105.343 Z-4.583
G1 X331.416 Y105.063 Z-4.583
G1 X330.580 Y104.790 Z-4.583
G1 X329.743 Y104.526 Z-4.583
G1 X328.907 Y104.269 Z-4.583
G1 X328.069 Y104.020 Z-4.583
G1 X327.232 Y103.779 Z-4.583
G1 X326.394 Y103.546 Z-4.583
G1 X325.556 Y103.321 Z-4.583
G1 X324.718 Y103.103 Z-4.583
G1 X323.881 Y102.893 Z-4.583
G1 X323.043 Y102.691 Z-4.583
G1 X322.206 Y102.497 Z-4.583
G1 X321.369 Y102.310 Z-4.583
G1 X320.533 Y102.131 Z-4.583
G1 X319.698 Y101.959 Z-4.583
G1 X318.863 Y101.795 Z-4.583
G1 X318.029 Y101.639 Z-4.583
G1 X317.196 Y101.490 Z-4.583
G1 X316.364 Y101.348 Z-4.583
G1 X315.533 Y101.214 Z-4.583
G1 X314.703 Y101.087 Z-4.583
G1 X313.875 Y100.967 Z-4.583
G1 X313.048 Y100.855 Z-4.583
G1 X312.222 Y100.750 Z-4.583
G1 X311.398 Y100.652 Z-4.583
G1 X310.575 Y100.561 Z-4.583
G1 X309.754 Y100.477 Z-4.583
G1 X308.935 Y100.400 Z-4.583
G1 X308.117 Y100.330 Z-4.583
G1 X307.302 Y100.267 Z-4.583
G1 X307.302 Y100.267 Z-4.000
G1 X306.492 Y100.211 Z-4.000
G1 X305.681 Y100.162 Z-4.000
G1 X304.870 Y100.119 Z-4.000
G1 X304.059 Y100.082 Z-4.000
G1 X303.248 Y100.053 Z-4.000
G1 X302.436 Y100.030 Z-4.000
G1 X301.624 Y100.013 Z-4.000
G1 X300.812 Y100.003 Z-4.000
G1 X300.000 Y100.000 Z-4.000
G1 X299.181 Y100.003 Z-4.000
G1 X298.361 Y100.013 Z-4.000
G1 X297.542 Y100.030 Z-4.000
G1 X296.723 Y100.054 Z-4.000
G1 X295.904 Y100.084 Z-4.000
G1 X295.085 Y100.121 Z-4.000
G1 X294.267 Y100.164 Z-4.000
G1 X293.449 Y100.215 Z-4.000
G1 X292.632 Y100.272 Z-4.000
G1 X292.632 Y100.272 Z-4.583 F635.0
G1 X291.816 Y100.335 Z-4.583 F180.0
G1 X290.999 Y100.406 Z-4.583
G1 X290.180 Y100.483 Z-4.583
G1 X289.359 Y100.568 Z-4.583
G1 X288.536 Y100.659 Z-4.583
G1 X287.712 Y100.758 Z-4.583
G1 X286.886 Y100.864 Z-4.583
G1 X286.059 Y100.977 Z-4.583
G1 X285.231 Y101.097 Z-4.583
G1 X284.401 Y101.224 Z-4.583
G1 X283.570 Y101.359 Z-4.583
G1 X282.738 Y101.501 Z-4.583
G1 X281.905 Y101.651 Z-4.583
G1 X281.071 Y101.808 Z-4.583
G1 X280.237 Y101.972 Z-4.583
G1 X279.401 Y102.145 Z-4.583
G1 X278.565 Y102.324 Z-4.583
G1 X277.729 Y102.512 Z-4.583
G1 X276.892 Y102.707 Z-4.583
G1 X276.055 Y102.909 Z-4.583
G1 X275.217 Y103.120 Z-4.583
G1 X274.379 Y103.338 Z-4.583
G1 X273.542 Y103.564 Z-4.583
G1 X272.704 Y103.797 Z-4.583
G1 X271.867 Y104.039 Z-4.583
G1 X271.030 Y104.288 Z-4.583
