(VECTRIC POST REVISION)
(AE8C5706166A14C0DE23454C54EBD95B)
%
G21
G40
G94
G97
G64
G90
T1 M6
M8
M3 S10000
G0 X145.671 Y192.730
G0 Z5.080
G1 X145.671 Y192.730 Z-0.917 F635.0
G1 X145.626 Y193.768 Z-0.917 F180.0
G1 X145.587 Y194.806 Z-0.917
G1 X145.556 Y195.845 Z-0.917
G1 X145.531 Y196.884 Z-0.917
G1 X145.514 Y197.922 Z-0.917
G1 X145.503 Y198.961 Z-0.917
G1 X145.500 Y200.000 Z-0.917
G1 X145.503 Y201.039 Z-0.917
G1 X145.514 Y202.078 Z-0.917
G1 X145.531 Y203.116 Z-0.917
G1 X145.556 Y204.155 Z-0.917
G1 X145.587 Y205.194 Z-0.917
G1 X145.626 Y206.232 Z-0.917
G1 X145.671 Y207.270 Z-0.917
G1 X145.722 Y208.276 Z-0.917
G1 X145.779 Y209.284 Z-0.917
G1 X145.843 Y210.295 Z-0.917
G1 X145.914 Y211.307 Z-0.917
G1 X145.992 Y212.322 Z-0.917
G1 X146.077 Y213.339 Z-0.917
G1 X146.169 Y214.358 Z-0.917
G1 X146.267 Y215.378 Z-0.917
G1 X146.373 Y216.401 Z-0.917
G1 X146.486 Y217.425 Z-0.917
G1 X146.606 Y218.451 Z-0.917
G1 X146.733 Y219.479 Z-0.917
G1 X146.867 Y220.508 Z-0.917
G1 X147.009 Y221.539 Z-0.917
G1 X147.158 Y222.571 Z-0.917
G1 X147.314 Y223.605 Z-0.917
G1 X147.477 Y224.639 Z-0.917
G1 X147.648 Y225.675 Z-0.917
G1 X147.827 Y226.713 Z-0.917
G1 X148.013 Y227.751 Z-0.917
G1 X148.206 Y228.790 Z-0.917
G1 X148.407 Y229.831 Z-0.917
G1 X148.616 Y230.872 Z-0.917
G1 X148.832 Y231.913 Z-0.917
G1 X149.056 Y232.956 Z-0.917
G1 X149.287 Y233.999 Z-0.917
G1 X149.527 Y235.043 Z-0.917
G1 X149.774 Y236.087 Z-0.917
G1 X150.028 Y237.132 Z-0.917
G1 X150.291 Y238.177 Z-0.917
G1 X150.561 Y239.222 Z-0.917
G1 X150.840 Y240.268 Z-0.917
G1 X151.126 Y241.313 Z-0.917
G1 X151.420 Y242.358 Z-0.917
G1 X151.722 Y243.404 Z-0.917
G1 X152.032 Y244.449 Z-0.917
G1 X152.350 Y245.494 Z-0.917
G1 X152.676 Y246.538 Z-0.917
G1 X153.010 Y247.582 Z-0.917
G1 X153.352 Y248.626 Z-0.917
G1 X153.701 Y249.669 Z-0.917
G1 X154.059 Y250.711 Z-0.917
G1 X154.426 Y251.753 Z-0.917
G1 X154.800 Y252.793 Z-0.917
G1 X155.182 Y253.833 Z-0.917
G1 X155.572 Y254.871 Z-0.917
G1 X155.971 Y255.909 Z-0.917
G1 X156.377 Y256.945 Z-0.917
G1 X156.792 Y257.980 Z-0.917
G1 X157.215 Y259.013 Z-0.917
G1 X157.645 Y260.045 Z-0.917
G1 X158.084 Y261.076 Z-0.917
G1 X158.532 Y262.104 Z-0.917
G1 X158.987 Y263.131 Z-0.917
G1 X159.450 Y264.156 Z-0.917
G1 X159.922 Y265.179 Z-0.917
G1 X160.401 Y266.200 Z-0.917
G1 X160.889 Y267.219 Z-0.917
G1 X161.385 Y268.236 Z-0.917
G1 X161.889 Y269.250 Z-0.917
G1 X162.401 Y270.262 Z-0.917
G1 X162.921 Y271.271 Z-0.917
G1 X163.449 Y272.278 Z-0.917
G1 X163.985 Y273.282 Z-0.917
G1 X164.529 Y274.283 Z-0.917
G1 X165.081 Y275.281 Z-0.917
G1 X165.642 Y276.276 Z-0.917
G1 X166.210 Y277.268 Z-0.917
G1 X166.786 Y278.257 Z-0.917
G1 X167.370 Y279.243 Z-0.917
G1 X167.962 Y280.225 Z-0.917
G1 X168.561 Y281.204 Z-0.917
G1 X169.169 Y282.179 Z-0.917
G1 X169.784 Y283.151 Z-0.917
G1 X170.407 Y284.119 Z-0.917
G1 X171.038 Y285.083 Z-0.917
G1 X171.677 Y286.043 Z-0.917
G1 X172.323 Y286.999 Z-0.917
G1 X172.977 Y287.951 Z-0.917
G1 X173.639 Y288.899 Z-0.917
G1 X174.308 Y289.843 Z-0.917
G1 X174.984 Y290.782 Z-0.917
G1 X175.669 Y291.717 Z-0.917
G1 X176.360 Y292.647 Z-0.917
G1 X177.059 Y293.572 Z-0.917
G1 X177.765 Y294.493 Z-0.917
G1 X178.479 Y295.409 Z-0.917
G1 X179.200 Y296.320 Z-0.917
G1 X179.928 Y297.226 Z-0.917
G1 X180.663 Y298.128 Z-0.917
G1 X181.406 Y299.023 Z-0.917
G1 X182.155 Y299.914 Z-0.917
G1 X182.911 Y300.799 Z-0.917
G1 X183.675 Y301.679 Z-0.917
G1 X184.445 Y302.554 Z-0.917
G1 X185.222 Y303.423 Z-0.917
G1 X186.006 Y304.286 Z-0.917
G1 X186.796 Y305.143 Z-0.917
G1 X187.593 Y305.995 Z-0.917
G1 X188.397 Y306.841 Z-0.917
G1 X189.207 Y307.681 Z-0.917
G1 X190.024 Y308.515 Z-0.917
G1 X190.847 Y309.343 Z-0.917
G1 X191.676 Y310.164 Z-0.917
G1 X192.511 Y310.980 Z-0.917
G1 X193.353 Y311.789 Z-0.917
G1 X194.201 Y312.591 Z-0.917
G1 X195.055 Y313.388 Z-0.917
G1 X195.914 Y314.177 Z-0.917
G1 X196.780 Y314.960 Z-0.917
G1 X197.651 Y315.737 Z-0.917
G1 X198.528 Y316.507 Z-0.917
G1 X199.411 Y317.270 Z-0.917
G1 X200.299 Y318.026 Z-0.917
G1 X201.193 Y318.775 Z-0.917
G1 X202.092 Y319.517 Z-0.917
G1 X202.997 Y320.252 Z-0.917
G1 X203.907 Y320.981 Z-0.917
G1 X204.822 Y321.702 Z-0.917
G1 X205.741 Y322.416 Z-0.917
G1 X206.666 Y323.122 Z-0.917
G1 X207.596 Y323.822 Z-0.917
G1 X208.531 Y324.514 Z-0.917
G1 X209.470 Y325.198 Z-0.917
G1 X210.414 Y325.875 Z-0.917
G1 X211.363 Y326.545 Z-0.917
G1 X212.316 Y327.207 Z-0.917
G1 X213.273 Y327.862 Z-0.917
G1 X214.235 Y328.509 Z-0.917
G1 X215.201 Y329.149 Z-0.917
G1 X216.171 Y329.780 Z-0.917
G1 X217.145 Y330.404 Z-0.917
G1 X218.123 Y331.020 Z-0.917
G1 X219.104 Y331.629 Z-0.917
G1 X220.090 Y332.229 Z-0.917
G1 X221.079 Y332.822 Z-0.917
G1 X222.072 Y333.407 Z-0.917
G1 X223.068 Y333.984 Z-0.917
G1 X224.067 Y334.553 Z-0.917
G1 X225.070 Y335.114 Z-0.917
G1 X226.076 Y335.667 Z-0.917
G1 X227.085 Y336.212 Z-0.917
G1 X228.097 Y336.749 Z-0.917
G1 X229.112 Y337.278 Z-0.917
G1 X230.130 Y337.799 Z-0.917
G1 X231.151 Y338.311 Z-0.917
G1 X232.174 Y338.816 Z-0.917
G1 X233.199 Y339.312 Z-0.917
G1 X234.227 Y339.801 Z-0.917
G1 X235.258 Y340.281 Z-0.917
G1 X236.290 Y340.753 Z-0.917
G1 X237.325 Y341.217 Z-0.917
G1 X238.362 Y341.672 Z-0.917
G1 X239.401 Y342.120 Z-0.917
G1 X240.441 Y342.559 Z-0.917
G1 X241.484 Y342.990 Z-0.917
G1 X242.528 Y343.413 Z-0.917
G1 X243.574 Y343.827 Z-0.917
G1 X244.621 Y344.234 Z-0.917
G1 X245.669 Y344.632 Z-0.917
G1 X246.719 Y345.022 Z-0.917
G1 X247.770 Y345.404 Z-0.917
G1 X248.823 Y345.778 Z-0.917
G1 X249.876 Y346.143 Z-0.917
G1 X250.930 Y346.500 Z-0.917
G1 X251.985 Y346.850 Z-0.917
G1 X253.041 Y347.191 Z-0.917
G1 X254.097 Y347.523 Z-0.917
G1 X255.154 Y347.848 Z-0.917
G1 X256.212 Y348.165 Z-0.917
G1 X257.270 Y348.473 Z-0.917
G1 X258.328 Y348.774 Z-0.917
G1 X259.387 Y349.066 Z-0.917
G1 X260.445 Y349.351 Z-0.917
G1 X261.504 Y349.627 Z-0.917
G1 X262.563 Y349.896 Z-0.917
G1 X263.621 Y350.156 Z-0.917
G1 X264.679 Y350.408 Z-0.917
G1 X265.738 Y350.653 Z-0.917
G1 X266.795 Y350.890 Z-0.917
G1 X267.853 Y351.118 Z-0.917
G1 X268.909 Y351.339 Z-0.917
G1 X269.966 Y351.553 Z-0.917
G1 X271.021 Y351.758 Z-0.917
G1 X272.076 Y351.956 Z-0.917
G1 X273.130 Y352.145 Z-0.917
G1 X274.183 Y352.328 Z-0.917
G1 X275.235 Y352.502 Z-0.917
G1 X276.285 Y352.669 Z-0.917
G1 X277.335 Y352.829 Z-0.917
G1 X278.384 Y352.980 Z-0.917
G1 X279.431 Y353.125 Z-0.917
G1 X280.477 Y353.262 Z-0.917
G1 X281.521 Y353.391 Z-0.917
G1 X282.564 Y353.513 Z-0.917
G1 X283.606 Y353.628 Z-0.917
G1 X284.645 Y353.735 Z-0.917
G1 X285.684 Y353.835 Z-0.917
G1 X286.720 Y353.928 Z-0.917
G1 X287.754 Y354.014 Z-0.917
G1 X288.787 Y354.093 Z-0.917
G1 X289.817 Y354.164 Z-0.917
G1 X290.846 Y354.229 Z-0.917
G1 X291.872 Y354.286 Z-0.917
G1 X292.896 Y354.337 Z-0.917
G1 X293.918 Y354.380 Z-0.917
G1 X294.938 Y354.417 Z-0.917
G1 X295.955 Y354.447 Z-0.917
G1 X296.970 Y354.470 Z-0.917
G1 X297.983 Y354.487 Z-0.917
G1 X298.993 Y354.497 Z-0.917
G1 X300.000 Y354.500 Z-0.917
G1 X301.007 Y354.497 Z-0.917
G1 X302.017 Y354.487 Z-0.917
G1 X303.030 Y354.470 Z-0.917
G1 X304.045 Y354.447 Z-0.917
G1 X305.062 Y354.417 Z-0.917
G1 X306.082 Y354.380 Z-0.917
G1 X307.104 Y354.337 Z-0.917
G1 X308.128 Y354.286 Z-0.917
G1 X309.154 Y354.229 Z-0.917
G1 X310.183 Y354.164 Z-0.917
G1 X311.213 Y354.093 Z-0.917
G1 X312.246 Y354.014 Z-0.917
G1 X313.280 Y353.928 Z-0.917
G1 X314.316 Y353.835 Z-0.917
G1 X315.355 Y353.735 Z-0.917
G1 X316.394 Y353.628 Z-0.917
G1 X317.436 Y353.513 Z-0.917
G1 X318.479 Y353.391 Z-0.917
G1 X319.523 Y353.262 Z-0.917
G1 X320.569 Y353.125 Z-0.917
G1 X321.616 Y352.980 Z-0.917
G1 X322.665 Y352.829 Z-0.917
G1 X323.715 Y352.669 Z-0.917
G1 X324.765 Y352.502 Z-0.917
G1 X325.817 Y352.328 Z-0.917
G1 X326.870 Y352.145 Z-0.917
G1 X327.924 Y351.956 Z-0.917
G1 X328.979 Y351.758 Z-0.917
G1 X330.034 Y351.553 Z-0.917
G1 X331.091 Y351.339 Z-0.917
G1 X332.147 Y351.118 Z-0.917
G1 X333.205 Y350.890 Z-0.917
G1 X334.262 Y350.653 Z-0.917
G1 X335.321 Y350.408 Z-0.917
G1 X336.379 Y350.156 Z-0.917
G1 X337.437 Y349.896 Z-0.917
G1 X338.496 Y349.627 Z-0.917
G1 X339.555 Y349.351 Z-0.917
G1 X340.613 Y349.066 Z-0.917
G1 X341.672 Y348.774 Z-0.917
G1 X342.730 Y348.473 Z-0.917
G1 X343.788 Y348.165 Z-0.917
G1 X344.846 Y347.848 Z-0.917
G1 X345.903 Y347.523 Z-0.917
G1 X346.959 Y347.191 Z-0.917
G1 X348.015 Y346.850 Z-0.917
G1 X349.070 Y346.500 Z-0.917
G1 X350.124 Y346.143 Z-0.917
G1 X351.177 Y345.778 Z-0.917
G1 X352.230 Y345.404 Z-0.917
G1 X353.281 Y345.022 Z-0.917
G1 X354.331 Y344.632 Z-0.917
G1 X355.379 Y344.234 Z-0.917
G1 X356.426 Y343.827 Z-0.917
G1 X357.472 Y343.413 Z-0.917
G1 X358.516 Y342.990 Z-0.917
G1 X359.559 Y342.559 Z-0.917
G1 X360.599 Y342.120 Z-0.917
G1 X361.638 Y341.672 Z-0.917
G1 X362.675 Y341.217 Z-0.917
G1 X363.710 Y340.753 Z-0.917
G1 X364.742 Y340.281 Z-0.917
G1 X365.773 Y339.801 Z-0.917
G1 X366.801 Y339.312 Z-0.917
G1 X367.826 Y338.816 Z-0.917
G1 X368.849 Y338.311 Z-0.917
G1 X369.870 Y337.799 Z-0.917
G1 X370.888 Y337.278 Z-0.917
G1 X371.903 Y336.749 Z-0.917
G1 X372.915 Y336.212 Z-0.917
G1 X373.924 Y335.667 Z-0.917
G1 X374.930 Y335.114 Z-0.917
G1 X375.933 Y334.553 Z-0.917
G1 X376.932 Y333.984 Z-0.917
G1 X377.928 Y333.407 Z-0.917
G1 X378.921 Y332.822 Z-0.917
G1 X379.910 Y332.229 Z-0.917
G1 X380.896 Y331.629 Z-0.917
G1 X381.877 Y331.020 Z-0.917
G1 X382.855 Y330.404 Z-0.917
G1 X383.829 Y329.780 Z-0.917
G1 X384.799 Y329.149 Z-0.917
G1 X385.765 Y328.509 Z-0.917
G1 X386.727 Y327.862 Z-0.917
G1 X387.684 Y327.207 Z-0.917
G1 X388.637 Y326.545 Z-0.917
G1 X389.586 Y325.875 Z-0.917
G1 X390.530 Y325.198 Z-0.917
G1 X391.469 Y324.514 Z-0.917
G1 X392.404 Y323.822 Z-0.917
G1 X393.334 Y323.122 Z-0.917
G1 X394.259 Y322.416 Z-0.917
G1 X395.178 Y321.702 Z-0.917
G1 X396.093 Y320.981 Z-0.917
G1 X397.003 Y320.252 Z-0.917
G1 X397.908 Y319.517 Z-0.917
G1 X398.807 Y318.775 Z-0.917
G1 X399.701 Y318.026 Z-0.917
G1 X400.589 Y317.270 Z-0.917
G1 X401.472 Y316.507 Z-0.917
G1 X402.349 Y315.737 Z-0.917
G1 X403.220 Y314.960 Z-0.917
G1 X404.086 Y314.177 Z-0.917
G1 X404.945 Y313.388 Z-0.917
G1 X405.799 Y312.591 Z-0.917
G1 X406.647 Y311.789 Z-0.917
G1 X407.489 Y310.980 Z-0.917
G1 X408.324 Y310.164 Z-0.917
G1 X409.153 Y309.343 Z-0.917
G1 X409.976 Y308.515 Z-0.917
G1 X410.793 Y307.681 Z-0.917
G1 X411.603 Y306.841 Z-0.917
G1 X412.407 Y305.995 Z-0.917
G1 X413.204 Y305.143 Z-0.917
G1 X413.994 Y304.286 Z-0.917
G1 X414.778 Y303.423 Z-0.917
G1 X415.555 Y302.554 Z-0.917
G1 X416.325 Y301.679 Z-0.917
G1 X417.089 Y300.799 Z-0.917
G1 X417.845 Y299.914 Z-0.917
G1 X418.594 Y299.023 Z-0.917
G1 X419.337 Y298.128 Z-0.917
G1 X420.072 Y297.226 Z-0.917
G1 X420.800 Y296.320 Z-0.917
G1 X421.521 Y295.409 Z-0.917
G1 X422.235 Y294.493 Z-0.917
G1 X422.941 Y293.572 Z-0.917
G1 X423.640 Y292.647 Z-0.917
G1 X424.331 Y291.717 Z-0.917
G1 X425.016 Y290.782 Z-0.917
G1 X425.692 Y289.843 Z-0.917
G1 X426.361 Y288.899 Z-0.917
G1 X427.023 Y287.951 Z-0.917
G1 X427.677 Y286.999 Z-0.917
G1 X428.323 Y286.043 Z-0.917
G1 X428.962 Y285.083 Z-0.917
G1 X429.593 Y284.119 Z-0.917
G1 X430.216 Y283.151 Z-0.917
G1 X430.831 Y282.179 Z-0.917
G1 X431.439 Y281.204 Z-0.917
G1 X432.038 Y280.225 Z-0.917
G1 X432.630 Y279.243 Z-0.917
G1 X433.214 Y278.257 Z-0.917
G1 X433.790 Y277.268 Z-0.917
G1 X434.358 Y276.276 Z-0.917
G1 X434.919 Y275.281 Z-0.917
G1 X435.471 Y274.283 Z-0.917
G1 X436.015 Y273.282 Z-0.917
G1 X436.551 Y272.278 Z-0.917
G1 X437.079 Y271.271 Z-0.917
G1 X437.599 Y270.262 Z-0.917
G1 X438.111 Y269.250 Z-0.917
G1 X438.615 Y268.236 Z-0.917
G1 X439.111 Y267.219 Z-0.917
G1 X439.599 Y266.200 Z-0.917
G1 X440.078 Y265.179 Z-0.917
G1 X440.550 Y264.156 Z-0.917
G1 X441.013 Y263.131 Z-0.917
G1 X441.468 Y262.104 Z-0.917
G1 X441.915 Y261.076 Z-0.917
G1 X442.355 Y260.045 Z-0.917
G1 X442.785 Y259.013 Z-0.917
G1 X443.208 Y257.980 Z-0.917
G1 X443.623 Y256.945 Z-0.917
G1 X444.029 Y255.909 Z-0.917
G1 X444.428 Y254.871 Z-0.917
G1 X444.818 Y253.833 Z-0.917
G1 X445.200 Y252.793 Z-0.917
G1 X445.574 Y251.753 Z-0.917
G1 X445.941 Y250.711 Z-0.917
G1 X446.299 Y249.669 Z-0.917
G1 X446.648 Y248.626 Z-0.917
G1 X446.990 Y247.582 Z-0.917
G1 X447.324 Y246.538 Z-0.917
G1 X447.650 Y245.494 Z-0.917
G1 X447.968 Y244.449 Z-0.917
G1 X448.278 Y243.404 Z-0.917
G1 X448.580 Y242.358 Z-0.917
G1 X448.874 Y241.313 Z-0.917
G1 X449.160 Y240.268 Z-0.917
G1 X449.439 Y239.222 Z-0.917
G1 X449.709 Y238.177 Z-0.917
G1 X449.972 Y237.132 Z-0.917
G1 X450.226 Y236.087 Z-0.917
G1 X450.473 Y235.043 Z-0.917
G1 X450.713 Y233.999 Z-0.917
G1 X450.944 Y232.956 Z-0.917
G1 X451.168 Y231.913 Z-0.917
G1 X451.384 Y230.872 Z-0.917
G1 X451.593 Y229.831 Z-0.917
G1 X451.794 Y228.790 Z-0.917
G1 X451.987 Y227.751 Z-0.917
G1 X452.173 Y226.713 Z-0.917
G1 X452.352 Y225.675 Z-0.917
G1 X452.523 Y224.639 Z-0.917
G1 X452.686 Y223.605 Z-0.917
G1 X452.842 Y222.571 Z-0.917
G1 X452.991 Y221.539 Z-0.917
G1 X453.133 Y220.508 Z-0.917
G1 X453.267 Y219.479 Z-0.917
G1 X453.394 Y218.451 Z-0.917
G1 X453.514 Y217.425 Z-0.917
G1 X453.627 Y216.401 Z-0.917
G1 X453.733 Y215.378 Z-0.917
G1 X453.831 Y214.358 Z-0.917
G1 X453.923 Y213.339 Z-0.917
G1 X454.008 Y212.322 Z-0.917
G1 X454.086 Y211.307 Z-0.917
G1 X454.157 Y210.295 Z-0.917
G1 X454.221 Y209.284 Z-0.917
G1 X454.278 Y208.276 Z-0.917
G1 X454.329 Y207.270 Z-0.917
G1 X454.374 Y206.232 Z-0.917
G1 X454.413 Y205.194 Z-0.917
G1 X454.444 Y204.155 Z-0.917
G1 X454.469 Y203.116 Z-0.917
G1 X454.486 Y202.078 Z-0.917
G1 X454.497 Y201.039 Z-0.917
G1 X454.500 Y200.000 Z-0.917
G1 X454.497 Y198.961 Z-0.917
G1 X454.486 Y197.922 Z-0.917
G1 X454.469 Y196.884 Z-0.917
G1 X454.444 Y195.845 Z-0.917
G1 X454.413 Y194.806 Z-0.917
G1 X454.374 Y193.768 Z-0.917
G1 X454.329 Y192.730 Z-0.917
G1 X454.278 Y191.724 Z-0.917
G1 X454.221 Y190.716 Z-0.917
G1 X454.157 Y189.705 Z-0.917
G1 X454.086 Y188.693 Z-0.917
G1 X454.008 Y187.678 Z-0.917
G1 X453.923 Y186.661 Z-0.917
G1 X453.831 Y185.642 Z-0.917
G1 X453.733 Y184.622 Z-0.917
G1 X453.627 Y183.599 Z-0.917
G1 X453.514 Y182.575 Z-0.917
G1 X453.394 Y181.549 Z-0.917
G1 X453.267 Y180.521 Z-0.917
G1 X453.133 Y179.492 Z-0.917
G1 X452.991 Y178.461 Z-0.917
G1 X452.842 Y177.429 Z-0.917
G1 X452.686 Y176.395 Z-0.917
G1 X452.523 Y175.361 Z-0.917
G1 X452.352 Y174.325 Z-0.917
G1 X452.173 Y173.287 Z-0.917
G1 X451.987 Y172.249 Z-0.917
G1 X451.794 Y171.210 Z-0.917
G1 X451.593 Y170.169 Z-0.917
G1 X451.384 Y169.128 Z-0.917
G1 X451.168 Y168.087 Z-0.917
G1 X450.944 Y167.044 Z-0.917
G1 X450.713 Y166.001 Z-0.917
G1 X450.473 Y164.957 Z-0.917
G1 X450.226 Y163.913 Z-0.917
G1 X449.972 Y162.868 Z-0.917
G1 X449.709 Y161.823 Z-0.917
G1 X449.439 Y160.778 Z-0.917
G1 X449.160 Y159.732 Z-0.917
G1 X448.874 Y158.687 Z-0.917
G1 X448.580 Y157.642 Z-0.917
G1 X448.278 Y156.596 Z-0.917
G1 X447.968 Y155.551 Z-0.917
G1 X447.650 Y154.506 Z-0.917
G1 X447.324 Y153.462 Z-0.917
G1 X446.990 Y152.418 Z-0.917
G1 X446.648 Y151.374 Z-0.917
G1 X446.299 Y150.331 Z-0.917
G1 X445.941 Y149.289 Z-0.917
G1 X445.574 Y148.247 Z-0.917
G1 X445.200 Y147.207 Z-0.917
G1 X444.818 Y146.167 Z-0.917
G1 X444.428 Y145.129 Z-0.917
G1 X444.029 Y144.091 Z-0.917
G1 X443.623 Y143.055 Z-0.917
G1 X443.208 Y142.020 Z-0.917
G1 X442.785 Y140.987 Z-0.917
G1 X442.355 Y139.955 Z-0.917
G1 X441.915 Y138.924 Z-0.917
G1 X441.468 Y137.896 Z-0.917
G1 X441.013 Y136.869 Z-0.917
G1 X440.550 Y135.844 Z-0.917
G1 X440.078 Y134.821 Z-0.917
G1 X439.599 Y133.800 Z-0.917
G1 X439.111 Y132.781 Z-0.917
G1 X438.615 Y131.764 Z-0.917
G1 X438.111 Y130.750 Z-0.917
G1 X437.599 Y129.738 Z-0.917
G1 X437.079 Y128.729 Z-0.917
G1 X436.551 Y127.722 Z-0.917
G1 X436.015 Y126.718 Z-0.917
G1 X435.471 Y125.717 Z-0.917
G1 X434.919 Y124.719 Z-0.917
G1 X434.358 Y123.724 Z-0.917
G1 X433.790 Y122.732 Z-0.917
G1 X433.214 Y121.743 Z-0.917
G1 X432.630 Y120.757 Z-0.917
G1 X432.038 Y119.775 Z-0.917
G1 X431.439 Y118.796 Z-0.917
G1 X430.831 Y117.821 Z-0.917
G1 X430.216 Y116.849 Z-0.917
G1 X429.593 Y115.881 Z-0.917
G1 X428.962 Y114.917 Z-0.917
G1 X428.323 Y113.957 Z-0.917
G1 X427.677 Y113.001 Z-0.917
G1 X427.023 Y112.049 Z-0.917
G1 X426.361 Y111.101 Z-0.917
G1 X425.692 Y110.157 Z-0.917
G1 X425.016 Y109.218 Z-0.917
G1 X424.331 Y108.283 Z-0.917
G1 X423.640 Y107.353 Z-0.917
G1 X422.941 Y106.428 Z-0.917
G1 X422.235 Y105.507 Z-0.917
G1 X421.521 Y104.591 Z-0.917
G1 X420.800 Y103.680 Z-0.917
G1 X420.072 Y102.774 Z-0.917
G1 X419.337 Y101.873 Z-0.917
G1 X418.594 Y100.977 Z-0.917
G1 X417.845 Y100.086 Z-0.917
G1 X417.089 Y99.201 Z-0.917
G1 X416.325 Y98.321 Z-0.917
G1 X415.555 Y97.446 Z-0.917
G1 X414.778 Y96.577 Z-0.917
G1 X413.994 Y95.714 Z-0.917
G1 X413.204 Y94.857 Z-0.917
G1 X412.407 Y94.005 Z-0.917
G1 X411.603 Y93.159 Z-0.917
G1 X410.793 Y92.319 Z-0.917
G1 X409.976 Y91.485 Z-0.917
G1 X409.153 Y90.657 Z-0.917
G1 X408.324 Y89.836 Z-0.917
G1 X407.489 Y89.020 Z-0.917
G1 X406.647 Y88.211 Z-0.917
G1 X405.799 Y87.409 Z-0.917
G1 X404.945 Y86.612 Z-0.917
G1 X404.086 Y85.823 Z-0.917
G1 X403.220 Y85.040 Z-0.917
G1 X402.349 Y84.263 Z-0.917
G1 X401.472 Y83.493 Z-0.917
G1 X400.589 Y82.730 Z-0.917
G1 X399.701 Y81.974 Z-0.917
G1 X398.807 Y81.225 Z-0.917
G1 X397.908 Y80.483 Z-0.917
G1 X397.003 Y79.748 Z-0.917
G1 X396.093 Y79.019 Z-0.917
G1 X395.178 Y78.298 Z-0.917
G1 X394.259 Y77.584 Z-0.917
G1 X393.334 Y76.878 Z-0.917
G1 X392.404 Y76.178 Z-0.917
G1 X391.469 Y75.486 Z-0.917
G1 X390.530 Y74.802 Z-0.917
G1 X389.586 Y74.125 Z-0.917
G1 X388.637 Y73.455 Z-0.917
G1 X387.684 Y72.793 Z-0.917
G1 X386.727 Y72.138 Z-0.917
G1 X385.765 Y71.491 Z-0.917
G1 X384.799 Y70.851 Z-0.917
G1 X383.829 Y70.220 Z-0.917
G1 X382.855 Y69.596 Z-0.917
G1 X381.877 Y68.980 Z-0.917
G1 X380.896 Y68.371 Z-0.917
G1 X379.910 Y67.771 Z-0.917
G1 X378.921 Y67.178 Z-0.917
G1 X377.928 Y66.593 Z-0.917
G1 X376.932 Y66.016 Z-0.917
G1 X375.933 Y65.447 Z-0.917
G1 X374.930 Y64.886 Z-0.917
G1 X373.924 Y64.333 Z-0.917
G1 X372.915 Y63.788 Z-0.917
G1 X371.903 Y63.251 Z-0.917
G1 X370.888 Y62.722 Z-0.917
G1 X369.870 Y62.201 Z-0.917
G1 X368.849 Y61.689 Z-0.917
G1 X367.826 Y61.184 Z-0.917
G1 X366.801 Y60.688 Z-0.917
G1 X365.773 Y60.199 Z-0.917
G1 X364.742 Y59.719 Z-0.917
G1 X363.710 Y59.247 Z-0.917
G1 X362.675 Y58.783 Z-0.917
G1 X361.638 Y58.328 Z-0.917
G1 X360.599 Y57.880 Z-0.917
G1 X359.559 Y57.441 Z-0.917
G1 X358.516 Y57.010 Z-0.917
G1 X357.472 Y56.587 Z-0.917
G1 X356.426 Y56.173 Z-0.917
G1 X355.379 Y55.766 Z-0.917
G1 X354.331 Y55.368 Z-0.917
G1 X353.281 Y54.978 Z-0.917
G1 X352.230 Y54.596 Z-0.917
G1 X351.177 Y54.222 Z-0.917
G1 X350.124 Y53.857 Z-0.917
G1 X349.070 Y53.500 Z-0.917
G1 X348.015 Y53.150 Z-0.917
G1 X346.959 Y52.809 Z-0.917
G1 X345.903 Y52.476 Z-0.917
G1 X344.846 Y52.152 Z-0.917
G1 X343.788 Y51.835 Z-0.917
G1 X342.730 Y51.527 Z-0.917
G1 X341.672 Y51.226 Z-0.917
G1 X340.613 Y50.934 Z-0.917
G1 X339.555 Y50.649 Z-0.917
G1 X338.496 Y50.373 Z-0.917
G1 X337.437 Y50.104 Z-0.917
G1 X336.379 Y49.844 Z-0.917
G1 X335.321 Y49.592 Z-0.917
G1 X334.262 Y49.347 Z-0.917
G1 X333.205 Y49.110 Z-0.917
G1 X332.147 Y48.882 Z-0.917
G1 X331.091 Y48.661 Z-0.917
G1 X330.034 Y48.447 Z-0.917
G1 X328.979 Y48.242 Z-0.917
G1 X327.924 Y48.044 Z-0.917
G1 X326.870 Y47.855 Z-0.917
G1 X325.817 Y47.672 Z-0.917
G1 X324.765 Y47.498 Z-0.917
G1 X323.715 Y47.331 Z-0.917
G1 X322.665 Y47.171 Z-0.917
G1 X321.616 Y47.020 Z-0.917
G1 X320.569 Y46.875 Z-0.917
G1 X319.523 Y46.738 Z-0.917
G1 X318.479 Y46.609 Z-0.917
G1 X317.436 Y46.487 Z-0.917
G1 X316.394 Y46.372 Z-0.917
G1 X315.355 Y46.265 Z-0.917
G1 X314.316 Y46.165 Z-0.917
G1 X313.280 Y46.072 Z-0.917
G1 X312.246 Y45.986 Z-0.917
G1 X311.213 Y45.907 Z-0.917
G1 X310.183 Y45.836 Z-0.917
G1 X309.154 Y45.771 Z-0.917
G1 X308.128 Y45.714 Z-0.917
G1 X307.104 Y45.663 Z-0.917
G1 X306.082 Y45.620 Z-0.917
G1 X305.062 Y45.583 Z-0.917
G1 X304.045 Y45.553 Z-0.917
G1 X303.030 Y45.530 Z-0.917
G1 X302.017 Y45.513 Z-0.917
G1 X301.007 Y45.503 Z-0.917
G1 X300.000 Y45.500 Z-0.917
G1 X298.993 Y45.503 Z-0.917
G1 X297.983 Y45.513 Z-0.917
G1 X296.970 Y45.530 Z-0.917
G1 X295.955 Y45.553 Z-0.917
G1 X294.938 Y45.583 Z-0.917
G1 X293.918 Y45.620 Z-0.917
G1 X292.896 Y45.663 Z-0.917
G1 X291.872 Y45.714 Z-0.917
G1 X290.846 Y45.771 Z-0.917
G1 X289.817 Y45.836 Z-0.917
G1 X288.787 Y45.907 Z-0.917
G1 X287.754 Y45.986 Z-0.917
G1 X286.720 Y46.072 Z-0.917
G1 X285.684 Y46.165 Z-0.917
G1 X284.645 Y46.265 Z-0.917
G1 X283.606 Y46.372 Z-0.917
G1 X282.564 Y46.487 Z-0.917
G1 X281.521 Y46.609 Z-0.917
G1 X280.477 Y46.738 Z-0.917
G1 X279.431 Y46.875 Z-0.917
G1 X278.384 Y47.020 Z-0.917
G1 X277.335 Y47.171 Z-0.917
G1 X276.285 Y47.331 Z-0.917
G1 X275.235 Y47.498 Z-0.917
G1 X274.183 Y47.672 Z-0.917
G1 X273.130 Y47.855 Z-0.917
G1 X272.076 Y48.044 Z-0.917
G1 X271.021 Y48.242 Z-0.917
G1 X269.966 Y48.447 Z-0.917
G1 X268.909 Y48.661 Z-0.917
G1 X267.853 Y48.882 Z-0.917
G1 X266.795 Y49.110 Z-0.917
G1 X265.738 Y49.347 Z-0.917
G1 X264.679 Y49.592 Z-0.917
G1 X263.621 Y49.844 Z-0.917
G1 X262.563 Y50.104 Z-0.917
G1 X261.504 Y50.373 Z-0.917
G1 X260.445 Y50.649 Z-0.917
G1 X259.387 Y50.934 Z-0.917
G1 X258.328 Y51.226 Z-0.917
G1 X257.270 Y51.527 Z-0.917
G1 X256.212 Y51.835 Z-0.917
G1 X255.154 Y52.152 Z-0.917
G1 X254.097 Y52.476 Z-0.917
G1 X253.041 Y52.809 Z-0.917
G1 X251.985 Y53.150 Z-0.917
G1 X250.930 Y53.500 Z-0.917
G1 X249.876 Y53.857 Z-0.917
G1 X248.823 Y54.222 Z-0.917
G1 X247.770 Y54.596 Z-0.917
G1 X246.719 Y54.978 Z-0.917
G1 X245.669 Y55.368 Z-0.917
G1 X244.621 Y55.766 Z-0.917
G1 X243.574 Y56.173 Z-0.917
G1 X242.528 Y56.587 Z-0.917
G1 X241.484 Y57.010 Z-0.917
G1 X240.441 Y57.441 Z-0.917
G1 X239.401 Y57.880 Z-0.917
G1 X238.362 Y58.328 Z-0.917
G1 X237.325 Y58.783 Z-0.917
G1 X236.290 Y59.247 Z-0.917
G1 X235.258 Y59.719 Z-0.917
G1 X234.227 Y60.199 Z-0.917
G1 X233.199 Y60.688 Z-0.917
G1 X232.174 Y61.184 Z-0.917
G1 X231.151 Y61.689 Z-0.917
G1 X230.130 Y62.201 Z-0.917
G1 X229.112 Y62.722 Z-0.917
G1 X228.097 Y63.251 Z-0.917
G1 X227.085 Y63.788 Z-0.917
G1 X226.076 Y64.333 Z-0.917
G1 X225.070 Y64.886 Z-0.917
G1 X224.067 Y65.447 Z-0.917
G1 X223.068 Y66.016 Z-0.917
G1 X222.072 Y66.593 Z-0.917
G1 X221.079 Y67.178 Z-0.917
G1 X220.090 Y67.771 Z-0.917
G1 X219.104 Y68.371 Z-0.917
G1 X218.123 Y68.980 Z-0.917
G1 X217.145 Y69.596 Z-0.917
G1 X216.171 Y70.220 Z-0.917
G1 X215.201 Y70.851 Z-0.917
G1 X214.235 Y71.491 Z-0.917
G1 X213.273 Y72.138 Z-0.917
G1 X212.316 Y72.793 Z-0.917
G1 X211.363 Y73.455 Z-0.917
G1 X210.414 Y74.125 Z-0.917
G1 X209.470 Y74.802 Z-0.917
G1 X208.531 Y75.486 Z-0.917
G1 X207.596 Y76.178 Z-0.917
G1 X206.666 Y76.878 Z-0.917
G1 X205.741 Y77.584 Z-0.917
G1 X204.822 Y78.298 Z-0.917
G1 X203.907 Y79.019 Z-0.917
G1 X202.997 Y79.748 Z-0.917
G1 X202.092 Y80.483 Z-0.917
G1 X201.193 Y81.225 Z-0.917
G1 X200.299 Y81.974 Z-0.917
G1 X199.411 Y82.730 Z-0.917
G1 X198.528 Y83.493 Z-0.917
G1 X197.651 Y84.263 Z-0.917
G1 X196.780 Y85.040 Z-0.917
G1 X195.914 Y85.823 Z-0.917
G1 X195.055 Y86.612 Z-0.917
G1 X194.201 Y87.409 Z-0.917
G1 X193.353 Y88.211 Z-0.917
G1 X192.511 Y89.020 Z-0.917
G1 X191.676 Y89.836 Z-0.917
G1 X190.847 Y90.657 Z-0.917
G1 X190.024 Y91.485 Z-0.917
G1 X189.207 Y92.319 Z-0.917
G1 X188.397 Y93.159 Z-0.917
G1 X187.593 Y94.005 Z-0.917
G1 X186.796 Y94.857 Z-0.917
G1 X186.006 Y95.714 Z-0.917
G1 X185.222 Y96.577 Z-0.917
G1 X184.445 Y97.446 Z-0.917
G1 X183.675 Y98.321 Z-0.917
G1 X182.911 Y99.201 Z-0.917
G1 X182.155 Y100.086 Z-0.917
G1 X181.406 Y100.977 Z-0.917
G1 X180.663 Y101.873 Z-0.917
G1 X179.928 Y102.774 Z-0.917
G1 X179.200 Y103.680 Z-0.917
G1 X178.479 Y104.591 Z-0.917
G1 X177.765 Y105.507 Z-0.917
G1 X177.059 Y106.428 Z-0.917
G1 X176.360 Y107.353 Z-0.917
G1 X175.669 Y108.283 Z-0.917
G1 X174.984 Y109.218 Z-0.917
G1 X174.308 Y110.157 Z-0.917
G1 X173.639 Y111.101 Z-0.917
G1 X172.977 Y112.049 Z-0.917
G1 X172.323 Y113.001 Z-0.917
G1 X171.677 Y113.957 Z-0.917
G1 X171.038 Y114.917 Z-0.917
G1 X170.407 Y115.881 Z-0.917
G1 X169.784 Y116.849 Z-0.917
G1 X169.169 Y117.821 Z-0.917
G1 X168.561 Y118.796 Z-0.917
G1 X167.962 Y119.775 Z-0.917
G1 X167.370 Y120.757 Z-0.917
G1 X166.786 Y121.743 Z-0.917
G1 X166.210 Y122.732 Z-0.917
G1 X165.642 Y123.724 Z-0.917
G1 X165.081 Y124.719 Z-0.917
G1 X164.529 Y125.717 Z-0.917
G1 X163.985 Y126.718 Z-0.917
G1 X163.449 Y127.722 Z-0.917
G1 X162.921 Y128.729 Z-0.917
G1 X162.401 Y129.738 Z-0.917
G1 X161.889 Y130.750 Z-0.917
G1 X161.385 Y131.764 Z-0.917
G1 X160.889 Y132.781 Z-0.917
G1 X160.401 Y133.800 Z-0.917
G1 X159.922 Y134.821 Z-0.917
G1 X159.450 Y135.844 Z-0.917
G1 X158.987 Y136.869 Z-0.917
G1 X158.532 Y137.896 Z-0.917
G1 X158.084 Y138.924 Z-0.917
G1 X157.645 Y139.955 Z-0.917
G1 X157.215 Y140.987 Z-0.917
G1 X156.792 Y142.020 Z-0.917
G1 X156.377 Y143.055 Z-0.917
G1 X155.971 Y144.091 Z-0.917
G1 X155.572 Y145.129 Z-0.917
G1 X155.182 Y146.167 Z-0.917
G1 X154.800 Y147.207 Z-0.917
G1 X154.426 Y148.247 Z-0.917
G1 X154.059 Y149.289 Z-0.917
G1 X153.701 Y150.331 Z-0.917
G1 X153.352 Y151.374 Z-0.917
G1 X153.010 Y152.418 Z-0.917
G1 X152.676 Y153.462 Z-0.917
G1 X152.350 Y154.506 Z-0.917
G1 X152.032 Y155.551 Z-0.917
G1 X151.722 Y156.596 Z-0.917
G1 X151.420 Y157.642 Z-0.917
G1 X151.126 Y158.687 Z-0.917
G1 X150.840 Y159.732 Z-0.917
G1 X150.561 Y160.778 Z-0.917
G1 X150.291 Y161.823 Z-0.917
G1 X150.028 Y162.868 Z-0.917
G1 X149.774 Y163.913 Z-0.917
G1 X149.527 Y164.957 Z-0.917
G1 X149.287 Y166.001 Z-0.917
G1 X149.056 Y167.044 Z-0.917
G1 X148.832 Y168.087 Z-0.917
G1 X148.616 Y169.128 Z-0.917
G1 X148.407 Y170.169 Z-0.917
G1 X148.206 Y171.210 Z-0.917
G1 X148.013 Y172.249 Z-0.917
G1 X147.827 Y173.287 Z-0.917
G1 X147.648 Y174.325 Z-0.917
G1 X147.477 Y175.361 Z-0.917
G1 X147.314 Y176.395 Z-0.917
G1 X147.158 Y177.429 Z-0.917
G1 X147.009 Y178.461 Z-0.917
G1 X146.867 Y179.492 Z-0.917
G1 X146.733 Y180.521 Z-0.917
G1 X146.606 Y181.549 Z-0.917
G1 X146.486 Y182.575 Z-0.917
G1 X146.373 Y183.599 Z-0.917
G1 X146.267 Y184.622 Z-0.917
G1 X146.169 Y185.642 Z-0.917
G1 X146.077 Y186.661 Z-0.917
G1 X145.992 Y187.678 Z-0.917
G1 X145.914 Y188.693 Z-0.917
G1 X145.843 Y189.705 Z-0.917
G1 X145.779 Y190.716 Z-0.917
G1 X145.722 Y191.724 Z-0.917
G1 X145.671 Y192.730 Z-0.917
G1 X145.671 Y192.730 Z-1.833 F635.0
G1 X145.626 Y193.768 Z-1.833 F180.0
G1 X145.587 Y194.806 Z-1.833
G1 X145.556 Y195.845 Z-1.833
G1 X145.531 Y196.884 Z-1.833
G1 X145.514 Y197.922 Z-1.833
G1 X145.503 Y198.961 Z-1.833
G1 X145.500 Y200.000 Z-1.833
G1 X145.503 Y201.039 Z-1.833
G1 X145.514 Y202.078 Z-1.833
G1 X145.531 Y203.116 Z-1.833
G1 X145.556 Y204.155 Z-1.833
G1 X145.587 Y205.194 Z-1.833
G1 X145.626 Y206.232 Z-1.833
G1 X145.671 Y207.270 Z-1.833
G1 X145.722 Y208.276 Z-1.833
G1 X145.779 Y209.284 Z-1.833
G1 X145.843 Y210.295 Z-1.833
G1 X145.914 Y211.307 Z-1.833
G1 X145.992 Y212.322 Z-1.833
G1 X146.077 Y213.339 Z-1.833
G1 X146.169 Y214.358 Z-1.833
G1 X146.267 Y215.378 Z-1.833
G1 X146.373 Y216.401 Z-1.833
G1 X146.486 Y217.425 Z-1.833
G1 X146.606 Y218.451 Z-1.833
G1 X146.733 Y219.479 Z-1.833
G1 X146.867 Y220.508 Z-1.833
G1 X147.009 Y221.539 Z-1.833
G1 X147.158 Y222.571 Z-1.833
G1 X147.314 Y223.605 Z-1.833
G1 X147.477 Y224.639 Z-1.833
G1 X147.648 Y225.675 Z-1.833
G1 X147.827 Y226.713 Z-1.833
G1 X148.013 Y227.751 Z-1.833
G1 X148.206 Y228.790 Z-1.833
G1 X148.407 Y229.831 Z-1.833
G1 X148.616 Y230.872 Z-1.833
G1 X148.832 Y231.913 Z-1.833
G1 X149.056 Y232.956 Z-1.833
G1 X149.287 Y233.999 Z-1.833
G1 X149.527 Y235.043 Z-1.833
G1 X149.774 Y236.087 Z-1.833
G1 X150.028 Y237.132 Z-1.833
G1 X150.291 Y238.177 Z-1.833
G1 X150.561 Y239.222 Z-1.833
G1 X150.840 Y240.268 Z-1.833
G1 X151.126 Y241.313 Z-1.833
G1 X151.420 Y242.358 Z-1.833
G1 X151.722 Y243.404 Z-1.833
G1 X152.032 Y244.449 Z-1.833
G1 X152.350 Y245.494 Z-1.833
G1 X152.676 Y246.538 Z-1.833
G1 X153.010 Y247.582 Z-1.833
G1 X153.352 Y248.626 Z-1.833
G1 X153.701 Y249.669 Z-1.833
G1 X154.059 Y250.711 Z-1.833
G1 X154.426 Y251.753 Z-1.833
G1 X154.800 Y252.793 Z-1.833
G1 X155.182 Y253.833 Z-1.833
G1 X155.572 Y254.871 Z-1.833
G1 X155.971 Y255.909 Z-1.833
G1 X156.377 Y256.945 Z-1.833
G1 X156.792 Y257.980 Z-1.833
G1 X157.215 Y259.013 Z-1.833
G1 X157.645 Y260.045 Z-1.833
G1 X158.084 Y261.076 Z-1.833
G1 X158.532 Y262.104 Z-1.833
G1 X158.987 Y263.131 Z-1.833
G1 X159.450 Y264.156 Z-1.833
G1 X159.922 Y265.179 Z-1.833
G1 X160.401 Y266.200 Z-1.833
G1 X160.889 Y267.219 Z-1.833
G1 X161.385 Y268.236 Z-1.833
G1 X161.889 Y269.250 Z-1.833
G1 X162.401 Y270.262 Z-1.833
G1 X162.921 Y271.271 Z-1.833
G1 X163.449 Y272.278 Z-1.833
G1 X163.985 Y273.282 Z-1.833
G1 X164.529 Y274.283 Z-1.833
G1 X165.081 Y275.281 Z-1.833
G1 X165.642 Y276.276 Z-1.833
G1 X166.210 Y277.268 Z-1.833
G1 X166.786 Y278.257 Z-1.833
G1 X167.370 Y279.243 Z-1.833
G1 X167.962 Y280.225 Z-1.833
G1 X168.561 Y281.204 Z-1.833
G1 X169.169 Y282.179 Z-1.833
G1 X169.784 Y283.151 Z-1.833
G1 X170.407 Y284.119 Z-1.833
G1 X171.038 Y285.083 Z-1.833
G1 X171.677 Y286.043 Z-1.833
G1 X172.323 Y286.999 Z-1.833
G1 X172.977 Y287.951 Z-1.833
G1 X173.639 Y288.899 Z-1.833
G1 X174.308 Y289.843 Z-1.833
G1 X174.984 Y290.782 Z-1.833
G1 X175.669 Y291.717 Z-1.833
G1 X176.360 Y292.647 Z-1.833
G1 X177.059 Y293.572 Z-1.833
G1 X177.765 Y294.493 Z-1.833
G1 X178.479 Y295.409 Z-1.833
G1 X179.200 Y296.320 Z-1.833
G1 X179.928 Y297.226 Z-1.833
G1 X180.663 Y298.128 Z-1.833
G1 X181.406 Y299.023 Z-1.833
G1 X182.155 Y299.914 Z-1.833
G1 X182.911 Y300.799 Z-1.833
G1 X183.675 Y301.679 Z-1.833
G1 X184.445 Y302.554 Z-1.833
G1 X185.222 Y303.423 Z-1.833
G1 X186.006 Y304.286 Z-1.833
G1 X186.796 Y305.143 Z-1.833
G1 X187.593 Y305.995 Z-1.833
G1 X188.397 Y306.841 Z-1.833
G1 X189.207 Y307.681 Z-1.833
G1 X190.024 Y308.515 Z-1.833
G1 X190.847 Y309.343 Z-1.833
G1 X191.676 Y310.164 Z-1.833
G1 X192.511 Y310.980 Z-1.833
G1 X193.353 Y311.789 Z-1.833
G1 X194.201 Y312.591 Z-1.833
G1 X195.055 Y313.388 Z-1.833
G1 X195.914 Y314.177 Z-1.833
G1 X196.780 Y314.960 Z-1.833
G1 X197.651 Y315.737 Z-1.833
G1 X198.528 Y316.507 Z-1.833
G1 X199.411 Y317.270 Z-1.833
G1 X200.299 Y318.026 Z-1.833
G1 X201.193 Y318.775 Z-1.833
G1 X202.092 Y319.517 Z-1.833
G1 X202.997 Y320.252 Z-1.833
G1 X203.907 Y320.981 Z-1.833
G1 X204.822 Y321.702 Z-1.833
G1 X205.741 Y322.416 Z-1.833
G1 X206.666 Y323.122 Z-1.833
G1 X207.596 Y323.822 Z-1.833
G1 X208.531 Y324.514 Z-1.833
G1 X209.470 Y325.198 Z-1.833
G1 X210.414 Y325.875 Z-1.833
G1 X211.363 Y326.545 Z-1.833
G1 X212.316 Y327.207 Z-1.833
G1 X213.273 Y327.862 Z-1.833
G1 X214.235 Y328.509 Z-1.833
G1 X215.201 Y329.149 Z-1.833
G1 X216.171 Y329.780 Z-1.833
G1 X217.145 Y330.404 Z-1.833
G1 X218.123 Y331.020 Z-1.833
G1 X219.104 Y331.629 Z-1.833
G1 X220.090 Y332.229 Z-1.833
G1 X221.079 Y332.822 Z-1.833
G1 X222.072 Y333.407 Z-1.833
G1 X223.068 Y333.984 Z-1.833
G1 X224.067 Y334.553 Z-1.833
G1 X225.070 Y335.114 Z-1.833
G1 X226.076 Y335.667 Z-1.833
G1 X227.085 Y336.212 Z-1.833
G1 X228.097 Y336.749 Z-1.833
G1 X229.112 Y337.278 Z-1.833
G1 X230.130 Y337.799 Z-1.833
G1 X231.151 Y338.311 Z-1.833
G1 X232.174 Y338.816 Z-1.833
G1 X233.199 Y339.312 Z-1.833
G1 X234.227 Y339.801 Z-1.833
G1 X235.258 Y340.281 Z-1.833
G1 X236.290 Y340.753 Z-1.833
G1 X237.325 Y341.217 Z-1.833
G1 X238.362 Y341.672 Z-1.833
G1 X239.401 Y342.120 Z-1.833
G1 X240.441 Y342.559 Z-1.833
G1 X241.484 Y342.990 Z-1.833
G1 X242.528 Y343.413 Z-1.833
G1 X243.574 Y343.827 Z-1.833
G1 X244.621 Y344.234 Z-1.833
G1 X245.669 Y344.632 Z-1.833
G1 X246.719 Y345.022 Z-1.833
G1 X247.770 Y345.404 Z-1.833
G1 X248.823 Y345.778 Z-1.833
G1 X249.876 Y346.143 Z-1.833
G1 X250.930 Y346.500 Z-1.833
G1 X251.985 Y346.850 Z-1.833
G1 X253.041 Y347.191 Z-1.833
G1 X254.097 Y347.523 Z-1.833
G1 X255.154 Y347.848 Z-1.833
G1 X256.212 Y348.165 Z-1.833
G1 X257.270 Y348.473 Z-1.833
G1 X258.328 Y348.774 Z-1.833
G1 X259.387 Y349.066 Z-1.833
G1 X260.445 Y349.351 Z-1.833
G1 X261.504 Y349.627 Z-1.833
G1 X262.563 Y349.896 Z-1.833
G1 X263.621 Y350.156 Z-1.833
G1 X264.679 Y350.408 Z-1.833
G1 X265.738 Y350.653 Z-1.833
G1 X266.795 Y350.890 Z-1.833
G1 X267.853 Y351.118 Z-1.833
G1 X268.909 Y351.339 Z-1.833
G1 X269.966 Y351.553 Z-1.833
G1 X271.021 Y351.758 Z-1.833
G1 X272.076 Y351.956 Z-1.833
G1 X273.130 Y352.145 Z-1.833
G1 X274.183 Y352.328 Z-1.833
G1 X275.235 Y352.502 Z-1.833
G1 X276.285 Y352.669 Z-1.833
G1 X277.335 Y352.829 Z-1.833
G1 X278.384 Y352.980 Z-1.833
G1 X279.431 Y353.125 Z-1.833
G1 X280.477 Y353.262 Z-1.833
G1 X281.521 Y353.391 Z-1.833
G1 X282.564 Y353.513 Z-1.833
G1 X283.606 Y353.628 Z-1.833
G1 X284.645 Y353.735 Z-1.833
G1 X285.684 Y353.835 Z-1.833
G1 X286.720 Y353.928 Z-1.833
G1 X287.754 Y354.014 Z-1.833
G1 X288.787 Y354.093 Z-1.833
G1 X289.817 Y354.164 Z-1.833
G1 X290.846 Y354.229 Z-1.833
G1 X291.872 Y354.286 Z-1.833
G1 X292.896 Y354.337 Z-1.833
G1 X293.918 Y354.380 Z-1.833
G1 X294.938 Y354.417 Z-1.833
G1 X295.955 Y354.447 Z-1.833
G1 X296.970 Y354.470 Z-1.833
G1 X297.983 Y354.487 Z-1.833
G1 X298.993 Y354.497 Z-1.833
G1 X300.000 Y354.500 Z-1.833
G1 X301.007 Y354.497 Z-1.833
G1 X302.017 Y354.487 Z-1.833
G1 X303.030 Y354.470 Z-1.833
G1 X304.045 Y354.447 Z-1.833
G1 X305.062 Y354.417 Z-1.833
G1 X306.082 Y354.380 Z-1.833
G1 X307.104 Y354.337 Z-1.833
G1 X308.128 Y354.286 Z-1.833
G1 X309.154 Y354.229 Z-1.833
G1 X310.183 Y354.164 Z-1.833
G1 X311.213 Y354.093 Z-1.833
G1 X312.246 Y354.014 Z-1.833
G1 X313.280 Y353.928 Z-1.833
G1 X314.316 Y353.835 Z-1.833
G1 X315.355 Y353.735 Z-1.833
G1 X316.394 Y353.628 Z-1.833
G1 X317.436 Y353.513 Z-1.833
G1 X318.479 Y353.391 Z-1.833
G1 X319.523 Y353.262 Z-1.833
G1 X320.569 Y353.125 Z-1.833
G1 X321.616 Y352.980 Z-1.833
G1 X322.665 Y352.829 Z-1.833
G1 X323.715 Y352.669 Z-1.833
G1 X324.765 Y352.502 Z-1.833
G1 X325.817 Y352.328 Z-1.833
G1 X326.870 Y352.145 Z-1.833
G1 X327.924 Y351.956 Z-1.833
G1 X328.979 Y351.758 Z-1.833
G1 X330.034 Y351.553 Z-1.833
G1 X331.091 Y351.339 Z-1.833
G1 X332.147 Y351.118 Z-1.833
G1 X333.205 Y350.890 Z-1.833
G1 X334.262 Y350.653 Z-1.833
G1 X335.321 Y350.408 Z-1.833
G1 X336.379 Y350.156 Z-1.833
G1 X337.437 Y349.896 Z-1.833
G1 X338.496 Y349.627 Z-1.833
G1 X339.555 Y349.351 Z-1.833
G1 X340.613 Y349.066 Z-1.833
G1 X341.672 Y348.774 Z-1.833
G1 X342.730 Y348.473 Z-1.833
G1 X343.788 Y348.165 Z-1.833
G1 X344.846 Y347.848 Z-1.833
G1 X345.903 Y347.523 Z-1.833
G1 X346.959 Y347.191 Z-1.833
G1 X348.015 Y346.850 Z-1.833
G1 X349.070 Y346.500 Z-1.833
G1 X350.124 Y346.143 Z-1.833
G1 X351.177 Y345.778 Z-1.833
G1 X352.230 Y345.404 Z-1.833
G1 X353.281 Y345.022 Z-1.833
G1 X354.331 Y344.632 Z-1.833
G1 X355.379 Y344.234 Z-1.833
G1 X356.426 Y343.827 Z-1.833
G1 X357.472 Y343.413 Z-1.833
G1 X358.516 Y342.990 Z-1.833
G1 X359.559 Y342.559 Z-1.833
G1 X360.599 Y342.120 Z-1.833
G1 X361.638 Y341.672 Z-1.833
G1 X362.675 Y341.217 Z-1.833
G1 X363.710 Y340.753 Z-1.833
G1 X364.742 Y340.281 Z-1.833
G1 X365.773 Y339.801 Z-1.833
G1 X366.801 Y339.312 Z-1.833
G1 X367.826 Y338.816 Z-1.833
G1 X368.849 Y338.311 Z-1.833
G1 X369.870 Y337.799 Z-1.833
G1 X370.888 Y337.278 Z-1.833
G1 X371.903 Y336.749 Z-1.833
G1 X372.915 Y336.212 Z-1.833
G1 X373.924 Y335.667 Z-1.833
G1 X374.930 Y335.114 Z-1.833
G1 X375.933 Y334.553 Z-1.833
G1 X376.932 Y333.984 Z-1.833
G1 X377.928 Y333.407 Z-1.833
G1 X378.921 Y332.822 Z-1.833
G1 X379.910 Y332.229 Z-1.833
G1 X380.896 Y331.629 Z-1.833
G1 X381.877 Y331.020 Z-1.833
G1 X382.855 Y330.404 Z-1.833
G1 X383.829 Y329.780 Z-1.833
G1 X384.799 Y329.149 Z-1.833
G1 X385.765 Y328.509 Z-1.833
G1 X386.727 Y327.862 Z-1.833
G1 X387.684 Y327.207 Z-1.833
G1 X388.637 Y326.545 Z-1.833
G1 X389.586 Y325.875 Z-1.833
G1 X390.530 Y325.198 Z-1.833
G1 X391.469 Y324.514 Z-1.833
G1 X392.404 Y323.822 Z-1.833
G1 X393.334 Y323.122 Z-1.833
G1 X394.259 Y322.416 Z-1.833
G1 X395.178 Y321.702 Z-1.833
G1 X396.093 Y320.981 Z-1.833
G1 X397.003 Y320.252 Z-1.833
G1 X397.908 Y319.517 Z-1.833
G1 X398.807 Y318.775 Z-1.833
G1 X399.701 Y318.026 Z-1.833
G1 X400.589 Y317.270 Z-1.833
G1 X401.472 Y316.507 Z-1.833
G1 X402.349 Y315.737 Z-1.833
G1 X403.220 Y314.960 Z-1.833
G1 X404.086 Y314.177 Z-1.833
G1 X404.945 Y313.388 Z-1.833
G1 X405.799 Y312.591 Z-1.833
G1 X406.647 Y311.789 Z-1.833
G1 X407.489 Y310.980 Z-1.833
G1 X408.324 Y310.164 Z-1.833
G1 X409.153 Y309.343 Z-1.833
G1 X409.976 Y308.515 Z-1.833
G1 X410.793 Y307.681 Z-1.833
G1 X411.603 Y306.841 Z-1.833
G1 X412.407 Y305.995 Z-1.833
G1 X413.204 Y305.143 Z-1.833
G1 X413.994 Y304.286 Z-1.833
G1 X414.778 Y303.423 Z-1.833
G1 X415.555 Y302.554 Z-1.833
G1 X416.325 Y301.679 Z-1.833
G1 X417.089 Y300.799 Z-1.833
G1 X417.845 Y299.914 Z-1.833
G1 X418.594 Y299.023 Z-1.833
G1 X419.337 Y298.128 Z-1.833
G1 X420.072 Y297.226 Z-1.833
G1 X420.800 Y296.320 Z-1.833
G1 X421.521 Y295.409 Z-1.833
G1 X422.235 Y294.493 Z-1.833
G1 X422.941 Y293.572 Z-1.833
G1 X423.640 Y292.647 Z-1.833
G1 X424.331 Y291.717 Z-1.833
G1 X425.016 Y290.782 Z-1.833
G1 X425.692 Y289.843 Z-1.833
G1 X426.361 Y288.899 Z-1.833
G1 X427.023 Y287.951 Z-1.833
G1 X427.677 Y286.999 Z-1.833
G1 X428.323 Y286.043 Z-1.833
G1 X428.962 Y285.083 Z-1.833
G1 X429.593 Y284.119 Z-1.833
G1 X430.216 Y283.151 Z-1.833
G1 X430.831 Y282.179 Z-1.833
G1 X431.439 Y281.204 Z-1.833
G1 X432.038 Y280.225 Z-1.833
G1 X432.630 Y279.243 Z-1.833
G1 X433.214 Y278.257 Z-1.833
G1 X433.790 Y277.268 Z-1.833
G1 X434.358 Y276.276 Z-1.833
G1 X434.919 Y275.281 Z-1.833
G1 X435.471 Y274.283 Z-1.833
G1 X436.015 Y273.282 Z-1.833
G1 X436.551 Y272.278 Z-1.833
G1 X437.079 Y271.271 Z-1.833
G1 X437.599 Y270.262 Z-1.833
G1 X438.111 Y269.250 Z-1.833
G1 X438.615 Y268.236 Z-1.833
G1 X439.111 Y267.219 Z-1.833
G1 X439.599 Y266.200 Z-1.833
G1 X440.078 Y265.179 Z-1.833
G1 X440.550 Y264.156 Z-1.833
G1 X441.013 Y263.131 Z-1.833
G1 X441.468 Y262.104 Z-1.833
G1 X441.915 Y261.076 Z-1.833
G1 X442.355 Y260.045 Z-1.833
G1 X442.785 Y259.013 Z-1.833
G1 X443.208 Y257.980 Z-1.833
G1 X443.623 Y256.945 Z-1.833
G1 X444.029 Y255.909 Z-1.833
G1 X444.428 Y254.871 Z-1.833
G1 X444.818 Y253.833 Z-1.833
G1 X445.200 Y252.793 Z-1.833
G1 X445.574 Y251.753 Z-1.833
G1 X445.941 Y250.711 Z-1.833
G1 X446.299 Y249.669 Z-1.833
G1 X446.648 Y248.626 Z-1.833
G1 X446.990 Y247.582 Z-1.833
G1 X447.324 Y246.538 Z-1.833
G1 X447.650 Y245.494 Z-1.833
G1 X447.968 Y244.449 Z-1.833
G1 X448.278 Y243.404 Z-1.833
G1 X448.580 Y242.358 Z-1.833
G1 X448.874 Y241.313 Z-1.833
G1 X449.160 Y240.268 Z-1.833
G1 X449.439 Y239.222 Z-1.833
G1 X449.709 Y238.177 Z-1.833
G1 X449.972 Y237.132 Z-1.833
G1 X450.226 Y236.087 Z-1.833
G1 X450.473 Y235.043 Z-1.833
G1 X450.713 Y233.999 Z-1.833
G1 X450.944 Y232.956 Z-1.833
G1 X451.168 Y231.913 Z-1.833
G1 X451.384 Y230.872 Z-1.833
G1 X451.593 Y229.831 Z-1.833
G1 X451.794 Y228.790 Z-1.833
G1 X451.987 Y227.751 Z-1.833
G1 X452.173 Y226.713 Z-1.833
G1 X452.352 Y225.675 Z-1.833
G1 X452.523 Y224.639 Z-1.833
G1 X452.686 Y223.605 Z-1.833
G1 X452.842 Y222.571 Z-1.833
G1 X452.991 Y221.539 Z-1.833
G1 X453.133 Y220.508 Z-1.833
G1 X453.267 Y219.479 Z-1.833
G1 X453.394 Y218.451 Z-1.833
G1 X453.514 Y217.425 Z-1.833
G1 X453.627 Y216.401 Z-1.833
G1 X453.733 Y215.378 Z-1.833
G1 X453.831 Y214.358 Z-1.833
G1 X453.923 Y213.339 Z-1.833
G1 X454.008 Y212.322 Z-1.833
G1 X454.086 Y211.307 Z-1.833
G1 X454.157 Y210.295 Z-1.833
G1 X454.221 Y209.284 Z-1.833
G1 X454.278 Y208.276 Z-1.833
G1 X454.329 Y207.270 Z-1.833
G1 X454.374 Y206.232 Z-1.833
G1 X454.413 Y205.194 Z-1.833
G1 X454.444 Y204.155 Z-1.833
G1 X454.469 Y203.116 Z-1.833
G1 X454.486 Y202.078 Z-1.833
G1 X454.497 Y201.039 Z-1.833
G1 X454.500 Y200.000 Z-1.833
G1 X454.497 Y198.961 Z-1.833
G1 X454.486 Y197.922 Z-1.833
G1 X454.469 Y196.884 Z-1.833
G1 X454.444 Y195.845 Z-1.833
G1 X454.413 Y194.806 Z-1.833
G1 X454.374 Y193.768 Z-1.833
G1 X454.329 Y192.730 Z-1.833
G1 X454.278 Y191.724 Z-1.833
G1 X454.221 Y190.716 Z-1.833
G1 X454.157 Y189.705 Z-1.833
G1 X454.086 Y188.693 Z-1.833
G1 X454.008 Y187.678 Z-1.833
G1 X453.923 Y186.661 Z-1.833
G1 X453.831 Y185.642 Z-1.833
G1 X453.733 Y184.622 Z-1.833
G1 X453.627 Y183.599 Z-1.833
G1 X453.514 Y182.575 Z-1.833
G1 X453.394 Y181.549 Z-1.833
G1 X453.267 Y180.521 Z-1.833
G1 X453.133 Y179.492 Z-1.833
G1 X452.991 Y178.461 Z-1.833
G1 X452.842 Y177.429 Z-1.833
G1 X452.686 Y176.395 Z-1.833
G1 X452.523 Y175.361 Z-1.833
G1 X452.352 Y174.325 Z-1.833
G1 X452.173 Y173.287 Z-1.833
G1 X451.987 Y172.249 Z-1.833
G1 X451.794 Y171.210 Z-1.833
G1 X451.593 Y170.169 Z-1.833
G1 X451.384 Y169.128 Z-1.833
G1 X451.168 Y168.087 Z-1.833
G1 X450.944 Y167.044 Z-1.833
G1 X450.713 Y166.001 Z-1.833
G1 X450.473 Y164.957 Z-1.833
G1 X450.226 Y163.913 Z-1.833
G1 X449.972 Y162.868 Z-1.833
G1 X449.709 Y161.823 Z-1.833
G1 X449.439 Y160.778 Z-1.833
G1 X449.160 Y159.732 Z-1.833
G1 X448.874 Y158.687 Z-1.833
G1 X448.580 Y157.642 Z-1.833
G1 X448.278 Y156.596 Z-1.833
G1 X447.968 Y155.551 Z-1.833
G1 X447.650 Y154.506 Z-1.833
G1 X447.324 Y153.462 Z-1.833
G1 X446.990 Y152.418 Z-1.833
G1 X446.648 Y151.374 Z-1.833
G1 X446.299 Y150.331 Z-1.833
G1 X445.941 Y149.289 Z-1.833
G1 X445.574 Y148.247 Z-1.833
G1 X445.200 Y147.207 Z-1.833
G1 X444.818 Y146.167 Z-1.833
G1 X444.428 Y145.129 Z-1.833
G1 X444.029 Y144.091 Z-1.833
G1 X443.623 Y143.055 Z-1.833
G1 X443.208 Y142.020 Z-1.833
G1 X442.785 Y140.987 Z-1.833
G1 X442.355 Y139.955 Z-1.833
G1 X441.915 Y138.924 Z-1.833
G1 X441.468 Y137.896 Z-1.833
G1 X441.013 Y136.869 Z-1.833
G1 X440.550 Y135.844 Z-1.833
G1 X440.078 Y134.821 Z-1.833
G1 X439.599 Y133.800 Z-1.833
G1 X439.111 Y132.781 Z-1.833
G1 X438.615 Y131.764 Z-1.833
G1 X438.111 Y130.750 Z-1.833
G1 X437.599 Y129.738 Z-1.833
G1 X437.079 Y128.729 Z-1.833
G1 X436.551 Y127.722 Z-1.833
G1 X436.015 Y126.718 Z-1.833
G1 X435.471 Y125.717 Z-1.833
G1 X434.919 Y124.719 Z-1.833
G1 X434.358 Y123.724 Z-1.833
G1 X433.790 Y122.732 Z-1.833
G1 X433.214 Y121.743 Z-1.833
G1 X432.630 Y120.757 Z-1.833
G1 X432.038 Y119.775 Z-1.833
G1 X431.439 Y118.796 Z-1.833
G1 X430.831 Y117.821 Z-1.833
G1 X430.216 Y116.849 Z-1.833
G1 X429.593 Y115.881 Z-1.833
G1 X428.962 Y114.917 Z-1.833
G1 X428.323 Y113.957 Z-1.833
G1 X427.677 Y113.001 Z-1.833
G1 X427.023 Y112.049 Z-1.833
G1 X426.361 Y111.101 Z-1.833
G1 X425.692 Y110.157 Z-1.833
G1 X425.016 Y109.218 Z-1.833
G1 X424.331 Y108.283 Z-1.833
G1 X423.640 Y107.353 Z-1.833
G1 X422.941 Y106.428 Z-1.833
G1 X422.235 Y105.507 Z-1.833
G1 X421.521 Y104.591 Z-1.833
G1 X420.800 Y103.680 Z-1.833
G1 X420.072 Y102.774 Z-1.833
G1 X419.337 Y101.873 Z-1.833
G1 X418.594 Y100.977 Z-1.833
G1 X417.845 Y100.086 Z-1.833
G1 X417.089 Y99.201 Z-1.833
G1 X416.325 Y98.321 Z-1.833
G1 X415.555 Y97.446 Z-1.833
G1 X414.778 Y96.577 Z-1.833
G1 X413.994 Y95.714 Z-1.833
G1 X413.204 Y94.857 Z-1.833
G1 X412.407 Y94.005 Z-1.833
G1 X411.603 Y93.159 Z-1.833
G1 X410.793 Y92.319 Z-1.833
G1 X409.976 Y91.485 Z-1.833
G1 X409.153 Y90.657 Z-1.833
G1 X408.324 Y89.836 Z-1.833
G1 X407.489 Y89.020 Z-1.833
G1 X406.647 Y88.211 Z-1.833
G1 X405.799 Y87.409 Z-1.833
G1 X404.945 Y86.612 Z-1.833
G1 X404.086 Y85.823 Z-1.833
G1 X403.220 Y85.040 Z-1.833
G1 X402.349 Y84.263 Z-1.833
G1 X401.472 Y83.493 Z-1.833
G1 X400.589 Y82.730 Z-1.833
G1 X399.701 Y81.974 Z-1.833
G1 X398.807 Y81.225 Z-1.833
G1 X397.908 Y80.483 Z-1.833
G1 X397.003 Y79.748 Z-1.833
G1 X396.093 Y79.019 Z-1.833
G1 X395.178 Y78.298 Z-1.833
G1 X394.259 Y77.584 Z-1.833
G1 X393.334 Y76.878 Z-1.833
G1 X392.404 Y76.178 Z-1.833
G1 X391.469 Y75.486 Z-1.833
G1 X390.530 Y74.802 Z-1.833
G1 X389.586 Y74.125 Z-1.833
G1 X388.637 Y73.455 Z-1.833
G1 X387.684 Y72.793 Z-1.833
G1 X386.727 Y72.138 Z-1.833
G1 X385.765 Y71.491 Z-1.833
G1 X384.799 Y70.851 Z-1.833
G1 X383.829 Y70.220 Z-1.833
G1 X382.855 Y69.596 Z-1.833
G1 X381.877 Y68.980 Z-1.833
G1 X380.896 Y68.371 Z-1.833
G1 X379.910 Y67.771 Z-1.833
G1 X378.921 Y67.178 Z-1.833
G1 X377.928 Y66.593 Z-1.833
G1 X376.932 Y66.016 Z-1.833
G1 X375.933 Y65.447 Z-1.833
G1 X374.930 Y64.886 Z-1.833
G1 X373.924 Y64.333 Z-1.833
G1 X372.915 Y63.788 Z-1.833
G1 X371.903 Y63.251 Z-1.833
G1 X370.888 Y62.722 Z-1.833
G1 X369.870 Y62.201 Z-1.833
G1 X368.849 Y61.689 Z-1.833
G1 X367.826 Y61.184 Z-1.833
G1 X366.801 Y60.688 Z-1.833
G1 X365.773 Y60.199 Z-1.833
G1 X364.742 Y59.719 Z-1.833
G1 X363.710 Y59.247 Z-1.833
G1 X362.675 Y58.783 Z-1.833
G1 X361.638 Y58.328 Z-1.833
G1 X360.599 Y57.880 Z-1.833
G1 X359.559 Y57.441 Z-1.833
G1 X358.516 Y57.010 Z-1.833
G1 X357.472 Y56.587 Z-1.833
G1 X356.426 Y56.173 Z-1.833
G1 X355.379 Y55.766 Z-1.833
G1 X354.331 Y55.368 Z-1.833
G1 X353.281 Y54.978 Z-1.833
G1 X352.230 Y54.596 Z-1.833
G1 X351.177 Y54.222 Z-1.833
G1 X350.124 Y53.857 Z-1.833
G1 X349.070 Y53.500 Z-1.833
G1 X348.015 Y53.150 Z-1.833
G1 X346.959 Y52.809 Z-1.833
G1 X345.903 Y52.476 Z-1.833
G1 X344.846 Y52.152 Z-1.833
G1 X343.788 Y51.835 Z-1.833
G1 X342.730 Y51.527 Z-1.833
G1 X341.672 Y51.226 Z-1.833
G1 X340.613 Y50.934 Z-1.833
G1 X339.555 Y50.649 Z-1.833
G1 X338.496 Y50.373 Z-1.833
G1 X337.437 Y50.104 Z-1.833
G1 X336.379 Y49.844 Z-1.833
G1 X335.321 Y49.592 Z-1.833
G1 X334.262 Y49.347 Z-1.833
G1 X333.205 Y49.110 Z-1.833
G1 X332.147 Y48.882 Z-1.833
G1 X331.091 Y48.661 Z-1.833
G1 X330.034 Y48.447 Z-1.833
G1 X328.979 Y48.242 Z-1.833
G1 X327.924 Y48.044 Z-1.833
G1 X326.870 Y47.855 Z-1.833
G1 X325.817 Y47.672 Z-1.833
G1 X324.765 Y47.498 Z-1.833
G1 X323.715 Y47.331 Z-1.833
G1 X322.665 Y47.171 Z-1.833
G1 X321.616 Y47.020 Z-1.833
G1 X320.569 Y46.875 Z-1.833
G1 X319.523 Y46.738 Z-1.833
G1 X318.479 Y46.609 Z-1.833
G1 X317.436 Y46.487 Z-1.833
G1 X316.394 Y46.372 Z-1.833
G1 X315.355 Y46.265 Z-1.833
G1 X314.316 Y46.165 Z-1.833
G1 X313.280 Y46.072 Z-1.833
G1 X312.246 Y45.986 Z-1.833
G1 X311.213 Y45.907 Z-1.833
G1 X310.183 Y45.836 Z-1.833
G1 X309.154 Y45.771 Z-1.833
G1 X308.128 Y45.714 Z-1.833
G1 X307.104 Y45.663 Z-1.833
G1 X306.082 Y45.620 Z-1.833
G1 X305.062 Y45.583 Z-1.833
G1 X304.045 Y45.553 Z-1.833
G1 X303.030 Y45.530 Z-1.833
G1 X302.017 Y45.513 Z-1.833
G1 X301.007 Y45.503 Z-1.833
G1 X300.000 Y45.500 Z-1.833
G1 X298.993 Y45.503 Z-1.833
G1 X297.983 Y45.513 Z-1.833
G1 X296.970 Y45.530 Z-1.833
G1 X295.955 Y45.553 Z-1.833
G1 X294.938 Y45.583 Z-1.833
G1 X293.918 Y45.620 Z-1.833
G1 X292.896 Y45.663 Z-1.833
G1 X291.872 Y45.714 Z-1.833
G1 X290.846 Y45.771 Z-1.833
G1 X289.817 Y45.836 Z-1.833
G1 X288.787 Y45.907 Z-1.833
G1 X287.754 Y45.986 Z-1.833
G1 X286.720 Y46.072 Z-1.833
G1 X285.684 Y46.165 Z-1.833
G1 X284.645 Y46.265 Z-1.833
G1 X283.606 Y46.372 Z-1.833
G1 X282.564 Y46.487 Z-1.833
G1 X281.521 Y46.609 Z-1.833
G1 X280.477 Y46.738 Z-1.833
G1 X279.431 Y46.875 Z-1.833
G1 X278.384 Y47.020 Z-1.833
G1 X277.335 Y47.171 Z-1.833
G1 X276.285 Y47.331 Z-1.833
G1 X275.235 Y47.498 Z-1.833
G1 X274.183 Y47.672 Z-1.833
G1 X273.130 Y47.855 Z-1.833
G1 X272.076 Y48.044 Z-1.833
G1 X271.021 Y48.242 Z-1.833
G1 X269.966 Y48.447 Z-1.833
G1 X268.909 Y48.661 Z-1.833
G1 X267.853 Y48.882 Z-1.833
G1 X266.795 Y49.110 Z-1.833
G1 X265.738 Y49.347 Z-1.833
G1 X264.679 Y49.592 Z-1.833
G1 X263.621 Y49.844 Z-1.833
G1 X262.563 Y50.104 Z-1.833
G1 X261.504 Y50.373 Z-1.833
G1 X260.445 Y50.649 Z-1.833
G1 X259.387 Y50.934 Z-1.833
G1 X258.328 Y51.226 Z-1.833
G1 X257.270 Y51.527 Z-1.833
G1 X256.212 Y51.835 Z-1.833
G1 X255.154 Y52.152 Z-1.833
G1 X254.097 Y52.476 Z-1.833
G1 X253.041 Y52.809 Z-1.833
G1 X251.985 Y53.150 Z-1.833
G1 X250.930 Y53.500 Z-1.833
G1 X249.876 Y53.857 Z-1.833
G1 X248.823 Y54.222 Z-1.833
G1 X247.770 Y54.596 Z-1.833
G1 X246.719 Y54.978 Z-1.833
G1 X245.669 Y55.368 Z-1.833
G1 X244.621 Y55.766 Z-1.833
G1 X243.574 Y56.173 Z-1.833
G1 X242.528 Y56.587 Z-1.833
G1 X241.484 Y57.010 Z-1.833
G1 X240.441 Y57.441 Z-1.833
G1 X239.401 Y57.880 Z-1.833
G1 X238.362 Y58.328 Z-1.833
G1 X237.325 Y58.783 Z-1.833
G1 X236.290 Y59.247 Z-1.833
G1 X235.258 Y59.719 Z-1.833
G1 X234.227 Y60.199 Z-1.833
G1 X233.199 Y60.688 Z-1.833
G1 X232.174 Y61.184 Z-1.833
G1 X231.151 Y61.689 Z-1.833
G1 X230.130 Y62.201 Z-1.833
G1 X229.112 Y62.722 Z-1.833
G1 X228.097 Y63.251 Z-1.833
G1 X227.085 Y63.788 Z-1.833
G1 X226.076 Y64.333 Z-1.833
G1 X225.070 Y64.886 Z-1.833
G1 X224.067 Y65.447 Z-1.833
G1 X223.068 Y66.016 Z-1.833
G1 X222.072 Y66.593 Z-1.833
G1 X221.079 Y67.178 Z-1.833
G1 X220.090 Y67.771 Z-1.833
G1 X219.104 Y68.371 Z-1.833
G1 X218.123 Y68.980 Z-1.833
G1 X217.145 Y69.596 Z-1.833
G1 X216.171 Y70.220 Z-1.833
G1 X215.201 Y70.851 Z-1.833
G1 X214.235 Y71.491 Z-1.833
G1 X213.273 Y72.138 Z-1.833
G1 X212.316 Y72.793 Z-1.833
G1 X211.363 Y73.455 Z-1.833
G1 X210.414 Y74.125 Z-1.833
G1 X209.470 Y74.802 Z-1.833
G1 X208.531 Y75.486 Z-1.833
G1 X207.596 Y76.178 Z-1.833
G1 X206.666 Y76.878 Z-1.833
G1 X205.741 Y77.584 Z-1.833
G1 X204.822 Y78.298 Z-1.833
G1 X203.907 Y79.019 Z-1.833
G1 X202.997 Y79.748 Z-1.833
G1 X202.092 Y80.483 Z-1.833
G1 X201.193 Y81.225 Z-1.833
G1 X200.299 Y81.974 Z-1.833
G1 X199.411 Y82.730 Z-1.833
G1 X198.528 Y83.493 Z-1.833
G1 X197.651 Y84.263 Z-1.833
G1 X196.780 Y85.040 Z-1.833
G1 X195.914 Y85.823 Z-1.833
G1 X195.055 Y86.612 Z-1.833
G1 X194.201 Y87.409 Z-1.833
G1 X193.353 Y88.211 Z-1.833
G1 X192.511 Y89.020 Z-1.833
G1 X191.676 Y89.836 Z-1.833
G1 X190.847 Y90.657 Z-1.833
G1 X190.024 Y91.485 Z-1.833
G1 X189.207 Y92.319 Z-1.833
G1 X188.397 Y93.159 Z-1.833
G1 X187.593 Y94.005 Z-1.833
G1 X186.796 Y94.857 Z-1.833
G1 X186.006 Y95.714 Z-1.833
G1 X185.222 Y96.577 Z-1.833
G1 X184.445 Y97.446 Z-1.833
G1 X183.675 Y98.321 Z-1.833
G1 X182.911 Y99.201 Z-1.833
G1 X182.155 Y100.086 Z-1.833
G1 X181.406 Y100.977 Z-1.833
G1 X180.663 Y101.873 Z-1.833
G1 X179.928 Y102.774 Z-1.833
G1 X179.200 Y103.680 Z-1.833
G1 X178.479 Y104.591 Z-1.833
G1 X177.765 Y105.507 Z-1.833
G1 X177.059 Y106.428 Z-1.833
G1 X176.360 Y107.353 Z-1.833
G1 X175.669 Y108.283 Z-1.833
G1 X174.984 Y109.218 Z-1.833
G1 X174.308 Y110.157 Z-1.833
G1 X173.639 Y111.101 Z-1.833
G1 X172.977 Y112.049 Z-1.833
G1 X172.323 Y113.001 Z-1.833
G1 X171.677 Y113.957 Z-1.833
G1 X171.038 Y114.917 Z-1.833
G1 X170.407 Y115.881 Z-1.833
G1 X169.784 Y116.849 Z-1.833
G1 X169.169 Y117.821 Z-1.833
G1 X168.561 Y118.796 Z-1.833
G1 X167.962 Y119.775 Z-1.833
G1 X167.370 Y120.757 Z-1.833
G1 X166.786 Y121.743 Z-1.833
G1 X166.210 Y122.732 Z-1.833
G1 X165.642 Y123.724 Z-1.833
G1 X165.081 Y124.719 Z-1.833
G1 X164.529 Y125.717 Z-1.833
G1 X163.985 Y126.718 Z-1.833
G1 X163.449 Y127.722 Z-1.833
G1 X162.921 Y128.729 Z-1.833
G1 X162.401 Y129.738 Z-1.833
G1 X161.889 Y130.750 Z-1.833
G1 X161.385 Y131.764 Z-1.833
G1 X160.889 Y132.781 Z-1.833
G1 X160.401 Y133.800 Z-1.833
G1 X159.922 Y134.821 Z-1.833
G1 X159.450 Y135.844 Z-1.833
G1 X158.987 Y136.869 Z-1.833
G1 X158.532 Y137.896 Z-1.833
G1 X158.084 Y138.924 Z-1.833
G1 X157.645 Y139.955 Z-1.833
G1 X157.215 Y140.987 Z-1.833
G1 X156.792 Y142.020 Z-1.833
G1 X156.377 Y143.055 Z-1.833
G1 X155.971 Y144.091 Z-1.833
G1 X155.572 Y145.129 Z-1.833
G1 X155.182 Y146.167 Z-1.833
G1 X154.800 Y147.207 Z-1.833
G1 X154.426 Y148.247 Z-1.833
G1 X154.059 Y149.289 Z-1.833
G1 X153.701 Y150.331 Z-1.833
G1 X153.352 Y151.374 Z-1.833
G1 X153.010 Y152.418 Z-1.833
G1 X152.676 Y153.462 Z-1.833
G1 X152.350 Y154.506 Z-1.833
G1 X152.032 Y155.551 Z-1.833
G1 X151.722 Y156.596 Z-1.833
G1 X151.420 Y157.642 Z-1.833
G1 X151.126 Y158.687 Z-1.833
G1 X150.840 Y159.732 Z-1.833
G1 X150.561 Y160.778 Z-1.833
G1 X150.291 Y161.823 Z-1.833
G1 X150.028 Y162.868 Z-1.833
G1 X149.774 Y163.913 Z-1.833
G1 X149.527 Y164.957 Z-1.833
G1 X149.287 Y166.001 Z-1.833
G1 X149.056 Y167.044 Z-1.833
G1 X148.832 Y168.087 Z-1.833
G1 X148.616 Y169.128 Z-1.833
G1 X148.407 Y170.169 Z-1.833
G1 X148.206 Y171.210 Z-1.833
G1 X148.013 Y172.249 Z-1.833
G1 X147.827 Y173.287 Z-1.833
G1 X147.648 Y174.325 Z-1.833
G1 X147.477 Y175.361 Z-1.833
G1 X147.314 Y176.395 Z-1.833
G1 X147.158 Y177.429 Z-1.833
G1 X147.009 Y178.461 Z-1.833
G1 X146.867 Y179.492 Z-1.833
G1 X146.733 Y180.521 Z-1.833
G1 X146.606 Y181.549 Z-1.833
G1 X146.486 Y182.575 Z-1.833
G1 X146.373 Y183.599 Z-1.833
G1 X146.267 Y184.622 Z-1.833
G1 X146.169 Y185.642 Z-1.833
G1 X146.077 Y186.661 Z-1.833
G1 X145.992 Y187.678 Z-1.833
G1 X145.914 Y188.693 Z-1.833
G1 X145.843 Y189.705 Z-1.833
G1 X145.779 Y190.716 Z-1.833
G1 X145.722 Y191.724 Z-1.833
G1 X145.671 Y192.730 Z-1.833
G1 X145.671 Y192.730 Z-2.750 F635.0
G1 X145.626 Y193.768 Z-2.750 F180.0
G1 X145.587 Y194.806 Z-2.750
G1 X145.556 Y195.845 Z-2.750
G1 X145.531 Y196.884 Z-2.750
G1 X145.514 Y197.922 Z-2.750
G1 X145.503 Y198.961 Z-2.750
G1 X145.500 Y200.000 Z-2.750
G1 X145.503 Y201.039 Z-2.750
G1 X145.514 Y202.078 Z-2.750
G1 X145.531 Y203.116 Z-2.750
G1 X145.556 Y204.155 Z-2.750
G1 X145.587 Y205.194 Z-2.750
G1 X145.626 Y206.232 Z-2.750
G1 X145.671 Y207.270 Z-2.750
G1 X145.722 Y208.276 Z-2.750
G1 X145.779 Y209.284 Z-2.750
G1 X145.843 Y210.295 Z-2.750
G1 X145.914 Y211.307 Z-2.750
G1 X145.992 Y212.322 Z-2.750
G1 X146.077 Y213.339 Z-2.750
G1 X146.169 Y214.358 Z-2.750
G1 X146.267 Y215.378 Z-2.750
G1 X146.373 Y216.401 Z-2.750
G1 X146.486 Y217.425 Z-2.750
G1 X146.606 Y218.451 Z-2.750
G1 X146.733 Y219.479 Z-2.750
G1 X146.867 Y220.508 Z-2.750
G1 X147.009 Y221.539 Z-2.750
G1 X147.158 Y222.571 Z-2.750
G1 X147.314 Y223.605 Z-2.750
G1 X147.477 Y224.639 Z-2.750
G1 X147.648 Y225.675 Z-2.750
G1 X147.827 Y226.713 Z-2.750
G1 X148.013 Y227.751 Z-2.750
G1 X148.206 Y228.790 Z-2.750
G1 X148.407 Y229.831 Z-2.750
G1 X148.616 Y230.872 Z-2.750
G1 X148.832 Y231.913 Z-2.750
G1 X149.056 Y232.956 Z-2.750
G1 X149.287 Y233.999 Z-2.750
G1 X149.527 Y235.043 Z-2.750
G1 X149.774 Y236.087 Z-2.750
G1 X150.028 Y237.132 Z-2.750
G1 X150.291 Y238.177 Z-2.750
G1 X150.561 Y239.222 Z-2.750
G1 X150.840 Y240.268 Z-2.750
G1 X151.126 Y241.313 Z-2.750
G1 X151.420 Y242.358 Z-2.750
G1 X151.722 Y243.404 Z-2.750
G1 X152.032 Y244.449 Z-2.750
G1 X152.350 Y245.494 Z-2.750
G1 X152.676 Y246.538 Z-2.750
G1 X153.010 Y247.582 Z-2.750
G1 X153.352 Y248.626 Z-2.750
G1 X153.701 Y249.669 Z-2.750
G1 X154.059 Y250.711 Z-2.750
G1 X154.426 Y251.753 Z-2.750
G1 X154.800 Y252.793 Z-2.750
G1 X155.182 Y253.833 Z-2.750
G1 X155.572 Y254.871 Z-2.750
G1 X155.971 Y255.909 Z-2.750
G1 X156.377 Y256.945 Z-2.750
G1 X156.792 Y257.980 Z-2.750
G1 X157.215 Y259.013 Z-2.750
G1 X157.645 Y260.045 Z-2.750
G1 X158.084 Y261.076 Z-2.750
G1 X158.532 Y262.104 Z-2.750
G1 X158.987 Y263.131 Z-2.750
G1 X159.450 Y264.156 Z-2.750
G1 X159.922 Y265.179 Z-2.750
G1 X160.401 Y266.200 Z-2.750
G1 X160.889 Y267.219 Z-2.750
G1 X161.385 Y268.236 Z-2.750
G1 X161.889 Y269.250 Z-2.750
G1 X162.401 Y270.262 Z-2.750
G1 X162.921 Y271.271 Z-2.750
G1 X163.449 Y272.278 Z-2.750
G1 X163.985 Y273.282 Z-2.750
G1 X164.529 Y274.283 Z-2.750
G1 X165.081 Y275.281 Z-2.750
G1 X165.642 Y276.276 Z-2.750
G1 X166.210 Y277.268 Z-2.750
G1 X166.786 Y278.257 Z-2.750
G1 X167.370 Y279.243 Z-2.750
G1 X167.962 Y280.225 Z-2.750
G1 X168.561 Y281.204 Z-2.750
G1 X169.169 Y282.179 Z-2.750
G1 X169.784 Y283.151 Z-2.750
G1 X170.407 Y284.119 Z-2.750
G1 X171.038 Y285.083 Z-2.750
G1 X171.677 Y286.043 Z-2.750
G1 X172.323 Y286.999 Z-2.750
G1 X172.977 Y287.951 Z-2.750
G1 X173.639 Y288.899 Z-2.750
G1 X174.308 Y289.843 Z-2.750
G1 X174.984 Y290.782 Z-2.750
G1 X175.669 Y291.717 Z-2.750
G1 X176.360 Y292.647 Z-2.750
G1 X177.059 Y293.572 Z-2.750
G1 X177.765 Y294.493 Z-2.750
G1 X178.479 Y295.409 Z-2.750
G1 X179.200 Y296.320 Z-2.750
G1 X179.928 Y297.226 Z-2.750
G1 X180.663 Y298.128 Z-2.750
G1 X181.406 Y299.023 Z-2.750
G1 X182.155 Y299.914 Z-2.750
G1 X182.911 Y300.799 Z-2.750
G1 X183.675 Y301.679 Z-2.750
G1 X184.445 Y302.554 Z-2.750
G1 X185.222 Y303.423 Z-2.750
G1 X186.006 Y304.286 Z-2.750
G1 X186.796 Y305.143 Z-2.750
G1 X187.593 Y305.995 Z-2.750
G1 X188.397 Y306.841 Z-2.750
G1 X189.207 Y307.681 Z-2.750
G1 X190.024 Y308.515 Z-2.750
G1 X190.847 Y309.343 Z-2.750
G1 X191.676 Y310.164 Z-2.750
G1 X192.511 Y310.980 Z-2.750
G1 X193.353 Y311.789 Z-2.750
G1 X194.201 Y312.591 Z-2.750
G1 X195.055 Y313.388 Z-2.750
G1 X195.914 Y314.177 Z-2.750
G1 X196.780 Y314.960 Z-2.750
G1 X197.651 Y315.737 Z-2.750
G1 X198.528 Y316.507 Z-2.750
G1 X199.411 Y317.270 Z-2.750
G1 X200.299 Y318.026 Z-2.750
G1 X201.193 Y318.775 Z-2.750
G1 X202.092 Y319.517 Z-2.750
G1 X202.997 Y320.252 Z-2.750
G1 X203.907 Y320.981 Z-2.750
G1 X204.822 Y321.702 Z-2.750
G1 X205.741 Y322.416 Z-2.750
G1 X206.666 Y323.122 Z-2.750
G1 X207.596 Y323.822 Z-2.750
G1 X208.531 Y324.514 Z-2.750
G1 X209.470 Y325.198 Z-2.750
G1 X210.414 Y325.875 Z-2.750
G1 X211.363 Y326.545 Z-2.750
G1 X212.316 Y327.207 Z-2.750
G1 X213.273 Y327.862 Z-2.750
G1 X214.235 Y328.509 Z-2.750
G1 X215.201 Y329.149 Z-2.750
G1 X216.171 Y329.780 Z-2.750
G1 X217.145 Y330.404 Z-2.750
G1 X218.123 Y331.020 Z-2.750
G1 X219.104 Y331.629 Z-2.750
G1 X220.090 Y332.229 Z-2.750
G1 X221.079 Y332.822 Z-2.750
G1 X222.072 Y333.407 Z-2.750
G1 X223.068 Y333.984 Z-2.750
G1 X224.067 Y334.553 Z-2.750
G1 X225.070 Y335.114 Z-2.750
G1 X226.076 Y335.667 Z-2.750
G1 X227.085 Y336.212 Z-2.750
G1 X228.097 Y336.749 Z-2.750
G1 X229.112 Y337.278 Z-2.750
G1 X230.130 Y337.799 Z-2.750
G1 X231.151 Y338.311 Z-2.750
G1 X232.174 Y338.816 Z-2.750
G1 X233.199 Y339.312 Z-2.750
G1 X234.227 Y339.801 Z-2.750
G1 X235.258 Y340.281 Z-2.750
G1 X236.290 Y340.753 Z-2.750
G1 X237.325 Y341.217 Z-2.750
G1 X238.362 Y341.672 Z-2.750
G1 X239.401 Y342.120 Z-2.750
G1 X240.441 Y342.559 Z-2.750
G1 X241.484 Y342.990 Z-2.750
G1 X242.528 Y343.413 Z-2.750
G1 X243.574 Y343.827 Z-2.750
G1 X244.621 Y344.234 Z-2.750
G1 X245.669 Y344.632 Z-2.750
G1 X246.719 Y345.022 Z-2.750
G1 X247.770 Y345.404 Z-2.750
G1 X248.823 Y345.778 Z-2.750
G1 X249.876 Y346.143 Z-2.750
G1 X250.930 Y346.500 Z-2.750
G1 X251.985 Y346.850 Z-2.750
G1 X253.041 Y347.191 Z-2.750
G1 X254.097 Y347.523 Z-2.750
G1 X255.154 Y347.848 Z-2.750
G1 X256.212 Y348.165 Z-2.750
G1 X257.270 Y348.473 Z-2.750
G1 X258.328 Y348.774 Z-2.750
G1 X259.387 Y349.066 Z-2.750
G1 X260.445 Y349.351 Z-2.750
G1 X261.504 Y349.627 Z-2.750
G1 X262.563 Y349.896 Z-2.750
G1 X263.621 Y350.156 Z-2.750
G1 X264.679 Y350.408 Z-2.750
G1 X265.738 Y350.653 Z-2.750
G1 X266.795 Y350.890 Z-2.750
G1 X267.853 Y351.118 Z-2.750
G1 X268.909 Y351.339 Z-2.750
G1 X269.966 Y351.553 Z-2.750
G1 X271.021 Y351.758 Z-2.750
G1 X272.076 Y351.956 Z-2.750
G1 X273.130 Y352.145 Z-2.750
G1 X274.183 Y352.328 Z-2.750
G1 X275.235 Y352.502 Z-2.750
G1 X276.285 Y352.669 Z-2.750
G1 X277.335 Y352.829 Z-2.750
G1 X278.384 Y352.980 Z-2.750
G1 X279.431 Y353.125 Z-2.750
G1 X280.477 Y353.262 Z-2.750
G1 X281.521 Y353.391 Z-2.750
G1 X282.564 Y353.513 Z-2.750
G1 X283.606 Y353.628 Z-2.750
G1 X284.645 Y353.735 Z-2.750
G1 X285.684 Y353.835 Z-2.750
G1 X286.720 Y353.928 Z-2.750
G1 X287.754 Y354.014 Z-2.750
G1 X288.787 Y354.093 Z-2.750
G1 X289.817 Y354.164 Z-2.750
G1 X290.846 Y354.229 Z-2.750
G1 X291.872 Y354.286 Z-2.750
G1 X292.896 Y354.337 Z-2.750
G1 X293.918 Y354.380 Z-2.750
G1 X294.938 Y354.417 Z-2.750
G1 X295.955 Y354.447 Z-2.750
G1 X296.970 Y354.470 Z-2.750
G1 X297.983 Y354.487 Z-2.750
G1 X298.993 Y354.497 Z-2.750
G1 X300.000 Y354.500 Z-2.750
G1 X301.007 Y354.497 Z-2.750
G1 X302.017 Y354.487 Z-2.750
G1 X303.030 Y354.470 Z-2.750
G1 X304.045 Y354.447 Z-2.750
G1 X305.062 Y354.417 Z-2.750
G1 X306.082 Y354.380 Z-2.750
G1 X307.104 Y354.337 Z-2.750
G1 X308.128 Y354.286 Z-2.750
G1 X309.154 Y354.229 Z-2.750
G1 X310.183 Y354.164 Z-2.750
G1 X311.213 Y354.093 Z-2.750
G1 X312.246 Y354.014 Z-2.750
G1 X313.280 Y353.928 Z-2.750
G1 X314.316 Y353.835 Z-2.750
G1 X315.355 Y353.735 Z-2.750
G1 X316.394 Y353.628 Z-2.750
G1 X317.436 Y353.513 Z-2.750
G1 X318.479 Y353.391 Z-2.750
G1 X319.523 Y353.262 Z-2.750
G1 X320.569 Y353.125 Z-2.750
G1 X321.616 Y352.980 Z-2.750
G1 X322.665 Y352.829 Z-2.750
G1 X323.715 Y352.669 Z-2.750
G1 X324.765 Y352.502 Z-2.750
G1 X325.817 Y352.328 Z-2.750
G1 X326.870 Y352.145 Z-2.750
G1 X327.924 Y351.956 Z-2.750
G1 X328.979 Y351.758 Z-2.750
G1 X330.034 Y351.553 Z-2.750
G1 X331.091 Y351.339 Z-2.750
G1 X332.147 Y351.118 Z-2.750
G1 X333.205 Y350.890 Z-2.750
G1 X334.262 Y350.653 Z-2.750
G1 X335.321 Y350.408 Z-2.750
G1 X336.379 Y350.156 Z-2.750
G1 X337.437 Y349.896 Z-2.750
G1 X338.496 Y349.627 Z-2.750
G1 X339.555 Y349.351 Z-2.750
G1 X340.613 Y349.066 Z-2.750
G1 X341.672 Y348.774 Z-2.750
G1 X342.730 Y348.473 Z-2.750
G1 X343.788 Y348.165 Z-2.750
G1 X344.846 Y347.848 Z-2.750
G1 X345.903 Y347.523 Z-2.750
G1 X346.959 Y347.191 Z-2.750
G1 X348.015 Y346.850 Z-2.750
G1 X349.070 Y346.500 Z-2.750
G1 X350.124 Y346.143 Z-2.750
G1 X351.177 Y345.778 Z-2.750
G1 X352.230 Y345.404 Z-2.750
G1 X353.281 Y345.022 Z-2.750
G1 X354.331 Y344.632 Z-2.750
G1 X355.379 Y344.234 Z-2.750
G1 X356.426 Y343.827 Z-2.750
G1 X357.472 Y343.413 Z-2.750
G1 X358.516 Y342.990 Z-2.750
G1 X359.559 Y342.559 Z-2.750
G1 X360.599 Y342.120 Z-2.750
G1 X361.638 Y341.672 Z-2.750
G1 X362.675 Y341.217 Z-2.750
G1 X363.710 Y340.753 Z-2.750
G1 X364.742 Y340.281 Z-2.750
G1 X365.773 Y339.801 Z-2.750
G1 X366.801 Y339.312 Z-2.750
G1 X367.826 Y338.816 Z-2.750
G1 X368.849 Y338.311 Z-2.750
G1 X369.870 Y337.799 Z-2.750
G1 X370.888 Y337.278 Z-2.750
G1 X371.903 Y336.749 Z-2.750
G1 X372.915 Y336.212 Z-2.750
G1 X373.924 Y335.667 Z-2.750
G1 X374.930 Y335.114 Z-2.750
G1 X375.933 Y334.553 Z-2.750
G1 X376.932 Y333.984 Z-2.750
G1 X377.928 Y333.407 Z-2.750
G1 X378.921 Y332.822 Z-2.750
G1 X379.910 Y332.229 Z-2.750
G1 X380.896 Y331.629 Z-2.750
G1 X381.877 Y331.020 Z-2.750
G1 X382.855 Y330.404 Z-2.750
G1 X383.829 Y329.780 Z-2.750
G1 X384.799 Y329.149 Z-2.750
G1 X385.765 Y328.509 Z-2.750
G1 X386.727 Y327.862 Z-2.750
G1 X387.684 Y327.207 Z-2.750
G1 X388.637 Y326.545 Z-2.750
G1 X389.586 Y325.875 Z-2.750
G1 X390.530 Y325.198 Z-2.750
G1 X391.469 Y324.514 Z-2.750
G1 X392.404 Y323.822 Z-2.750
G1 X393.334 Y323.122 Z-2.750
G1 X394.259 Y322.416 Z-2.750
G1 X395.178 Y321.702 Z-2.750
G1 X396.093 Y320.981 Z-2.750
G1 X397.003 Y320.252 Z-2.750
G1 X397.908 Y319.517 Z-2.750
G1 X398.807 Y318.775 Z-2.750
G1 X399.701 Y318.026 Z-2.750
G1 X400.589 Y317.270 Z-2.750
G1 X401.472 Y316.507 Z-2.750
G1 X402.349 Y315.737 Z-2.750
G1 X403.220 Y314.960 Z-2.750
G1 X404.086 Y314.177 Z-2.750
G1 X404.945 Y313.388 Z-2.750
G1 X405.799 Y312.591 Z-2.750
G1 X406.647 Y311.789 Z-2.750
G1 X407.489 Y310.980 Z-2.750
G1 X408.324 Y310.164 Z-2.750
G1 X409.153 Y309.343 Z-2.750
G1 X409.976 Y308.515 Z-2.750
G1 X410.793 Y307.681 Z-2.750
G1 X411.603 Y306.841 Z-2.750
G1 X412.407 Y305.995 Z-2.750
G1 X413.204 Y305.143 Z-2.750
G1 X413.994 Y304.286 Z-2.750
G1 X414.778 Y303.423 Z-2.750
G1 X415.555 Y302.554 Z-2.750
G1 X416.325 Y301.679 Z-2.750
G1 X417.089 Y300.799 Z-2.750
G1 X417.845 Y299.914 Z-2.750
G1 X418.594 Y299.023 Z-2.750
G1 X419.337 Y298.128 Z-2.750
G1 X420.072 Y297.226 Z-2.750
G1 X420.800 Y296.320 Z-2.750
G1 X421.521 Y295.409 Z-2.750
G1 X422.235 Y294.493 Z-2.750
G1 X422.941 Y293.572 Z-2.750
G1 X423.640 Y292.647 Z-2.750
G1 X424.331 Y291.717 Z-2.750
G1 X425.016 Y290.782 Z-2.750
G1 X425.692 Y289.843 Z-2.750
G1 X426.361 Y288.899 Z-2.750
G1 X427.023 Y287.951 Z-2.750
G1 X427.677 Y286.999 Z-2.750
G1 X428.323 Y286.043 Z-2.750
G1 X428.962 Y285.083 Z-2.750
G1 X429.593 Y284.119 Z-2.750
G1 X430.216 Y283.151 Z-2.750
G1 X430.831 Y282.179 Z-2.750
G1 X431.439 Y281.204 Z-2.750
G1 X432.038 Y280.225 Z-2.750
G1 X432.630 Y279.243 Z-2.750
G1 X433.214 Y278.257 Z-2.750
G1 X433.790 Y277.268 Z-2.750
G1 X434.358 Y276.276 Z-2.750
G1 X434.919 Y275.281 Z-2.750
G1 X435.471 Y274.283 Z-2.750
G1 X436.015 Y273.282 Z-2.750
G1 X436.551 Y272.278 Z-2.750
G1 X437.079 Y271.271 Z-2.750
G1 X437.599 Y270.262 Z-2.750
G1 X438.111 Y269.250 Z-2.750
G1 X438.615 Y268.236 Z-2.750
G1 X439.111 Y267.219 Z-2.750
G1 X439.599 Y266.200 Z-2.750
G1 X440.078 Y265.179 Z-2.750
G1 X440.550 Y264.156 Z-2.750
G1 X441.013 Y263.131 Z-2.750
G1 X441.468 Y262.104 Z-2.750
G1 X441.915 Y261.076 Z-2.750
G1 X442.355 Y260.045 Z-2.750
G1 X442.785 Y259.013 Z-2.750
G1 X443.208 Y257.980 Z-2.750
G1 X443.623 Y256.945 Z-2.750
G1 X444.029 Y255.909 Z-2.750
G1 X444.428 Y254.871 Z-2.750
G1 X444.818 Y253.833 Z-2.750
G1 X445.200 Y252.793 Z-2.750
G1 X445.574 Y251.753 Z-2.750
G1 X445.941 Y250.711 Z-2.750
G1 X446.299 Y249.669 Z-2.750
G1 X446.648 Y248.626 Z-2.750
G1 X446.990 Y247.582 Z-2.750
G1 X447.324 Y246.538 Z-2.750
G1 X447.650 Y245.494 Z-2.750
G1 X447.968 Y244.449 Z-2.750
G1 X448.278 Y243.404 Z-2.750
G1 X448.580 Y242.358 Z-2.750
G1 X448.874 Y241.313 Z-2.750
G1 X449.160 Y240.268 Z-2.750
G1 X449.439 Y239.222 Z-2.750
G1 X449.709 Y238.177 Z-2.750
G1 X449.972 Y237.132 Z-2.750
G1 X450.226 Y236.087 Z-2.750
G1 X450.473 Y235.043 Z-2.750
G1 X450.713 Y233.999 Z-2.750
G1 X450.944 Y232.956 Z-2.750
G1 X451.168 Y231.913 Z-2.750
G1 X451.384 Y230.872 Z-2.750
G1 X451.593 Y229.831 Z-2.750
G1 X451.794 Y228.790 Z-2.750
G1 X451.987 Y227.751 Z-2.750
G1 X452.173 Y226.713 Z-2.750
G1 X452.352 Y225.675 Z-2.750
G1 X452.523 Y224.639 Z-2.750
G1 X452.686 Y223.605 Z-2.750
G1 X452.842 Y222.571 Z-2.750
G1 X452.991 Y221.539 Z-2.750
G1 X453.133 Y220.508 Z-2.750
G1 X453.267 Y219.479 Z-2.750
G1 X453.394 Y218.451 Z-2.750
G1 X453.514 Y217.425 Z-2.750
G1 X453.627 Y216.401 Z-2.750
G1 X453.733 Y215.378 Z-2.750
G1 X453.831 Y214.358 Z-2.750
G1 X453.923 Y213.339 Z-2.750
G1 X454.008 Y212.322 Z-2.750
G1 X454.086 Y211.307 Z-2.750
G1 X454.157 Y210.295 Z-2.750
G1 X454.221 Y209.284 Z-2.750
G1 X454.278 Y208.276 Z-2.750
G1 X454.329 Y207.270 Z-2.750
G1 X454.374 Y206.232 Z-2.750
G1 X454.413 Y205.194 Z-2.750
G1 X454.444 Y204.155 Z-2.750
G1 X454.469 Y203.116 Z-2.750
G1 X454.486 Y202.078 Z-2.750
G1 X454.497 Y201.039 Z-2.750
G1 X454.500 Y200.000 Z-2.750
G1 X454.497 Y198.961 Z-2.750
G1 X454.486 Y197.922 Z-2.750
G1 X454.469 Y196.884 Z-2.750
G1 X454.444 Y195.845 Z-2.750
G1 X454.413 Y194.806 Z-2.750
G1 X454.374 Y193.768 Z-2.750
G1 X454.329 Y192.730 Z-2.750
G1 X454.278 Y191.724 Z-2.750
G1 X454.221 Y190.716 Z-2.750
G1 X454.157 Y189.705 Z-2.750
G1 X454.086 Y188.693 Z-2.750
G1 X454.008 Y187.678 Z-2.750
G1 X453.923 Y186.661 Z-2.750
G1 X453.831 Y185.642 Z-2.750
G1 X453.733 Y184.622 Z-2.750
G1 X453.627 Y183.599 Z-2.750
G1 X453.514 Y182.575 Z-2.750
G1 X453.394 Y181.549 Z-2.750
G1 X453.267 Y180.521 Z-2.750
G1 X453.133 Y179.492 Z-2.750
G1 X452.991 Y178.461 Z-2.750
G1 X452.842 Y177.429 Z-2.750
G1 X452.686 Y176.395 Z-2.750
G1 X452.523 Y175.361 Z-2.750
G1 X452.352 Y174.325 Z-2.750
G1 X452.173 Y173.287 Z-2.750
G1 X451.987 Y172.249 Z-2.750
G1 X451.794 Y171.210 Z-2.750
G1 X451.593 Y170.169 Z-2.750
G1 X451.384 Y169.128 Z-2.750
G1 X451.168 Y168.087 Z-2.750
G1 X450.944 Y167.044 Z-2.750
G1 X450.713 Y166.001 Z-2.750
G1 X450.473 Y164.957 Z-2.750
G1 X450.226 Y163.913 Z-2.750
G1 X449.972 Y162.868 Z-2.750
G1 X449.709 Y161.823 Z-2.750
G1 X449.439 Y160.778 Z-2.750
G1 X449.160 Y159.732 Z-2.750
G1 X448.874 Y158.687 Z-2.750
G1 X448.580 Y157.642 Z-2.750
G1 X448.278 Y156.596 Z-2.750
G1 X447.968 Y155.551 Z-2.750
G1 X447.650 Y154.506 Z-2.750
G1 X447.324 Y153.462 Z-2.750
G1 X446.990 Y152.418 Z-2.750
G1 X446.648 Y151.374 Z-2.750
G1 X446.299 Y150.331 Z-2.750
G1 X445.941 Y149.289 Z-2.750
G1 X445.574 Y148.247 Z-2.750
G1 X445.200 Y147.207 Z-2.750
G1 X444.818 Y146.167 Z-2.750
G1 X444.428 Y145.129 Z-2.750
G1 X444.029 Y144.091 Z-2.750
G1 X443.623 Y143.055 Z-2.750
G1 X443.208 Y142.020 Z-2.750
G1 X442.785 Y140.987 Z-2.750
G1 X442.355 Y139.955 Z-2.750
G1 X441.915 Y138.924 Z-2.750
G1 X441.468 Y137.896 Z-2.750
G1 X441.013 Y136.869 Z-2.750
G1 X440.550 Y135.844 Z-2.750
G1 X440.078 Y134.821 Z-2.750
G1 X439.599 Y133.800 Z-2.750
G1 X439.111 Y132.781 Z-2.750
G1 X438.615 Y131.764 Z-2.750
G1 X438.111 Y130.750 Z-2.750
G1 X437.599 Y129.738 Z-2.750
G1 X437.079 Y128.729 Z-2.750
G1 X436.551 Y127.722 Z-2.750
G1 X436.015 Y126.718 Z-2.750
G1 X435.471 Y125.717 Z-2.750
G1 X434.919 Y124.719 Z-2.750
G1 X434.358 Y123.724 Z-2.750
G1 X433.790 Y122.732 Z-2.750
G1 X433.214 Y121.743 Z-2.750
G1 X432.630 Y120.757 Z-2.750
G1 X432.038 Y119.775 Z-2.750
G1 X431.439 Y118.796 Z-2.750
G1 X430.831 Y117.821 Z-2.750
G1 X430.216 Y116.849 Z-2.750
G1 X429.593 Y115.881 Z-2.750
G1 X428.962 Y114.917 Z-2.750
G1 X428.323 Y113.957 Z-2.750
G1 X427.677 Y113.001 Z-2.750
G1 X427.023 Y112.049 Z-2.750
G1 X426.361 Y111.101 Z-2.750
G1 X425.692 Y110.157 Z-2.750
G1 X425.016 Y109.218 Z-2.750
G1 X424.331 Y108.283 Z-2.750
G1 X423.640 Y107.353 Z-2.750
G1 X422.941 Y106.428 Z-2.750
G1 X422.235 Y105.507 Z-2.750
G1 X421.521 Y104.591 Z-2.750
G1 X420.800 Y103.680 Z-2.750
G1 X420.072 Y102.774 Z-2.750
G1 X419.337 Y101.873 Z-2.750
G1 X418.594 Y100.977 Z-2.750
G1 X417.845 Y100.086 Z-2.750
G1 X417.089 Y99.201 Z-2.750
G1 X416.325 Y98.321 Z-2.750
G1 X415.555 Y97.446 Z-2.750
G1 X414.778 Y96.577 Z-2.750
G1 X413.994 Y95.714 Z-2.750
G1 X413.204 Y94.857 Z-2.750
G1 X412.407 Y94.005 Z-2.750
G1 X411.603 Y93.159 Z-2.750
G1 X410.793 Y92.319 Z-2.750
G1 X409.976 Y91.485 Z-2.750
G1 X409.153 Y90.657 Z-2.750
G1 X408.324 Y89.836 Z-2.750
G1 X407.489 Y89.020 Z-2.750
G1 X406.647 Y88.211 Z-2.750
G1 X405.799 Y87.409 Z-2.750
G1 X404.945 Y86.612 Z-2.750
G1 X404.086 Y85.823 Z-2.750
G1 X403.220 Y85.040 Z-2.750
G1 X402.349 Y84.263 Z-2.750
G1 X401.472 Y83.493 Z-2.750
G1 X400.589 Y82.730 Z-2.750
G1 X399.701 Y81.974 Z-2.750
G1 X398.807 Y81.225 Z-2.750
G1 X397.908 Y80.483 Z-2.750
G1 X397.003 Y79.748 Z-2.750
G1 X396.093 Y79.019 Z-2.750
G1 X395.178 Y78.298 Z-2.750
G1 X394.259 Y77.584 Z-2.750
G1 X393.334 Y76.878 Z-2.750
G1 X392.404 Y76.178 Z-2.750
G1 X391.469 Y75.486 Z-2.750
G1 X390.530 Y74.802 Z-2.750
G1 X389.586 Y74.125 Z-2.750
G1 X388.637 Y73.455 Z-2.750
G1 X387.684 Y72.793 Z-2.750
G1 X386.727 Y72.138 Z-2.750
G1 X385.765 Y71.491 Z-2.750
G1 X384.799 Y70.851 Z-2.750
G1 X383.829 Y70.220 Z-2.750
G1 X382.855 Y69.596 Z-2.750
G1 X381.877 Y68.980 Z-2.750
G1 X380.896 Y68.371 Z-2.750
G1 X379.910 Y67.771 Z-2.750
G1 X378.921 Y67.178 Z-2.750
G1 X377.928 Y66.593 Z-2.750
G1 X376.932 Y66.016 Z-2.750
G1 X375.933 Y65.447 Z-2.750
G1 X374.930 Y64.886 Z-2.750
G1 X373.924 Y64.333 Z-2.750
G1 X372.915 Y63.788 Z-2.750
G1 X371.903 Y63.251 Z-2.750
G1 X370.888 Y62.722 Z-2.750
G1 X369.870 Y62.201 Z-2.750
G1 X368.849 Y61.689 Z-2.750
G1 X367.826 Y61.184 Z-2.750
G1 X366.801 Y60.688 Z-2.750
G1 X365.773 Y60.199 Z-2.750
G1 X364.742 Y59.719 Z-2.750
G1 X363.710 Y59.247 Z-2.750
G1 X362.675 Y58.783 Z-2.750
G1 X361.638 Y58.328 Z-2.750
G1 X360.599 Y57.880 Z-2.750
G1 X359.559 Y57.441 Z-2.750
G1 X358.516 Y57.010 Z-2.750
G1 X357.472 Y56.587 Z-2.750
G1 X356.426 Y56.173 Z-2.750
G1 X355.379 Y55.766 Z-2.750
G1 X354.331 Y55.368 Z-2.750
G1 X353.281 Y54.978 Z-2.750
G1 X352.230 Y54.596 Z-2.750
G1 X351.177 Y54.222 Z-2.750
G1 X350.124 Y53.857 Z-2.750
G1 X349.070 Y53.500 Z-2.750
G1 X348.015 Y53.150 Z-2.750
G1 X346.959 Y52.809 Z-2.750
G1 X345.903 Y52.476 Z-2.750
G1 X344.846 Y52.152 Z-2.750
G1 X343.788 Y51.835 Z-2.750
G1 X342.730 Y51.527 Z-2.750
G1 X341.672 Y51.226 Z-2.750
G1 X340.613 Y50.934 Z-2.750
G1 X339.555 Y50.649 Z-2.750
G1 X338.496 Y50.373 Z-2.750
G1 X337.437 Y50.104 Z-2.750
G1 X336.379 Y49.844 Z-2.750
G1 X335.321 Y49.592 Z-2.750
G1 X334.262 Y49.347 Z-2.750
G1 X333.205 Y49.110 Z-2.750
G1 X332.147 Y48.882 Z-2.750
G1 X331.091 Y48.661 Z-2.750
G1 X330.034 Y48.447 Z-2.750
G1 X328.979 Y48.242 Z-2.750
G1 X327.924 Y48.044 Z-2.750
G1 X326.870 Y47.855 Z-2.750
G1 X325.817 Y47.672 Z-2.750
G1 X324.765 Y47.498 Z-2.750
G1 X323.715 Y47.331 Z-2.750
G1 X322.665 Y47.171 Z-2.750
G1 X321.616 Y47.020 Z-2.750
G1 X320.569 Y46.875 Z-2.750
G1 X319.523 Y46.738 Z-2.750
G1 X318.479 Y46.609 Z-2.750
G1 X317.436 Y46.487 Z-2.750
G1 X316.394 Y46.372 Z-2.750
G1 X315.355 Y46.265 Z-2.750
G1 X314.316 Y46.165 Z-2.750
G1 X313.280 Y46.072 Z-2.750
G1 X312.246 Y45.986 Z-2.750
G1 X311.213 Y45.907 Z-2.750
G1 X310.183 Y45.836 Z-2.750
G1 X309.154 Y45.771 Z-2.750
G1 X308.128 Y45.714 Z-2.750
G1 X307.104 Y45.663 Z-2.750
G1 X306.082 Y45.620 Z-2.750
G1 X305.062 Y45.583 Z-2.750
G1 X304.045 Y45.553 Z-2.750
G1 X303.030 Y45.530 Z-2.750
G1 X302.017 Y45.513 Z-2.750
G1 X301.007 Y45.503 Z-2.750
G1 X300.000 Y45.500 Z-2.750
G1 X298.993 Y45.503 Z-2.750
G1 X297.983 Y45.513 Z-2.750
G1 X296.970 Y45.530 Z-2.750
G1 X295.955 Y45.553 Z-2.750
G1 X294.938 Y45.583 Z-2.750
G1 X293.918 Y45.620 Z-2.750
G1 X292.896 Y45.663 Z-2.750
G1 X291.872 Y45.714 Z-2.750
G1 X290.846 Y45.771 Z-2.750
G1 X289.817 Y45.836 Z-2.750
G1 X288.787 Y45.907 Z-2.750
G1 X287.754 Y45.986 Z-2.750
G1 X286.720 Y46.072 Z-2.750
G1 X285.684 Y46.165 Z-2.750
G1 X284.645 Y46.265 Z-2.750
G1 X283.606 Y46.372 Z-2.750
G1 X282.564 Y46.487 Z-2.750
G1 X281.521 Y46.609 Z-2.750
G1 X280.477 Y46.738 Z-2.750
G1 X279.431 Y46.875 Z-2.750
G1 X278.384 Y47.020 Z-2.750
G1 X277.335 Y47.171 Z-2.750
G1 X276.285 Y47.331 Z-2.750
G1 X275.235 Y47.498 Z-2.750
G1 X274.183 Y47.672 Z-2.750
G1 X273.130 Y47.855 Z-2.750
G1 X272.076 Y48.044 Z-2.750
G1 X271.021 Y48.242 Z-2.750
G1 X269.966 Y48.447 Z-2.750
G1 X268.909 Y48.661 Z-2.750
G1 X267.853 Y48.882 Z-2.750
G1 X266.795 Y49.110 Z-2.750
G1 X265.738 Y49.347 Z-2.750
G1 X264.679 Y49.592 Z-2.750
G1 X263.621 Y49.844 Z-2.750
G1 X262.563 Y50.104 Z-2.750
G1 X261.504 Y50.373 Z-2.750
G1 X260.445 Y50.649 Z-2.750
G1 X259.387 Y50.934 Z-2.750
G1 X258.328 Y51.226 Z-2.750
G1 X257.270 Y51.527 Z-2.750
G1 X256.212 Y51.835 Z-2.750
G1 X255.154 Y52.152 Z-2.750
G1 X254.097 Y52.476 Z-2.750
G1 X253.041 Y52.809 Z-2.750
G1 X251.985 Y53.150 Z-2.750
G1 X250.930 Y53.500 Z-2.750
G1 X249.876 Y53.857 Z-2.750
G1 X248.823 Y54.222 Z-2.750
G1 X247.770 Y54.596 Z-2.750
G1 X246.719 Y54.978 Z-2.750
G1 X245.669 Y55.368 Z-2.750
G1 X244.621 Y55.766 Z-2.750
G1 X243.574 Y56.173 Z-2.750
G1 X242.528 Y56.587 Z-2.750
G1 X241.484 Y57.010 Z-2.750
G1 X240.441 Y57.441 Z-2.750
G1 X239.401 Y57.880 Z-2.750
G1 X238.362 Y58.328 Z-2.750
G1 X237.325 Y58.783 Z-2.750
G1 X236.290 Y59.247 Z-2.750
G1 X235.258 Y59.719 Z-2.750
G1 X234.227 Y60.199 Z-2.750
G1 X233.199 Y60.688 Z-2.750
G1 X232.174 Y61.184 Z-2.750
G1 X231.151 Y61.689 Z-2.750
G1 X230.130 Y62.201 Z-2.750
G1 X229.112 Y62.722 Z-2.750
G1 X228.097 Y63.251 Z-2.750
G1 X227.085 Y63.788 Z-2.750
G1 X226.076 Y64.333 Z-2.750
G1 X225.070 Y64.886 Z-2.750
G1 X224.067 Y65.447 Z-2.750
G1 X223.068 Y66.016 Z-2.750
G1 X222.072 Y66.593 Z-2.750
G1 X221.079 Y67.178 Z-2.750
G1 X220.090 Y67.771 Z-2.750
G1 X219.104 Y68.371 Z-2.750
G1 X218.123 Y68.980 Z-2.750
G1 X217.145 Y69.596 Z-2.750
G1 X216.171 Y70.220 Z-2.750
G1 X215.201 Y70.851 Z-2.750
G1 X214.235 Y71.491 Z-2.750
G1 X213.273 Y72.138 Z-2.750
G1 X212.316 Y72.793 Z-2.750
G1 X211.363 Y73.455 Z-2.750
G1 X210.414 Y74.125 Z-2.750
G1 X209.470 Y74.802 Z-2.750
G1 X208.531 Y75.486 Z-2.750
G1 X207.596 Y76.178 Z-2.750
G1 X206.666 Y76.878 Z-2.750
G1 X205.741 Y77.584 Z-2.750
G1 X204.822 Y78.298 Z-2.750
G1 X203.907 Y79.019 Z-2.750
G1 X202.997 Y79.748 Z-2.750
G1 X202.092 Y80.483 Z-2.750
G1 X201.193 Y81.225 Z-2.750
G1 X200.299 Y81.974 Z-2.750
G1 X199.411 Y82.730 Z-2.750
G1 X198.528 Y83.493 Z-2.750
G1 X197.651 Y84.263 Z-2.750
G1 X196.780 Y85.040 Z-2.750
G1 X195.914 Y85.823 Z-2.750
G1 X195.055 Y86.612 Z-2.750
G1 X194.201 Y87.409 Z-2.750
G1 X193.353 Y88.211 Z-2.750
G1 X192.511 Y89.020 Z-2.750
G1 X191.676 Y89.836 Z-2.750
G1 X190.847 Y90.657 Z-2.750
G1 X190.024 Y91.485 Z-2.750
G1 X189.207 Y92.319 Z-2.750
G1 X188.397 Y93.159 Z-2.750
G1 X187.593 Y94.005 Z-2.750
G1 X186.796 Y94.857 Z-2.750
G1 X186.006 Y95.714 Z-2.750
G1 X185.222 Y96.577 Z-2.750
G1 X184.445 Y97.446 Z-2.750
G1 X183.675 Y98.321 Z-2.750
G1 X182.911 Y99.201 Z-2.750
G1 X182.155 Y100.086 Z-2.750
G1 X181.406 Y100.977 Z-2.750
G1 X180.663 Y101.873 Z-2.750
G1 X179.928 Y102.774 Z-2.750
G1 X179.200 Y103.680 Z-2.750
G1 X178.479 Y104.591 Z-2.750
G1 X177.765 Y105.507 Z-2.750
G1 X177.059 Y106.428 Z-2.750
G1 X176.360 Y107.353 Z-2.750
G1 X175.669 Y108.283 Z-2.750
G1 X174.984 Y109.218 Z-2.750
G1 X174.308 Y110.157 Z-2.750
G1 X173.639 Y111.101 Z-2.750
G1 X172.977 Y112.049 Z-2.750
G1 X172.323 Y113.001 Z-2.750
G1 X171.677 Y113.957 Z-2.750
G1 X171.038 Y114.917 Z-2.750
G1 X170.407 Y115.881 Z-2.750
G1 X169.784 Y116.849 Z-2.750
G1 X169.169 Y117.821 Z-2.750
G1 X168.561 Y118.796 Z-2.750
G1 X167.962 Y119.775 Z-2.750
G1 X167.370 Y120.757 Z-2.750
G1 X166.786 Y121.743 Z-2.750
G1 X166.210 Y122.732 Z-2.750
G1 X165.642 Y123.724 Z-2.750
G1 X165.081 Y124.719 Z-2.750
G1 X164.529 Y125.717 Z-2.750
G1 X163.985 Y126.718 Z-2.750
G1 X163.449 Y127.722 Z-2.750
G1 X162.921 Y128.729 Z-2.750
G1 X162.401 Y129.738 Z-2.750
G1 X161.889 Y130.750 Z-2.750
G1 X161.385 Y131.764 Z-2.750
G1 X160.889 Y132.781 Z-2.750
G1 X160.401 Y133.800 Z-2.750
G1 X159.922 Y134.821 Z-2.750
G1 X159.450 Y135.844 Z-2.750
G1 X158.987 Y136.869 Z-2.750
G1 X158.532 Y137.896 Z-2.750
G1 X158.084 Y138.924 Z-2.750
G1 X157.645 Y139.955 Z-2.750
G1 X157.215 Y140.987 Z-2.750
G1 X156.792 Y142.020 Z-2.750
G1 X156.377 Y143.055 Z-2.750
G1 X155.971 Y144.091 Z-2.750
G1 X155.572 Y145.129 Z-2.750
G1 X155.182 Y146.167 Z-2.750
G1 X154.800 Y147.207 Z-2.750
G1 X154.426 Y148.247 Z-2.750
G1 X154.059 Y149.289 Z-2.750
G1 X153.701 Y150.331 Z-2.750
G1 X153.352 Y151.374 Z-2.750
G1 X153.010 Y152.418 Z-2.750
G1 X152.676 Y153.462 Z-2.750
G1 X152.350 Y154.506 Z-2.750
G1 X152.032 Y155.551 Z-2.750
G1 X151.722 Y156.596 Z-2.750
G1 X151.420 Y157.642 Z-2.750
G1 X151.126 Y158.687 Z-2.750
G1 X150.840 Y159.732 Z-2.750
G1 X150.561 Y160.778 Z-2.750
G1 X150.291 Y161.823 Z-2.750
G1 X150.028 Y162.868 Z-2.750
G1 X149.774 Y163.913 Z-2.750
G1 X149.527 Y164.957 Z-2.750
G1 X149.287 Y166.001 Z-2.750
G1 X149.056 Y167.044 Z-2.750
G1 X148.832 Y168.087 Z-2.750
G1 X148.616 Y169.128 Z-2.750
G1 X148.407 Y170.169 Z-2.750
G1 X148.206 Y171.210 Z-2.750
G1 X148.013 Y172.249 Z-2.750
G1 X147.827 Y173.287 Z-2.750
G1 X147.648 Y174.325 Z-2.750
G1 X147.477 Y175.361 Z-2.750
G1 X147.314 Y176.395 Z-2.750
G1 X147.158 Y177.429 Z-2.750
G1 X147.009 Y178.461 Z-2.750
G1 X146.867 Y179.492 Z-2.750
G1 X146.733 Y180.521 Z-2.750
G1 X146.606 Y181.549 Z-2.750
G1 X146.486 Y182.575 Z-2.750
G1 X146.373 Y183.599 Z-2.750
G1 X146.267 Y184.622 Z-2.750
G1 X146.169 Y185.642 Z-2.750
G1 X146.077 Y186.661 Z-2.750
G1 X145.992 Y187.678 Z-2.750
G1 X145.914 Y188.693 Z-2.750
G1 X145.843 Y189.705 Z-2.750
G1 X145.779 Y190.716 Z-2.750
G1 X145.722 Y191.724 Z-2.750
G1 X145.671 Y192.730 Z-2.750
G1 X145.671 Y192.730 Z-3.667 F635.0
G1 X145.626 Y193.768 Z-3.667 F180.0
G1 X145.587 Y194.806 Z-3.667
G1 X145.556 Y195.845 Z-3.667
G1 X145.531 Y196.884 Z-3.667
G1 X145.514 Y197.922 Z-3.667
G1 X145.503 Y198.961 Z-3.667
G1 X145.500 Y200.000 Z-3.667
G1 X145.503 Y201.039 Z-3.667
G1 X145.514 Y202.078 Z-3.667
G1 X145.531 Y203.116 Z-3.667
G1 X145.556 Y204.155 Z-3.667
G1 X145.587 Y205.194 Z-3.667
G1 X145.626 Y206.232 Z-3.667
G1 X145.671 Y207.270 Z-3.667
G1 X145.722 Y208.276 Z-3.667
G1 X145.779 Y209.284 Z-3.667
G1 X145.843 Y210.295 Z-3.667
G1 X145.914 Y211.307 Z-3.667
G1 X145.992 Y212.322 Z-3.667
G1 X146.077 Y213.339 Z-3.667
G1 X146.169 Y214.358 Z-3.667
G1 X146.267 Y215.378 Z-3.667
G1 X146.373 Y216.401 Z-3.667
G1 X146.486 Y217.425 Z-3.667
G1 X146.606 Y218.451 Z-3.667
G1 X146.733 Y219.479 Z-3.667
G1 X146.867 Y220.508 Z-3.667
G1 X147.009 Y221.539 Z-3.667
G1 X147.158 Y222.571 Z-3.667
G1 X147.314 Y223.605 Z-3.667
G1 X147.477 Y224.639 Z-3.667
G1 X147.648 Y225.675 Z-3.667
G1 X147.827 Y226.713 Z-3.667
G1 X148.013 Y227.751 Z-3.667
G1 X148.206 Y228.790 Z-3.667
G1 X148.407 Y229.831 Z-3.667
G1 X148.616 Y230.872 Z-3.667
G1 X148.832 Y231.913 Z-3.667
G1 X149.056 Y232.956 Z-3.667
G1 X149.287 Y233.999 Z-3.667
G1 X149.527 Y235.043 Z-3.667
G1 X149.774 Y236.087 Z-3.667
G1 X150.028 Y237.132 Z-3.667
G1 X150.291 Y238.177 Z-3.667
G1 X150.561 Y239.222 Z-3.667
G1 X150.840 Y240.268 Z-3.667
G1 X151.126 Y241.313 Z-3.667
G1 X151.420 Y242.358 Z-3.667
G1 X151.722 Y243.404 Z-3.667
G1 X152.032 Y244.449 Z-3.667
G1 X152.350 Y245.494 Z-3.667
G1 X152.676 Y246.538 Z-3.667
G1 X153.010 Y247.582 Z-3.667
G1 X153.352 Y248.626 Z-3.667
G1 X153.701 Y249.669 Z-3.667
G1 X154.059 Y250.711 Z-3.667
G1 X154.426 Y251.753 Z-3.667
G1 X154.800 Y252.793 Z-3.667
G1 X155.182 Y253.833 Z-3.667
G1 X155.572 Y254.871 Z-3.667
G1 X155.971 Y255.909 Z-3.667
G1 X156.377 Y256.945 Z-3.667
G1 X156.792 Y257.980 Z-3.667
G1 X157.215 Y259.013 Z-3.667
G1 X157.645 Y260.045 Z-3.667
G1 X158.084 Y261.076 Z-3.667
G1 X158.532 Y262.104 Z-3.667
G1 X158.987 Y263.131 Z-3.667
G1 X159.450 Y264.156 Z-3.667
G1 X159.922 Y265.179 Z-3.667
G1 X160.401 Y266.200 Z-3.667
G1 X160.889 Y267.219 Z-3.667
G1 X161.385 Y268.236 Z-3.667
G1 X161.889 Y269.250 Z-3.667
G1 X162.401 Y270.262 Z-3.667
G1 X162.921 Y271.271 Z-3.667
G1 X163.449 Y272.278 Z-3.667
G1 X163.985 Y273.282 Z-3.667
G1 X164.529 Y274.283 Z-3.667
G1 X165.081 Y275.281 Z-3.667
G1 X165.642 Y276.276 Z-3.667
G1 X166.210 Y277.268 Z-3.667
G1 X166.786 Y278.257 Z-3.667
G1 X167.370 Y279.243 Z-3.667
G1 X167.962 Y280.225 Z-3.667
G1 X168.561 Y281.204 Z-3.667
G1 X169.169 Y282.179 Z-3.667
G1 X169.784 Y283.151 Z-3.667
G1 X170.407 Y284.119 Z-3.667
G1 X171.038 Y285.083 Z-3.667
G1 X171.677 Y286.043 Z-3.667
G1 X172.323 Y286.999 Z-3.667
G1 X172.977 Y287.951 Z-3.667
G1 X173.639 Y288.899 Z-3.667
G1 X174.308 Y289.843 Z-3.667
G1 X174.984 Y290.782 Z-3.667
G1 X175.669 Y291.717 Z-3.667
G1 X176.360 Y292.647 Z-3.667
G1 X177.059 Y293.572 Z-3.667
G1 X177.765 Y294.493 Z-3.667
G1 X178.479 Y295.409 Z-3.667
G1 X179.200 Y296.320 Z-3.667
G1 X179.928 Y297.226 Z-3.667
G1 X180.663 Y298.128 Z-3.667
G1 X181.406 Y299.023 Z-3.667
G1 X182.155 Y299.914 Z-3.667
G1 X182.911 Y300.799 Z-3.667
G1 X183.675 Y301.679 Z-3.667
G1 X184.445 Y302.554 Z-3.667
G1 X185.222 Y303.423 Z-3.667
G1 X186.006 Y304.286 Z-3.667
G1 X186.796 Y305.143 Z-3.667
G1 X187.593 Y305.995 Z-3.667
G1 X188.397 Y306.841 Z-3.667
G1 X189.207 Y307.681 Z-3.667
G1 X190.024 Y308.515 Z-3.667
G1 X190.847 Y309.343 Z-3.667
G1 X191.676 Y310.164 Z-3.667
G1 X192.511 Y310.980 Z-3.667
G1 X193.353 Y311.789 Z-3.667
G1 X194.201 Y312.591 Z-3.667
G1 X195.055 Y313.388 Z-3.667
G1 X195.914 Y314.177 Z-3.667
G1 X196.780 Y314.960 Z-3.667
G1 X197.651 Y315.737 Z-3.667
G1 X198.528 Y316.507 Z-3.667
G1 X199.411 Y317.270 Z-3.667
G1 X200.299 Y318.026 Z-3.667
G1 X201.193 Y318.775 Z-3.667
G1 X202.092 Y319.517 Z-3.667
G1 X202.997 Y320.252 Z-3.667
G1 X203.907 Y320.981 Z-3.667
G1 X204.822 Y321.702 Z-3.667
G1 X205.741 Y322.416 Z-3.667
G1 X206.666 Y323.122 Z-3.667
G1 X207.596 Y323.822 Z-3.667
G1 X208.531 Y324.514 Z-3.667
G1 X209.470 Y325.198 Z-3.667
G1 X210.414 Y325.875 Z-3.667
G1 X211.363 Y326.545 Z-3.667
G1 X212.316 Y327.207 Z-3.667
G1 X213.273 Y327.862 Z-3.667
G1 X214.235 Y328.509 Z-3.667
G1 X215.201 Y329.149 Z-3.667
G1 X216.171 Y329.780 Z-3.667
G1 X217.145 Y330.404 Z-3.667
G1 X218.123 Y331.020 Z-3.667
G1 X219.104 Y331.629 Z-3.667
G1 X220.090 Y332.229 Z-3.667
G1 X221.079 Y332.822 Z-3.667
G1 X222.072 Y333.407 Z-3.667
G1 X223.068 Y333.984 Z-3.667
G1 X224.067 Y334.553 Z-3.667
G1 X225.070 Y335.114 Z-3.667
G1 X226.076 Y335.667 Z-3.667
G1 X227.085 Y336.212 Z-3.667
G1 X228.097 Y336.749 Z-3.667
G1 X229.112 Y337.278 Z-3.667
G1 X230.130 Y337.799 Z-3.667
G1 X231.151 Y338.311 Z-3.667
G1 X232.174 Y338.816 Z-3.667
G1 X233.199 Y339.312 Z-3.667
G1 X234.227 Y339.801 Z-3.667
G1 X235.258 Y340.281 Z-3.667
G1 X236.290 Y340.753 Z-3.667
G1 X237.325 Y341.217 Z-3.667
G1 X238.362 Y341.672 Z-3.667
G1 X239.401 Y342.120 Z-3.667
G1 X240.441 Y342.559 Z-3.667
G1 X241.484 Y342.990 Z-3.667
G1 X242.528 Y343.413 Z-3.667
G1 X243.574 Y343.827 Z-3.667
G1 X244.621 Y344.234 Z-3.667
G1 X245.669 Y344.632 Z-3.667
G1 X246.719 Y345.022 Z-3.667
G1 X247.770 Y345.404 Z-3.667
G1 X248.823 Y345.778 Z-3.667
G1 X249.876 Y346.143 Z-3.667
G1 X250.930 Y346.500 Z-3.667
G1 X251.985 Y346.850 Z-3.667
G1 X253.041 Y347.191 Z-3.667
G1 X254.097 Y347.523 Z-3.667
G1 X255.154 Y347.848 Z-3.667
G1 X256.212 Y348.165 Z-3.667
G1 X257.270 Y348.473 Z-3.667
G1 X258.328 Y348.774 Z-3.667
G1 X259.387 Y349.066 Z-3.667
G1 X260.445 Y349.351 Z-3.667
G1 X261.504 Y349.627 Z-3.667
G1 X262.563 Y349.896 Z-3.667
G1 X263.621 Y350.156 Z-3.667
G1 X264.679 Y350.408 Z-3.667
G1 X265.738 Y350.653 Z-3.667
G1 X266.795 Y350.890 Z-3.667
G1 X267.853 Y351.118 Z-3.667
G1 X268.909 Y351.339 Z-3.667
G1 X269.966 Y351.553 Z-3.667
G1 X271.021 Y351.758 Z-3.667
G1 X272.076 Y351.956 Z-3.667
G1 X273.130 Y352.145 Z-3.667
G1 X274.183 Y352.328 Z-3.667
G1 X275.235 Y352.502 Z-3.667
G1 X276.285 Y352.669 Z-3.667
G1 X277.335 Y352.829 Z-3.667
G1 X278.384 Y352.980 Z-3.667
G1 X279.431 Y353.125 Z-3.667
G1 X280.477 Y353.262 Z-3.667
G1 X281.521 Y353.391 Z-3.667
G1 X282.564 Y353.513 Z-3.667
G1 X283.606 Y353.628 Z-3.667
G1 X284.645 Y353.735 Z-3.667
G1 X285.684 Y353.835 Z-3.667
G1 X286.720 Y353.928 Z-3.667
G1 X287.754 Y354.014 Z-3.667
G1 X288.787 Y354.093 Z-3.667
G1 X289.817 Y354.164 Z-3.667
G1 X290.846 Y354.229 Z-3.667
G1 X291.872 Y354.286 Z-3.667
G1 X292.896 Y354.337 Z-3.667
G1 X293.918 Y354.380 Z-3.667
G1 X294.938 Y354.417 Z-3.667
G1 X295.955 Y354.447 Z-3.667
G1 X296.970 Y354.470 Z-3.667
G1 X297.983 Y354.487 Z-3.667
G1 X298.993 Y354.497 Z-3.667
G1 X300.000 Y354.500 Z-3.667
G1 X301.007 Y354.497 Z-3.667
G1 X302.017 Y354.487 Z-3.667
G1 X303.030 Y354.470 Z-3.667
G1 X304.045 Y354.447 Z-3.667
G1 X305.062 Y354.417 Z-3.667
G1 X306.082 Y354.380 Z-3.667
G1 X307.104 Y354.337 Z-3.667
G1 X308.128 Y354.286 Z-3.667
G1 X309.154 Y354.229 Z-3.667
G1 X310.183 Y354.164 Z-3.667
G1 X311.213 Y354.093 Z-3.667
G1 X312.246 Y354.014 Z-3.667
G1 X313.280 Y353.928 Z-3.667
G1 X314.316 Y353.835 Z-3.667
G1 X315.355 Y353.735 Z-3.667
G1 X316.394 Y353.628 Z-3.667
G1 X317.436 Y353.513 Z-3.667
G1 X318.479 Y353.391 Z-3.667
G1 X319.523 Y353.262 Z-3.667
G1 X320.569 Y353.125 Z-3.667
G1 X321.616 Y352.980 Z-3.667
G1 X322.665 Y352.829 Z-3.667
G1 X323.715 Y352.669 Z-3.667
G1 X324.765 Y352.502 Z-3.667
G1 X325.817 Y352.328 Z-3.667
G1 X326.870 Y352.145 Z-3.667
G1 X327.924 Y351.956 Z-3.667
G1 X328.979 Y351.758 Z-3.667
G1 X330.034 Y351.553 Z-3.667
G1 X331.091 Y351.339 Z-3.667
G1 X332.147 Y351.118 Z-3.667
G1 X333.205 Y350.890 Z-3.667
G1 X334.262 Y350.653 Z-3.667
G1 X335.321 Y350.408 Z-3.667
G1 X336.379 Y350.156 Z-3.667
G1 X337.437 Y349.896 Z-3.667
G1 X338.496 Y349.627 Z-3.667
G1 X339.555 Y349.351 Z-3.667
G1 X340.613 Y349.066 Z-3.667
G1 X341.672 Y348.774 Z-3.667
G1 X342.730 Y348.473 Z-3.667
G1 X343.788 Y348.165 Z-3.667
G1 X344.846 Y347.848 Z-3.667
G1 X345.903 Y347.523 Z-3.667
G1 X346.959 Y347.191 Z-3.667
G1 X348.015 Y346.850 Z-3.667
G1 X349.070 Y346.500 Z-3.667
G1 X350.124 Y346.143 Z-3.667
G1 X351.177 Y345.778 Z-3.667
G1 X352.230 Y345.404 Z-3.667
G1 X353.281 Y345.022 Z-3.667
G1 X354.331 Y344.632 Z-3.667
G1 X355.379 Y344.234 Z-3.667
G1 X356.426 Y343.827 Z-3.667
G1 X357.472 Y343.413 Z-3.667
G1 X358.516 Y342.990 Z-3.667
G1 X359.559 Y342.559 Z-3.667
G1 X360.599 Y342.120 Z-3.667
G1 X361.638 Y341.672 Z-3.667
G1 X362.675 Y341.217 Z-3.667
G1 X363.710 Y340.753 Z-3.667
G1 X364.742 Y340.281 Z-3.667
G1 X365.773 Y339.801 Z-3.667
G1 X366.801 Y339.312 Z-3.667
G1 X367.826 Y338.816 Z-3.667
G1 X368.849 Y338.311 Z-3.667
G1 X369.870 Y337.799 Z-3.667
G1 X370.888 Y337.278 Z-3.667
G1 X371.903 Y336.749 Z-3.667
G1 X372.915 Y336.212 Z-3.667
G1 X373.924 Y335.667 Z-3.667
G1 X374.930 Y335.114 Z-3.667
G1 X375.933 Y334.553 Z-3.667
G1 X376.932 Y333.984 Z-3.667
G1 X377.928 Y333.407 Z-3.667
G1 X378.921 Y332.822 Z-3.667
G1 X379.910 Y332.229 Z-3.667
G1 X380.896 Y331.629 Z-3.667
G1 X381.877 Y331.020 Z-3.667
G1 X382.855 Y330.404 Z-3.667
G1 X383.829 Y329.780 Z-3.667
G1 X384.799 Y329.149 Z-3.667
G1 X385.765 Y328.509 Z-3.667
G1 X386.727 Y327.862 Z-3.667
G1 X387.684 Y327.207 Z-3.667
G1 X388.637 Y326.545 Z-3.667
G1 X389.586 Y325.875 Z-3.667
G1 X390.530 Y325.198 Z-3.667
G1 X391.469 Y324.514 Z-3.667
G1 X392.404 Y323.822 Z-3.667
G1 X393.334 Y323.122 Z-3.667
G1 X394.259 Y322.416 Z-3.667
G1 X395.178 Y321.702 Z-3.667
G1 X396.093 Y320.981 Z-3.667
G1 X397.003 Y320.252 Z-3.667
G1 X397.908 Y319.517 Z-3.667
G1 X398.807 Y318.775 Z-3.667
G1 X399.701 Y318.026 Z-3.667
G1 X400.589 Y317.270 Z-3.667
G1 X401.472 Y316.507 Z-3.667
G1 X402.349 Y315.737 Z-3.667
G1 X403.220 Y314.960 Z-3.667
G1 X404.086 Y314.177 Z-3.667
G1 X404.945 Y313.388 Z-3.667
G1 X405.799 Y312.591 Z-3.667
G1 X406.647 Y311.789 Z-3.667
G1 X407.489 Y310.980 Z-3.667
G1 X408.324 Y310.164 Z-3.667
G1 X409.153 Y309.343 Z-3.667
G1 X409.976 Y308.515 Z-3.667
G1 X410.793 Y307.681 Z-3.667
G1 X411.603 Y306.841 Z-3.667
G1 X412.407 Y305.995 Z-3.667
G1 X413.204 Y305.143 Z-3.667
G1 X413.994 Y304.286 Z-3.667
G1 X414.778 Y303.423 Z-3.667
G1 X415.555 Y302.554 Z-3.667
G1 X416.325 Y301.679 Z-3.667
G1 X417.089 Y300.799 Z-3.667
G1 X417.845 Y299.914 Z-3.667
G1 X418.594 Y299.023 Z-3.667
G1 X419.337 Y298.128 Z-3.667
G1 X420.072 Y297.226 Z-3.667
G1 X420.800 Y296.320 Z-3.667
G1 X421.521 Y295.409 Z-3.667
G1 X422.235 Y294.493 Z-3.667
G1 X422.941 Y293.572 Z-3.667
G1 X423.640 Y292.647 Z-3.667
G1 X424.331 Y291.717 Z-3.667
G1 X425.016 Y290.782 Z-3.667
G1 X425.692 Y289.843 Z-3.667
G1 X426.361 Y288.899 Z-3.667
G1 X427.023 Y287.951 Z-3.667
G1 X427.677 Y286.999 Z-3.667
G1 X428.323 Y286.043 Z-3.667
G1 X428.962 Y285.083 Z-3.667
G1 X429.593 Y284.119 Z-3.667
G1 X430.216 Y283.151 Z-3.667
G1 X430.831 Y282.179 Z-3.667
G1 X431.439 Y281.204 Z-3.667
G1 X432.038 Y280.225 Z-3.667
G1 X432.630 Y279.243 Z-3.667
G1 X433.214 Y278.257 Z-3.667
G1 X433.790 Y277.268 Z-3.667
G1 X434.358 Y276.276 Z-3.667
G1 X434.919 Y275.281 Z-3.667
G1 X435.471 Y274.283 Z-3.667
G1 X436.015 Y273.282 Z-3.667
G1 X436.551 Y272.278 Z-3.667
G1 X437.079 Y271.271 Z-3.667
G1 X437.599 Y270.262 Z-3.667
G1 X438.111 Y269.250 Z-3.667
G1 X438.615 Y268.236 Z-3.667
G1 X439.111 Y267.219 Z-3.667
G1 X439.599 Y266.200 Z-3.667
G1 X440.078 Y265.179 Z-3.667
G1 X440.550 Y264.156 Z-3.667
G1 X441.013 Y263.131 Z-3.667
G1 X441.468 Y262.104 Z-3.667
G1 X441.915 Y261.076 Z-3.667
G1 X442.355 Y260.045 Z-3.667
G1 X442.785 Y259.013 Z-3.667
G1 X443.208 Y257.980 Z-3.667
G1 X443.623 Y256.945 Z-3.667
G1 X444.029 Y255.909 Z-3.667
G1 X444.428 Y254.871 Z-3.667
G1 X444.818 Y253.833 Z-3.667
G1 X445.200 Y252.793 Z-3.667
G1 X445.574 Y251.753 Z-3.667
G1 X445.941 Y250.711 Z-3.667
G1 X446.299 Y249.669 Z-3.667
G1 X446.648 Y248.626 Z-3.667
G1 X446.990 Y247.582 Z-3.667
G1 X447.324 Y246.538 Z-3.667
G1 X447.650 Y245.494 Z-3.667
G1 X447.968 Y244.449 Z-3.667
G1 X448.278 Y243.404 Z-3.667
G1 X448.580 Y242.358 Z-3.667
G1 X448.874 Y241.313 Z-3.667
G1 X449.160 Y240.268 Z-3.667
G1 X449.439 Y239.222 Z-3.667
G1 X449.709 Y238.177 Z-3.667
G1 X449.972 Y237.132 Z-3.667
G1 X450.226 Y236.087 Z-3.667
G1 X450.473 Y235.043 Z-3.667
G1 X450.713 Y233.999 Z-3.667
G1 X450.944 Y232.956 Z-3.667
G1 X451.168 Y231.913 Z-3.667
G1 X451.384 Y230.872 Z-3.667
G1 X451.593 Y229.831 Z-3.667
G1 X451.794 Y228.790 Z-3.667
G1 X451.987 Y227.751 Z-3.667
G1 X452.173 Y226.713 Z-3.667
G1 X452.352 Y225.675 Z-3.667
G1 X452.523 Y224.639 Z-3.667
G1 X452.686 Y223.605 Z-3.667
G1 X452.842 Y222.571 Z-3.667
G1 X452.991 Y221.539 Z-3.667
G1 X453.133 Y220.508 Z-3.667
G1 X453.267 Y219.479 Z-3.667
G1 X453.394 Y218.451 Z-3.667
G1 X453.514 Y217.425 Z-3.667
G1 X453.627 Y216.401 Z-3.667
G1 X453.733 Y215.378 Z-3.667
G1 X453.831 Y214.358 Z-3.667
G1 X453.923 Y213.339 Z-3.667
G1 X454.008 Y212.322 Z-3.667
G1 X454.086 Y211.307 Z-3.667
G1 X454.157 Y210.295 Z-3.667
G1 X454.221 Y209.284 Z-3.667
G1 X454.278 Y208.276 Z-3.667
G1 X454.329 Y207.270 Z-3.667
G1 X454.374 Y206.232 Z-3.667
G1 X454.413 Y205.194 Z-3.667
G1 X454.444 Y204.155 Z-3.667
G1 X454.469 Y203.116 Z-3.667
G1 X454.486 Y202.078 Z-3.667
G1 X454.497 Y201.039 Z-3.667
G1 X454.500 Y200.000 Z-3.667
G1 X454.497 Y198.961 Z-3.667
G1 X454.486 Y197.922 Z-3.667
G1 X454.469 Y196.884 Z-3.667
G1 X454.444 Y195.845 Z-3.667
G1 X454.413 Y194.806 Z-3.667
G1 X454.374 Y193.768 Z-3.667
G1 X454.329 Y192.730 Z-3.667
G1 X454.278 Y191.724 Z-3.667
G1 X454.221 Y190.716 Z-3.667
G1 X454.157 Y189.705 Z-3.667
G1 X454.086 Y188.693 Z-3.667
G1 X454.008 Y187.678 Z-3.667
G1 X453.923 Y186.661 Z-3.667
G1 X453.831 Y185.642 Z-3.667
G1 X453.733 Y184.622 Z-3.667
G1 X453.627 Y183.599 Z-3.667
G1 X453.514 Y182.575 Z-3.667
G1 X453.394 Y181.549 Z-3.667
G1 X453.267 Y180.521 Z-3.667
G1 X453.133 Y179.492 Z-3.667
G1 X452.991 Y178.461 Z-3.667
G1 X452.842 Y177.429 Z-3.667
G1 X452.686 Y176.395 Z-3.667
G1 X452.523 Y175.361 Z-3.667
G1 X452.352 Y174.325 Z-3.667
G1 X452.173 Y173.287 Z-3.667
G1 X451.987 Y172.249 Z-3.667
G1 X451.794 Y171.210 Z-3.667
G1 X451.593 Y170.169 Z-3.667
G1 X451.384 Y169.128 Z-3.667
G1 X451.168 Y168.087 Z-3.667
G1 X450.944 Y167.044 Z-3.667
G1 X450.713 Y166.001 Z-3.667
G1 X450.473 Y164.957 Z-3.667
G1 X450.226 Y163.913 Z-3.667
G1 X449.972 Y162.868 Z-3.667
G1 X449.709 Y161.823 Z-3.667
G1 X449.439 Y160.778 Z-3.667
G1 X449.160 Y159.732 Z-3.667
G1 X448.874 Y158.687 Z-3.667
G1 X448.580 Y157.642 Z-3.667
G1 X448.278 Y156.596 Z-3.667
G1 X447.968 Y155.551 Z-3.667
G1 X447.650 Y154.506 Z-3.667
G1 X447.324 Y153.462 Z-3.667
G1 X446.990 Y152.418 Z-3.667
G1 X446.648 Y151.374 Z-3.667
G1 X446.299 Y150.331 Z-3.667
G1 X445.941 Y149.289 Z-3.667
G1 X445.574 Y148.247 Z-3.667
G1 X445.200 Y147.207 Z-3.667
G1 X444.818 Y146.167 Z-3.667
G1 X444.428 Y145.129 Z-3.667
G1 X444.029 Y144.091 Z-3.667
G1 X443.623 Y143.055 Z-3.667
G1 X443.208 Y142.020 Z-3.667
G1 X442.785 Y140.987 Z-3.667
G1 X442.355 Y139.955 Z-3.667
G1 X441.915 Y138.924 Z-3.667
G1 X441.468 Y137.896 Z-3.667
G1 X441.013 Y136.869 Z-3.667
G1 X440.550 Y135.844 Z-3.667
G1 X440.078 Y134.821 Z-3.667
G1 X439.599 Y133.800 Z-3.667
G1 X439.111 Y132.781 Z-3.667
G1 X438.615 Y131.764 Z-3.667
G1 X438.111 Y130.750 Z-3.667
G1 X437.599 Y129.738 Z-3.667
G1 X437.079 Y128.729 Z-3.667
G1 X436.551 Y127.722 Z-3.667
G1 X436.015 Y126.718 Z-3.667
G1 X435.471 Y125.717 Z-3.667
G1 X434.919 Y124.719 Z-3.667
G1 X434.358 Y123.724 Z-3.667
G1 X433.790 Y122.732 Z-3.667
G1 X433.214 Y121.743 Z-3.667
G1 X432.630 Y120.757 Z-3.667
G1 X432.038 Y119.775 Z-3.667
G1 X431.439 Y118.796 Z-3.667
G1 X430.831 Y117.821 Z-3.667
G1 X430.216 Y116.849 Z-3.667
G1 X429.593 Y115.881 Z-3.667
G1 X428.962 Y114.917 Z-3.667
G1 X428.323 Y113.957 Z-3.667
G1 X427.677 Y113.001 Z-3.667
G1 X427.023 Y112.049 Z-3.667
G1 X426.361 Y111.101 Z-3.667
G1 X425.692 Y110.157 Z-3.667
G1 X425.016 Y109.218 Z-3.667
G1 X424.331 Y108.283 Z-3.667
G1 X423.640 Y107.353 Z-3.667
G1 X422.941 Y106.428 Z-3.667
G1 X422.235 Y105.507 Z-3.667
G1 X421.521 Y104.591 Z-3.667
G1 X420.800 Y103.680 Z-3.667
G1 X420.072 Y102.774 Z-3.667
G1 X419.337 Y101.873 Z-3.667
G1 X418.594 Y100.977 Z-3.667
G1 X417.845 Y100.086 Z-3.667
G1 X417.089 Y99.201 Z-3.667
G1 X416.325 Y98.321 Z-3.667
G1 X415.555 Y97.446 Z-3.667
G1 X414.778 Y96.577 Z-3.667
G1 X413.994 Y95.714 Z-3.667
G1 X413.204 Y94.857 Z-3.667
G1 X412.407 Y94.005 Z-3.667
G1 X411.603 Y93.159 Z-3.667
G1 X410.793 Y92.319 Z-3.667
G1 X409.976 Y91.485 Z-3.667
G1 X409.153 Y90.657 Z-3.667
G1 X408.324 Y89.836 Z-3.667
G1 X407.489 Y89.020 Z-3.667
G1 X406.647 Y88.211 Z-3.667
G1 X405.799 Y87.409 Z-3.667
G1 X404.945 Y86.612 Z-3.667
G1 X404.086 Y85.823 Z-3.667
G1 X403.220 Y85.040 Z-3.667
G1 X402.349 Y84.263 Z-3.667
G1 X401.472 Y83.493 Z-3.667
G1 X400.589 Y82.730 Z-3.667
G1 X399.701 Y81.974 Z-3.667
G1 X398.807 Y81.225 Z-3.667
G1 X397.908 Y80.483 Z-3.667
G1 X397.003 Y79.748 Z-3.667
G1 X396.093 Y79.019 Z-3.667
G1 X395.178 Y78.298 Z-3.667
G1 X394.259 Y77.584 Z-3.667
G1 X393.334 Y76.878 Z-3.667
G1 X392.404 Y76.178 Z-3.667
G1 X391.469 Y75.486 Z-3.667
G1 X390.530 Y74.802 Z-3.667
G1 X389.586 Y74.125 Z-3.667
G1 X388.637 Y73.455 Z-3.667
G1 X387.684 Y72.793 Z-3.667
G1 X386.727 Y72.138 Z-3.667
G1 X385.765 Y71.491 Z-3.667
G1 X384.799 Y70.851 Z-3.667
G1 X383.829 Y70.220 Z-3.667
G1 X382.855 Y69.596 Z-3.667
G1 X381.877 Y68.980 Z-3.667
G1 X380.896 Y68.371 Z-3.667
G1 X379.910 Y67.771 Z-3.667
G1 X378.921 Y67.178 Z-3.667
G1 X377.928 Y66.593 Z-3.667
G1 X376.932 Y66.016 Z-3.667
G1 X375.933 Y65.447 Z-3.667
G1 X374.930 Y64.886 Z-3.667
G1 X373.924 Y64.333 Z-3.667
G1 X372.915 Y63.788 Z-3.667
G1 X371.903 Y63.251 Z-3.667
G1 X370.888 Y62.722 Z-3.667
G1 X369.870 Y62.201 Z-3.667
G1 X368.849 Y61.689 Z-3.667
G1 X367.826 Y61.184 Z-3.667
G1 X366.801 Y60.688 Z-3.667
G1 X365.773 Y60.199 Z-3.667
G1 X364.742 Y59.719 Z-3.667
G1 X363.710 Y59.247 Z-3.667
G1 X362.675 Y58.783 Z-3.667
G1 X361.638 Y58.328 Z-3.667
G1 X360.599 Y57.880 Z-3.667
G1 X359.559 Y57.441 Z-3.667
G1 X358.516 Y57.010 Z-3.667
G1 X357.472 Y56.587 Z-3.667
G1 X356.426 Y56.173 Z-3.667
G1 X355.379 Y55.766 Z-3.667
G1 X354.331 Y55.368 Z-3.667
G1 X353.281 Y54.978 Z-3.667
G1 X352.230 Y54.596 Z-3.667
G1 X351.177 Y54.222 Z-3.667
G1 X350.124 Y53.857 Z-3.667
G1 X349.070 Y53.500 Z-3.667
G1 X348.015 Y53.150 Z-3.667
G1 X346.959 Y52.809 Z-3.667
G1 X345.903 Y52.476 Z-3.667
G1 X344.846 Y52.152 Z-3.667
G1 X343.788 Y51.835 Z-3.667
G1 X342.730 Y51.527 Z-3.667
G1 X341.672 Y51.226 Z-3.667
G1 X340.613 Y50.934 Z-3.667
G1 X339.555 Y50.649 Z-3.667
G1 X338.496 Y50.373 Z-3.667
G1 X337.437 Y50.104 Z-3.667
G1 X336.379 Y49.844 Z-3.667
G1 X335.321 Y49.592 Z-3.667
G1 X334.262 Y49.347 Z-3.667
G1 X333.205 Y49.110 Z-3.667
G1 X332.147 Y48.882 Z-3.667
G1 X331.091 Y48.661 Z-3.667
G1 X330.034 Y48.447 Z-3.667
G1 X328.979 Y48.242 Z-3.667
G1 X327.924 Y48.044 Z-3.667
G1 X326.870 Y47.855 Z-3.667
G1 X325.817 Y47.672 Z-3.667
G1 X324.765 Y47.498 Z-3.667
G1 X323.715 Y47.331 Z-3.667
G1 X322.665 Y47.171 Z-3.667
G1 X321.616 Y47.020 Z-3.667
G1 X320.569 Y46.875 Z-3.667
G1 X319.523 Y46.738 Z-3.667
G1 X318.479 Y46.609 Z-3.667
G1 X317.436 Y46.487 Z-3.667
G1 X316.394 Y46.372 Z-3.667
G1 X315.355 Y46.265 Z-3.667
G1 X314.316 Y46.165 Z-3.667
G1 X313.280 Y46.072 Z-3.667
G1 X312.246 Y45.986 Z-3.667
G1 X311.213 Y45.907 Z-3.667
G1 X310.183 Y45.836 Z-3.667
G1 X309.154 Y45.771 Z-3.667
G1 X308.128 Y45.714 Z-3.667
G1 X307.104 Y45.663 Z-3.667
G1 X306.082 Y45.620 Z-3.667
G1 X305.062 Y45.583 Z-3.667
G1 X304.045 Y45.553 Z-3.667
G1 X303.030 Y45.530 Z-3.667
G1 X302.017 Y45.513 Z-3.667
G1 X301.007 Y45.503 Z-3.667
G1 X300.000 Y45.500 Z-3.667
G1 X298.993 Y45.503 Z-3.667
G1 X297.983 Y45.513 Z-3.667
G1 X296.970 Y45.530 Z-3.667
G1 X295.955 Y45.553 Z-3.667
G1 X294.938 Y45.583 Z-3.667
G1 X293.918 Y45.620 Z-3.667
G1 X292.896 Y45.663 Z-3.667
G1 X291.872 Y45.714 Z-3.667
G1 X290.846 Y45.771 Z-3.667
G1 X289.817 Y45.836 Z-3.667
G1 X288.787 Y45.907 Z-3.667
G1 X287.754 Y45.986 Z-3.667
G1 X286.720 Y46.072 Z-3.667
G1 X285.684 Y46.165 Z-3.667
G1 X284.645 Y46.265 Z-3.667
G1 X283.606 Y46.372 Z-3.667
G1 X282.564 Y46.487 Z-3.667
G1 X281.521 Y46.609 Z-3.667
G1 X280.477 Y46.738 Z-3.667
G1 X279.431 Y46.875 Z-3.667
G1 X278.384 Y47.020 Z-3.667
G1 X277.335 Y47.171 Z-3.667
G1 X276.285 Y47.331 Z-3.667
G1 X275.235 Y47.498 Z-3.667
G1 X274.183 Y47.672 Z-3.667
G1 X273.130 Y47.855 Z-3.667
G1 X272.076 Y48.044 Z-3.667
G1 X271.021 Y48.242 Z-3.667
G1 X269.966 Y48.447 Z-3.667
G1 X268.909 Y48.661 Z-3.667
G1 X267.853 Y48.882 Z-3.667
G1 X266.795 Y49.110 Z-3.667
G1 X265.738 Y49.347 Z-3.667
G1 X264.679 Y49.592 Z-3.667
G1 X263.621 Y49.844 Z-3.667
G1 X262.563 Y50.104 Z-3.667
G1 X261.504 Y50.373 Z-3.667
G1 X260.445 Y50.649 Z-3.667
G1 X259.387 Y50.934 Z-3.667
G1 X258.328 Y51.226 Z-3.667
G1 X257.270 Y51.527 Z-3.667
G1 X256.212 Y51.835 Z-3.667
G1 X255.154 Y52.152 Z-3.667
G1 X254.097 Y52.476 Z-3.667
G1 X253.041 Y52.809 Z-3.667
G1 X251.985 Y53.150 Z-3.667
G1 X250.930 Y53.500 Z-3.667
G1 X249.876 Y53.857 Z-3.667
G1 X248.823 Y54.222 Z-3.667
G1 X247.770 Y54.596 Z-3.667
G1 X246.719 Y54.978 Z-3.667
G1 X245.669 Y55.368 Z-3.667
G1 X244.621 Y55.766 Z-3.667
G1 X243.574 Y56.173 Z-3.667
G1 X242.528 Y56.587 Z-3.667
G1 X241.484 Y57.010 Z-3.667
G1 X240.441 Y57.441 Z-3.667
G1 X239.401 Y57.880 Z-3.667
G1 X238.362 Y58.328 Z-3.667
G1 X237.325 Y58.783 Z-3.667
G1 X236.290 Y59.247 Z-3.667
G1 X235.258 Y59.719 Z-3.667
G1 X234.227 Y60.199 Z-3.667
G1 X233.199 Y60.688 Z-3.667
G1 X232.174 Y61.184 Z-3.667
G1 X231.151 Y61.689 Z-3.667
G1 X230.130 Y62.201 Z-3.667
G1 X229.112 Y62.722 Z-3.667
G1 X228.097 Y63.251 Z-3.667
G1 X227.085 Y63.788 Z-3.667
G1 X226.076 Y64.333 Z-3.667
G1 X225.070 Y64.886 Z-3.667
G1 X224.067 Y65.447 Z-3.667
G1 X223.068 Y66.016 Z-3.667
G1 X222.072 Y66.593 Z-3.667
G1 X221.079 Y67.178 Z-3.667
G1 X220.090 Y67.771 Z-3.667
G1 X219.104 Y68.371 Z-3.667
G1 X218.123 Y68.980 Z-3.667
G1 X217.145 Y69.596 Z-3.667
G1 X216.171 Y70.220 Z-3.667
G1 X215.201 Y70.851 Z-3.667
G1 X214.235 Y71.491 Z-3.667
G1 X213.273 Y72.138 Z-3.667
G1 X212.316 Y72.793 Z-3.667
G1 X211.363 Y73.455 Z-3.667
G1 X210.414 Y74.125 Z-3.667
G1 X209.470 Y74.802 Z-3.667
G1 X208.531 Y75.486 Z-3.667
G1 X207.596 Y76.178 Z-3.667
G1 X206.666 Y76.878 Z-3.667
G1 X205.741 Y77.584 Z-3.667
G1 X204.822 Y78.298 Z-3.667
G1 X203.907 Y79.019 Z-3.667
G1 X202.997 Y79.748 Z-3.667
G1 X202.092 Y80.483 Z-3.667
G1 X201.193 Y81.225 Z-3.667
G1 X200.299 Y81.974 Z-3.667
G1 X199.411 Y82.730 Z-3.667
G1 X198.528 Y83.493 Z-3.667
G1 X197.651 Y84.263 Z-3.667
G1 X196.780 Y85.040 Z-3.667
G1 X195.914 Y85.823 Z-3.667
G1 X195.055 Y86.612 Z-3.667
G1 X194.201 Y87.409 Z-3.667
G1 X193.353 Y88.211 Z-3.667
G1 X192.511 Y89.020 Z-3.667
G1 X191.676 Y89.836 Z-3.667
G1 X190.847 Y90.657 Z-3.667
G1 X190.024 Y91.485 Z-3.667
G1 X189.207 Y92.319 Z-3.667
G1 X188.397 Y93.159 Z-3.667
G1 X187.593 Y94.005 Z-3.667
G1 X186.796 Y94.857 Z-3.667
G1 X186.006 Y95.714 Z-3.667
G1 X185.222 Y96.577 Z-3.667
G1 X184.445 Y97.446 Z-3.667
G1 X183.675 Y98.321 Z-3.667
G1 X182.911 Y99.201 Z-3.667
G1 X182.155 Y100.086 Z-3.667
G1 X181.406 Y100.977 Z-3.667
G1 X180.663 Y101.873 Z-3.667
G1 X179.928 Y102.774 Z-3.667
G1 X179.200 Y103.680 Z-3.667
G1 X178.479 Y104.591 Z-3.667
G1 X177.765 Y105.507 Z-3.667
G1 X177.059 Y106.428 Z-3.667
G1 X176.360 Y107.353 Z-3.667
G1 X175.669 Y108.283 Z-3.667
G1 X174.984 Y109.218 Z-3.667
G1 X174.308 Y110.157 Z-3.667
G1 X173.639 Y111.101 Z-3.667
G1 X172.977 Y112.049 Z-3.667
G1 X172.323 Y113.001 Z-3.667
G1 X171.677 Y113.957 Z-3.667
G1 X171.038 Y114.917 Z-3.667
G1 X170.407 Y115.881 Z-3.667
G1 X169.784 Y116.849 Z-3.667
G1 X169.169 Y117.821 Z-3.667
G1 X168.561 Y118.796 Z-3.667
G1 X167.962 Y119.775 Z-3.667
G1 X167.370 Y120.757 Z-3.667
G1 X166.786 Y121.743 Z-3.667
G1 X166.210 Y122.732 Z-3.667
G1 X165.642 Y123.724 Z-3.667
G1 X165.081 Y124.719 Z-3.667
G1 X164.529 Y125.717 Z-3.667
G1 X163.985 Y126.718 Z-3.667
G1 X163.449 Y127.722 Z-3.667
G1 X162.921 Y128.729 Z-3.667
G1 X162.401 Y129.738 Z-3.667
G1 X161.889 Y130.750 Z-3.667
G1 X161.385 Y131.764 Z-3.667
G1 X160.889 Y132.781 Z-3.667
G1 X160.401 Y133.800 Z-3.667
G1 X159.922 Y134.821 Z-3.667
G1 X159.450 Y135.844 Z-3.667
G1 X158.987 Y136.869 Z-3.667
G1 X158.532 Y137.896 Z-3.667
G1 X158.084 Y138.924 Z-3.667
G1 X157.645 Y139.955 Z-3.667
G1 X157.215 Y140.987 Z-3.667
G1 X156.792 Y142.020 Z-3.667
G1 X156.377 Y143.055 Z-3.667
G1 X155.971 Y144.091 Z-3.667
G1 X155.572 Y145.129 Z-3.667
G1 X155.182 Y146.167 Z-3.667
G1 X154.800 Y147.207 Z-3.667
G1 X154.426 Y148.247 Z-3.667
G1 X154.059 Y149.289 Z-3.667
G1 X153.701 Y150.331 Z-3.667
G1 X153.352 Y151.374 Z-3.667
G1 X153.010 Y152.418 Z-3.667
G1 X152.676 Y153.462 Z-3.667
G1 X152.350 Y154.506 Z-3.667
G1 X152.032 Y155.551 Z-3.667
G1 X151.722 Y156.596 Z-3.667
G1 X151.420 Y157.642 Z-3.667
